GerardoFJ/TE3001B_TEAM_3/src/s0s1_gazebo/scripts/results/PID5/state.csv
t,phase,shoulder_pan_actual_deg,shoulder_pan_desired_deg,shoulder_pan_error_deg,shoulder_lift_actual_deg,shoulder_lift_desired_deg,shoulder_lift_error_deg,elbow_flex_actual_deg,elbow_flex_desired_deg,elbow_flex_error_deg,wrist_flex_actual_deg,wrist_flex_desired_deg,wrist_flex_error_deg,wrist_roll_actual_deg,wrist_roll_desired_deg,wrist_roll_error_deg
0.002,move_to_zero,-4.376474382407018,-4.4003158666,0.02384148419298171,-92.21682027023317,-92.2462050161,0.02938474586683526,89.9402674989065,89.9543738355,-0.014106336593499691,55.09939055982472,55.1185398916,-0.019149331775281553,0.0017248340730163765,0.0,0.0017248340730163765
0.004,move_to_zero,-4.334757014731696,-4.3959155507334,0.06115853600170418,-92.15041686858393,-92.15395881108391,0.0035419424999787452,89.90763585986889,89.86441946166448,0.04321639820440737,55.05941336887215,55.0634213517084,-0.004007982836249369,0.004310509509170079,0.0,0.004310509509170079
0.006,move_to_zero,-4.280721093652211,-4.3915152348668,0.11079414121458875,-92.0531299242657,-92.0617126060678,0.008582681802096204,89.8581574170187,89.77446508782899,0.08369232918971647,55.000790833444576,55.008302811816804,-0.0075119783722286115,0.007053084121427921,0.0,0.007053084121427921
0.008,move_to_zero,-4.218443635536217,-4.3871149190002,0.16867128346398275,-91.93026722242172,-91.9694664010517,0.039199178629985454,89.79337862622421,89.68451071399349,0.10886791223072123,54.92551840313828,54.953184271925196,-0.02766586878691868,0.009478516273989815,0.0,0.009478516273989815
0.01,move_to_zero,-4.150887142874477,-4.382714603133599,0.23182746025912238,-91.78640101976887,-91.8772201960356,0.09081917626672009,89.71473143056868,89.594556340158,0.12017509041068308,54.83543641426676,54.8980657320336,-0.06262931776684155,0.011444862699563602,0.0,0.011444862699563602
0.012,move_to_zero,-4.080212547912142,-4.378314287266999,0.2981017393548573,-91.62543227766459,-91.7849739910195,0.15954171335491196,89.62354144506308,89.50460196632248,0.11893947874060018,54.73224000264541,54.842947192142,-0.11070718949658698,0.01301849786011078,0.0,0.01301849786011078
0.014,move_to_zero,-4.007966043203704,-4.373913971400399,0.36594792819669486,-91.45069740098471,-91.69272778600339,0.2420303850186798,89.5210517023208,89.41464759248699,0.10640410983381798,54.61745938058354,54.787828652250404,-0.1703692716668641,0.014258375771381105,0.0,0.014258375771381105
0.016,move_to_zero,-3.9352727579591864,-4.369513655533799,0.4342408975746128,-91.26501961590876,-91.6004815809873,0.33546196507855086,89.40839904268205,89.32469321865149,0.08370582403055948,54.49250104557426,54.7327101123588,-0.24020906678454423,0.01521550756500472,0.0,0.01521550756500472
0.018000000000000002,move_to_zero,-3.8629080275267844,-4.3651133396672,0.5022053121404157,-91.07081697842354,-91.5082353759712,0.43741839754765977,89.28664865183192,89.234738844816,0.05190980701593162,54.35863414819194,54.6775915724672,-0.3189574242752613,0.01593458081600705,0.0,0.01593458081600705
0.020000000000000004,move_to_zero,-3.7914377873678196,-4.3607130238006,0.5692752364327807,-90.87016174151502,-91.4159891709551,0.5458274294400809,89.15681623957325,89.1447844709805,0.012031768592748904,54.217033756810494,54.6224730325756,-0.4054392757651044,0.016350844498776877,0.0,0.016350844498776877
0.022000000000000006,move_to_zero,-3.7212706436499916,-4.356312707934,0.6350420642840087,-90.66480664530707,-91.323742965939,0.6589363206319376,89.01982525365854,89.05483009714499,-0.03500484348644761,54.06873958601447,54.567354492684,-0.49861490666952335,0.016467187787949596,0.0,0.016467187787949596
0.024000000000000007,move_to_zero,-3.65265974839797,-4.351912392067399,0.6992526436694293,-90.4562557512111,-91.2314967609229,0.7752410097117917,88.8765407002507,88.96487572330949,-0.08833502305878937,53.914716134034684,54.5122359527924,-0.5975198187577178,0.016299421739945263,0.0,0.016299421739945263
0.02600000000000001,move_to_zero,-3.5857863294145895,-4.3475120762007995,0.76172574678621,-90.24573889856413,-91.1392505559068,0.8935116573426711,88.7277840692063,88.874921349474,-0.14713728026769957,53.75582278127077,54.4571174129008,-0.7012946316300273,0.01592297462147524,0.0,0.01592297462147524
0.02800000000000001,move_to_zero,-3.520737618835317,-4.3431117603341995,0.8223741414988823,-90.03431116387647,-91.0470043508907,1.0126931870142357,88.57430700898539,88.78496697563848,-0.21065996665309683,53.59285183634581,54.401998873009205,-0.809147036663397,0.015420774819081343,0.0,0.015420774819081343
0.030000000000000013,move_to_zero,-3.45759446969183,-4.3387114444676,0.8811169747757694,-89.82284631304368,-90.9547581458746,1.131911832830923,88.41680426933081,88.695012601803,-0.27820833247218957,53.42653416704229,54.3468803331176,-0.920346166075312,0.014877205442133412,0.0,0.014877205442133412
0.032000000000000015,move_to_zero,-3.396368820721179,-4.334311128601,0.9379423078798208,-89.61207397406469,-90.8625119408585,1.250437966793811,88.25594000138626,88.60505822796749,-0.3491182265812256,53.257512971551066,54.291761793225994,-1.0342488216749288,0.014352828899246986,0.0,0.014352828899246986
0.034000000000000016,move_to_zero,-3.337054001992106,-4.3299108127344,0.9928568107422939,-89.40261045041139,-90.7702657358424,1.3676552854310131,88.09229099061886,88.51510385413198,-0.42281286351311564,53.08636889886155,54.2366432533344,-1.1502743544728489,0.013861956012418745,0.0,0.013861956012418745
0.03600000000000002,move_to_zero,-3.2795982715282332,-4.3255104968678,1.0459122253395665,-89.1949468269484,-90.67801953082629,1.4830727038778946,87.92640687820497,88.4251494802965,-0.4987426020915251,52.91363304802218,54.1815247134428,-1.2678916654206205,0.013425659383602696,0.0,0.013425659383602696
0.03800000000000002,move_to_zero,-3.223981006855759,-4.3211101810012,1.097129174145441,-88.98945651092139,-90.5857733258102,1.5963168148888087,87.75880838320089,88.33519510646099,-0.5763867232601001,52.73976452542073,54.1264061735512,-1.386641648130471,0.013034310211239675,0.0,0.013034310211239675
0.04000000000000002,move_to_zero,-3.1701805979131974,-4.316709865134599,1.1465292672214016,-88.78644050172966,-90.4935271207941,1.707086619064441,87.58995596702562,88.24524073262549,-0.6552847655998733,52.56520903676062,54.0712876336596,-1.5060785968989805,0.012680149116994268,0.0,0.012680149116994268
0.04200000000000002,move_to_zero,-3.118156150669972,-4.312309549267999,1.194153398598027,-88.58613584515392,-90.401280915778,1.8151450706240837,87.42026021766651,88.15528635879,-0.735026141123484,52.390336474053335,54.016169093768006,-1.6258326197146715,0.012356831771082918,0.0,0.012356831771082918
0.044000000000000025,move_to_zero,-3.067839579126723,-4.307909233401399,1.2400696542746763,-88.38874784405328,-90.3090347107619,1.9202868667086221,87.25013310894731,88.06533198495448,-0.8151988760071731,52.2154816738799,53.9610505538764,-1.7455688799964975,0.012059593660375519,0.0,0.012059593660375519
0.04600000000000003,move_to_zero,-3.01919903685079,-4.3035089175348,1.28430988068401,-88.1943849691243,-90.2167885057458,2.0224035366214963,87.07995522483034,87.97537761111899,-0.8954223862886437,52.04095485357521,53.905932013984796,-1.8649771604095875,0.01178267816840669,0.0,0.01178267816840669
0.04800000000000003,move_to_zero,-2.9721863843339427,-4.2991086016682,1.3269222173342574,-88.00311775177836,-90.1245423007297,2.121424548951339,86.91004787165686,87.88542323728349,-0.9753753656266326,51.86703517051847,53.8508134740932,-1.9837783035747307,0.01152047980568812,0.0,0.01152047980568812
0.05000000000000003,move_to_zero,-2.926754805157717,-4.2947082858016,1.3679534806438833,-87.8149831121462,-90.03229609571359,2.217312983567396,86.74070615916294,87.795468863448,-1.0547627042850536,51.693986254099265,53.7956949342016,-2.101708680102334,0.011269655693839984,0.0,0.011269655693839984
0.05200000000000003,move_to_zero,-2.8828409973805993,-4.290307969935,1.407466972554401,-87.6300175460562,-89.9400498906975,2.3100323446413,86.57220127602339,87.70551448961248,-1.1333132135890907,51.522022211208494,53.740576394310004,-2.21855418310151,0.011026935364934886,0.0,0.011026935364934886
0.054000000000000034,move_to_zero,-2.840391173597939,-4.285907654068399,1.4455164804704603,-87.44819785273796,-89.8478036856814,2.399605832943436,86.40476629455293,87.61556011577699,-1.2107938212240583,51.35132168901487,53.6854578544184,-2.3341361654035353,0.010790629321977411,0.0,0.010790629321977411
0.056000000000000036,move_to_zero,-2.799361174373177,-4.281507338201799,1.4821461638286224,-87.26951154628452,-89.7555574806653,2.4860459343807833,86.23861206368184,87.52560574194149,-1.2869936782596483,51.18203164151129,53.6303393145268,-2.4483076730155133,0.010559931441762732,0.0,0.010559931441762732
0.05800000000000004,move_to_zero,-2.7596830306320506,-4.2771070223351995,1.517423991703149,-87.09393757847556,-89.66331127564919,2.5693736971736314,86.07393840669747,87.43565136810598,-1.3617129614085144,51.01429815624141,53.5752207746352,-2.560922618393789,0.010332755905463533,0.0,0.010332755905463533
0.06000000000000004,move_to_zero,-2.721312914733001,-4.2727067064685995,1.5513937917355984,-86.9214075408835,-89.5710650706331,2.6496575297496037,85.91090635139528,87.3456969942705,-1.434790642875214,50.8482608264975,53.5201022347436,-2.6718414082460953,0.010107581562544463,0.0,0.010107581562544463
0.06200000000000004,move_to_zero,-2.684195979566757,-4.268306390602,1.5841104110352426,-86.75185561357733,-89.478818865617,2.726963252039667,85.7496598917506,87.25574262043499,-1.5060827286843903,50.68403369845544,53.464983694852,-2.780949996396565,0.009883272090352647,0.0,0.009883272090352647
0.06400000000000004,move_to_zero,-2.6482633615082105,-4.2639060747354,1.615642713227189,-86.58521119777983,-89.38657266060089,2.8013614628210632,85.59032110131216,87.16578824659948,-1.5754671452873197,50.521695965363286,53.4098651549604,-2.8881691895971144,0.009660363679205445,0.0,0.009660363679205445
0.06600000000000004,move_to_zero,-2.6134656970509056,-4.2595057588688,1.646040061817894,-86.42139703564627,-89.29432645558481,2.8729294199385436,85.43300846668919,87.075833872764,-1.642825406074806,50.36134614451132,53.354746615068805,-2.993400470557482,0.009439195801856473,0.0,0.009439195801856473
0.06800000000000005,move_to_zero,-2.5797326187749836,-4.2551054430022,1.6753728242272161,-86.26035688883101,-89.2020802505687,2.9417233617376866,85.27782492115189,86.98587949892848,-1.7080545777765934,50.20306263582309,53.299628075177196,-3.0965654393541087,0.009219924210393948,0.0,0.009219924210393948
0.07000000000000005,move_to_zero,-2.5470038059713844,-4.250705127135599,1.7037013211642145,-86.1020225266863,-89.1098340455526,3.007811518866305,85.12482313924576,86.89592512509299,-1.7711019858472241,50.04691699634254,53.2445095352856,-3.197592538943063,0.008999499742404679,0.0,0.008999499742404679
0.07200000000000005,move_to_zero,-2.51523544123402,-4.246304811268999,1.7310693700349788,-85.94632693081272,-89.01758784053649,3.071260909723776,84.97403814119832,86.80597075125749,-1.8319326100591695,49.89295935196156,53.189390995394,-3.2964316434324417,0.008770570741699376,0.0,0.008770570741699376
0.07400000000000005,move_to_zero,-2.4843980559866856,-4.241904495402399,1.7575064394157134,-85.79318703917126,-88.9253416355204,3.132154596349139,84.82550005547878,86.71601637742198,-1.8905163219431955,49.741221262085844,53.1342724555024,-3.3930511934165537,0.008513578423936928,0.0,0.008513578423936928
0.07600000000000005,move_to_zero,-2.4544544773224253,-4.2375041795358,1.7830497022133747,-85.64250798670409,-88.83309543050429,3.1905874438001973,84.67925137482149,86.62606200358648,-1.9468106287649931,49.59171065313632,53.0791539156108,-3.4874432624744856,0.008224434491021816,0.0,0.008224434491021816
0.07800000000000006,move_to_zero,-2.425388949368549,-4.2331038636692,1.807714914300651,-85.49419114848297,-88.74084922548819,3.246658077005222,84.53530533820067,86.53610762975099,-2.0008022915503147,49.44445001586936,53.0240353757192,-3.579585359849844,0.007920414526461162,0.0,0.007920414526461162
0.08000000000000006,move_to_zero,-2.397188440793251,-4.2287035478026,1.831515107009349,-85.3481305077873,-88.6486030204721,3.3004725126847916,84.39367331921673,86.44615325591549,-2.0524799366987594,49.29944689325533,52.9689168358276,-3.6694699425722703,0.007587124304084971,0.0,0.007587124304084971
0.08200000000000006,move_to_zero,-2.3698041843006687,-4.224303231936,1.8544990476353314,-85.2042382064159,-88.556356815456,3.3521186090401045,84.25435995082857,86.35619888207998,-2.1018389312514074,49.156697935792714,52.913798295936,-3.7571003601432835,0.007259808358196096,0.0,0.007259808358196096
0.08400000000000006,move_to_zero,-2.343235218639552,-4.219902916069399,1.876667697429847,-85.06243367465038,-88.4641106104399,3.4016769357895242,84.11733745266832,86.26624450824448,-2.14890705557616,49.01615104399485,52.858679756044396,-3.8425287120495426,0.006934536195451065,0.0,0.006934536195451065
0.08600000000000006,move_to_zero,-2.317440227205028,-4.215502600202799,1.8980623729977713,-84.92264672731423,-88.37186440542379,3.4492176781095623,83.98258094473633,86.17629013440899,-2.19370918967266,48.87781940560042,52.8035612161528,-3.925741810552381,0.006619237312828934,0.0,0.006619237312828934
0.08800000000000006,move_to_zero,-2.2923833513749767,-4.211102284336199,1.9187189329612226,-84.78479064765037,-88.2796182004077,3.4948275527573287,83.85007982117328,86.08633576057349,-2.236255939400209,48.741697788592084,52.7484426762612,-4.0067448876691145,0.006318635929638509,0.0,0.006318635929638509
0.09000000000000007,move_to_zero,-2.2680235407553337,-4.206701968469599,1.9386784277142657,-84.64879163409047,-88.18737199539159,3.538580361301115,83.71982117209335,85.996381386738,-2.276560214644647,48.60774773514043,52.693324136369604,-4.085576401229176,0.0060282955486471645,0.0,0.0060282955486471645
0.09200000000000007,move_to_zero,-2.24435061051666,-4.2023016526029995,1.9579510420863393,-84.5145427527398,-88.0951257903755,3.580583037635705,83.59178539087983,85.90642701290248,-2.3146416220226484,48.475940069868805,52.638205596477995,-4.16226552660919,0.0057519990872740515,0.0,0.0057519990872740515
0.09400000000000007,move_to_zero,-2.221368510268057,-4.1979013367363995,1.9765328264683424,-84.38196445576492,-88.0028795853594,3.6209151295944793,83.46592774334037,85.81647263906699,-2.350544895726614,48.34625286745128,52.5830870565864,-4.2368341891351236,0.005473288419703819,0.0,0.005473288419703819
0.09600000000000007,move_to_zero,-2.1990380695981506,-4.1935010208698,1.994462951271649,-84.25096740310241,-87.9106333803433,3.6596659772408913,83.34220282689945,85.72651826523149,-2.384315438332038,48.21865850979382,52.5279685166948,-4.309310006900979,0.005206688995273491,0.0,0.005206688995273491
0.09800000000000007,move_to_zero,-2.1773277422121193,-4.1891007050032,2.0117729627910803,-84.1215128717855,-87.81838717532719,3.6968743035416907,83.22057843923719,85.63656389139598,-2.415985452158793,48.093140960737166,52.4728499768032,-4.37970901606603,0.004950788728548598,0.0,0.004950788728548598
0.10000000000000007,move_to_zero,-2.156201669787751,-4.184700389136599,2.028498719348848,-83.9935275905299,-87.72614097031109,3.732613379781199,83.10099241696679,85.5466095175605,-2.445617100593708,47.96966293070899,52.4177314369116,-4.44806850620261,0.004702978295662927,0.0,0.004702978295662927
0.10200000000000008,move_to_zero,-2.1356220733673936,-4.180300073269999,2.0446779999026052,-83.86694546174674,-87.633894765295,3.766949303548259,82.98337640943932,85.45665514372499,-2.473278734285671,47.8481789817292,52.36261289702,-4.514433915290802,0.004463505119662154,0.0,0.004463505119662154
0.10400000000000008,move_to_zero,-2.1155634967485346,-4.1758997574034,2.060336260654865,-83.74170711114058,-87.5416485602789,3.7999414491383163,82.86765328457683,85.36670076988948,-2.4990474853126443,47.72865178458998,52.3074943571284,-4.57884257253842,0.004231292005731946,0.0,0.004231292005731946
0.10600000000000008,move_to_zero,-2.0960067351853446,-4.1714994415368,2.075492706351455,-83.61775428847588,-87.4494023552628,3.8316480667869257,82.75376144280509,85.276746396054,-2.5229849532489084,47.61101796434774,52.252375817236796,-4.641357852889058,0.004003656533925285,0.0,0.004003656533925285
0.10800000000000008,move_to_zero,-2.0769171865342417,-4.1670991256702,2.090181939135958,-83.4950404694191,-87.3571561502467,3.8621156808276,82.64164088566957,85.18679202221848,-2.5451511365489097,47.49526240850553,52.1972572773452,-4.7019948688396696,0.003778313853925475,0.0,0.003778313853925475
0.11000000000000008,move_to_zero,-2.0582754371923397,-4.1626988098036,2.1044233726112602,-83.37350657105348,-87.2649099452306,3.8914033741771163,82.53121007245632,85.09683764838299,-2.565627575926669,47.381350769123834,52.1421387374536,-4.760787968329765,0.0035570636279624057,0.0,0.0035570636279624057
0.11200000000000009,move_to_zero,-2.040068762909128,-4.158298493937,2.118229731027872,-83.25311256237728,-87.17266374021449,3.9195511778372065,82.42240678781695,85.00688327454749,-2.584476486730537,47.269220093231894,52.087020197562,-4.817800104330104,0.003336379704030879,0.0,0.003336379704030879
0.11400000000000009,move_to_zero,-2.0222936338528776,-4.153898178070399,2.1316045442175215,-83.13378954184358,-87.0804175351984,3.9466279933548094,82.31517894294394,84.91692890071198,-2.6017499577680354,47.15882998764333,52.031901657670396,-4.873071670027066,0.003116082682046297,0.0,0.003116082682046297
0.11600000000000009,move_to_zero,-2.0049330434225623,-4.149497862203799,2.144564818781237,-83.01549519107473,-86.9881713301823,3.9726761391075627,82.20943855405031,84.82697452687648,-2.6175359728261753,47.0501388687901,51.976783117778794,-4.926644248988694,0.0028974616312018096,0.0,0.0028974616312018096
0.11800000000000009,move_to_zero,-1.987981238441736,-4.145097546337199,2.157116307895463,-82.89819328796042,-86.8959251251662,3.9977318372057766,82.10510998817918,84.73702015304099,-2.6319101648618073,46.94310741588408,51.9216645778872,-4.978557162003121,0.0026788661858911838,0.0,0.0026788661858911838
0.12000000000000009,move_to_zero,-1.9714123454316452,-4.140697230470599,2.1692848850389543,-82.78184050962864,-86.80367892015009,4.021838410521454,82.00212369616247,84.64706577920549,-2.64494208304302,46.83769345502008,51.8665460379956,-5.028852582975517,0.002459196026821095,0.0,0.002459196026821095
0.1220000000000001,move_to_zero,-1.9551818372583394,-4.136296914603999,2.18111507734566,-82.66638214034421,-86.711432715134,4.045050574789784,81.90041255490121,84.55711140536998,-2.6566988504687714,46.73382532104916,51.811427498104,-5.0776021770548425,0.0022358723393083777,0.0,0.0022358723393083777
0.1240000000000001,move_to_zero,-1.939301303617408,-4.1318965987373995,2.1925952951199914,-82.55176512252851,-86.6191865101179,4.067421387589391,81.79991656516621,84.46715703153448,-2.66724046636827,46.6314570271453,51.7563089582124,-5.124851931067099,0.0019744795617336734,0.0,0.0019744795617336734
0.12600000000000008,move_to_zero,-1.9237649260935372,-4.1274962828707995,2.2037313567772623,-82.43794554478899,-86.52694030510179,4.088994760312801,81.7005953175552,84.37720265769899,-2.6766073401437893,46.53054728617821,51.70119041832079,-5.17064313214258,0.001672219941673856,0.0,0.001672219941673856
0.12800000000000009,move_to_zero,-1.908556239341239,-4.1230959670042,2.2145397276629604,-82.32489054180894,-86.4346941000857,4.109803558276752,81.60236524530106,84.28724828386348,-2.6848830385624183,46.43105642590317,51.6460718784292,-5.215015452526025,0.0013272579267694094,0.0,0.0013272579267694094
0.1300000000000001,move_to_zero,-1.893644346373261,-4.118695651137599,2.225051304764338,-82.21255137603174,-86.3424478950696,4.129896519037857,81.50515249296177,84.197293910028,-2.6921414170662246,46.33294949645671,51.590953338537595,-5.258003842080882,0.0009603262291556051,0.0,0.0009603262291556051
0.1320000000000001,move_to_zero,-1.8790242240548998,-4.114295335270999,2.235271111216099,-82.10091720546316,-86.2502016900535,4.149284484590339,81.40887579928203,84.10733953619248,-2.6984637369104547,46.23619664044368,51.535834798646,-5.29963815820232,0.0005872717855777027,0.0,0.0005872717855777027
0.1340000000000001,move_to_zero,-1.8646703662983768,-4.1098950194044,2.245224653106023,-81.98998199769966,-86.15795548503739,4.167973487337733,81.31346627217009,84.01738516235697,-2.703918890186884,46.140756855796525,51.4807162587544,-5.339959402957874,0.0002285985867468918,0.0,0.0002285985867468918
0.1360000000000001,move_to_zero,-1.8505617162921235,-4.1054947035378,2.2549329872456765,-81.8797081495764,-86.0657092800213,4.186001130444893,81.2188507187498,83.92743078852149,-2.708580069771685,46.04657219523025,51.425597718862804,-5.379025523632556,-0.00010240727611714549,0.0,-0.00010240727611714549
0.1380000000000001,move_to_zero,-1.8367223906926626,-4.1010943876712,2.264371996978537,-81.77004722686323,-85.97346307500518,4.203415848141958,81.12497860478739,83.83747641468598,-2.7124978098985935,45.953619428773116,51.370479178971195,-5.416859750198078,-0.0004116704312853723,0.0,-0.0004116704312853723
0.1400000000000001,move_to_zero,-1.823155805424392,-4.0966940718046,2.273538266380208,-81.66093789041706,-85.88121686998909,4.220278979572029,81.03178985067989,83.74752204085048,-2.7157321901705984,45.86187782146037,51.31536063907959,-5.453482817619225,-0.0007115530368380727,0.0,-0.0007115530368380727
0.1420000000000001,move_to_zero,-1.809869243850746,-4.092293755938,2.282424512087254,-81.55236878650695,-85.788970664973,4.236601878466047,80.93924717457067,83.65756766701499,-2.7183204924443203,45.77128189715538,51.260242099188,-5.488960202032615,-0.0009951755461485015,0.0,-0.0009951755461485015
0.1440000000000001,move_to_zero,-1.7968560890124663,-4.087893440071399,2.291037351058933,-81.44432821545125,-85.6967244599569,4.252396244505647,80.84729445930994,83.56761329317948,-2.720318833869541,45.68178912778663,51.205123559296396,-5.523334431509767,-0.0012676589576415581,0.0,-0.0012676589576415581
0.1460000000000001,move_to_zero,-1.7840983431742508,-4.083493124204799,2.299394781030548,-81.33681046524926,-85.6044782549408,4.267667789691544,80.75586800450856,83.47765891934398,-2.721790914835424,45.593358790162675,51.1500050194048,-5.556646229242126,-0.0015294163761629992,0.0,-0.0015294163761629992
0.1480000000000001,move_to_zero,-1.7715762654365936,-4.079092808338199,2.3075165429016056,-81.22980336532702,-85.51223204992469,4.282428684597676,80.66491003163237,83.38770454550848,-2.72279451387611,45.50596417290539,51.0948864795132,-5.588922306607813,-0.001786418899901902,0.0,-0.001786418899901902
0.1500000000000001,move_to_zero,-1.7592845426432948,-4.074692492471599,2.3154079498283044,-81.12327958394005,-85.4199858449086,4.2967062609685485,80.5743754051472,83.29775017167299,-2.7233747665257937,45.41955256472469,51.0397679396216,-5.620215374896908,-0.002036607831715436,0.0,-0.002036607831715436
0.1520000000000001,move_to_zero,-1.747197502984928,-4.070292176604999,2.323094673620071,-81.01721958405493,-85.32773963989249,4.310520055837557,80.48421023772316,83.20779579783748,-2.7235855601143157,45.334084521942636,50.984649399729996,-5.65056487778736,-0.0022843704186477527,0.0,-0.0022843704186477527
0.1540000000000001,move_to_zero,-1.7353162660070742,-4.065891860738399,2.330575594731325,-80.9116043406786,-85.23549343487639,4.323889094197796,80.39435516061346,83.11784142400198,-2.723486263388523,45.24953357376447,50.929530859838394,-5.679997286073927,-0.002552363698307996,0.0,-0.002552363698307996
0.1560000000000001,move_to_zero,-1.7236275620659773,-4.061491544871799,2.337863982805822,-80.80639916814756,-85.1432472298603,4.336848061712729,80.30475751880834,83.02788705016648,-2.72312953135814,45.165846039444226,50.8744123199468,-5.708566280502573,-0.002847341588900364,0.0,-0.002847341588900364
0.1580000000000001,move_to_zero,-1.7121138047445912,-4.0570912290051995,2.344977424260608,-80.70160234096375,-85.0510010248442,4.349398683880452,80.21537889510302,82.93793267633099,-2.7225537812279725,45.08299642133133,50.8192937800552,-5.736297358723867,-0.003170093808402965,0.0,-0.003170093808402965
0.16000000000000011,move_to_zero,-1.700779857690829,-4.052690913138599,2.3519110554477693,-80.59721544274845,-84.95875481982809,4.361539377079637,80.12616851835827,82.84797830249549,-2.7218097841372213,45.00097940878113,50.7641752401636,-5.763195831382475,-0.003510439023985025,0.0,-0.003510439023985025
0.16200000000000012,move_to_zero,-1.6896141008187215,-4.048290597272,2.358676496453278,-80.4932200999141,-84.86650861481199,4.373288514897894,80.03710135137243,82.75802392865998,-2.7209225772875527,44.919785804813706,50.709056700271994,-5.789270895458287,-0.0038702579017316,0.0,-0.0038702579017316
0.16400000000000012,move_to_zero,-1.6786204670511795,-4.0438902814054,2.36526981435422,-80.38962092450201,-84.7742624097959,4.3846414852938835,79.94816512444974,82.66806955482448,-2.71990443037474,44.83938791178977,50.6539381603804,-5.814550248590628,-0.004246753929402613,0.0,-0.004246753929402613
0.16600000000000012,move_to_zero,-1.6677907846913431,-4.0394899655388,2.3716991808474566,-80.286376583006,-84.68201620477979,4.395639621773782,79.8593004748253,82.57811518098899,-2.718814706163684,44.759756025074026,50.5988196204888,-5.839063595414771,-0.004637358860954902,0.0,-0.004637358860954902
0.16800000000000012,move_to_zero,-1.6571277456727378,-4.0350896496722,2.377961903999462,-80.18347634197725,-84.5897699997637,4.406293657786449,79.77047280149134,82.48816080715348,-2.71768800566214,44.68083755989873,50.543701080597195,-5.862863520698468,-0.004999982564132889,0.0,-0.004999982564132889
0.17000000000000012,move_to_zero,-1.6466220887058598,-4.0306893338056,2.38406724509974,-80.08091794965026,-84.4975237947476,4.416605845097337,79.68164544757916,82.398206433318,-2.7165609857388375,44.60259255080944,50.4885825407056,-5.88598998989616,-0.005334478513551089,0.0,-0.005334478513551089
0.17200000000000013,move_to_zero,-1.6362613115031952,-4.026289017939,2.390027706435805,-79.97870368446245,-84.4052775897315,4.426573905269052,79.59280749804489,82.30825205948248,-2.715444561437593,44.5249868532953,50.433464000814,-5.9084771475186955,-0.00564410499514117,0.0,-0.00564410499514117
0.17400000000000013,move_to_zero,-1.6260357433727537,-4.021888702072399,2.3958529586996455,-79.87682840535568,-84.31303138471539,4.436202979359706,79.50394870946198,82.21829768564697,-2.7143489761849935,44.44797910667907,50.3783454609224,-5.930366354243326,-0.005934936419305742,0.0,-0.005934936419305742
0.17600000000000013,move_to_zero,-1.6159499899091216,-4.017488386205799,2.4015383962966776,-79.77526666111496,-84.22078517969929,4.445518518584336,79.41505672829398,82.12834331181149,-2.7132865835175153,44.371543013154174,50.323226921030795,-5.951683907876621,-0.006211116912278716,0.0,-0.006211116912278716
0.17800000000000013,move_to_zero,-1.606004569233052,-4.013088070339199,2.407083501106147,-79.67400743675478,-84.12853897468318,4.454531537928403,79.32611573888907,82.03838893797598,-2.7122731990869084,44.29565361030614,50.2681083811392,-5.97245477083306,-0.00647581562801571,0.0,-0.00647581562801571
0.18000000000000013,move_to_zero,-1.5961841679051971,-4.008687754472599,2.412503586567402,-79.57305578667145,-84.0362927696671,4.463236982995653,79.23711213471222,81.94843456414048,-2.7113224294282645,44.22027914894238,50.2129898412476,-5.9927106923052165,-0.00675775378704058,0.0,-0.00675775378704058
0.18200000000000013,move_to_zero,-1.5864755006668259,-4.004287438605999,2.4178119379391734,-79.47239758178685,-83.944046564651,4.471648982864153,79.1480345323512,81.85848019030499,-2.710445657953784,44.14538776412517,50.157871301355996,-6.012483537230828,-0.007065180431779033,0.0,-0.007065180431779033
0.18400000000000014,move_to_zero,-1.576877960509609,-3.9998871227393993,2.42300916222979,-79.37201545667772,-83.8518003596349,4.479784902957178,79.05886213242054,81.76852581646948,-2.709663684048934,44.07095920586534,50.1027527614644,-6.031793555599059,-0.007382469075405131,0.0,-0.007382469075405131
0.18600000000000014,move_to_zero,-1.5673884594814178,-3.995486806872799,2.428098347391381,-79.27188673284235,-83.7595541546188,4.48766742177645,78.9695699173306,81.67857144263398,-2.7090015253033783,43.99697739911655,50.04763422157279,-6.05065682245624,-0.007696305194746625,0.0,-0.007696305194746625
0.18800000000000014,move_to_zero,-1.5579921613946186,-3.991086491006199,2.4330943296115803,-79.17201041042472,-83.66730794960269,4.495297539177969,78.88015436624858,81.58861706879848,-2.708462702549909,43.9234282170694,49.9925156816812,-6.069087464611798,-0.00799537941164423,0.0,-0.00799537941164423
0.19000000000000014,move_to_zero,-1.548704448073199,-3.986686175139599,2.4379817270663997,-79.07236897833293,-83.57506174458659,4.502692766253659,78.79062870730733,81.49866269496299,-2.7080339876556536,43.850301515280755,49.937397141789596,-6.087095626508841,-0.008279152688322737,0.0,-0.008279152688322737
0.19200000000000014,move_to_zero,-1.5395006306687784,-3.9822858592729995,2.442785228604221,-78.97295232472764,-83.48281553957048,4.509863214842838,78.70096044801998,81.40870832112748,-2.7077478731074933,43.77758068548399,49.882278601897994,-6.104697916414004,-0.008572537962646532,0.0,-0.008572537962646532
0.19400000000000014,move_to_zero,-1.530384584229086,-3.9778855434063995,2.4475009591773134,-78.87373316678651,-83.3905693345544,4.516836167767892,78.61114609121212,81.31875394729198,-2.7076078560798607,43.70524538553495,49.8271600620064,-6.121914676471448,-0.008850967500467386,0.0,-0.008850967500467386
0.19600000000000015,move_to_zero,-1.5213508120942023,-3.9734852275397996,2.452134415445597,-78.77470848113363,-83.29832312953829,4.52361464840466,78.5211744793073,81.22879957345648,-2.7076250941491793,43.6332628193393,49.7720415221148,-6.138778702775497,-0.009116905183360878,0.0,-0.009116905183360878
0.19800000000000015,move_to_zero,-1.512391667673395,-3.9690849116731997,2.456693243999805,-78.6758580301095,-83.2060769245222,4.530218894412698,78.43104004266445,81.13884519962097,-2.7078051569565247,43.56161135350471,49.716922982223196,-6.155311628718486,-0.009371980310724767,0.0,-0.009371980310724767
0.20000000000000015,move_to_zero,-1.5034875432434993,-3.9646845958065993,2.4611970525631,-78.57717357058112,-83.1138307195061,4.536657148924974,78.34074443736793,81.04889082578549,-2.7081463884175605,43.49027669157854,49.661804442331594,-6.17152775075305,-0.009620319151028367,0.0,-0.009620319151028367
0.20200000000000015,move_to_zero,-1.49463104357353,-3.9602842799399993,2.465653236366469,-78.47865407944694,-83.02158451448999,4.542930435043047,78.25029963683662,80.95893645194998,-2.7086368151133655,43.419213403655064,49.60668590244,-6.187472498784935,-0.009868203115060838,0.0,-0.009868203115060838
0.20400000000000015,move_to_zero,-1.485836878907711,-3.9558839640733994,2.4700470851656884,-78.38032961060208,-82.92933830947389,4.549008698871816,78.15970881632799,80.86898207811447,-2.7092732617864783,43.34842070451842,49.5515673625484,-6.203146658029979,-0.010112879477585985,0.0,-0.010112879477585985
0.20600000000000016,move_to_zero,-1.4771030899426376,-3.9514836482067994,2.474380558264162,-78.28217806315645,-82.8370921044578,4.554914041301345,78.06894228809215,80.77902770427899,-2.7100854161868426,43.277882431400826,49.496448822656795,-6.218566391255969,-0.010353135096224646,0.0,-0.010353135096224646
0.20800000000000016,move_to_zero,-1.468403644309436,-3.947083332340199,2.478679688030763,-78.18417869280242,-82.7448458994417,4.56066720663928,77.97801145782651,80.68907333044348,-2.711061872616966,43.20758685535045,49.4413302827652,-6.233743427414751,-0.010589097433953617,0.0,-0.010589097433953617
0.21000000000000016,move_to_zero,-1.4597443990714312,-3.942683016473599,2.482938617402168,-78.08631852339325,-82.65259969442559,4.566281171032344,77.88694848552109,80.59911895660798,-2.7121704710868926,43.137514403138724,49.38621174287359,-6.248697339734868,-0.010822231711005107,0.0,-0.010822231711005107
0.21200000000000016,move_to_zero,-1.4511098254260635,-3.938282700606999,2.487172875180936,-77.98859868414463,-82.5603534894095,4.5717548052648596,77.79577854977052,80.50916458277248,-2.7133860330019672,43.067635577673116,49.331093202982,-6.263457625308881,-0.011057052158345917,0.0,-0.011057052158345917
0.21400000000000016,move_to_zero,-1.4424967166145248,-3.933882384740399,2.4913856681258744,-77.89100077249051,-82.46810728439338,4.577106511902869,77.70448617344552,80.41921020893697,-2.7147240354914572,42.99792659272263,49.275974663090395,-6.278048070367767,-0.011292366490140846,0.0,-0.011292366490140846
0.21600000000000016,move_to_zero,-1.4339352508130945,-3.929482068873799,2.4955468180607046,-77.79351196346896,-82.37586107937729,4.582349115908329,77.61308151597912,80.32925583510148,-2.7161743191223593,42.92838520580403,49.2208561231988,-6.292470917394773,-0.011539979466556563,0.0,-0.011539979466556563
0.21800000000000017,move_to_zero,-1.4254284266221018,-3.925081753007199,2.499653326385097,-77.69611842319827,-82.28361487436119,4.58749645116292,77.52155781682143,80.23930146126598,-2.7177436444445533,42.85898967954481,49.1657375833072,-6.3067479037623855,-0.011795241218770252,0.0,-0.011795241218770252
0.22000000000000017,move_to_zero,-1.41696508456034,-3.9206814371406,2.50371635258026,-77.59882076305448,-82.1913686693451,4.592547906290619,77.42990933049326,80.14934708743048,-2.719437756937225,42.78973445556974,49.110619043415596,-6.320884587845853,-0.012062572791419176,0.0,-0.012062572791419176
0.22200000000000017,move_to_zero,-1.4085434794771874,-3.9162811212739994,2.507737641796812,-77.50161006070122,-82.099122464329,4.597512403627775,77.33813452135124,80.05939271359497,-2.721258192243738,42.720605776246245,49.055500503523994,-6.334894727277749,-0.012320977068050503,0.0,-0.012320977068050503
0.22400000000000017,move_to_zero,-1.4001370387206868,-3.9118808054073995,2.5117437666867124,-77.40449251537053,-82.00687625931289,4.6023837439423545,77.24624227118538,79.96943833975948,-2.7231960685740972,42.651620326651305,49.00038196363239,-6.348761636981088,-0.012574262470990239,0.0,-0.012574262470990239
0.22600000000000017,move_to_zero,-1.3917535033300361,-3.9074804895407995,2.5157269862107636,-77.30746519703187,-81.9146300542968,4.6071648572649195,77.15423022877577,79.87948396592398,-2.7252537371482077,42.5827449792887,48.9452634237408,-6.3625184444521,-0.012848188217855784,0.0,-0.012848188217855784
0.22800000000000017,move_to_zero,-1.3834105455553305,-3.9030801736741996,2.5196696281188693,-77.2105358548747,-81.82238384928068,4.611847994405977,77.06210813292691,79.78952959208848,-2.727421459161576,42.51398344004044,48.890144883849196,-6.376161443808755,-0.01313958595561301,0.0,-0.01313958595561301
0.23000000000000018,move_to_zero,-1.3751223043260774,-3.898679857807599,2.5235575534815218,-77.11371248745152,-81.73013764426459,4.616425156813065,76.96986943225731,79.69957521825299,-2.7297057859956766,42.445347427218074,48.8350263439576,-6.389678916739527,-0.013439011729737474,0.0,-0.013439011729737474
0.23200000000000018,move_to_zero,-1.3668908939515338,-3.8942795419409992,2.5273886479894654,-77.01700048569396,-81.63789143924849,4.620890953554536,76.87753219577186,79.60962084441748,-2.7320886486456146,42.37680393274441,48.77990780406599,-6.4031038713215835,-0.013754687682944588,0.0,-0.013754687682944588
0.23400000000000018,move_to_zero,-1.3586767846880932,-3.8898792260743993,2.531202441386306,-76.92038689918617,-81.5456452342324,4.625258335046226,76.78509937078081,79.51966647058198,-2.7345670998011684,42.30835865185544,48.72478926417439,-6.416430612318948,-0.014050863924679224,0.0,-0.014050863924679224
0.23600000000000018,move_to_zero,-1.3504927143061014,-3.8854789102077993,2.534986195901698,-76.8238576109128,-81.45339902921629,4.629541418303489,76.69258132448904,79.42971209674648,-2.7371307722574443,42.240015009098435,48.669670724282796,-6.42965571518436,-0.014332052447181866,0.0,-0.014332052447181866
0.23800000000000018,move_to_zero,-1.3423184869057618,-3.881078594341199,2.5387601074354373,-76.72740923601454,-81.36115282420019,4.633743588185652,76.59999327166592,79.33975772291097,-2.739764451245051,42.171734942143075,48.614552184391194,-6.442817242248118,-0.014600199002447913,0.0,-0.014600199002447913
0.24000000000000019,move_to_zero,-1.3341578017584295,-3.876678278474599,2.5425204767161693,-76.6310360179265,-81.2689066191841,4.637870601257589,76.50733572232924,79.24980334907549,-2.7424676267462473,42.10349045077288,48.5594336444996,-6.455943193726718,-0.014857432089714363,0.0,-0.014857432089714363
0.2420000000000002,move_to_zero,-1.3260240806950507,-3.872277962607999,2.546253881912948,-76.53475124680092,-81.17666041416798,4.641909167367061,76.41461113122338,79.15984897523998,-2.7452378440166,42.03524758072342,48.504315104608,-6.469067523884576,-0.015104248670096316,0.0,-0.015104248670096316
0.2440000000000002,move_to_zero,-1.3179065821674398,-3.867877646741399,2.5499710645739593,-76.43852946833469,-81.08441420915189,4.645884740817195,76.32182266983015,79.06989460140447,-2.748071931574316,41.96698271896789,48.449196564716395,-6.482213845748504,-0.015344467735737888,0.0,-0.015344467735737888
0.2460000000000002,move_to_zero,-1.3098203389980403,-3.8634773308747987,2.5536569918767587,-76.34237499990314,-80.99216800413579,4.649793004232649,76.22894852661278,78.97994022756899,-2.750991700956206,41.898709862240906,48.39407802482479,-6.495368162583887,-0.015587922068645137,0.0,-0.015587922068645137
0.2480000000000002,move_to_zero,-1.301770387086583,-3.8590770150081988,2.5573066279216157,-76.2462989715353,-80.8999217991197,4.6536228275844,76.13599441740175,78.88998585373348,-2.753991436331731,41.830426362774496,48.33895948493319,-6.5085331221586955,-0.015844885182065237,0.0,-0.015844885182065237
0.25000000000000017,move_to_zero,-1.2937589371639648,-3.8546766991415997,2.5609177619776347,-76.15028250797045,-80.80767559410359,4.6573930861331405,76.0429870525054,78.80003147989798,-2.757044427392586,41.762155578946064,48.2838409450416,-6.521685366095532,-0.016099610618116492,0.0,-0.016099610618116492
0.25200000000000017,move_to_zero,-1.2857667371261292,-3.8502763832749993,2.56450964614887,-76.05433396110672,-80.71542938908749,4.661095427980769,75.9499290735641,78.71007710606249,-2.7601480324983783,41.69389633714013,48.228722405149995,-6.534826068009863,-0.016351460457076215,0.0,-0.016351460457076215
0.25400000000000017,move_to_zero,-1.2778014963100495,-3.8458760674083994,2.56807457109835,-75.95847521653204,-80.62318318407138,4.664707967539343,75.85681792087506,78.62012273222697,-2.763304811351915,41.625686978806065,48.1736038652584,-6.5479168864523345,-0.0166028835167495,0.0,-0.0166028835167495
0.25600000000000017,move_to_zero,-1.2698600208397446,-3.8414757515417994,2.571615730702055,-75.86269696037697,-80.53093697905528,4.668240018678318,75.76364221590727,78.53016835839148,-2.76652614248421,41.55752362326923,48.11848532536679,-6.560961702097558,-0.016847954533952283,0.0,-0.016847954533952283
0.2580000000000002,move_to_zero,-1.2619457737620352,-3.8370754356751995,2.5751296619131643,-75.76697988100025,-80.43869077403919,4.671710893038934,75.67039607808474,78.44021398455598,-2.7698179064712463,41.48940631798229,48.063366785475196,-6.57396046749291,-0.017090231278121832,0.0,-0.017090231278121832
0.2600000000000002,move_to_zero,-1.25409014007762,-3.832675119808599,2.578584979730979,-75.67133993296127,-80.34644456902309,4.675104636061818,75.57707842233538,78.35025961072049,-2.7731811883851094,41.42134424846518,48.008248245583594,-6.586903997118412,-0.01732826066064776,0.0,-0.01732826066064776
0.2620000000000002,move_to_zero,-1.2463096899993171,-3.828274803941999,2.5819651139426822,-75.57576980299146,-80.254198364007,4.6784285610155365,75.48369076203785,78.26030523688497,-2.776614474847122,41.35332449249464,47.95312970569199,-6.5998052131973495,-0.017562318668004246,0.0,-0.017562318668004246
0.2640000000000002,move_to_zero,-1.238622554645092,-3.823874488075399,2.5852519334303072,-75.48027789922853,-80.16195215899089,4.68167425976236,75.39022089461989,78.17035086304948,-2.7801299684295913,41.28533707230308,47.8980111658004,-6.6126740934973185,-0.017792933767454965,0.0,-0.017792933767454965
0.2660000000000002,move_to_zero,-1.2309894287128738,-3.8194741722087993,2.5884847434959255,-75.38486867618454,-80.06970595397479,4.684837277790251,75.29665729769594,78.08039648921398,-2.7837391915180376,41.21737126503785,47.842892625908796,-6.625521360870948,-0.018025165624577705,0.0,-0.018025165624577705
0.2680000000000002,move_to_zero,-1.2233980572737024,-3.815073856342199,2.591675799068496,-75.28955199398418,-79.97745974895868,4.687907754974503,75.20298337862111,77.99044211537847,-2.7874587367573582,41.149439835792414,47.787774086017194,-6.63833425022478,-0.01826261658172992,0.0,-0.01826261658172992
0.2700000000000002,move_to_zero,-1.215844049711791,-3.810673540475599,2.594829490763808,-75.1943201522788,-79.8852135439426,4.690893391663792,75.1092075514924,77.90048774154299,-2.7912801900505855,41.08155977667195,47.73265554612559,-6.65109576945364,-0.018498494746383036,0.0,-0.018498494746383036
0.2720000000000002,move_to_zero,-1.2083198121038086,-3.806273224608999,2.5979534125051904,-75.0991954471036,-79.79296733892649,4.693771891822891,75.01533909823667,77.81053336770748,-2.7951942694708123,41.01372417372722,47.677537006234,-6.663812832506778,-0.01873201467350032,0.0,-0.01873201467350032
0.2740000000000002,move_to_zero,-1.2008027501455936,-3.801872908742399,2.6010701585968055,-75.00417210913838,-79.70072113391039,4.696549024772011,74.92137281078814,77.72057899387197,-2.7992061830838253,40.94590515548697,47.622418466342396,-6.676513310855427,-0.01897008411304569,0.0,-0.01897008411304569
0.2760000000000002,move_to_zero,-1.1933098399678965,-3.7974725928757986,2.604162752907902,-74.90924659568321,-79.60847492889428,4.699228333211067,74.82730926689415,77.63062462003649,-2.803315353142338,40.87811156708007,47.567299926450794,-6.689188359370725,-0.019223654984661557,0.0,-0.019223654984661557
0.2780000000000002,move_to_zero,-1.1858293944052996,-3.7930722770091996,2.6072428826039,-74.81437966056117,-79.51622872387819,4.701849063317013,74.73314286091278,77.54067024620097,-2.8075273852881963,40.81033530897687,47.5121813865592,-6.701846077582331,-0.01949936130581979,0.0,-0.01949936130581979
0.2800000000000002,move_to_zero,-1.1783828835105679,-3.7886719611425996,2.6102890776320318,-74.71958310023356,-79.42398251886209,4.704399418628526,74.6388853952234,77.45071587236548,-2.811830477142081,40.74256147877744,47.45706284666759,-6.714501367890151,-0.019800198022670787,0.0,-0.019800198022670787
0.2820000000000002,move_to_zero,-1.170998660333413,-3.7842716452759992,2.6132729849425864,-74.62488006936205,-79.331736313846,4.706856244483944,74.54454292078219,77.36076149852998,-2.81621857774779,40.674794517594265,47.401944306775995,-6.7271497891817305,-0.020112440104107038,0.0,-0.020112440104107038
0.2840000000000002,move_to_zero,-1.1636735310736503,-3.7798713294093993,2.616197798335749,-74.53025862880811,-79.2394901088299,4.709231480021785,74.4501305528248,77.27080712469449,-2.820676571869683,40.60703328689767,47.34682576688439,-6.7397924799867255,-0.02043611270402948,0.0,-0.02043611270402948
0.2860000000000002,move_to_zero,-1.1564062790624245,-3.7754710135427993,2.619064734480375,-74.4357353772098,-79.14724390381379,4.711508526603993,74.35564631253732,77.18085275085897,-2.8252064383216577,40.53930175112096,47.29170722699279,-6.752405475871832,-0.020752193490925122,0.0,-0.020752193490925122
0.2880000000000002,move_to_zero,-1.149194222116721,-3.7710706976761994,2.6218764755594783,-74.34129352714525,-79.05499769879769,4.713704171652438,74.26108997548275,77.09089837702348,-2.829808401540731,40.471595799743405,47.2365886871012,-6.764992887357792,-0.02104614736551086,0.0,-0.02104614736551086
0.2900000000000002,move_to_zero,-1.1420353105295205,-3.766670381809599,2.6246350712800783,-74.2469349379879,-78.96275149378158,4.71581655579368,74.16647322555289,77.00094400318798,-2.83447077763509,40.40393191065032,47.181470147209595,-6.777538236559273,-0.021322747448100803,0.0,-0.021322747448100803
0.2920000000000002,move_to_zero,-1.134924569185328,-3.762270065942999,2.627345496757671,-74.15265913989757,-78.87050528876549,4.71784614886792,74.07180393369775,76.91098962935247,-2.83918569565472,40.3363263243737,47.12635160731799,-6.790025282944292,-0.02158470648196245,0.0,-0.02158470648196245
0.2940000000000002,move_to_zero,-1.1278695708195168,-3.757869750076399,2.630000179256882,-74.05845542022178,-78.77825908374939,4.719803663527614,73.97711360650764,76.82103525551699,-2.8439216490093457,40.26878298582171,47.07123306742639,-6.8024500816046825,-0.02183444633672394,0.0,-0.02183444633672394
0.2960000000000002,move_to_zero,-1.1208349107787559,-3.753469434209799,2.6326345234310433,-73.96433727943247,-78.6860128787333,4.7216755993008235,73.88240579829758,76.73108088168148,-2.8486750833838954,40.20130314934711,47.016114527534796,-6.8148113781876845,-0.02207325796466606,0.0,-0.02207325796466606
0.2980000000000002,move_to_zero,-1.1138160589747335,-3.749069118343199,2.6352530593684653,-73.87030645462984,-78.59376667371718,4.723460219087343,73.78768611401178,76.64112650784598,-2.8534403938342052,40.13387824427433,46.960995987643194,-6.827117743368866,-0.02230523775529896,0.0,-0.02230523775529896
0.3000000000000002,move_to_zero,-1.1068018579370915,-3.744668802476599,2.6378669445395073,-73.77637365754856,-78.50152046870109,4.725146811152527,73.69295505779994,76.55117213401049,-2.8582170762105505,40.06651306135971,46.90587744775159,-6.839364386391885,-0.022533554135779548,0.0,-0.022533554135779548
0.3020000000000002,move_to_zero,-1.0998115710168315,-3.740268486609999,2.6404569155931674,-73.68252096212268,-78.40927426368499,4.7267533015623115,73.59824096198355,76.46121776017497,-2.8629767981914256,39.999229184751606,46.85075890786,-6.851529723108392,-0.02275939793567914,0.0,-0.02275939793567914
0.3040000000000002,move_to_zero,-1.0928423822820754,-3.735868170743399,2.6430257884613235,-73.58874566110379,-78.31702805866888,4.728282397565096,73.50356423378764,76.37126338633948,-2.867699152551836,39.931996104047705,46.79564036796839,-6.863644263920683,-0.02298173638911323,0.0,-0.02298173638911323
0.3060000000000002,move_to_zero,-1.0858743008330238,-3.7314678548767994,2.6455935540437756,-73.49504184845169,-78.22478185365279,4.729740005201094,73.40891375458905,76.28130901250398,-2.872395257914931,39.86481279914867,46.740521828076794,-6.875709028928121,-0.023200301317346437,0.0,-0.023200301317346437
0.3080000000000002,move_to_zero,-1.0789061525760248,-3.7270675390101995,2.6481613864341744,-73.40141298909714,-78.13253564863669,4.731122659539551,73.31426135281018,76.19135463866847,-2.877093285858294,39.79768903694542,46.68540328818519,-6.887714251239771,-0.023414989298245537,0.0,-0.023414989298245537
0.3100000000000002,move_to_zero,-1.071943216134586,-3.7226672231435995,2.6507240070090132,-73.30784131833846,-78.0402894436206,4.732448125282133,73.21960182298591,76.10140026483299,-2.8817984418470814,39.730606771351695,46.6302847482936,-6.899677976941902,-0.023627148657520147,0.0,-0.023627148657520147
0.3120000000000002,move_to_zero,-1.0650097120838682,-3.718266907276999,2.653257195193131,-73.21430948580878,-77.94804323860448,4.7337337527957,73.1249283446029,76.01144589099748,-2.886517546394572,39.663543994457974,46.575166208401996,-6.911622213944021,-0.023835605192572547,0.0,-0.023835605192572547
0.3140000000000002,move_to_zero,-1.058121490981635,-3.713866591410399,2.6557451004287644,-73.12082770466034,-77.85579703358839,4.734969328928045,73.03025408568367,75.92149151716198,-2.8912374314783165,39.59651492686875,46.520047668510394,-6.923532741641644,-0.02404211266483585,0.0,-0.02404211266483585
0.3160000000000002,move_to_zero,-1.0512614569682825,-3.7094662755437993,2.6582048185755167,-73.02740727669745,-77.76355082857228,4.736143551874832,72.93558504246623,75.83153714332649,-2.8959521008602565,39.52951417369928,46.46492912861879,-6.9354149549195085,-0.02424821903104643,0.0,-0.02424821903104643
0.3180000000000002,move_to_zero,-1.0444263609342814,-3.7050659596771993,2.660639598742918,-72.93404663956247,-77.67130462355618,4.737257983993715,72.84091438139276,75.74158276949098,-2.900668388098211,39.46253145778882,46.40981058872719,-6.9472791309383695,-0.024452559627332376,0.0,-0.024452559627332376
0.32000000000000023,move_to_zero,-1.037602409689516,-3.700665643810599,2.6630632341210827,-72.84073006677467,-77.57905841854009,4.738328351765418,72.74624631364422,75.65162839565548,-2.9053820820112577,39.39559698619047,46.354692048835595,-6.959095062645126,-0.024657100524467818,0.0,-0.024657100524467818
0.32200000000000023,move_to_zero,-1.0307966834112483,-3.696265327943999,2.6654686445327505,-72.74743509641807,-77.48681221352399,4.739377117105917,72.65160163813285,75.56167402181998,-2.9100723836871367,39.32867228862483,46.29957350894399,-6.970901220319163,-0.024863582049368196,0.0,-0.024863582049368196
0.32400000000000023,move_to_zero,-1.023998771269253,-3.691865012077399,2.667866240808146,-72.65415758626597,-77.3945660085079,4.740408422241927,72.55697617951601,75.47171964798449,-2.9147434684684725,39.261761817782215,46.2444549690524,-6.982693151270183,-0.02507079095977419,0.0,-0.02507079095977419
0.32600000000000023,move_to_zero,-1.0171980647342207,-3.687464696210799,2.6702666314765784,-72.56093699112125,-77.30231980349178,4.7413828123705315,72.46237963852295,75.38176527414898,-2.9193856356260284,39.19484723215582,46.1893364291608,-6.994489197004974,-0.02527728270568123,0.0,-0.02527728270568123
0.32800000000000024,move_to_zero,-1.0104140155174712,-3.6830643803441987,2.6726503648267275,-72.46776688124925,-77.21007359847569,4.742306717226441,72.36779740969934,75.29181090031348,-2.9240134906141435,39.12791457042848,46.13421788926919,-7.006303318840708,-0.02548586236654339,0.0,-0.02548586236654339
0.33000000000000024,move_to_zero,-1.0036412066593157,-3.6786640644775987,2.6750228578182833,-72.37463435860087,-77.11782739345958,4.743193034858706,72.27322310881905,75.20185652647798,-2.9286334176589293,39.060980264301534,46.07909934937759,-7.018119085076059,-0.02569619827777097,0.0,-0.02569619827777097
0.33200000000000024,move_to_zero,-0.9968748315278145,-3.674263748610999,2.677388917083184,-72.28152759188434,-77.02558118844348,4.744053596559141,72.17864964788173,75.11190215264247,-2.9332525047607447,38.99403951255751,46.02398080948599,-7.0299412969284845,-0.025908268569152213,0.0,-0.025908268569152213
0.33400000000000024,move_to_zero,-0.9901321356503456,-3.669863432744399,2.679731297094053,-72.18843746672712,-76.93333498342739,4.744897516700263,72.08406924964092,75.02194777880699,-2.9378785291660705,38.927098818228146,45.968862269594396,-7.041763451366251,-0.02612523176617046,0.0,-0.02612523176617046
0.33600000000000024,move_to_zero,-0.9834073332620389,-3.6654631168777994,2.6820557836157604,-72.09537996337819,-76.84108877841129,4.7457088150330975,71.98950683588518,74.93199340497148,-2.9424865690862987,38.86016087388252,45.913743729702794,-7.053582855820274,-0.026341060063400954,0.0,-0.026341060063400954
0.33800000000000024,move_to_zero,-0.9767110144490304,-3.6610628010111994,2.684351786562169,-72.00236564606075,-76.74884257339518,4.746476927334427,71.89496505918024,74.84203903113597,-2.9470739719557315,38.793224851700536,45.85862518981119,-7.065400338110656,-0.026555915483932213,0.0,-0.026555915483932213
0.34000000000000025,move_to_zero,-0.9700665789594205,-3.6566624851445995,2.686595906185179,-71.90939793089088,-76.65659636837908,4.747198437488208,71.80041246710688,74.75208465730049,-2.951672190193605,38.72629699383305,45.80350664991959,-7.077209656086538,-0.026771130704894754,0.0,-0.026771130704894754
0.34200000000000025,move_to_zero,-0.9634682373677331,-3.652262169277999,2.688793931910266,-71.81647313869196,-76.56435016336299,4.747877024671027,71.7058315359708,74.66213028346498,-2.9562987474941735,38.65934967765302,45.74838811002799,-7.08903843237497,-0.026988849632108083,0.0,-0.026988849632108083
0.34400000000000025,move_to_zero,-0.9569219538988744,-3.647861853411399,2.6909398995125247,-71.72357099477482,-76.47210395834688,4.74853296357206,71.61120720164679,74.57217590962948,-2.960968707982687,38.59239396422485,45.693269570136394,-7.100875605911547,-0.027228534871285605,0.0,-0.027228534871285605
0.34600000000000025,move_to_zero,-0.9504224801876132,-3.643461537544799,2.693039057357186,-71.63070047177725,-76.3798577533308,4.7491572815535505,71.51654743033767,74.48222153579398,-2.9656741054563156,38.52545546859306,45.63815103024479,-7.1126955616517336,-0.027475326604009233,0.0,-0.027475326604009233
0.34800000000000025,move_to_zero,-0.9439748630825738,-3.6390612216781992,2.6950863585956255,-71.53785863269431,-76.28761154831469,4.749752915620377,71.42184940614683,74.39226716195847,-2.9704177558116385,38.45854337572665,45.5830324903532,-7.124489114626549,-0.027721979997319433,0.0,-0.027721979997319433
0.35000000000000026,move_to_zero,-0.9375963401915137,-3.634660905811599,2.697064565620085,-71.44505651389521,-76.19536534329859,4.75030882940338,71.3271268307074,74.30231278812298,-2.975185957415576,38.39164708714096,45.52791395046159,-7.136266863320628,-0.02797520642041414,0.0,-0.02797520642041414
0.35200000000000026,move_to_zero,-0.9312901965684023,-3.630260589944999,2.6989703933765967,-71.35229972623513,-76.10311913828248,4.750819412047349,71.23240940669436,74.21235841428748,-2.9799490075931203,38.32477832832407,45.472795410569994,-7.1480170822459215,-0.028243178721299424,0.0,-0.028243178721299424
0.35400000000000026,move_to_zero,-0.9250445753510119,-3.625860274078399,2.700815698727387,-71.25957564293515,-76.01087293326638,4.751297290331237,71.13768388147716,74.12240404045198,-2.984720158974824,38.25792242068755,45.41767687067839,-7.159754449990842,-0.028501891714758285,0.0,-0.028501891714758285
0.35600000000000026,move_to_zero,-0.9188501409316966,-3.621459958211799,2.7026098172801025,-71.16690295130606,-75.91862672825027,4.7517237769442175,71.04293176597912,74.03244966661647,-2.9895179006373525,38.191067456411865,45.36255833078679,-7.171490874374925,-0.028777189339860874,0.0,-0.028777189339860874
0.35800000000000026,move_to_zero,-0.9127033345849809,-3.6170596423451986,2.704356307760218,-71.07427951646984,-75.82638052323418,4.752101006764335,70.94817481937781,73.94249529278098,-2.994320473403164,38.124227490129805,45.307439790895195,-7.1832123007653905,-0.029070645340032057,0.0,-0.029070645340032057
0.36000000000000026,move_to_zero,-0.9065764705806623,-3.6126593264785987,2.7060828558979364,-70.98171676199503,-75.7341343182181,4.752417556223065,70.85340031723277,73.85254091894548,-2.9991406017127105,38.057398576046566,45.25232125100359,-7.194922674957027,-0.029387429904953924,0.0,-0.029387429904953924
0.36200000000000027,move_to_zero,-0.9004991604618696,-3.6082590106119987,2.707759850150129,-70.88922996986044,-75.64188811320199,4.752658143341549,70.7586054951905,73.76258654510997,-3.0039810499194743,37.99057475443279,45.19720271111199,-7.206627956679199,-0.029699997198102065,0.0,-0.029699997198102065
0.36400000000000027,move_to_zero,-0.8944618191056807,-3.603858694745399,2.7093968756397184,-70.79679790357721,-75.54964190818589,4.752844004608676,70.6637613876456,73.67263217127449,-3.0088707836288933,37.92375508219662,45.14208417122039,-7.218329089023769,-0.03000414760336114,0.0,-0.03000414760336114
0.36600000000000027,move_to_zero,-0.8884512589283085,-3.5994583788787993,2.711007119950491,-70.70443395440009,-75.45739570316978,4.7529617487696925,70.56886254344006,73.58267779743898,-3.0138152539989136,37.8569499154597,45.086965631328795,-7.230015715869094,-0.030291105900615477,0.0,-0.030291105900615477
0.36800000000000027,move_to_zero,-0.8824328181399799,-3.5950580630121993,2.7126252448722195,-70.61210267670727,-75.36514949815368,4.753046821446418,70.47389030922204,73.49272342360348,-3.0188331143814366,37.790160606678754,45.03184709143719,-7.241686484758439,-0.030559314500709693,0.0,-0.030559314500709693
0.3700000000000003,move_to_zero,-0.8764267887235662,-3.5906577471455994,2.714230958422033,-70.51980538114867,-75.27290329313757,4.7530979119889025,70.3788473607337,73.40276904976798,-3.0239216890342817,37.72337504812455,44.97672855154559,-7.253353503421039,-0.030812064669403765,0.0,-0.030812064669403765
0.3720000000000003,move_to_zero,-0.8704209486789274,-3.586257431278999,2.7158364826000714,-70.42755146914756,-75.18065708812149,4.753105618973933,70.28373469674867,73.31281467593247,-3.0290799791838054,37.65657292789669,44.921610011653996,-7.265037083757306,-0.031051875252260618,0.0,-0.031051875252260618
0.3740000000000003,move_to_zero,-0.8644196306125753,-3.581857115412399,2.7174374847998237,-70.33533007425915,-75.08841088310538,4.753080808846235,70.18855987672372,73.22286030209698,-3.03430042537326,37.589760930911204,44.86649147176239,-7.276730540851183,-0.031280255023839736,0.0,-0.031280255023839736
0.3760000000000003,move_to_zero,-0.8584253458501695,-3.577456799545799,2.7190314536956297,-70.2431510973773,-74.99616467808929,4.753013580711993,70.09333805439181,73.13290592826148,-3.0395678738696716,37.5229211414967,44.81137293187079,-7.28845179037409,-0.031497001481086355,0.0,-0.031497001481086355
0.3780000000000003,move_to_zero,-0.8524486400188267,-3.573056483679199,2.7206078436603724,-70.15102384176188,-74.90391847307319,4.752894631311307,69.99806405733221,73.04295155442597,-3.044887497093754,37.45605802672029,44.75625439197919,-7.300196365258898,-0.03170531817044896,0.0,-0.03170531817044896
0.3800000000000003,move_to_zero,-0.8464975011905632,-3.5686561678125988,2.7221586666220356,-70.05898030774193,-74.81167226805708,4.752691960315147,69.90273667659429,72.95299718059049,-3.050260503996199,37.389143372262566,44.70113585208759,-7.311992479825022,-0.031906753816523734,0.0,-0.031906753816523734
0.3820000000000003,move_to_zero,-0.8405577377831833,-3.564255851945999,2.7236981141628154,-69.96703496189201,-74.71942606304098,4.752391101148973,69.807349376917,72.86304280675498,-3.055693429837973,37.32220932265986,44.646017312195994,-7.323807989536135,-0.032102040167790884,0.0,-0.032102040167790884
0.3840000000000003,move_to_zero,-0.8346353719284828,-3.559855536079399,2.725220164150916,-69.87516967177106,-74.62717985802489,4.752010186253827,69.71193373233695,72.77308843291948,-3.0611547005825344,37.25527342776937,44.59089877230439,-7.335625344535025,-0.03229210359872875,0.0,-0.03229210359872875
0.3860000000000003,move_to_zero,-0.8287191299474108,-3.5554552202127994,2.7267360902653888,-69.78338745404349,-74.53493365300879,4.7515461989653005,69.61647824775265,72.68313405908398,-3.06665581133133,37.18833638273626,44.53578023241279,-7.34744384967653,-0.032479414274689776,0.0,-0.032479414274689776
0.3880000000000003,move_to_zero,-0.822808377638524,-3.551054904346199,2.728246526707675,-69.69164938676896,-74.44268744799268,4.751038061223724,69.52097156991185,72.59317968524847,-3.072208115336622,37.12139498786439,44.48066169252119,-7.359266704656797,-0.03266470218736409,0.0,-0.03266470218736409
0.3900000000000003,move_to_zero,-0.8168896441071403,-3.546654588479599,2.7297649443724588,-69.59996242806307,-74.35044124297659,4.750478814913521,69.42540930357768,72.50322531141298,-3.0778160078352954,37.054424403977606,44.425543152629594,-7.371118748651988,-0.03284973084504536,0.0,-0.03284973084504536
0.3920000000000003,move_to_zero,-0.8109674647510278,-3.542254272612999,2.7312868078619714,-69.50834081243256,-74.25819503796048,4.749854225527912,69.32979206637367,72.41327093757748,-3.083478871203809,36.98742775966352,44.37042461273799,-7.382996853074474,-0.03303363625280566,0.0,-0.03303363625280566
0.3940000000000003,move_to_zero,-0.8050494432722468,-3.537853956746399,2.7328045134741523,-69.41680698437534,-74.16594883294438,4.749141848569039,69.23411027213321,72.32331656374198,-3.0892062916087752,36.92043286377336,44.31530607284639,-7.394873209073033,-0.03321993037137342,0.0,-0.03321993037137342
0.3960000000000003,move_to_zero,-0.7991347401223794,-3.5334536408797987,2.7343189007574193,-69.32535900578375,-74.07370262792828,4.748343622144532,69.1383592250706,72.23336218990647,-3.095002964835871,36.853438073810615,44.260187532954795,-7.40674945914418,-0.03340789360150824,0.0,-0.03340789360150824
0.3980000000000003,move_to_zero,-0.7932519542988405,-3.529053325013199,2.7358013707143582,-69.23399157579139,-73.98145642291219,4.747464847120796,69.04253442679286,72.14340781607098,-3.100873389278121,36.786434518143885,44.205068993063186,-7.418634474919301,-0.03359656279391825,0.0,-0.03359656279391825
0.4000000000000003,move_to_zero,-0.7873829800890203,-3.524653009146599,2.7372700290575787,-69.14270778629998,-73.88921021789609,4.746502431596113,68.94665303414611,72.05345344223548,-3.10680040808937,36.719438981544144,44.14995045317159,-7.430511471627447,-0.03378373593915825,0.0,-0.03378373593915825
0.4020000000000003,move_to_zero,-0.7815294042024816,-3.520252693279999,2.7387232890775173,-69.05150427002215,-73.79696401287998,4.7454597428578325,68.85073140251116,71.96349906839997,-3.1127676658888106,36.65242796204865,44.09483191327999,-7.442403951231341,-0.03396914589392788,0.0,-0.03396914589392788
0.4040000000000003,move_to_zero,-0.7756954717081809,-3.515852377413399,2.740156905705218,-68.96039804607358,-73.70471780786389,4.744319761790308,68.75476375488044,71.87354469456449,-3.1187809396840436,36.58540324465864,44.039713373388395,-7.454310128729752,-0.03415153546402987,0.0,-0.03415153546402987
0.4060000000000003,move_to_zero,-0.7698802647474143,-3.511452061546799,2.7415717967993847,-68.86938142640331,-73.61247160284778,4.743090176444468,68.65874311504747,71.78359032072898,-3.1248472056815046,36.51837225988008,43.98459483349679,-7.466222573616712,-0.03433171803606456,0.0,-0.03433171803606456
0.4080000000000003,move_to_zero,-0.7640578685568944,-3.507051745680199,2.742993877123305,-68.77844429624506,-73.52022539783168,4.741781101586625,68.56265610071219,71.69363594689347,-3.130979846181276,36.45132308340707,43.92947629360519,-7.478153210198123,-0.034512219326719024,0.0,-0.034512219326719024
0.4100000000000003,move_to_zero,-0.758216251051364,-3.5026514298135987,2.7444351787622345,-68.68757490951907,-73.42797919281558,4.740404283296513,68.46648886410969,71.60368157305798,-3.137192708948291,36.38426805511634,43.87435775371359,-7.490089698597252,-0.03469075335019232,0.0,-0.03469075335019232
0.4120000000000003,move_to_zero,-0.7523746297273451,-3.4982511139469987,2.7458764842196537,-68.59677351253177,-73.33573298779949,4.73895947526772,68.37025247824435,71.51372719922247,-3.1434747209781193,36.31721645562941,43.81923921382199,-7.502022758192574,-0.03486567577351168,0.0,-0.03486567577351168
0.4140000000000003,move_to_zero,-0.7465213514053171,-3.493850798080399,2.7473294466750815,-68.50601607550682,-73.24348678278338,4.737470707276557,68.27396171641101,71.42377282538698,-3.1498111089759675,36.250142887884415,43.76412067393039,-7.513977786045977,-0.03503777973634383,0.0,-0.03503777973634383
0.4160000000000003,move_to_zero,-0.7406701156655949,-3.4894504822137993,2.7487803665482042,-68.41528763232341,-73.15124057776728,4.73595294544387,68.1776176142004,71.33381845155148,-3.1562008373510793,36.18303535729522,43.70900213403879,-7.525966776743573,-0.03520525879407715,0.0,-0.03520525879407715
0.4180000000000003,move_to_zero,-0.7348226246214848,-3.485050166347199,2.750227541725714,-68.32457780385032,-73.05899437275119,4.734416568900869,68.0812379007532,71.24386407771597,-3.1626261769627746,36.11590137421706,43.653883594147196,-7.537982219930136,-0.035372824297000935,0.0,-0.035372824297000935
0.4200000000000003,move_to_zero,-0.72898958994679,-3.480649850480599,2.751660260533809,-68.23390373653213,-72.96674816773508,4.732844431202949,67.98482983668247,71.15390970388047,-3.1690798671980076,36.04876217342619,43.598765054255594,-7.550002880829403,-0.03554105433678074,0.0,-0.03554105433678074
0.4220000000000003,move_to_zero,-0.7231445222604921,-3.476249534613999,2.753105012353507,-68.14327007795838,-72.87450196271898,4.731231884760604,67.8883823534462,71.06395533004498,-3.1755729765987724,35.98162334224783,43.543646514363985,-7.562023172116156,-0.035708946373234976,0.0,-0.035708946373234976
0.4240000000000003,move_to_zero,-0.7172859588733433,-3.471849218747399,2.7545632598740557,-68.05268159829535,-72.78225575770288,4.729574159407534,67.79188942575432,70.97400095620948,-3.1821115304551597,35.91448863171329,43.48852797447239,-7.5740393427591,-0.035875170467452415,0.0,-0.035875170467452415
0.4260000000000003,move_to_zero,-0.7114196134862856,-3.4674489028807987,2.756029289394513,-67.96214126423999,-72.69000955268679,4.7278682884468,67.69539247301448,70.88404658237397,-3.18865410935949,35.84734442446914,43.43340943458079,-7.586065010111646,-0.03603774281763258,0.0,-0.03603774281763258
0.4280000000000003,move_to_zero,-0.7055562525672425,-3.4630485870141987,2.7574923344469564,-67.8716379055972,-72.59776334767068,4.7261254420734815,67.59890199853716,70.79409220853847,-3.1951902100013143,35.78021039256931,43.378290894689194,-7.598080502119885,-0.03619679655409563,0.0,-0.03619679655409563
0.4300000000000003,move_to_zero,-0.6997094669790338,-3.458648271147599,2.758938804168565,-67.78116464613528,-72.50551714265458,4.724352496519302,67.50242393529426,70.70413783470298,-3.201713899408716,35.7131064577038,43.32317235479759,-7.61006589709379,-0.03635232923251067,0.0,-0.03635232923251067
0.43200000000000033,move_to_zero,-0.6938607842369463,-3.454247955280999,2.7603871710440524,-67.69071703680103,-72.41327093763847,4.72255390083744,67.40594087237874,70.61418346086747,-3.20824258848873,35.64601329718681,43.268053814906,-7.622040517719185,-0.03650725474094065,0.0,-0.03650725474094065
0.43400000000000033,move_to_zero,-0.6880298197686651,-3.449847639414399,2.7618178196457337,-67.60028028992065,-72.32102473262238,4.720744442701729,67.30945863146684,70.52422908703198,-3.2147704555651444,35.57895531510597,43.21293527501439,-7.633979959908416,-0.03666003834400635,0.0,-0.03666003834400635
0.43600000000000033,move_to_zero,-0.6822217534378001,-3.445447323547799,2.7632255701099986,-67.50985686742838,-72.22877852760628,4.718921660177898,67.21298119010359,70.43427471319647,-3.221293523092882,35.51192093977829,43.157816735122786,-7.645895795344494,-0.036811106102584264,0.0,-0.036811106102584264
0.43800000000000033,move_to_zero,-0.6764609650797085,-3.441047007681199,2.7645860426014903,-67.41944533178649,-72.13653232259018,4.717086990803693,67.11649763850629,70.34432033936098,-3.227822700854688,35.44491170795474,43.10269819523119,-7.657786487276454,-0.03695944051555996,0.0,-0.03695944051555996
0.44000000000000034,move_to_zero,-0.6707304920016729,-3.4366466918145986,2.7659161998129256,-67.32907284884604,-72.04428611757409,4.71521326872805,67.02002620393125,70.25436596552548,-3.234339761594228,35.377915754632106,43.04757965533959,-7.669663900707484,-0.037104603364656485,0.0,-0.037104603364656485
0.44200000000000034,move_to_zero,-0.6650643247939195,-3.4322463759479986,2.7671820511540792,-67.23874975178248,-71.95203991255798,4.7132901607755,66.92356872996548,70.16441159168997,-3.240842861724488,35.31095577623377,42.992461115447995,-7.681505339214226,-0.03724680927694997,0.0,-0.03724680927694997
0.44400000000000034,move_to_zero,-0.6594701799780619,-3.427846060081399,2.768375880103337,-67.14845563699264,-71.85979370754188,4.711338070549246,66.82714496137822,70.07445721785447,-3.247312256476249,35.244026612062214,42.937342575556386,-7.693315963494172,-0.03738703501401847,0.0,-0.03738703501401847
0.44600000000000034,move_to_zero,-0.6539214078898975,-3.423445744214799,2.769524336324902,-67.05815469143532,-71.76754750252577,4.709392811090453,66.73075651463019,69.98450284401898,-3.2537463293887896,35.17714316934432,42.88222403566479,-7.705080866320472,-0.03752486102273103,0.0,-0.03752486102273103
0.44800000000000034,move_to_zero,-0.6483923643890466,-3.419045428348199,2.770653063959152,-66.96787047696583,-71.67530129750969,4.707430820543863,66.63439973668605,69.89454847018347,-3.2601487334974166,35.110305940247194,42.82710549577319,-7.716799555525995,-0.03765944676370043,0.0,-0.03765944676370043
0.45000000000000034,move_to_zero,-0.6428778104968912,-3.414645112481599,2.7717673019847076,-66.87761467071618,-71.58305509249358,4.705440421777396,66.53805695438604,69.80459409634798,-3.2665371419619476,35.0435127057254,42.77198695588159,-7.728474250156189,-0.037792647214014076,0.0,-0.037792647214014076
0.45200000000000035,move_to_zero,-0.6373968269658169,-3.410244796614999,2.772847969649182,-66.78739218811256,-71.49080888747748,4.703416699364922,66.44170576578344,69.71463972251247,-3.272933956729034,34.97674035929037,42.71686841598999,-7.740128056699625,-0.03792734808719755,0.0,-0.03792734808719755
0.45400000000000035,move_to_zero,-0.6319399516891443,-3.405844480748399,2.7739045290592546,-66.69717339185347,-71.39856268246137,4.7013892906079064,66.34532617929742,69.62468534867698,-3.2793591693795605,34.90997727729832,42.66174987609839,-7.751772598800073,-0.038061784958540096,0.0,-0.038061784958540096
0.45600000000000035,move_to_zero,-0.6265104742277972,-3.4014441648817986,2.7749336906540014,-66.60693946693705,-71.30631647744528,4.699377010508229,66.24891571268147,69.53473097484148,-3.285815262160014,34.84320502376978,42.60663133620679,-7.763426312437012,-0.0381980357711033,0.0,-0.0381980357711033
0.45800000000000035,move_to_zero,-0.621101922851806,-3.397043849015199,2.775941926163393,-66.51671760704934,-71.21407027242918,4.697352665379839,66.1524668506579,69.44477660100597,-3.2923097503480676,34.77643463203081,42.55151279631519,-7.775078164284373,-0.038334720628403735,0.0,-0.038334720628403735
0.46000000000000035,move_to_zero,-0.6157053767049908,-3.392643533148599,2.776938156443608,-66.4265023898104,-71.12182406741309,4.695321677602692,66.05596089904512,69.35482222717047,-3.298861328125355,34.70966310012425,42.49639425642359,-7.786731156299339,-0.03847098811433082,0.0,-0.03847098811433082
0.46200000000000035,move_to_zero,-0.6103524345496045,-3.3882432172819987,2.777890782732394,-66.33630542589542,-71.02957786239699,4.693272436501573,65.95941203983159,69.26486785333498,-3.305455813503386,34.64291436755907,42.44127571653199,-7.798361348972918,-0.03861021722125341,0.0,-0.03861021722125341
0.46400000000000036,move_to_zero,-0.6050515879530649,-3.383842901415399,2.778791313462334,-66.24611961184594,-70.93733165738088,4.6912120455349395,65.86283813227126,69.17491347949948,-3.312075347228216,34.57619984165537,42.38615717664039,-7.809957334985022,-0.03875132631322534,0.0,-0.03875132631322534
0.46600000000000036,move_to_zero,-0.5997844607368129,-3.379442585548799,2.779658124811986,-66.15595786237351,-70.84508545236478,4.689127589991273,65.76620952169748,69.08495910566397,-3.3187495839664933,34.50956165814714,42.331038636748794,-7.821476978601652,-0.038892548632956644,0.0,-0.038892548632956644
0.46800000000000036,move_to_zero,-0.5945588811477032,-3.375042269682199,2.7804833885344955,-66.06580593045277,-70.75283924734867,4.687033316895906,65.66954891845224,68.99500473182847,-3.3254558133762373,34.44301298271442,42.275920096857185,-7.832907114142763,-0.03903362099483428,0.0,-0.03903362099483428
0.47000000000000036,move_to_zero,-0.5893701097878997,-3.3706419538155985,2.7812718440276987,-65.97569791336628,-70.66059304233258,4.6848951289663034,65.57284264312635,68.90505035799298,-3.3322077148666267,34.37654749103986,42.22080155696559,-7.844254065925732,-0.03917582373453145,0.0,-0.03917582373453145
0.47200000000000036,move_to_zero,-0.5842136847026606,-3.3662416379489986,2.782027953246338,-65.88560899561988,-70.56834683731647,4.682737841696593,65.47610978672631,68.81509598415747,-3.3389861974311543,34.31015299812167,42.16568301707399,-7.855530018952315,-0.039316689713209896,0.0,-0.039316689713209896
0.47400000000000037,move_to_zero,-0.5790894046767711,-3.361841322082399,2.782751917405628,-65.79552911760204,-70.47610063230039,4.680571514698343,65.37933806707947,68.72514161032198,-3.3458035432425106,34.243817839895264,42.11056447718239,-7.866746637287129,-0.03945822925184884,0.0,-0.03945822925184884
0.47600000000000037,move_to_zero,-0.5739699608308846,-3.357441006215799,2.7834710453849145,-65.70547499548493,-70.38385442728428,4.678379431799343,65.28253757205813,68.63518723648647,-3.3526496644283412,34.17752137692382,42.05544593729079,-7.877924560366971,-0.03960170175982107,0.0,-0.03960170175982107
0.47800000000000037,move_to_zero,-0.568838476719633,-3.3530406903491987,2.7842022136295657,-65.61541787067084,-70.29160822226818,4.6761903515973415,65.18571601789716,68.54523286265096,-3.3595168447537986,34.1112467543065,42.00032739739919,-7.88908064309269,-0.03974514964643518,0.0,-0.03974514964643518
0.48000000000000037,move_to_zero,-0.5636921702229148,-3.3486403744825988,2.784948204259684,-65.52536277428004,-70.19936201725208,4.6739992429720445,65.0888797992427,68.45527848881548,-3.366398689572776,34.045000106478255,41.94520885750759,-7.900208751029332,-0.039889023168730824,0.0,-0.039889023168730824
0.4820000000000004,move_to_zero,-0.5585640511223849,-3.344240058615999,2.7856760074936138,-65.43532161409637,-70.10711581223597,4.671794198139608,64.99201523872446,68.36532411497997,-3.373308876255507,33.97877728318614,41.890090317615986,-7.9113130344298455,-0.040034232980724026,0.0,-0.040034232980724026
0.4840000000000004,move_to_zero,-0.5534480187172882,-3.339839742749399,2.7863917240321108,-65.34531872504863,-70.01486960721988,4.669550882171251,64.89511945172775,68.27536974114447,-3.380250289416722,33.91256219476203,41.83497177772439,-7.922409582962359,-0.04017878563957662,0.0,-0.04017878563957662
0.4860000000000004,move_to_zero,-0.5483343795941165,-3.3354394268827985,2.787105047288682,-65.25536252074286,-69.92262340220378,4.667260881460919,64.79821679954968,68.18541536730898,-3.387198567759299,33.84632948490499,41.77985323783279,-7.9335237529277975,-0.04031994196091884,0.0,-0.04031994196091884
0.4880000000000004,move_to_zero,-0.543266194941019,-3.331039111016199,2.78777291607518,-65.16541855428747,-69.83037719718769,4.664958642900217,64.70132592769839,68.09546099347347,-3.3941350657750746,33.78006316432805,41.72473469794119,-7.944671533613139,-0.04045767186244041,0.0,-0.04045767186244041
0.4900000000000004,move_to_zero,-0.5382345140458317,-3.326638795149599,2.7884042811037673,-65.07551271734832,-69.73813099217158,4.662618274823259,64.60444020626461,68.00550661963797,-3.401066413373357,33.713775722012265,41.66961615804959,-7.955840436037327,-0.04059188832164998,0.0,-0.04059188832164998
0.4920000000000004,move_to_zero,-0.5332331364596018,-3.3222384792829986,2.7890053428233967,-64.98561356811727,-69.64588478715548,4.660271219038208,64.50754784260742,67.91555224580247,-3.4080044031950507,33.6474739077249,41.61449761815798,-7.967023710433082,-0.040725878646707174,0.0,-0.040725878646707174
0.4940000000000004,move_to_zero,-0.5282403571202883,-3.3178381634163987,2.7895978062961104,-64.89574217909063,-69.55363858213937,4.657896403048738,64.41065885026117,67.82559787196698,-3.4149390217058055,33.58115903004669,41.55937907826639,-7.978220048219697,-0.04086082093815699,0.0,-0.04086082093815699
0.4960000000000004,move_to_zero,-0.5232659811373523,-3.3134378475497988,2.7901718664124466,-64.80591028406266,-69.46139237712327,4.655482093060613,64.31378340388054,67.73564349813147,-3.421860094250931,33.514842856309016,41.50426053837479,-7.9894176820657705,-0.04099686849911422,0.0,-0.04099686849911422
0.4980000000000004,move_to_zero,-0.5183061777693195,-3.309037531683199,2.790731353913879,-64.7161232139514,-69.36914617210718,4.653022958155773,64.21693155181553,67.64568912429597,-3.4287575724804356,33.448565933877425,41.44914199848319,-8.000576064605767,-0.04113188595053878,0.0,-0.04113188595053878
0.5000000000000003,move_to_zero,-0.513364537100004,-3.3046372158165984,2.7912726787165942,-64.62639173592773,-69.27689996709108,4.650508231163357,64.1200927619863,67.55573475046047,-3.435641988474174,33.38231085826745,41.39402345859159,-8.011712600324138,-0.04126612658351314,0.0,-0.04126612658351314
0.5020000000000003,move_to_zero,-0.5084311656592444,-3.300236899949999,2.7918057342907545,-64.53671940282908,-69.18465376207499,4.647934359245909,64.02326547799233,67.46578037662498,-3.442514898632652,33.31605810682941,41.33890491869999,-8.02284681187058,-0.04139659817528385,0.0,-0.04139659817528385
0.5040000000000003,move_to_zero,-0.5034848624359389,-3.2958365840833994,2.7923517216474605,-64.44709519547077,-69.09240755705889,4.645312361588125,63.92646640425164,67.37582600278948,-3.449359598537839,33.249803234959614,41.283786378808394,-8.03398314384878,-0.04152244368553636,0.0,-0.04152244368553636
0.5060000000000003,move_to_zero,-0.49855199471257544,-3.291436268216799,2.7928842735042236,-64.35750486297117,-69.00016135204278,4.642656489071612,63.82971203326162,67.28587162895397,-3.4561595956923483,33.18355239971029,41.228667838916785,-8.045115439206498,-0.04164297224891701,0.0,-0.04164297224891701
0.5080000000000003,move_to_zero,-0.49364404021609165,-3.287035952350199,2.7933919121341075,-64.26794288395489,-68.90791514702669,4.639972263071797,63.732987267977705,67.19591725511847,-3.462929987140768,33.11729714151249,41.1735492990252,-8.05625215751271,-0.04175987202199069,0.0,-0.04175987202199069
0.5100000000000003,move_to_zero,-0.4887579787075172,-3.2826356364835987,2.7938776577760813,-64.17840433468984,-68.81566894201057,4.637264607320731,63.636268753435466,67.10596288128298,-3.469694127847511,33.05107171922975,41.11843075913359,-8.067359039903835,-0.04187166215329013,0.0,-0.04187166215329013
0.5120000000000003,move_to_zero,-0.4838986955520279,-3.278235320616999,2.7943366250649713,-64.08889512222189,-68.7234227369945,4.634527614772608,63.53956273102627,67.01600850744748,-3.4764457764212082,32.98488044265371,41.06331221924199,-8.078431776588282,-0.041981761111910126,0.0,-0.041981761111910126
0.5140000000000003,move_to_zero,-0.4790238181029563,-3.273835004750399,2.7948111866474425,-63.99944558880199,-68.63117653197838,4.631730943176393,63.44288289787033,66.92605413361197,-3.4831712357416436,32.91872673268718,41.00819367935039,-8.089466946663208,-0.04209032497469329,0.0,-0.04209032497469329
0.5160000000000003,move_to_zero,-0.4741607808631512,-3.2694346888837993,2.795273908020648,-63.91005275825043,-68.53893032696229,4.628877568711857,63.346244685491044,66.83609975977649,-3.489855074285444,32.85260364495383,40.95307513945879,-8.100471494504959,-0.04219797164687717,0.0,-0.04219797164687717
0.5180000000000003,move_to_zero,-0.46931911117175806,-3.265034373017199,2.795715261845441,-63.820691315974464,-68.44668412194618,4.625992805971713,63.249628673437215,66.74614538594096,-3.496516712503748,32.78652357988985,40.89795659956719,-8.111433019677335,-0.04230650104583979,0.0,-0.04230650104583979
0.5200000000000004,move_to_zero,-0.4645008232832699,-3.2606340571505994,2.7961332338673293,-63.73139920873164,-68.35443791693008,4.623038708198443,63.15303672971163,66.65619101210548,-3.503154282393851,32.72046788916875,40.84283805967559,-8.12237017050684,-0.04241598231112229,0.0,-0.04241598231112229
0.5220000000000004,move_to_zero,-0.4597215562870227,-3.2562337412839986,2.796512184996976,-63.64218880227092,-68.26219171191397,4.620002909643048,63.056484829373424,66.56623663826997,-3.509751808896546,32.65443649378873,40.78771951978399,-8.133283025995262,-0.042523254645151734,0.0,-0.042523254645151734
0.5240000000000004,move_to_zero,-0.45498906805281714,-3.251833425417399,2.796844357364582,-63.553055868866046,-68.16994550689789,4.616889638031843,62.95998210352957,66.47628226443447,-3.5163001609049047,32.58844215277487,40.732600979892396,-8.14415882711753,-0.04262832712607852,0.0,-0.04262832712607852
0.5260000000000004,move_to_zero,-0.4502978463177973,-3.2474331095507987,2.7971352632330015,-63.46400433941914,-68.07769930188178,4.613694962462638,62.863547211660176,66.38632789059898,-3.522780678938801,32.52248126258654,40.677482440000794,-8.155001177414256,-0.042733022094259505,0.0,-0.042733022094259505
0.5280000000000004,move_to_zero,-0.4456319942827679,-3.2430327936841996,2.797400799401432,-63.375016564531066,-67.9854530968657,4.6104365323346315,62.767169092258456,66.29637351676348,-3.529204424505025,32.45654179541021,40.62236390010919,-8.165822104698982,-0.04283688859549331,0.0,-0.04283688859549331
0.5300000000000004,move_to_zero,-0.44100845338744116,-3.2386324778175983,2.7976240244301573,-63.2860752657801,-67.89320689184957,4.607131626069474,62.67083199129412,66.20641914292797,-3.535587151633848,32.39062967058619,40.56724536021758,-8.17661568963139,-0.0429376558188064,0.0,-0.0429376558188064
0.5320000000000004,move_to_zero,-0.43642065294368,-3.2342321619509993,2.7978115090073192,-63.19714866256359,-67.80096068683349,4.603812024269899,62.57453510640102,66.11646476909249,-3.541929662691466,32.32473728767987,40.512126820325996,-8.187389532646122,-0.043034351429922096,0.0,-0.043034351429922096
0.5340000000000004,move_to_zero,-0.431875951233319,-3.229831846084399,2.79795589485108,-63.1082374988872,-67.70871448181737,4.600476982930168,62.478271745180464,66.02651039525698,-3.548238650076513,32.258834530432075,40.45700828043439,-8.198173750002312,-0.0431277026651038,0.0,-0.0431277026651038
0.5360000000000004,move_to_zero,-0.4273734799334253,-3.2254315302177994,2.798058050284374,-63.019367209045434,-67.61646827680129,4.597101067755851,62.38203366266236,65.93655602142148,-3.5545223587591224,32.19292565152203,40.4018897405428,-8.208964089020768,-0.043217860829486206,0.0,-0.043217860829486206
0.5380000000000004,move_to_zero,-0.4228973910442951,-3.2210312143511985,2.7981338233069035,-62.93055363580492,-67.52422207178519,4.59366843598027,62.28581263501984,65.84660164758597,-3.560789012566133,32.127035140155506,40.34677120065119,-8.219736060495684,-0.04330623431469977,0.0,-0.04330623431469977
0.5400000000000004,move_to_zero,-0.41843010401227526,-3.216630898484599,2.798200794472324,-62.84179763938229,-67.4319758667691,4.590178227386801,62.18959987011236,65.75664727375049,-3.567047403638128,32.06116760228216,40.29165266075959,-8.230485058477427,-0.043391136060195276,0.0,-0.043391136060195276
0.5420000000000004,move_to_zero,-0.41398573620945184,-3.2122305826179987,2.7982448464085468,-62.753107014661055,-67.33972966175298,4.586622647091929,62.093379174884205,65.66669289991496,-3.573313725030758,31.995311353300952,40.23653412086799,-8.241222767567034,-0.0434743011731161,0.0,-0.0434743011731161
0.5440000000000004,move_to_zero,-0.40957525289310937,-3.207830266751399,2.79825501385829,-62.66447449395911,-67.24748345673689,4.583008962777775,61.997152825768666,65.57673852607948,-3.5795857003108154,31.9294561987283,40.18141558097639,-8.251959382248092,-0.04355553210154127,0.0,-0.04355553210154127
0.5460000000000004,move_to_zero,-0.4051894829960357,-3.2034299508847988,2.798240467888763,-62.5759037453977,-67.15523725172078,4.579333506323074,61.90091823143506,65.48678415224397,-3.5858659208089136,31.8635911522171,40.12629704108479,-8.26270588886769,-0.04363445298856698,0.0,-0.04363445298856698
0.5480000000000004,move_to_zero,-0.40083767231950584,-3.1990296350181993,2.7981919626986933,-62.4873934535301,-67.06299104670468,4.575597593174578,61.80468678321798,65.39682977840847,-3.5921429951904926,31.79771189197822,40.071178501193195,-8.273466609214974,-0.04371091517299401,0.0,-0.04371091517299401
0.5500000000000004,move_to_zero,-0.3965262876104692,-3.194629319151599,2.7981030315411295,-62.39894792323296,-66.97074484168859,4.571796918455625,61.70848191946397,65.30687540457298,-3.598393485109007,31.731815556554093,40.01605996130159,-8.2842444047475,-0.04378593704905057,0.0,-0.04378593704905057
0.5520000000000004,move_to_zero,-0.3922506438303394,-3.190229003284999,2.7979783594546594,-62.31055219764092,-66.87849863667249,4.567946439031573,61.612296010833276,65.21692103073748,-3.604625019904205,31.665938779817775,39.96094142140999,-8.295002641592216,-0.0438591488957726,0.0,-0.0438591488957726
0.5540000000000004,move_to_zero,-0.3880012170726367,-3.1858286874183985,2.7978274703457617,-62.222191229220705,-66.78625243165638,4.564061202435674,61.5161042928502,65.12696665690197,-3.610862364051769,31.600082595568367,39.90582288151839,-8.305740285950023,-0.043930703381227725,0.0,-0.043930703381227725
0.5560000000000004,move_to_zero,-0.3838040895089173,-3.1814283715517995,2.7976242820428823,-62.13385017693472,-66.69400622664028,4.5601560497055615,61.41989753469885,65.03701228306649,-3.6171147483676407,31.53424213118074,39.850704341626795,-8.316462210446055,-0.04400101268190351,0.0,-0.04400101268190351
0.5580000000000004,move_to_zero,-0.37964283006013855,-3.1770280556851986,2.79738522562506,-62.045545697172535,-66.60176002162417,4.556214324451638,61.32366325795578,64.94705790923096,-3.6233946512751842,31.46842548932685,39.795585801735186,-8.327160312408335,-0.044069761357659144,0.0,-0.044069761357659144
0.5600000000000004,move_to_zero,-0.3755187631829587,-3.172627739818599,2.7971089766356405,-61.95728730114427,-66.50951381660808,4.552226515463808,61.227399410087415,64.85710353539548,-3.6297041253080664,31.402652313879567,39.7404672618436,-8.33781494796403,-0.04413857545208735,0.0,-0.04413857545208735
0.5620000000000004,move_to_zero,-0.37141343155158285,-3.1682274239519987,2.796813992400416,-61.869077891648956,-66.41726761159198,4.548189719943025,61.13111653251043,64.76714916155997,-3.636032629049538,31.336899011673747,39.68534872195198,-8.348449710278235,-0.0442097374342075,0.0,-0.0442097374342075
0.5640000000000004,move_to_zero,-0.36733059151639486,-3.1638271080853992,2.7964965165690043,-61.7809166092706,-66.3250214065759,4.544104797305302,61.03480628312158,64.67719478772447,-3.6423885046028914,31.271169677327386,39.630230182060394,-8.359060504733009,-0.044285590655234325,0.0,-0.044285590655234325
0.5660000000000004,move_to_zero,-0.363286612731858,-3.159426792218799,2.7961401794869407,-61.692806923596585,-66.23277520155978,4.53996827796319,60.938464121315526,64.58724041388896,-3.6487762925734373,31.20544898391415,39.575111642168785,-8.369662658254637,-0.0443666716728756,0.0,-0.0443666716728756
0.5680000000000004,move_to_zero,-0.35927398187365644,-3.155026476352199,2.7957524944785423,-61.604736071894855,-66.1405289965437,4.535792924648838,60.84209606815079,64.49728604005348,-3.6551899719026935,31.13972458625135,39.51999310227719,-8.38026851602584,-0.04445238414306764,0.0,-0.04445238414306764
0.5700000000000004,move_to_zero,-0.35528083970409446,-3.1506261604855985,2.795345320781504,-61.516730218347384,-66.04828279152757,4.531552573180186,60.74571941252112,64.40733166621797,-3.661612253696852,31.073993842111438,39.46487456238559,-8.39088072027415,-0.04454214951950942,0.0,-0.04454214951950942
0.5720000000000004,move_to_zero,-0.3512908137683226,-3.1462258446189995,2.794935030850677,-61.42877834072226,-65.95603658651149,4.527258245789227,60.64934308080089,64.31737729238247,-3.6680342115815847,31.00826336422866,39.409756022493994,-8.401492658265333,-0.04463229315208981,0.0,-0.04463229315208981
0.5740000000000004,move_to_zero,-0.34730770560848245,-3.141825528752399,2.7945178231439165,-61.34085465395073,-65.86379038149538,4.522935727544649,60.55296276654643,64.22742291854698,-3.674460152000549,30.94253902287703,39.354637482602385,-8.412098459725357,-0.04472326634264149,0.0,-0.04472326634264149
0.5760000000000004,move_to_zero,-0.3433224615390489,-3.137425212885799,2.7941027513467502,-61.25297585330433,-65.7715441764793,4.518568323174968,60.45658471904068,64.13746854471148,-3.6808838256708043,30.8768307552277,39.29951894271079,-8.42268818748309,-0.044813510278594405,0.0,-0.044813510278594405
0.5780000000000004,move_to_zero,-0.3393408305955534,-3.1330248970191987,2.793684066423645,-61.16512683482575,-65.67929797146319,4.514171136637437,60.36019424388422,64.04751417087597,-3.687319926991748,30.811144192514107,39.24440040281919,-8.433256210305082,-0.04490592369689775,0.0,-0.04490592369689775
0.5800000000000004,move_to_zero,-0.3353747205184924,-3.1286245811525992,2.793249860634107,-61.07729064983438,-65.58705176644709,4.509761116612708,60.263764071938134,63.95755979704048,-3.6937957251023477,30.745494445000677,39.189281862927594,-8.443787417926917,-0.04499936885869549,0.0,-0.04499936885869549
0.5820000000000004,move_to_zero,-0.3314362810630988,-3.1242242652859984,2.7927879842228998,-60.989479042655844,-65.49480556143098,4.505326518775135,60.16732424223148,63.867605423204964,-3.7002811809734837,30.679868556598315,39.134163323035985,-8.45429476643767,-0.04509364204775351,0.0,-0.04509364204775351
0.5840000000000004,move_to_zero,-0.3275355293085263,-3.119823949419399,2.7922884201108724,-60.901676267844024,-65.40255935641488,4.500883088570859,60.07089256549352,63.777651049369474,-3.7067584838759515,30.61425706454654,39.0790447831444,-8.464787718597858,-0.04519012576195616,0.0,-0.04519012576195616
0.5860000000000004,move_to_zero,-0.3236506302320205,-3.1154236335527985,2.791773003320778,-60.81387325964862,-65.31031315139877,4.496439891750157,59.97447895427507,63.68769667553397,-3.7132177212589,30.548650121827215,39.02392624325278,-8.475276121425566,-0.045287402933016335,0.0,-0.045287402933016335
0.5880000000000004,move_to_zero,-0.3198000819995263,-3.1110233176861994,2.7912232356866733,-60.72605871384099,-65.21806694638268,4.492008232541686,59.87806655026745,63.597742301698474,-3.7196757514310264,30.48308857864135,38.96880770336119,-8.485719124719843,-0.045383953371214,0.0,-0.045383953371214
0.5900000000000004,move_to_zero,-0.31596710586959703,-3.1066230018195986,2.7906558959500014,-60.63821281939138,-65.12582074136658,4.487607921975204,59.78165694027312,63.50778792786297,-3.7261309875898476,30.417554343326813,38.913689163469584,-8.496134820142771,-0.04547810584289819,0.0,-0.04547810584289819
0.5920000000000004,move_to_zero,-0.3121570409772967,-3.102222685952999,2.7900656449757024,-60.550355538413704,-65.03357453635049,4.483218997936781,59.68526081770813,63.41783355402748,-3.732572736319355,30.352052548479495,38.858570623578,-8.506518075098501,-0.045570858169026215,0.0,-0.045570858169026215
0.5940000000000004,move_to_zero,-0.3083772677756625,-3.0978223700863987,2.789445102310736,-60.46248818026821,-64.94132833133438,4.478840151066166,59.58887379235711,63.32787918019197,-3.739005387834858,30.28660360729239,38.80345208368639,-8.516848476394,-0.04566015771473445,0.0,-0.04566015771473445
0.5960000000000004,move_to_zero,-0.3046172887897843,-3.093422054219799,2.7888047654300148,-60.37460437498588,-64.84908212631828,4.474477751332401,59.492495502187566,63.23792480635648,-3.7454293041689155,30.22122326721136,38.74833354379479,-8.527110276583432,-0.04574638332927782,0.0,-0.04574638332927782
0.5980000000000004,move_to_zero,-0.3008624562974882,-3.0890217383531984,2.78815928205571,-60.2867218026514,-64.75683592130217,4.47011411865077,59.39609625233304,63.147970432520964,-3.751874180187926,30.155928521553843,38.693215003903184,-8.53728648234934,-0.04583011566548038,0.0,-0.04583011566548038
0.6000000000000004,move_to_zero,-0.29713384107811336,-3.0846214224865993,2.787487581408486,-60.19886009706459,-64.66458971628607,4.465729619221484,59.29966317461585,63.05801605868548,-3.7583528840696303,30.090712223006573,38.63809646401159,-8.547384241005016,-0.045910115745858585,0.0,-0.045910115745858585
0.6020000000000004,move_to_zero,-0.2934175186169605,-3.0802211066199985,2.786803588003038,-60.11103446155471,-64.57234351126998,4.461309049715268,59.203184384306994,62.968061684849964,-3.7648773005429703,30.025583404229593,38.58297792411999,-8.557394519890394,-0.04598613138961835,0.0,-0.04598613138961835
0.6040000000000004,move_to_zero,-0.2896888095728834,-3.075820790753399,2.7861319811805156,-60.023255060865665,-64.4800973062539,4.456842245388231,59.106665406225154,62.878107311014475,-3.77144190478932,29.96054124791433,38.52785938422839,-8.567318136314064,-0.046055683474868596,0.0,-0.046055683474868596
0.6060000000000004,move_to_zero,-0.2859416260014325,-3.0714204748867986,2.785478848885366,-59.93552951085698,-64.38785110123777,4.452321590380791,59.01012280920922,62.78815293717897,-3.7780301279697497,29.895569458874714,38.47274084433679,-8.577171385462076,-0.046119671198390444,0.0,-0.046119671198390444
0.6080000000000004,move_to_zero,-0.2821813771597602,-3.067020159020199,2.7848387818604388,-59.84785435309591,-64.29560489622169,4.447750543125778,58.913583049712685,62.698198563343475,-3.78461551363079,29.830669297226002,38.417622304445196,-8.586953007219194,-0.046179556710199424,0.0,-0.046179556710199424
0.6100000000000004,move_to_zero,-0.278432612518745,-3.0626198431535987,2.7841872306348536,-59.760210554385225,-64.20335869120557,4.443148136820341,58.81705663582295,62.60824418950797,-3.7911875536850204,29.765828451007245,38.36250376455359,-8.596675313546342,-0.0462362203041908,0.0,-0.0462362203041908
0.6120000000000004,move_to_zero,-0.27469697428432654,-3.0582195272869988,2.783522553002672,-59.67260908165653,-64.11111248618948,4.438503404532952,58.72054981524837,62.51828981567248,-3.7977400004241133,29.701015263454515,38.30738522466199,-8.606369961207477,-0.046290059793507324,0.0,-0.046290059793507324
0.6140000000000004,move_to_zero,-0.2709796316088661,-3.0538192114203984,2.782839579811532,-59.585039873361715,-64.01886628117337,4.433826407811658,58.62404115987912,62.42833544183697,-3.8042942819578514,29.636242839530997,38.25226668477038,-8.616023845239386,-0.04634100524084812,0.0,-0.04634100524084812
0.6160000000000004,move_to_zero,-0.2672990472358488,-3.0494188955537993,2.7821198483179503,-59.497516519563966,-63.926620076157285,4.429103556593319,58.527534843465105,62.33838106800148,-3.810846224536377,29.571498314369865,38.197148144878796,-8.62564983050893,-0.046388638153261566,0.0,-0.046388638153261566
0.6180000000000004,move_to_zero,-0.26363607300723324,-3.045018579687199,2.781382506679966,-59.41001218162147,-63.83437387114118,4.4243616895197135,58.43102224204141,62.248426694165964,-3.8174044521245563,29.50676819270457,38.14202960498719,-8.635261412282617,-0.04643116141657521,0.0,-0.04643116141657521
0.6200000000000004,move_to_zero,-0.2599756492020438,-3.040618263820599,2.780642614618555,-59.32252832740802,-63.742127666125086,4.419599338717063,58.33451492765752,62.15847232033048,-3.823957392672959,29.442069165736676,38.08691106509559,-8.644841899358916,-0.04646769868063198,0.0,-0.04646769868063198
0.6220000000000004,move_to_zero,-0.2563169294739546,-3.0362179479539986,2.779901018480044,-59.23506160982402,-63.649881461108976,4.414819851284953,58.23801095306449,62.068517946494964,-3.8305069934304754,29.37741920584947,38.03179252520398,-8.654373319354512,-0.04649954298447245,0.0,-0.04649954298447245
0.6240000000000004,move_to_zero,-0.2526663360762348,-3.031817632087399,2.779151296011164,-59.147598124589926,-63.55763525609289,4.4100371315029605,58.141504827840514,61.978563572659475,-3.837058744818961,29.312815582764657,37.97667398531239,-8.663858402547731,-0.0465237884130612,0.0,-0.0465237884130612
0.6260000000000004,move_to_zero,-0.2490443623717654,-3.0274173162207987,2.778372953849033,-59.06014981939148,-63.46538905107678,4.4052392316853,58.04498931051594,61.888609198823964,-3.8436198883080266,29.24829315142945,37.921555445420786,-8.673262293991336,-0.046541102778329874,0.0,-0.046541102778329874
0.6280000000000004,move_to_zero,-0.24546201339232793,-3.0230170003541987,2.7775549869618708,-58.972713690320994,-63.37314284606068,4.400429155739687,57.94846893738468,61.798654824988475,-3.850185887603793,29.183875986832998,37.86643690552919,-8.682560918696193,-0.04655348810427035,0.0,-0.04655348810427035
0.6300000000000004,move_to_zero,-0.2419094491992547,-3.0186166844875983,2.7767072352883435,-58.88530394442059,-63.28089664104458,4.395592696623986,57.85194349130194,61.70870045115297,-3.856756959851033,29.11955517804385,37.81131836563759,-8.69176318759374,-0.04656508186372517,0.0,-0.04656508186372517
0.6320000000000005,move_to_zero,-0.23837626732513517,-3.0142163686209993,2.7758401012958642,-58.7979232532736,-63.18865043602848,4.39072718275488,57.755393694618455,61.618746077317475,-3.86335238269902,29.055350053711848,37.756199825745995,-8.700849772034147,-0.046575058896578855,0.0,-0.046575058896578855
0.6340000000000005,move_to_zero,-0.23484327791398477,-3.009816052754399,2.774972774840414,-58.71057765517667,-63.09640423101237,4.385826575835701,57.6588306986115,61.52879170348197,-3.8699610048704685,28.991249370188996,37.701081285854386,-8.70983191566539,-0.046583283936103455,0.0,-0.046583283936103455
0.6360000000000005,move_to_zero,-0.2313158954489761,-3.005415736887799,2.7740998414388227,-58.62324894929728,-63.00415802599628,4.380909076699005,57.56225343836113,61.43883732964648,-3.8765838912853496,28.927244398258242,37.64596274596279,-8.718718347704549,-0.04658998702057935,0.0,-0.04658998702057935
0.6380000000000005,move_to_zero,-0.22781017650378346,-3.0010154210211986,2.773205244517415,-58.53594325412171,-62.91191182098017,4.375968566858461,57.4656619235529,61.348882955810964,-3.8832210322580636,28.863321838753585,37.59084420607118,-8.727522367317597,-0.04659509853275825,0.0,-0.04659509853275825
0.6400000000000005,move_to_zero,-0.22429877424944936,-2.996615105154599,2.7723163309051495,-58.44864205271359,-62.81966561596408,4.371023563250489,57.36905908535745,61.25892858197548,-3.889869496618033,28.799476446903526,37.535725666179594,-8.736249219276068,-0.046594964190697426,0.0,-0.046594964190697426
0.6420000000000005,move_to_zero,-0.22079032005685384,-2.9922147892879987,2.7714244692311447,-58.361343952455876,-62.727419410947974,4.366075458492098,57.27244633622483,61.168974208139964,-3.896527871915133,28.73572627098816,37.480607126287985,-8.744880855299826,-0.04659023455078308,0.0,-0.04659023455078308
0.6440000000000005,move_to_zero,-0.21730194675766482,-2.987814473421399,2.7705125266637345,-58.2740407213282,-62.63517320593189,4.361132484603694,57.17580801145929,61.079019834304475,-3.9032118228451864,28.672094426002293,37.42548858639639,-8.753394160394098,-0.046581945630170304,0.0,-0.046581945630170304
0.6460000000000005,move_to_zero,-0.2138218080377519,-2.9834141575547983,2.7695923495170462,-58.18671725511458,-62.54292700091577,4.356209745801188,57.07913020799207,60.989065460468964,-3.9099352524768918,28.60856826201445,37.37037004650478,-8.76180178449033,-0.0465725833448921,0.0,-0.0465725833448921
0.6480000000000005,move_to_zero,-0.21035521997293882,-2.9790138416881993,2.7686586217152604,-58.099383484527294,-62.450680795899686,4.351297311372392,56.982408528308255,60.899111086633475,-3.9167025583252197,28.54513594426939,37.31525150661319,-8.770115562343797,-0.04656306598375463,0.0,-0.04656306598375463
0.6500000000000005,move_to_zero,-0.20688436220800266,-2.9746135258215984,2.7677291636135957,-58.012070147329126,-62.35843459088357,4.346364443554442,56.88564851373703,60.80915671279797,-3.92350819906094,28.481786358838303,37.260132966721585,-8.778346607883282,-0.04655215409628241,0.0,-0.04655215409628241
0.6520000000000005,move_to_zero,-0.20341898609977518,-2.970213209954999,2.7667942238552237,-57.92479239407878,-62.26618838586749,4.341395991788708,56.7888630568789,60.719202338962475,-3.9303392820835725,28.41851621415292,37.20501442682999,-8.78649821267707,-0.046539897876772575,0.0,-0.046539897876772575
0.6540000000000005,move_to_zero,-0.19996764810164805,-2.9658128940883985,2.7658452459867506,-57.8375695182478,-62.17394218085137,4.336372662603573,56.692063073023235,60.62924796512697,-3.937184892103737,28.355325684109324,37.14989588693839,-8.794570202829064,-0.04652631838216275,0.0,-0.04652631838216275
