GerardoFJ/TE3001B_TEAM_3/src/s0s1_gazebo/scripts/results/PID3/state.csv
t,phase,shoulder_pan_actual_deg,shoulder_pan_desired_deg,shoulder_pan_error_deg,shoulder_lift_actual_deg,shoulder_lift_desired_deg,shoulder_lift_error_deg,elbow_flex_actual_deg,elbow_flex_desired_deg,elbow_flex_error_deg,wrist_flex_actual_deg,wrist_flex_desired_deg,wrist_flex_error_deg,wrist_roll_actual_deg,wrist_roll_desired_deg,wrist_roll_error_deg
0.002,move_to_zero,-4.376474382407018,-4.4003158666,0.02384148419298171,-92.21682027023317,-92.2462050161,0.02938474586683526,89.9402674989065,89.9543738355,-0.014106336593499691,55.09939055982472,55.1185398916,-0.019149331775281553,0.0017248340730163765,0.0,0.0017248340730163765
0.004,move_to_zero,-4.332232395515058,-4.3959155507334,0.06368315521834145,-92.15474840609974,-92.15395881108391,-0.0007895950158314236,89.9100382543082,89.86441946166448,0.04561879264372237,55.06061111684386,55.0634213517084,-0.002810234864540462,0.004411016605574622,0.0,0.004411016605574622
0.006,move_to_zero,-4.27119386196464,-4.3915152348668,0.1203213729021595,-92.06328458878582,-92.0617126060678,-0.0015719827180191714,89.8646447477742,89.77446508782899,0.09017965994520694,55.00358789925582,55.008302811816804,-0.004714912560984885,0.0073650679015089425,0.0,0.0073650679015089425
0.008,move_to_zero,-4.196493336332901,-4.3871149190002,0.19062158266729856,-91.94552237582714,-91.9694664010517,0.023944025224565735,89.8050080362229,89.68451071399349,0.12049732222941145,54.92964135930482,54.953184271925196,-0.02354291262037833,0.010064750341128772,0.0,0.010064750341128772
0.01,move_to_zero,-4.110829689212007,-4.382714603133599,0.27188491392159175,-91.8043465657454,-91.8772201960356,0.07287363029018934,89.73201809549377,89.594556340158,0.13746175533577798,54.84004474847351,54.8980657320336,-0.05802098356009111,0.01225432507215039,0.0,0.01225432507215039
0.012,move_to_zero,-4.016538635291558,-4.378314287266999,0.36177565197544137,-91.64241107880551,-91.7849739910195,0.14256291221398953,89.64653252997185,89.50460196632248,0.1419305636493675,54.73602256035603,54.842947192142,-0.10692463178597222,0.014005401819099934,0.0,0.014005401819099934
0.014,move_to_zero,-3.915612808794075,-4.373913971400399,0.45830116260632403,-91.46216933344343,-91.69272778600339,0.23055845255996132,89.54939190635939,89.41464759248699,0.13474431387240315,54.61872026482097,54.787828652250404,-0.16910838742943213,0.01538200422312465,0.0,0.01538200422312465
0.016,move_to_zero,-3.809775405014951,-4.369513655533799,0.5597382505188482,-91.26586147718372,-91.6004815809873,0.3346201038035872,89.44138937724813,89.32469321865149,0.11669615859663907,54.489234896657145,54.7327101123588,-0.24347521570165753,0.016439990808904476,0.0,0.016439990808904476
0.018000000000000002,move_to_zero,-3.70047323060711,-4.3651133396672,0.6646401090600902,-91.05556596748339,-91.5082353759712,0.45266940848780735,89.32329827265838,89.234738844816,0.0885594278423838,54.348592819714305,54.6775915724672,-0.32899875275289503,0.017136818581312444,0.0,0.017136818581312444
0.020000000000000004,move_to_zero,-3.588958485422099,-4.3607130238006,0.7717545383785014,-90.83321357601542,-91.4159891709551,0.582775594939676,89.1958891373163,89.1447844709805,0.05110466633580302,54.19778443500649,54.6224730325756,-0.4246885975691086,0.017427773054692664,0.0,0.017427773054692664
0.022000000000000006,move_to_zero,-3.476309290473716,-4.356312707934,0.8800034174602844,-90.60057543267278,-91.323742965939,0.7231675332662206,89.0598828559083,89.05483009714499,0.005052758763312681,54.037716288410564,54.567354492684,-0.5296382042734322,0.017344561054307425,0.0,0.017344561054307425
0.024000000000000007,move_to_zero,-3.3634111970388534,-4.351912392067399,0.988501195028546,-90.35929988530727,-91.2314967609229,0.8721968756156286,88.91597951012056,88.96487572330949,-0.04889621318892523,53.86926361981463,54.5122359527924,-0.6429723329777701,0.016933932483946205,0.0,0.016933932483946205
0.02600000000000001,move_to_zero,-3.2510236636008853,-4.3475120762007995,1.0964884125999141,-90.11086017080787,-91.1392505559068,1.0283903850989304,88.76486969308884,88.874921349474,-0.1100516563851528,53.69323535516389,54.4571174129008,-0.7638820577369074,0.016300260471931973,0.0,0.016300260471931973
0.02800000000000001,move_to_zero,-3.139754401329776,-4.3431117603341995,1.2033573590044235,-89.85662731650378,-91.0470043508907,1.1903770343869269,88.60720508215715,88.78496697563848,-0.17776189348133187,53.51040621391778,54.401998873009205,-0.8915926590914225,0.01555331641252156,0.0,0.01555331641252156
0.030000000000000013,move_to_zero,-3.030141309620683,-4.3387114444676,1.3085701348469168,-89.59784549543404,-90.9547581458746,1.356912650440563,88.44360799223237,88.695012601803,-0.2514046095706277,53.32151821478309,54.3468803331176,-1.0253621183345132,0.01479959458652339,0.0,0.01479959458652339
0.032000000000000015,move_to_zero,-2.9225966593348027,-4.334311128601,1.411714469266197,-89.33565202354741,-90.8625119408585,1.5268599173110857,88.27469471434094,88.60505822796749,-0.33036351362655125,53.12725068613383,54.291761793225994,-1.1645111070921672,0.014115448436853074,0.0,0.014115448436853074
0.034000000000000016,move_to_zero,-2.817455301409266,-4.3299108127344,1.512455511325134,-89.07109476093939,-90.7702657358424,1.6991709749030122,88.10101685232831,88.51510385413198,-0.4140870018036651,52.92824094571423,54.2366432533344,-1.3084023076201703,0.013523009855483112,0.0,0.013523009855483112
0.03600000000000002,move_to_zero,-2.714953198981899,-4.3255104968678,1.6105572978859009,-88.80510976057039,-90.67801953082629,1.8729097702559017,87.92311812124892,88.4251494802965,-0.502031359047578,52.725094086751646,54.1815247134428,-1.4564306266911515,0.013009325422126246,0.0,0.013009325422126246
0.03800000000000002,move_to_zero,-2.6153044851650176,-4.3211101810012,1.7058056958361822,-88.53851851845398,-90.5857733258102,2.047254807356211,87.74153089491881,88.33519510646099,-0.5936642115421762,52.51835780478627,54.1264061735512,-1.6080483687649334,0.012560996283867875,0.0,0.012560996283867875
0.04000000000000002,move_to_zero,-2.5186803399985074,-4.316709865134599,1.7980295251360916,-88.27206423219158,-90.4935271207941,2.2214628886025167,87.55674327014175,88.24524073262549,-0.6884974624837383,52.30857765453552,54.0712876336596,-1.7627099791240823,0.01216695865161522,0.0,0.01216695865161522
0.04200000000000002,move_to_zero,-2.4251960655224836,-4.312309549267999,1.8871134837455155,-88.00641493375657,-90.401280915778,2.394865982021429,87.36920708192507,88.15528635879,-0.7860792768649247,52.096233606630044,54.016169093768006,-1.9199354871379626,0.011817986277342866,0.0,0.011817986277342866
0.044000000000000025,move_to_zero,-2.334905557842673,-4.307909233401399,1.9730036755587261,-87.74219138010362,-90.3090347107619,2.566843330658287,87.1793872657881,88.06533198495448,-0.885944719166389,51.88177768393946,53.9610505538764,-2.0792728699369363,0.011506813299927076,0.0,0.011506813299927076
0.04600000000000003,move_to_zero,-2.247865863224942,-4.3035089175348,2.055643054309858,-87.47990028881455,-90.2167885057458,2.7368882169312485,86.98772876508096,87.97537761111899,-0.9876488460380273,51.665642784499035,53.905932013984796,-2.240289229485761,0.011225525102567094,0.0,0.011225525102567094
0.04800000000000003,move_to_zero,-2.164093933720468,-4.2991086016682,2.135014667947732,-87.21998736782982,-90.1245423007297,2.9045549328998845,86.79462710584589,87.88542323728349,-1.0907961314375996,51.44823503242187,53.8508134740932,-2.4025784416713307,0.010966652242860683,0.0,0.010966652242860683
0.05000000000000003,move_to_zero,-2.083585500186353,-4.2947082858016,2.211122785615247,-86.96284012813409,-90.03229609571359,3.0694559675795006,86.6004594113642,87.795468863448,-1.195009452083795,51.22994808301875,53.7956949342016,-2.565746851182851,0.01072524620696758,0.0,0.01072524620696758
0.05200000000000003,move_to_zero,-2.0063006955887848,-4.290307969935,2.2840072743462154,-86.70882008463437,-89.9400498906975,3.2312298060631264,86.40558562503921,87.70551448961248,-1.2999288645732747,51.01112844043277,53.740576394310004,-2.7294479538772336,0.010496668856741258,0.0,0.010496668856741258
0.054000000000000034,move_to_zero,-1.9321907511960628,-4.285907654068399,2.3537169028723364,-86.45820481918665,-89.8478036856814,3.389598866494751,86.21033351366927,87.61556011577699,-1.4052266021077173,50.79208775201166,53.6854578544184,-2.8933701024067418,0.01027806998222181,0.0,0.01027806998222181
0.056000000000000036,move_to_zero,-1.8612021208123706,-4.281507338201799,2.420305217389429,-86.2112557411041,-89.7555574806653,3.544301739561206,86.01501309568717,87.52560574194149,-1.5105926462543238,50.57310530045198,53.6303393145268,-3.0572340140748224,0.010067670296868246,0.0,0.010067670296868246
0.05800000000000004,move_to_zero,-1.7932465563932993,-4.2771070223351995,2.4838604659419,-85.96820111632634,-89.66331127564919,3.6951101593228515,85.819927132929,87.43565136810598,-1.6157242351769838,50.354457822504415,53.5752207746352,-3.2207629521307837,0.00986257676838251,0.0,0.00986257676838251
0.06000000000000004,move_to_zero,-1.7282477543576824,-4.2727067064685995,2.544458952110917,-85.72919822687727,-89.5710650706331,3.841866843755824,85.62534285079849,87.3456969942705,-1.720354143472008,50.136413937720334,53.5201022347436,-3.3836882970232622,0.009660596285795754,0.0,0.009660596285795754
0.06200000000000004,move_to_zero,-1.666111325523147,-4.268306390602,2.6021950650788526,-85.49438162654896,-89.478818865617,3.9844372390680434,85.43151225551735,87.25574262043499,-1.8242303649176392,49.919214933749814,53.464983694852,-3.545768761102188,0.009460039043012382,0.0,0.009460039043012382
0.06400000000000004,move_to_zero,-1.6067216757353417,-4.2639060747354,2.657184399000058,-85.26385758598845,-89.38657266060089,4.122715074612444,85.23866671825833,87.16578824659948,-1.9271215283411465,49.703064701247946,53.4098651549604,-3.7068004537124537,0.009260991038217549,0.0,0.009260991038217549
0.06600000000000004,move_to_zero,-1.5499750163945192,-4.2595057588688,2.7095307424742803,-85.03770345437796,-89.29432645558481,4.256623001206847,85.0470345751403,87.075833872764,-2.028799297623692,49.48818285487383,53.354746615068805,-3.8665637601949783,0.009063438608061292,0.0,0.009063438608061292
0.06800000000000005,move_to_zero,-1.4957428088674833,-4.2551054430022,2.7593626341347166,-84.81599643505115,-89.2020802505687,4.386083815517551,84.85682894925732,86.98587949892848,-2.129050549671163,49.27476611087006,53.299628075177196,-4.024861964307135,0.008867264384873444,0.0,0.008867264384873444
0.07000000000000005,move_to_zero,-1.4439009430120364,-4.250705127135599,2.8068041841235623,-84.59878340582326,-89.1098340455526,4.511050639729348,84.66821264876576,86.89592512509299,-2.227712476327227,49.06300107294145,53.2445095352856,-4.181508462344155,0.008669405004080153,0.0,0.008669405004080153
0.07200000000000005,move_to_zero,-1.3943385893280678,-4.246304811268999,2.8519662219409314,-84.38609456756541,-89.01758784053649,4.631493272971085,84.48132917843395,86.80597075125749,-2.3246415728235377,48.85304960717051,53.189390995394,-4.336341388223488,0.008469118835691809,0.0,0.008469118835691809
0.07400000000000005,move_to_zero,-1.3469589439171383,-4.241904495402399,2.894945551485261,-84.1779275751558,-88.9253416355204,4.747414060364591,84.2963149511613,86.71601637742198,-2.419701426260673,48.64505113420792,53.1342724555024,-4.48922132129448,0.008264267944276293,0.0,0.008264267944276293
0.07600000000000005,move_to_zero,-1.3016594894242308,-4.2375041795358,2.935844690111569,-83.97425198094642,-88.83309543050429,4.858843449557867,84.11331630520444,86.62606200358648,-2.512745698382048,48.43911706056274,53.0791539156108,-4.640036855048066,0.008036388258887073,0.0,0.008036388258887073
0.07800000000000006,move_to_zero,-1.258360057410007,-4.2331038636692,2.974743806259193,-83.77501773545083,-88.74084922548819,4.96583149003736,83.93244823189494,86.53610762975099,-2.603659397856049,48.23536834266983,53.0240353757192,-4.7886670330493715,0.007789892595760297,0.0,0.007789892595760297
0.08000000000000006,move_to_zero,-1.2169870644408038,-4.2287035478026,3.011716483361796,-83.58015254925643,-88.6486030204721,5.0684504712156695,83.75382082835512,86.44615325591549,-2.6923324275603733,48.03390672109963,52.9689168358276,-4.935010114727966,0.007502601924367952,0.0,0.007502601924367952
0.08200000000000006,move_to_zero,-1.177435195519614,-4.224303231936,3.0468680364163863,-83.38958811765437,-88.556356815456,5.166768697801629,83.57753439442916,86.35619888207998,-2.778664487650815,47.834818445229644,52.913798295936,-5.078979850706354,0.0072049501567300915,0.0,0.0072049501567300915
0.08400000000000006,move_to_zero,-1.1396459231050182,-4.219902916069399,3.0802569929643813,-83.2032515615282,-88.4641106104399,5.260859048911698,83.40365372460043,86.26624450824448,-2.862590783644052,47.638136303366245,52.858679756044396,-5.22054345267815,0.006893742912080946,0.0,0.006893742912080946
0.08600000000000006,move_to_zero,-1.1035260186640072,-4.215502600202799,3.111976581538792,-83.02106996708036,-88.37186440542379,5.350794438343428,83.23224248453928,86.17629013440899,-2.9440476498697024,47.44395223902658,52.8035612161528,-5.359608977126221,0.006579365096678376,0.0,0.006579365096678376
0.08800000000000006,move_to_zero,-1.0689875469042458,-4.211102284336199,3.1421147374319536,-82.8429451846207,-88.2796182004077,5.436673015786994,83.06337461000805,86.08633576057349,-3.022961150565436,47.252336142516384,52.7484426762612,-5.496106533744815,0.006270556660603083,0.0,0.006270556660603083
0.09000000000000007,move_to_zero,-1.0359381812137414,-4.206701968469599,3.170763787255858,-82.66878294796992,-88.18737199539159,5.518589047421671,82.89711819781209,85.996381386738,-3.099263188925903,47.06332052711698,52.693324136369604,-5.6300036092526256,0.005967288451924043,0.0,0.005967288451924043
0.09200000000000007,move_to_zero,-1.0043166213506527,-4.2023016526029995,3.1979850312523466,-82.4984485560099,-88.0951257903755,5.5966772343656,82.73353109641768,85.90642701290248,-3.172895916484805,46.87694210341952,52.638205596477995,-5.761263493058472,0.0056803503567885594,0.0,0.0056803503567885594
0.09400000000000007,move_to_zero,-0.9740800471180355,-4.1979013367363995,3.223821289618364,-82.33182579687656,-88.0028795853594,5.671053788482837,82.57264225405477,85.81647263906699,-3.2438303850122168,46.693240271163944,52.5830870565864,-5.889846785422456,0.005391344369817806,0.0,0.005391344369817806
0.09600000000000007,move_to_zero,-0.9451483480646642,-4.1935010208698,3.2483526728051353,-82.16878246045707,-87.9106333803433,5.741850919886232,82.41447553428769,85.72651826523149,-3.3120427309438014,46.51224468602795,52.5279685166948,-6.01572383066685,0.005116508179644502,0.0,0.005116508179644502
0.09800000000000007,move_to_zero,-0.9174485942205749,-4.1891007050032,3.271652110782625,-82.00923066780845,-87.81838717532719,5.809156507518736,82.2590636469228,85.63656389139598,-3.3775002444731825,46.33399249948977,52.4728499768032,-6.1388574773134295,0.004854164183770888,0.0,0.004854164183770888
0.10000000000000007,move_to_zero,-0.8909043226184823,-4.184700389136599,3.2937960665181167,-81.85304578388379,-87.72614097031109,5.873095186427307,82.10640560717077,85.5466095175605,-3.4402039103897266,46.15849617599932,52.4177314369116,-6.259235260912284,0.004601461491296048,0.0,0.004601461491296048
0.10200000000000008,move_to_zero,-0.8654374145645258,-4.180300073269999,3.314862658705473,-81.70010611296672,-87.633894765295,5.933788652328275,81.95648957916565,85.45665514372499,-3.500165564559339,45.98575600311951,52.36261289702,-6.376856893900488,0.004358421545618547,0.0,0.004358421545618547
0.10400000000000008,move_to_zero,-0.8409821669265216,-4.1758997574034,3.334917590476878,-81.55029339919402,-87.5416485602789,5.991355161084883,81.80929021370993,85.36670076988948,-3.5574105561795477,45.81577627054425,52.3074943571284,-6.49171808658415,0.004123772262918398,0.0,0.004123772262918398
0.10600000000000008,move_to_zero,-0.8174809374765679,-4.1714994415368,3.3540185040602317,-81.40348814610566,-87.4494023552628,6.0459142091571465,81.66479278019625,85.276746396054,-3.611953615857743,45.648531566046714,52.252375817236796,-6.603844251190083,0.0038946560446542805,0.0,0.0038946560446542805
0.10800000000000008,move_to_zero,-0.7948632346972004,-4.1670991256702,3.3722358909729993,-81.25958063879042,-87.3571561502467,6.09757551145627,81.52297979107485,85.18679202221848,-3.6638122311436376,45.48404034187492,52.1972572773452,-6.713216935470278,0.0036686218027426718,0.0,0.0036686218027426718
0.11000000000000008,move_to_zero,-0.7730740166967504,-4.1626988098036,3.3896247931068495,-81.11844778221959,-87.2649099452306,6.146462163011009,81.383808014059,85.09683764838299,-3.7130296343239877,45.322299297614535,52.1421387374536,-6.819839439839065,0.003447314608274224,0.0,0.003447314608274224
0.11200000000000009,move_to_zero,-0.7520672324728546,-4.158298493937,3.4062312614641455,-80.97998408407386,-87.17266374021449,6.192679656140626,81.24724877572899,85.00688327454749,-3.7596344988184995,45.16327343729496,52.087020197562,-6.923746760267036,0.0032270872664238812,0.0,0.0032270872664238812
0.11400000000000009,move_to_zero,-0.7318089607811542,-4.153898178070399,3.422089217289245,-80.84405540689878,-87.0804175351984,6.236362128299618,81.11327942340439,84.91692890071198,-3.8036494773075873,45.00694638461469,52.031901657670396,-7.024955273055703,0.0030076380408277895,0.0,0.0030076380408277895
0.11600000000000009,move_to_zero,-0.7122556659944582,-4.149497862203799,3.437242196209341,-80.71055246495018,-86.9881713301823,6.277618865232114,80.98183774469646,84.82697452687648,-3.8451367821800204,44.85329758299217,51.976783117778794,-7.123485534786624,0.002790152526142097,0.0,0.002790152526142097
0.11800000000000009,move_to_zero,-0.6933766709431662,-4.145097546337199,3.451720875394033,-80.57937246130922,-86.8959251251662,6.3165526638569816,80.85286926019974,84.73702015304099,-3.884150892841248,44.7023058920056,51.9216645778872,-7.219358685881602,0.002572901607710786,0.0,0.002572901607710786
0.12000000000000009,move_to_zero,-0.6751241697482953,-4.140697230470599,3.465573060722304,-80.45040648002113,-86.80367892015009,6.353272440128961,80.72632143286687,84.64706577920549,-3.9207443463386227,44.553944661827174,51.8665460379956,-7.312601376168423,0.002354710481261257,0.0,0.002354710481261257
0.1220000000000001,move_to_zero,-0.6574317664994779,-4.136296914603999,3.4788651481045214,-80.32353482844333,-86.711432715134,6.387897886690666,80.60214029049092,84.55711140536998,-3.954971114879058,44.408155096112694,51.811427498104,-7.403272401991309,0.0021354025243129353,0.0,0.0021354025243129353
0.1240000000000001,move_to_zero,-0.6402866761547212,-4.1318965987373995,3.491609922582678,-80.19863943083416,-86.6191865101179,6.420547079283736,80.4802752518404,84.46715703153448,-3.9868817796940874,44.264900515604324,51.7563089582124,-7.491408442608076,0.0018796557549380568,0.0,0.0018796557549380568
0.12600000000000008,move_to_zero,-0.6236640157779316,-4.1274962828707995,3.503832267092868,-80.0756116240912,-86.52694030510179,6.451328681010594,80.36069188142274,84.37720265769899,-4.016510776276249,44.12414638902586,51.70119041832079,-7.577044029294932,0.0015812083336994144,0.0,0.0015812083336994144
0.12800000000000009,move_to_zero,-0.6075306282751531,-4.1230959670042,3.515565338729046,-79.95435463487827,-86.4346941000857,6.480339465207422,80.24331001150749,84.28724828386348,-4.043938272355987,43.98585759350503,51.6460718784292,-7.660214284924166,0.00123580677066368,0.0,0.00123580677066368
0.1300000000000001,move_to_zero,-0.5918396644702268,-4.118695651137599,3.526855986667372,-79.83475759752093,-86.3424478950696,6.507690297548663,80.12805532038848,84.197293910028,-4.069238589639511,43.85000170611785,51.590953338537595,-7.740951632419744,0.0008629045052960842,0.0,0.0008629045052960842
0.1320000000000001,move_to_zero,-0.5765688309536584,-4.114295335270999,3.5377265043173405,-79.71674808486073,-86.2502016900535,6.533453605192776,80.01484270499179,84.10733953619248,-4.092496831200691,43.71654962934649,51.535834798646,-7.819285169299512,0.0004793155350393848,0.0,0.0004793155350393848
0.1340000000000001,move_to_zero,-0.5616777253766043,-4.1098950194044,3.548217294027795,-79.6002617262352,-86.15795548503739,6.557693758802188,79.90359602544204,84.01738516235697,-4.1137891369149315,43.58545964162005,51.4807162587544,-7.895256617134351,0.0001077255533352807,0.0,0.0001077255533352807
0.1360000000000001,move_to_zero,-0.5471297676891965,-4.1054947035378,3.558364935848603,-79.48520611172793,-86.0657092800213,6.580503168293362,79.79423189023328,83.92743078852149,-4.133198898288214,43.45667128025259,51.425597718862804,-7.968926438610211,-0.0002337783402673502,0.0,-0.0002337783402673502
0.1380000000000001,move_to_zero,-0.5329334655966276,-4.1010943876712,3.568160922074572,-79.37147934222195,-85.97346307500518,6.601983732783239,79.68668638311954,83.83747641468598,-4.150790031566444,43.33015644279228,51.370479178971195,-8.040322736178915,-0.0005513530584468565,0.0,-0.0005513530584468565
0.1400000000000001,move_to_zero,-0.5190825777308584,-4.0966940718046,3.5776114940737416,-79.25896723232088,-85.88121686998909,6.6222496376682045,79.58088362686607,83.74752204085048,-4.1666384139844155,43.20588844555408,51.31536063907959,-8.109472193525512,-0.0008552938257667772,0.0,-0.0008552938257667772
0.1420000000000001,move_to_zero,-0.5055771431180235,-4.092293755938,3.5867166128199766,-79.14760524777492,-85.788970664973,6.641365417198074,79.47676806949266,83.65756766701499,-4.1807995975223236,43.08379490470026,51.260242099188,-8.176447194487736,-0.0011418386670368475,0.0,-0.0011418386670368475
0.1440000000000001,move_to_zero,-0.49240593574454045,-4.087893440071399,3.595487504326859,-79.03733164600004,-85.6967244599569,6.659392813956856,79.37426383599089,83.56761329317948,-4.193349457188589,42.96382402872196,51.205123559296396,-8.241299530574437,-0.0014154658335496688,0.0,-0.0014154658335496688
0.1460000000000001,move_to_zero,-0.47954684509042333,-4.083493124204799,3.6039462791143757,-78.92809361697792,-85.6044782549408,6.676384637962883,79.2732854907791,83.47765891934398,-4.204373428564878,42.845924399007956,51.1500050194048,-8.304080620396846,-0.0016776739205132726,0.0,-0.0016776739205132726
0.1480000000000001,move_to_zero,-0.4669749438439418,-4.079092808338199,3.6121178644942575,-78.81983517351901,-85.51223204992469,6.692396876405681,79.17375135180096,83.38770454550848,-4.213953193707525,42.73005731319441,51.0948864795132,-8.364829166318792,-0.001931990844282363,0.0,-0.001931990844282363
0.1500000000000001,move_to_zero,-0.4546785326283147,-4.074692492471599,3.6200139598432846,-78.71248792236064,-85.4199858449086,6.707497922547958,79.07559042876245,83.29775017167299,-4.222159742910534,42.61615728056722,51.0397679396216,-8.423610659054376,-0.0021795851061861475,0.0,-0.0021795851061861475
0.1520000000000001,move_to_zero,-0.4426264843707205,-4.070292176604999,3.6276656922342787,-78.60599276780042,-85.32773963989249,6.721746872092069,78.97872153187406,83.20779579783748,-4.229074265963419,42.50417044130469,50.984649399729996,-8.480478958425309,-0.002422307211365571,0.0,-0.002422307211365571
0.1540000000000001,move_to_zero,-0.4308124893333939,-4.065891860738399,3.6350793714050056,-78.50029311385465,-85.23549343487639,6.735200321021736,78.8830563658285,83.11784142400198,-4.234785058173486,42.39405483844026,50.929530859838394,-8.535476021398132,-0.0026828529121098762,0.0,-0.0026828529121098762
0.1560000000000001,move_to_zero,-0.41921773734110085,-4.061491544871799,3.6422738075306986,-78.39531871989784,-85.1432472298603,6.747928509962449,78.78851161454185,83.02788705016648,-4.239375435624638,42.2857407168211,50.8744123199468,-8.588671603125697,-0.0029709621491137,0.0,-0.0029709621491137
0.1580000000000001,move_to_zero,-0.40781884764739174,-4.0570912290051995,3.649272381357808,-78.29103306833929,-85.0510010248442,6.759967956504909,78.69501677940652,82.93793267633099,-4.2429158969244725,42.179185004678935,50.8192937800552,-8.640108775376262,-0.0032898745925284234,0.0,-0.0032898745925284234
0.16000000000000011,move_to_zero,-0.3966140040161837,-4.052690913138599,3.656076909122415,-78.18740592115896,-84.95875481982809,6.771348898669132,78.60248819360604,82.84797830249549,-4.245490108889456,42.0743644166526,50.7641752401636,-8.689810823511003,-0.0036308092956302846,0.0,-0.0036308092956302846
0.16200000000000012,move_to_zero,-0.3855871711955111,-4.048290597272,3.6627034260764884,-78.08439030129414,-84.86650861481199,6.782118313517856,78.51086666235918,82.75802392865998,-4.247157266300803,41.97125205310015,50.709056700271994,-8.737804647171842,-0.003995500127729905,0.0,-0.003995500127729905
0.16400000000000012,move_to_zero,-0.37473757575594074,-4.0438902814054,3.669152705649459,-77.98196375883803,-84.7742624097959,6.792298650957861,78.42010542082606,82.66806955482448,-4.247964133998423,41.86980261262938,50.6539381603804,-8.78413554775102,-0.004380570252870703,0.0,-0.004380570252870703
0.16600000000000012,move_to_zero,-0.3640541928072945,-4.0394899655388,3.6754357727315052,-77.88006094279245,-84.68201620477979,6.801955261987331,78.33011078569933,82.57811518098899,-4.248004395289655,41.76996833353826,50.5988196204888,-8.828851286950538,-0.004782386496158905,0.0,-0.004782386496158905
0.16800000000000012,move_to_zero,-0.3535368024850687,-4.0350896496722,3.681552847187131,-77.77864677567926,-84.5897699997637,6.81112322408444,78.24081255943324,82.48816080715348,-4.2473482477202396,41.67167803262003,50.543701080597195,-8.872023047977166,-0.005157599947169903,0.0,-0.005157599947169903
0.17000000000000012,move_to_zero,-0.3431746547283814,-4.0306893338056,3.6875146790772186,-77.6776964350162,-84.4975237947476,6.819827359731391,78.15213816627713,82.398206433318,-4.246068267040869,41.574871893085984,50.4885825407056,-8.913710647619617,-0.005502194446412911,0.0,-0.005502194446412911
0.17200000000000013,move_to_zero,-0.33295342585194637,-4.026289017939,3.6933355920870534,-77.57719196884841,-84.4052775897315,6.828085620883087,78.06404038751516,82.30825205948248,-4.244211671967321,41.47949513977409,50.433464000814,-8.953968861039911,-0.005819680704010661,0.0,-0.005819680704010661
0.17400000000000013,move_to_zero,-0.3228608794778916,-4.021888702072399,3.6990278225945072,-77.47711049831543,-84.31303138471539,6.835920886399961,77.97647314993009,82.21829768564697,-4.241824535716887,41.385485239663176,50.3783454609224,-8.992860221259221,-0.00611637946748466,0.0,-0.00611637946748466
0.17600000000000013,move_to_zero,-0.3128987138574992,-4.017488386205799,3.7045896723483,-77.37741072977677,-84.22078517969929,6.843374449922521,77.88938870848604,82.12834331181149,-4.238954603325453,41.29279396155363,50.323226921030795,-9.030432959477167,-0.006396688872754099,0.0,-0.006396688872754099
0.17800000000000013,move_to_zero,-0.3030661335060429,-4.013088070339199,3.710021936833156,-77.27806608633347,-84.12853897468318,6.850472888349714,77.80273628295454,82.03838893797598,-4.23565265502144,41.20137420888671,50.2681083811392,-9.066734172252488,-0.006664024609036759,0.0,-0.006664024609036759
0.18000000000000013,move_to_zero,-0.29334739724911585,-4.008687754472599,3.715340357223483,-77.1790672636662,-84.0362927696671,6.857225506000901,77.7164677535348,81.94843456414048,-4.231966810605684,41.11117199118128,50.2129898412476,-9.101817850066318,-0.006940787832711667,0.0,-0.006940787832711667
0.18200000000000013,move_to_zero,-0.28372748143097,-4.004287438605999,3.720559957175029,-77.08038809828396,-83.944046564651,6.863658466367042,77.63053774374619,81.85848019030499,-4.227942446558799,41.02213288600757,50.157871301355996,-9.135738415348428,-0.007239280573192618,0.0,-0.007239280573192618
0.18400000000000014,move_to_zero,-0.2742030884812112,-3.9998871227393993,3.725684034258188,-76.9819999929863,-83.8518003596349,6.86980036664859,77.54489204247248,81.76852581646948,-4.223633773996994,40.93421379328668,50.1027527614644,-9.168538968177721,-0.007547769491668938,0.0,-0.007547769491668938
0.18600000000000014,move_to_zero,-0.26476928972484703,-3.995486806872799,3.730717517147952,-76.88386957845385,-83.7595541546188,6.875684576164943,77.4594725150079,81.67857144263398,-4.219098927626078,40.84737592593778,50.04763422157279,-9.20025829563501,-0.007854868069622522,0.0,-0.007854868069622522
0.18800000000000014,move_to_zero,-0.255409860097898,-3.991086491006199,3.735676630908301,-76.78598528941544,-83.66730794960269,6.8813226601872515,77.3742427231586,81.58861706879848,-4.214374345639882,40.761582711597825,49.9925156816812,-9.230932970083373,-0.008149635788485944,0.0,-0.008149635788485944
0.19000000000000014,move_to_zero,-0.24613748100932956,-3.986686175139599,3.7405486941302692,-76.68832077968156,-83.57506174458659,6.88674096490503,77.28918382377172,81.49866269496299,-4.209478871191266,40.67680187427995,49.937397141789596,-9.260595267509643,-0.008430059199041655,0.0,-0.008430059199041655
0.19200000000000014,move_to_zero,-0.236927804368713,-3.9822858592729995,3.7453580549042864,-76.59085729869024,-83.48281553957048,6.891958240880243,77.20423278523312,81.40870832112748,-4.20447553589436,40.592995183334715,49.882278601897994,-9.28928341856328,-0.008721372026984274,0.0,-0.008721372026984274
0.19400000000000014,move_to_zero,-0.22778223600933623,-3.9778855434063995,3.7501033073970635,-76.49355987774311,-83.3905693345544,6.89700945681129,77.11935554783958,81.31875394729198,-4.199398399452406,40.51012092323216,49.8271600620064,-9.317039138774241,-0.008998299457433828,0.0,-0.008998299457433828
0.19600000000000015,move_to_zero,-0.21869418685406683,-3.9734852275397996,3.754791040685733,-76.39641728817013,-83.29832312953829,6.901905841368162,77.03451141330265,81.22879957345648,-4.194288160153832,40.42812505008389,49.7720415221148,-9.343916472030905,-0.009263143362954569,0.0,-0.009263143362954569
0.19800000000000015,move_to_zero,-0.20965487421786141,-3.9690849116731997,3.7594300374553384,-76.29940241026252,-83.2060769245222,6.906674514259677,76.9496660206425,81.13884519962097,-4.189179178978478,40.34696439894025,49.716922982223196,-9.369958583282944,-0.009517412039918039,0.0,-0.009517412039918039
0.20000000000000015,move_to_zero,-0.20064328086846359,-3.9646845958065993,3.7640413149381358,-76.2025001083976,-83.1138307195061,6.911330611108497,76.86479314386375,81.04889082578549,-4.184097681921742,40.26660324825783,49.661804442331594,-9.395201194073763,-0.009765140333518316,0.0,-0.009765140333518316
0.20200000000000015,move_to_zero,-0.19213662923641076,-3.9602842799399993,3.7681476507035887,-76.10570286658948,-83.02158451448999,6.915881647900505,76.7798778277434,80.95893645194998,-4.179058624206576,40.18697476221155,49.60668590244,-9.41971114022845,-0.010013677529358772,0.0,-0.010013677529358772
0.20400000000000015,move_to_zero,-0.1850256946925413,-3.9558839640733994,3.770858269380858,-76.00903502833,-82.92933830947389,6.920303281143887,76.69489775169352,80.86898207811447,-4.174084326420953,40.10805585006454,49.5515673625484,-9.443511512483859,-0.010261699710658477,0.0,-0.010261699710658477
0.20600000000000016,move_to_zero,-0.1793559136650478,-3.9514836482067994,3.7721277345417517,-75.91247272556899,-82.8370921044578,6.924619378888806,76.60979950345046,80.77902770427899,-4.1692282008285275,40.029809628379134,49.496448822656795,-9.466639194277661,-0.010504754558261619,0.0,-0.010504754558261619
0.20800000000000016,move_to_zero,-0.1749322783611694,-3.947083332340199,3.7721510539790297,-75.81599318251988,-82.7448458994417,6.928852716921824,76.52457090412172,80.68907333044348,-4.164502426321761,39.952204091880965,49.4413302827652,-9.489126190884235,-0.010743016167044343,0.0,-0.010743016167044343
0.21000000000000016,move_to_zero,-0.17186115382958508,-3.942683016473599,3.770821862644014,-75.7195808046209,-82.65259969442559,6.933018889804686,76.43922170183993,80.59911895660798,-4.159897254768055,39.87519959582751,49.38621174287359,-9.511012147046081,-0.010978028769027119,0.0,-0.010978028769027119
0.21200000000000016,move_to_zero,-0.17001938470334962,-3.938282700606999,3.7682633159036496,-75.62323433031766,-82.5603534894095,6.937119159091836,76.35375685736058,80.50916458277248,-4.155407725411905,39.798746876342896,49.331093202982,-9.5323463266391,-0.011215244586728464,0.0,-0.011215244586728464
0.21400000000000016,move_to_zero,-0.16917302991732816,-3.933882384740399,3.7647093548230712,-75.52693400460899,-82.46810728439338,6.941173279784394,76.26814263485319,80.41921020893697,-4.151067574083783,39.72280235386728,49.275974663090395,-9.553172309223115,-0.011452792415392803,0.0,-0.011452792415392803
0.21600000000000016,move_to_zero,-0.1690685192422189,-3.929482068873799,3.76041354963158,-75.43066534201222,-82.37586107937729,6.945195737365069,76.18237140548656,80.32925583510148,-4.146884429614914,39.64734408783602,49.2208561231988,-9.573512035362782,-0.011701842200872682,0.0,-0.011701842200872682
0.21800000000000017,move_to_zero,-0.16942147910099728,-3.925081753007199,3.7556602739062015,-75.33441276427891,-82.28361487436119,6.9492021100822825,76.09641995318178,80.23930146126598,-4.142881508084201,39.57233146759784,49.1657375833072,-9.593406115709357,-0.0119580455294691,0.0,-0.0119580455294691
0.22000000000000017,move_to_zero,-0.16996897353306906,-3.9206814371406,3.7507124636075306,-75.23817492099961,-82.1913686693451,6.953193748345484,76.01026686135533,80.14934708743048,-4.139080226075151,39.49774018858072,49.110619043415596,-9.612878854834875,-0.012225928971899426,0.0,-0.012225928971899426
0.22200000000000017,move_to_zero,-0.17051584714033474,-3.9162811212739994,3.7457652741336647,-75.14194174516219,-82.099122464329,6.957180719166814,75.923895699079,80.05939271359497,-4.135497014515977,39.423538412479346,49.055500503523994,-9.631962091044649,-0.012484798251283544,0.0,-0.012484798251283544
0.22400000000000017,move_to_zero,-0.17097572456545895,-3.9118808054073995,3.7409050808419404,-75.04571830429943,-82.00687625931289,6.961157955013462,75.8373012651687,79.96943833975948,-4.132137074590773,39.34972504917877,49.00038196363239,-9.65065691445362,-0.01273818395100843,0.0,-0.01273818395100843
0.22600000000000017,move_to_zero,-0.17135827311688406,-3.9074804895407995,3.7361222164239156,-74.94950155858922,-81.9146300542968,6.9651284957075745,75.7504683839375,79.87948396592398,-4.129015581986479,39.27625060351012,48.9452634237408,-9.669012820230677,-0.013011831132947547,0.0,-0.013011831132947547
0.22800000000000017,move_to_zero,-0.17167277482681226,-3.9030801736741996,3.7314073988473875,-74.85329957089881,-81.82238384928068,6.969084278381871,75.66339482750685,79.78952959208848,-4.126134764581636,39.203102107704964,48.890144883849196,-9.687042776144231,-0.013304016738033223,0.0,-0.013304016738033223
0.23000000000000018,move_to_zero,-0.17192734071491317,-3.898679857807599,3.726752517092686,-74.75712166493062,-81.73013764426459,6.973015979333965,75.57606332288054,79.69957521825299,-4.123511895372445,39.130275603808535,48.8350263439576,-9.704750740149066,-0.013606029928560014,0.0,-0.013606029928560014
0.23200000000000018,move_to_zero,-0.1721283853692168,-3.8942795419409992,3.7221511565717824,-74.6609755791005,-81.63789143924849,6.976915860147997,75.4884818951333,79.60962084441748,-4.121138949284173,39.057723589050745,48.77990780406599,-9.722184215015247,-0.013925879864843749,0.0,-0.013925879864843749
0.23400000000000018,move_to_zero,-0.17227848297512674,-3.8898792260743993,3.7176007430992724,-74.56485147346221,-81.5456452342324,6.980793760770183,75.40064479205354,79.51966647058198,-4.119021678528441,38.98543685888258,48.72478926417439,-9.739352405291811,-0.014225651486595919,0.0,-0.014225651486595919
0.23600000000000018,move_to_zero,-0.1723832039439211,-3.8854789102077993,3.713095706263878,-74.46873786564451,-81.45339902921629,6.984661163571772,75.31255448336282,79.42971209674648,-4.117157613383668,38.91340492406942,48.669670724282796,-9.756265800213377,-0.014509841300185036,0.0,-0.014509841300185036
0.23800000000000018,move_to_zero,-0.17244522354743516,-3.881078594341199,3.708633370793764,-74.37263330998141,-81.36115282420019,6.98851951421878,75.22421935200495,79.33975772291097,-4.115538370906023,38.841576614624195,48.614552184391194,-9.772975569766999,-0.014780418576365912,0.0,-0.014780418576365912
0.24000000000000019,move_to_zero,-0.17246841446031075,-3.876678278474599,3.704209864014288,-74.2765340771829,-81.2689066191841,6.992372542001192,75.13563434762897,79.24980334907549,-4.114169001446527,38.769910254208185,48.5594336444996,-9.789523390291414,-0.015039545080677843,0.0,-0.015039545080677843
0.2420000000000002,move_to_zero,-0.17245173134308833,-3.872277962607999,3.6998262312649106,-74.18045530244092,-81.17666041416798,6.996205111727065,75.04679718740404,79.15984897523998,-4.113051787835943,38.69835803127563,48.504315104608,-9.805957073332365,-0.015287760469042873,0.0,-0.015287760469042873
0.2440000000000002,move_to_zero,-0.17233979492095966,-3.867877646741399,3.6955378518204394,-74.08437474074245,-81.08441420915189,7.00003946840944,74.9577070405451,79.06989460140447,-4.112187560859368,38.62688209068974,48.449196564716395,-9.822314474026655,-0.015528922374165132,0.0,-0.015528922374165132
0.2460000000000002,move_to_zero,-0.17213044573153766,-3.8634773308747987,3.691346885143261,-73.98829819121784,-80.99216800413579,7.003869812917955,74.86833882545851,78.97994022756899,-4.11160140211048,38.55548219410627,48.39407802482479,-9.838595830718525,-0.015770992638149683,0.0,-0.015770992638149683
0.2480000000000002,move_to_zero,-0.17182944268521094,-3.8590770150081988,3.687247572322988,-73.8922388251246,-80.8999217991197,7.007682973995102,74.77869492371734,78.88998585373348,-4.111290930016139,38.48414274548727,48.33895948493319,-9.854816739445923,-0.016025438001640274,0.0,-0.016025438001640274
0.25000000000000017,move_to_zero,-0.1714514807703703,-3.8546766991415997,3.6832252183712293,-73.79618102320704,-80.80767559410359,7.011494570896545,74.6887993105499,78.80003147989798,-4.111232169348085,38.412874757663516,48.2838409450416,-9.87096618737808,-0.016278119160646996,0.0,-0.016278119160646996
0.25200000000000017,move_to_zero,-0.17099604116107905,-3.8502763832749993,3.67928034211392,-73.70013509929014,-80.71542938908749,7.015294289797353,74.5986532717483,78.71007710606249,-4.111423834314181,38.341666222401145,48.228722405149995,-9.88705618274885,-0.016528635290425437,0.0,-0.016528635290425437
0.25400000000000017,move_to_zero,-0.17049435328131216,-3.8458760674083994,3.675381714127087,-73.6041255773759,-80.62318318407138,7.019057606695483,74.50825353752427,78.62012273222697,-4.111869194702706,38.270545312896104,48.1736038652584,-9.903058552362296,-0.01677947982486973,0.0,-0.01677947982486973
0.25600000000000017,move_to_zero,-0.16996499566617154,-3.8414757515417994,3.671510755875628,-73.50814740782087,-80.53093697905528,7.022789571234412,74.41758845568746,78.53016835839148,-4.112579902704013,38.199499956557894,48.11848532536679,-9.918985368808897,-0.017024162381051217,0.0,-0.017024162381051217
0.2580000000000002,move_to_zero,-0.16942999885656998,-3.8370754356751995,3.6676454368186295,-73.41218497407726,-80.43869077403919,7.0265057999619245,74.32665190142232,78.44021398455598,-4.113562083133658,38.12852242329035,48.063366785475196,-9.934844362184847,-0.017266720800315674,0.0,-0.017266720800315674
0.2600000000000002,move_to_zero,-0.16893393361986198,-3.832675119808599,3.6637411861887372,-73.31625652407892,-80.34644456902309,7.030188044944168,74.2354428148457,78.35025961072049,-4.114816795874788,38.05761467617291,48.008248245583594,-9.950633569410684,-0.017505030234041454,0.0,-0.017505030234041454
0.2620000000000002,move_to_zero,-0.16849647937199122,-3.828274803941999,3.659778324570008,-73.22035827980777,-80.254198364007,7.033840084199227,74.14396314470682,78.26030523688497,-4.116342092178158,37.98675740153728,47.95312970569199,-9.96637230415471,-0.017739356609550498,0.0,-0.017739356609550498
0.2640000000000002,move_to_zero,-0.1681191644545023,-3.823874488075399,3.655755323620897,-73.12450157384745,-80.16195215899089,7.037450585143432,74.05220164711436,78.17035086304948,-4.118149215935119,37.91593430187632,47.8980111658004,-9.982076863924078,-0.017970219284770095,0.0,-0.017970219284770095
0.2660000000000002,move_to_zero,-0.1677664581673265,-3.8194741722087993,3.6517077140414727,-73.02869431132831,-80.06970595397479,7.041011642646481,73.96014781219601,78.08039648921398,-4.120248677017969,37.845128482383686,47.842892625908796,-9.99776414352511,-0.01820290317939134,0.0,-0.01820290317939134
0.2680000000000002,move_to_zero,-0.16741649811566064,-3.815073856342199,3.6476573582265384,-72.93295000341513,-79.97745974895868,7.04450974554355,73.86778611539779,77.99044211537847,-4.1226559999806796,37.77434669233573,47.787774086017194,-10.01342739368146,-0.018441118998994935,0.0,-0.018441118998994935
0.2700000000000002,move_to_zero,-0.16705900001657079,-3.810673540475599,3.643614540459028,-72.83726534156104,-79.8852135439426,7.047948202381562,73.77512576039327,77.90048774154299,-4.125361981149723,37.70360078862345,47.73265554612559,-10.029054757502145,-0.01867831746673084,0.0,-0.01867831746673084
0.2720000000000002,move_to_zero,-0.16668395976715158,-3.806273224608999,3.6395892648418475,-72.74166623336491,-79.79296733892649,7.051301105561578,73.68217742831348,77.81053336770748,-4.128355939393998,37.632879713434995,47.677537006234,-10.044657292799002,-0.01891325650366479,0.0,-0.01891325650366479
0.2740000000000002,move_to_zero,-0.16627014237628968,-3.801872908742399,3.6356027663661092,-72.6461519402745,-79.70072113391039,7.054569193635885,73.5889379604549,77.72057899387197,-4.131641033417068,37.56215158723135,47.622418466342396,-10.060266879111047,-0.01915284215768719,0.0,-0.01915284215768719
0.2760000000000002,move_to_zero,-0.16584130766794422,-3.7974725928757986,3.6316312852078543,-72.550723387092,-79.60847492889428,7.057751541802276,73.49541002845089,77.63062462003649,-4.135214591585594,37.49142065022636,47.567299926450794,-10.075879276224434,-0.019408215107132726,0.0,-0.019408215107132726
0.2780000000000002,move_to_zero,-0.16539191079704582,-3.7930722770091996,3.6276803662121537,-72.45534554218604,-79.51622872387819,7.060883181692148,73.40159023813489,77.54067024620097,-4.139080008066088,37.420674851300916,47.5121813865592,-10.091506535258283,-0.019686714130842567,0.0,-0.019686714130842567
0.2800000000000002,move_to_zero,-0.16495067233690314,-3.7886719611425996,3.6237212888056964,-72.3600314919288,-79.42398251886209,7.063951026933296,73.30749260563445,77.45071587236548,-4.143223266731027,37.349895393937516,47.45706284666759,-10.107167452730074,-0.019992083388915685,0.0,-0.019992083388915685
0.2820000000000002,move_to_zero,-0.16454911785782217,-3.7842716452759992,3.619722527418177,-72.26480643092766,-79.331736313846,7.0669298829183305,73.213126074507,77.36076149852998,-4.14763542402298,37.279082694023195,47.401944306775995,-10.1228616127528,-0.020311068377940247,0.0,-0.020311068377940247
0.2840000000000002,move_to_zero,-0.16418060714931965,-3.7798713294093993,3.6156907222600796,-72.16966216581365,-79.2394901088299,7.06982794301625,73.11850898086723,77.27080712469449,-4.152298143827252,37.20823207327522,47.34682576688439,-10.138593693609174,-0.02064297082027316,0.0,-0.02064297082027316
0.2860000000000002,move_to_zero,-0.16383807335784045,-3.7754710135427993,3.611632940184959,-72.07461794566956,-79.14724390381379,7.072625958144229,73.02364320140519,77.18085275085897,-4.157209549453782,37.13736427066969,47.29170722699279,-10.154342956323099,-0.02096804870595204,0.0,-0.02096804870595204
0.2880000000000002,move_to_zero,-0.16351219041233694,-3.7710706976761994,3.6075585072638625,-71.97966076541142,-79.05499769879769,7.075336933386268,72.92853239650255,77.09089837702348,-4.162365980520931,37.066473079643785,47.2365886871012,-10.170115607457411,-0.021269277427483312,0.0,-0.021269277427483312
0.2900000000000002,move_to_zero,-0.16319496543758155,-3.766670381809599,3.6034754163720173,-71.88479496900905,-78.96275149378158,7.077956524772532,72.8331921562746,77.00094400318798,-4.167751846913376,36.995572986966025,47.181470147209595,-10.18589716024357,-0.021551589644602954,0.0,-0.021551589644602954
0.2920000000000002,move_to_zero,-0.16287694649694698,-3.762270065942999,3.5993931194460522,-71.7900226201366,-78.87050528876549,7.080482668628889,72.73763467466954,76.91098962935247,-4.173354954682935,36.924679050470665,47.12635160731799,-10.201672556847328,-0.021817870819619375,0.0,-0.021817870819619375
0.2940000000000002,move_to_zero,-0.16256342809379176,-3.757869750076399,3.5953063219826076,-71.69533556712283,-78.77825908374939,7.082923516626565,72.64189596841175,76.82103525551699,-4.179139287105244,36.853794740983496,47.07123306742639,-10.217438326442895,-0.02207071258116734,0.0,-0.02207071258116734
0.2960000000000002,move_to_zero,-0.16221735051798622,-3.753469434209799,3.591252083691813,-71.60074887717502,-78.6860128787333,7.085264001558272,72.54598518285921,76.73108088168148,-4.185095698822266,36.78292115398386,47.016114527534796,-10.23319337355094,-0.022311569323283438,0.0,-0.022311569323283438
0.2980000000000002,move_to_zero,-0.16183886873014194,-3.749069118343199,3.587230249613057,-71.50626671394946,-78.59376667371718,7.087499959767726,72.44991369050986,76.64112650784598,-4.1912128173361225,36.71204976884479,46.960995987643194,-10.248946218798402,-0.022544688283092855,0.0,-0.022544688283092855
0.3000000000000002,move_to_zero,-0.16142454633856784,-3.744668802476599,3.583244256138031,-71.41190213759023,-78.50152046870109,7.089618331110856,72.3536879915477,76.55117213401049,-4.197484142462784,36.64118530249494,46.90587744775159,-10.264692145256653,-0.022773391902633243,0.0,-0.022773391902633243
0.3020000000000002,move_to_zero,-0.16100383290276074,-3.740268486609999,3.5792646537072383,-71.31764042885766,-78.40927426368499,7.091633834827334,72.25734225835834,76.46121776017497,-4.20387550181664,36.57034952917332,46.85075890786,-10.280409378686677,-0.022999020474232242,0.0,-0.022999020474232242
0.3040000000000002,move_to_zero,-0.16058110133580747,-3.735868170743399,3.5752870694075916,-71.22348063376946,-78.31702805866888,7.093547424899427,72.1609035494577,76.37126338633948,-4.2103598368817785,36.49951295338285,46.79564036796839,-10.296127414585541,-0.023220673581883136,0.0,-0.023220673581883136
0.3060000000000002,move_to_zero,-0.16014190205555548,-3.7314678548767994,3.571325952821244,-71.12941826227956,-78.22478185365279,7.0953635913732285,72.06436802451786,76.28130901250398,-4.216940987986121,36.42867464145618,46.740521828076794,-10.31184718662061,-0.023438187986752332,0.0,-0.023438187986752332
0.3080000000000002,move_to_zero,-0.159691709099089,-3.7270675390101995,3.5673758299111107,-71.03545757168851,-78.13253564863669,7.097078076948179,71.96771443963254,76.19135463866847,-4.223640199035927,36.3578446170071,46.68540328818519,-10.327558671178089,-0.02365154663029538,0.0,-0.02365154663029538
0.3100000000000002,move_to_zero,-0.15924170945413474,-3.7226672231435995,3.563425513689465,-70.94158188230874,-78.0402894436206,7.098707561311855,71.87094353358187,76.10140026483299,-4.230456731251124,36.28700555948789,46.6302847482936,-10.34327918880571,-0.023862168989120754,0.0,-0.023862168989120754
0.3120000000000002,move_to_zero,-0.15881979206046662,-3.718266907276999,3.5594471152165323,-70.84777367951251,-77.94804323860448,7.10026955909197,71.77405416034036,76.01144589099748,-4.237391730657123,36.21613566739455,46.575166208401996,-10.359030541007442,-0.024068946851704767,0.0,-0.024068946851704767
0.3140000000000002,move_to_zero,-0.1584399372316939,-3.713866591410399,3.555426654178705,-70.75404187755605,-77.85579703358839,7.10175515603234,71.67706484109937,75.92149151716198,-4.244426676062616,36.145248742938136,46.520047668510394,-10.374798925572257,-0.024273680668472773,0.0,-0.024273680668472773
0.3160000000000002,move_to_zero,-0.15807832137197617,-3.7094662755437993,3.551387954171823,-70.66039722221517,-77.76355082857228,7.103153606357111,71.57998731788764,75.83153714332649,-4.251549825438843,36.074339620316096,46.46492912861879,-10.390589508302696,-0.02447796542082982,0.0,-0.02447796542082982
0.3180000000000002,move_to_zero,-0.15772578120127534,-3.7050659596771993,3.547340178475924,-70.56683838296185,-77.67130462355618,7.104466240594334,71.48282064821237,75.74158276949098,-4.2587621212786075,36.00339820230018,46.40981058872719,-10.406412386427007,-0.024680482806753737,0.0,-0.024680482806753737
0.32000000000000023,move_to_zero,-0.1573638259400924,-3.700665643810599,3.5433018178705065,-70.47334991956912,-77.57905841854009,7.105708498970969,71.38557448930115,75.65162839565548,-4.26605390635433,35.93245462871615,46.354692048835595,-10.422237420119444,-0.024883228117289324,0.0,-0.024883228117289324
0.32200000000000023,move_to_zero,-0.1569981773635212,-3.696265327943999,3.5392671505804776,-70.3799086856157,-77.48681221352399,7.106903527908287,71.28827497362366,75.56167402181998,-4.273399048196325,35.86147144881309,46.29957350894399,-10.438102060130902,-0.025087975594277095,0.0,-0.025087975594277095
0.32400000000000023,move_to_zero,-0.1566179515223592,-3.691865012077399,3.5352470605550397,-70.28650833805352,-77.3945660085079,7.108057670454372,71.19092377376995,75.47171964798449,-4.280795874214533,35.79045289061462,46.2444549690524,-10.454002078437782,-0.0252935477108747,0.0,-0.0252935477108747
0.32600000000000023,move_to_zero,-0.15621462796260197,-3.687464696210799,3.5312500682481973,-70.1931857915977,-77.30231980349178,7.109134011894085,71.09353633036163,75.38176527414898,-4.288228943787345,35.71938070849969,46.1893364291608,-10.469955720661105,-0.025498520537658383,0.0,-0.025498520537658383
0.32800000000000024,move_to_zero,-0.15581229805715402,-3.6830643803441987,3.5272520822870446,-70.09993496080298,-77.21007359847569,7.110138637672705,70.99610406651159,75.29181090031348,-4.295706833801887,35.64824055154753,46.13421788926919,-10.485977337721657,-0.02570570619887936,0.0,-0.02570570619887936
0.33000000000000024,move_to_zero,-0.1554079957677906,-3.6786640644775987,3.523256068709808,-70.00674293881536,-77.11782739345958,7.111084454644214,70.89862593961031,75.20185652647798,-4.30323058686767,35.57704812323143,46.07909934937759,-10.502051226146165,-0.02591479207861056,0.0,-0.02591479207861056
0.33200000000000024,move_to_zero,-0.15499917046744074,-3.674263748610999,3.519264578143558,-69.91359702441882,-77.02558118844348,7.111984164024662,70.801099790948,75.11190215264247,-4.310802361694471,35.50579859910702,46.02398080948599,-10.518182210378974,-0.026125767651206302,0.0,-0.026125767651206302
0.33400000000000024,move_to_zero,-0.1546053174119062,-3.669863432744399,3.5152581153324927,-69.8204865224386,-76.93333498342739,7.112848460988786,70.70352235587806,75.02194777880699,-4.318425422928925,35.43449841306878,45.968862269594396,-10.534363856525616,-0.026341261963998892,0.0,-0.026341261963998892
0.33600000000000024,move_to_zero,-0.15421985609362487,-3.6654631168777994,3.5112432607841746,-69.72742536301331,-76.84108877841129,7.11366341539798,70.60592265414152,74.93199340497148,-4.326070750829956,35.36315050697223,45.913743729702794,-10.550593222730562,-0.026555923874909407,0.0,-0.026555923874909407
0.33800000000000024,move_to_zero,-0.15385210154286721,-3.6610628010111994,3.5072106994683323,-69.63442323155101,-76.74884257339518,7.114419341844169,70.50830814362679,74.84203903113597,-4.3337308875091765,35.29175449458521,45.85862518981119,-10.56687069522598,-0.026769876409684333,0.0,-0.026769876409684333
0.34000000000000025,move_to_zero,-0.15352206253912629,-3.6566624851445995,3.503140422605473,-69.5414833096456,-76.65659636837908,7.115113058733485,70.41065220583951,74.75208465730049,-4.341432451460975,35.22031717650048,45.80350664991959,-10.583189473419111,-0.02698441834300669,0.0,-0.02698441834300669
0.34200000000000025,move_to_zero,-0.1532164830722935,-3.652262169277999,3.4990456862057058,-69.44860191127697,-76.56435016336299,7.115748252086021,70.31294106680124,74.66213028346498,-4.349189216663731,35.148811810933395,45.74838811002799,-10.599576299094593,-0.027202289769251268,0.0,-0.027202289769251268
0.34400000000000025,move_to_zero,-0.15293380333253231,-3.647861853411399,3.4949280500788666,-69.35575863852374,-76.47210395834688,7.1163453198231394,70.21516264894866,74.57217590962948,-4.357013260680816,35.0772494578765,45.693269570136394,-10.616020112259896,-0.027442970284858908,0.0,-0.027442970284858908
0.34600000000000025,move_to_zero,-0.1526610856095927,-3.643461537544799,3.4908004519352063,-69.26296099276482,-76.3798577533308,7.116896760565979,70.11732721235443,74.48222153579398,-4.364894323439557,35.00565620420451,45.63815103024479,-10.63249482604028,-0.027692575761841302,0.0,-0.027692575761841302
0.34800000000000025,move_to_zero,-0.15239754354530063,-3.6390612216781992,3.486663678132899,-69.17020529722103,-76.28761154831469,7.117406251093655,70.01943433770084,74.39226716195847,-4.372832824257628,34.93404264695967,45.5830324903532,-10.64898984339353,-0.02794350593120713,0.0,-0.02794350593120713
0.35000000000000026,move_to_zero,-0.15215551713775394,-3.634660905811599,3.482505388673845,-69.07750169106252,-76.19536534329859,7.117863652236068,69.92149991327828,74.30231278812298,-4.380812874844693,34.86239992379074,45.52791395046159,-10.665514026670849,-0.0282016206166863,0.0,-0.0282016206166863
0.35200000000000026,move_to_zero,-0.15193224074390885,-3.630260589944999,3.47832834920109,-68.98485585473871,-76.10311913828248,7.118263283543769,69.82355608036623,74.21235841428748,-4.388802333921248,34.79074109240584,45.472795410569994,-10.682054318164155,-0.028474766945438677,0.0,-0.028474766945438677
0.35400000000000026,move_to_zero,-0.15171004018731205,-3.625860274078399,3.474150233891087,-68.89225555512698,-76.01087293326638,7.118617378139405,69.72559282759984,74.12240404045198,-4.396811212852143,34.71905321197534,45.41767687067839,-10.698623658703049,-0.028737764973697816,0.0,-0.028737764973697816
0.35600000000000026,move_to_zero,-0.1514766289316183,-3.621459958211799,3.4699833292801805,-68.79971877736193,-75.91862672825027,7.118907950888342,69.6275944631283,74.03244966661647,-4.404855203488168,34.64732566364447,45.36255833078679,-10.715232667142317,-0.02901714325324945,0.0,-0.02901714325324945
0.35800000000000026,move_to_zero,-0.15122877740280632,-3.6170596423451986,3.4658308649423923,-68.70724424855773,-75.82638052323418,7.11913627467645,69.52958476559162,73.94249529278098,-4.412910527189354,34.57557336990366,45.307439790895195,-10.731866420991537,-0.02931506730591504,0.0,-0.02931506730591504
0.36000000000000026,move_to_zero,-0.15094164780698224,-3.6126593264785987,3.4617176786716164,-68.61484385197791,-75.7341343182181,7.119290466240187,69.43155364139311,73.85254091894548,-4.420987277552371,34.50379378243673,45.25232125100359,-10.748527468566863,-0.029637182171156726,0.0,-0.029637182171156726
0.36200000000000027,move_to_zero,-0.15065286808437114,-3.6082590106119987,3.4576061425276277,-68.52253400342953,-75.64188811320199,7.119354109772459,69.33350050149268,73.76258654510997,-4.429086043617289,34.43198223589101,45.19720271111199,-10.765220475220978,-0.029956472405738663,0.0,-0.029956472405738663
0.36400000000000027,move_to_zero,-0.15035790538315286,-3.603858694745399,3.4535007893622462,-68.43029560888232,-75.54964190818589,7.119346299303572,69.23539834112552,73.67263217127449,-4.437233830148969,34.36013889862889,45.14208417122039,-10.7819452725915,-0.030267411137630245,0.0,-0.030267411137630245
0.36600000000000027,move_to_zero,-0.1500486233110852,-3.5994583788787993,3.449409755567714,-68.33814253158673,-75.45739570316978,7.119253171583054,69.13724262342097,73.58267779743898,-4.445435174018002,34.288275249634616,45.086965631328795,-10.798690381694179,-0.030559813991584306,0.0,-0.030559813991584306
0.36800000000000027,move_to_zero,-0.14969659442557548,-3.5950580630121993,3.445361468586624,-68.24604085932816,-75.36514949815368,7.119108638825523,69.03901523449106,73.49272342360348,-4.453708189112419,34.21639410038864,45.03184709143719,-10.815452991048552,-0.030832256825221827,0.0,-0.030832256825221827
0.3700000000000003,move_to_zero,-0.14933289654722484,-3.5906577471455994,3.4413248505983747,-68.15399086506913,-75.27290329313757,7.118912428068441,68.94071863759468,73.40276904976798,-4.462050412173298,34.144484828974726,44.97672855154559,-10.832243722570865,-0.031088143810958018,0.0,-0.031088143810958018
0.3720000000000003,move_to_zero,-0.1489535178070042,-3.586257431278999,3.437303913471995,-68.06200101098531,-75.18065708812149,7.11865607713618,68.84235369879858,73.31281467593247,-4.470460977133897,34.07252818363613,44.921610011653996,-10.849081828017866,-0.03133011475126062,0.0,-0.03133011475126062
0.3740000000000003,move_to_zero,-0.14857078543770358,-3.581857115412399,3.4332863299746954,-67.9700603720008,-75.08841088310538,7.11835051110458,68.74392774625812,73.22286030209698,-4.478932555838853,34.000531186782936,44.86649147176239,-10.865960284979451,-0.03155980031827234,0.0,-0.03155980031827234
0.3760000000000003,move_to_zero,-0.14819290843109953,-3.577456799545799,3.4292638911146995,-67.87817800805702,-74.99616467808929,7.117986670032266,68.64545586102275,73.13290592826148,-4.487450067238726,33.92847649870521,44.81137293187079,-10.882896433165584,-0.03177711327511261,0.0,-0.03177711327511261
0.3780000000000003,move_to_zero,-0.14783357551352966,-3.573056483679199,3.4252229081656695,-67.78636305421085,-74.90391847307319,7.117555418862338,68.54693327020131,73.04295155442597,-4.496018284224661,33.85636858522585,44.75625439197919,-10.899885806753339,-0.03198535619076224,0.0,-0.03198535619076224
0.3800000000000003,move_to_zero,-0.14750025692514177,-3.5686561678125988,3.421155910887457,-67.6946477596608,-74.81167226805708,7.117024508396284,68.44835910481412,72.95299718059049,-4.50463807577637,33.78417947274078,44.70113585208759,-10.916956379346807,-0.03218618132641553,0.0,-0.03218618132641553
0.3820000000000003,move_to_zero,-0.14717513753315067,-3.564255851945999,3.4170807144128483,-67.60304903715637,-74.71942606304098,7.116377025884617,68.3497271401195,72.86304280675498,-4.513315666635478,33.71194064982183,44.646017312195994,-10.934076662374167,-0.03238041723165397,0.0,-0.03238041723165397
0.3840000000000003,move_to_zero,-0.14686135377310924,-3.559855536079399,3.4129941823062895,-67.51155235164158,-74.62717985802489,7.115627506383305,68.25106876338106,72.77308843291948,-4.522019669538423,33.63967009586474,44.59089877230439,-10.951228676439655,-0.03256907650521556,0.0,-0.03256907650521556
0.3860000000000003,move_to_zero,-0.14654425033292864,-3.5554552202127994,3.4089109698798707,-67.42016262086747,-74.53493365300879,7.11477103214132,68.1523731828539,72.68313405908398,-4.530760876230076,33.56736955074116,44.53578023241279,-10.968410681671628,-0.03275470696210177,0.0,-0.03275470696210177
0.3880000000000003,move_to_zero,-0.14622182017573687,-3.551054904346199,3.404833084170462,-67.32884312701358,-74.44268744799268,7.113844320979098,68.05362916724165,72.59317968524847,-4.53955051800682,33.49503682929248,44.48066169252119,-10.985624863228708,-0.0329381173381739,0.0,-0.0329381173381739
0.3900000000000003,move_to_zero,-0.14588050436300054,-3.546654588479599,3.4007740841165983,-67.23760005058453,-74.35044124297659,7.112841192392054,67.9548320181754,72.50322531141298,-4.548393293237581,33.42264799650096,44.425543152629594,-11.00289515612863,-0.03312114010122758,0.0,-0.03312114010122758
0.3920000000000003,move_to_zero,-0.1455275822163424,-3.542254272612999,3.396726690396657,-67.14644733223508,-74.25819503796048,7.111747705725392,67.85598194018709,72.41327093757748,-4.557288997390387,33.35020624912528,44.37042461273799,-11.020218363612713,-0.03330297750588829,0.0,-0.03330297750588829
0.3940000000000003,move_to_zero,-0.14517373595111696,-3.537853956746399,3.392680220795282,-67.05540797977714,-74.16594883294438,7.110540853167237,67.75706900027953,72.32331656374198,-4.566247563462454,33.27773965001702,44.31530607284639,-11.037566422829372,-0.03348718994733653,0.0,-0.03348718994733653
0.3960000000000003,move_to_zero,-0.14482008608063673,-3.5334536408797987,3.388633554799162,-66.96448213839867,-74.07370262792828,7.109220489529619,67.65808782398962,72.23336218990647,-4.575274365916854,33.205247780767365,44.260187532954795,-11.05493975218743,-0.03367311551709136,0.0,-0.03367311551709136
0.3980000000000003,move_to_zero,-0.14449641134521202,-3.529053325013199,3.384556913667987,-66.8736663119558,-73.98145642291219,7.107790110956387,67.55903302724349,72.14340781607098,-4.584374788827489,33.13272290233278,44.205068993063186,-11.072346090730406,-0.03385983210463528,0.0,-0.03385983210463528
0.4000000000000003,move_to_zero,-0.1441809507735721,-3.524653009146599,3.3804720583730266,-66.78296502042288,-73.88921021789609,7.106245197473214,67.45992063354227,72.05345344223548,-4.593532808693212,33.06018257804741,44.14995045317159,-11.089767875124181,-0.03404516310685085,0.0,-0.03404516310685085
0.4020000000000003,move_to_zero,-0.143872575870067,-3.520252693279999,3.3763801174099317,-66.69237644269694,-73.79696401287998,7.1045875701830425,67.36076633445376,71.96349906839997,-4.602732733946212,32.9876045941917,44.09483191327999,-11.107227319088288,-0.03422884789752211,0.0,-0.03422884789752211
0.4040000000000003,move_to_zero,-0.14357285580032064,-3.515852377413399,3.3722795216130783,-66.60191862076293,-73.70471780786389,7.102799187100956,67.26156425357536,71.87354469456449,-4.611980440989129,32.91499120889411,44.039713373388395,-11.124722164494287,-0.034409631238446876,0.0,-0.034409631238446876
0.4060000000000003,move_to_zero,-0.1432780010526401,-3.511452061546799,3.368174060494159,-66.51158604719792,-73.61247160284778,7.100885555649853,67.16230708763241,71.78359032072898,-4.6212832330965625,32.84235038345017,43.98459483349679,-11.142244450046626,-0.03458831931107738,0.0,-0.03458831931107738
0.4080000000000003,move_to_zero,-0.14295992390305093,-3.507051745680199,3.3640918217771483,-66.42137006724454,-73.52022539783168,7.098855330587142,67.06298084946978,71.69363594689347,-4.630655097423684,32.76967097225147,43.92947629360519,-11.159805321353723,-0.0347674349974129,0.0,-0.0347674349974129
0.4100000000000003,move_to_zero,-0.14260905173699803,-3.5026514298135987,3.3600423780766007,-66.33125963767947,-73.42797919281558,7.096719555136119,66.96357058687448,71.60368157305798,-4.640110986183501,32.69696567443088,43.87435775371359,-11.177392079282711,-0.03494470301504383,0.0,-0.03494470301504383
0.4120000000000003,move_to_zero,-0.14225056512118786,-3.4982511139469987,3.356000548825811,-66.24125490835695,-73.33573298779949,7.094478079442538,66.86408574611968,71.51372719922247,-4.649641453102788,32.62424453712874,43.81923921382199,-11.194994676693248,-0.03511847364477239,0.0,-0.03511847364477239
0.4140000000000003,move_to_zero,-0.14187717710638445,-3.493850798080399,3.3519736209740145,-66.15133194680148,-73.24348678278338,7.092154835981901,66.76453971371254,71.42377282538698,-4.659233111674439,32.551483149087794,43.76412067393039,-11.212637524842599,-0.035289524753927534,0.0,-0.035289524753927534
0.4160000000000003,move_to_zero,-0.14150766860546787,-3.4894504822137993,3.3479428136083316,-66.06147425876169,-73.15124057776728,7.089766319005591,66.66493253094177,71.33381845155148,-4.668885920609711,32.47866956875115,43.70900213403879,-11.23033256528764,-0.03545604070067465,0.0,-0.03545604070067465
0.4180000000000003,move_to_zero,-0.14114619106502466,-3.485050166347199,3.343903975282174,-65.97166919048976,-73.05899437275119,7.087325182261424,66.56528086138415,71.24386407771597,-4.678583216331816,32.40581092006887,43.653883594147196,-11.248072674078323,-0.03562271379072847,0.0,-0.03562271379072847
0.4200000000000003,move_to_zero,-0.14080399689134343,-3.480649850480599,3.3398458535892557,-65.88193094274702,-72.96674816773508,7.084817224988058,66.46559148399884,71.15390970388047,-4.688318219881637,32.33292835639154,43.598765054255594,-11.265836697864053,-0.035790131627388276,0.0,-0.035790131627388276
0.4220000000000003,move_to_zero,-0.14045243675942634,-3.476249534613999,3.335797097854573,-65.79226251435703,-72.87450196271898,7.082239448361946,66.36585315686231,71.06395533004498,-4.6981021731826615,32.26002815086276,43.543646514363985,-11.283618363501226,-0.03595730094746716,0.0,-0.03595730094746716
0.4240000000000003,move_to_zero,-0.14009064778463934,-3.471849218747399,3.3317585709627595,-65.70266742634784,-72.78225575770288,7.0795883313550405,66.26605937930188,70.97400095620948,-4.707941576907601,32.18711493758797,43.48852797447239,-11.30141303688442,-0.036122892750851204,0.0,-0.036122892750851204
0.4260000000000003,move_to_zero,-0.13972592663763445,-3.4674489028807987,3.327722976243164,-65.61314801627692,-72.69000955268679,7.076861536409865,66.16625085043786,70.88404658237397,-4.717795731936107,32.11417602030434,43.43340943458079,-11.319233414276447,-0.036284915466946586,0.0,-0.036284915466946586
0.4280000000000003,move_to_zero,-0.13937012274535857,-3.4630485870141987,3.32367846426884,-65.52369283607145,-72.59776334767068,7.074070511599231,66.06643857055211,70.79409220853847,-4.727653637986364,32.04123144338572,43.378290894689194,-11.337059451303475,-0.03644348377677273,0.0,-0.03644348377677273
0.4300000000000003,move_to_zero,-0.13903596624488004,-3.458648271147599,3.3196123049027193,-65.43429404182737,-72.50551714265458,7.071223100827211,65.966629186306,70.70413783470298,-4.737508648396982,31.96830214759113,43.32317235479759,-11.35487020720646,-0.036598580007522766,0.0,-0.036598580007522766
0.43200000000000033,move_to_zero,-0.13870144012635216,-3.454247955280999,3.315546515154647,-65.3449456672365,-72.41327093763847,7.068325270401971,65.86680621503065,70.61418346086747,-4.747377245836816,31.895370491605323,43.268053814906,-11.372683323300674,-0.036753104748135784,0.0,-0.036753104748135784
0.43400000000000033,move_to_zero,-0.13838433577063247,-3.449847639414399,3.3114633036437664,-65.25563146315405,-72.32102473262238,7.065393269468331,65.76697575069083,70.52422908703198,-4.757253336341151,31.822461817925497,43.21293527501439,-11.390473457088891,-0.03690552837654758,0.0,-0.03690552837654758
0.43600000000000033,move_to_zero,-0.13808579651177372,-3.445447323547799,3.3073615270360253,-65.16635143707038,-72.22877852760628,7.0624270905359054,65.66714221289949,70.43427471319647,-4.767132500296981,31.749566291036153,43.157816735122786,-11.408250444086633,-0.03705627160308445,0.0,-0.03705627160308445
0.43800000000000033,move_to_zero,-0.13781885774284067,-3.441047007681199,3.3032281499383584,-65.07710201891423,-72.13653232259018,7.059430303675953,65.56729530880801,70.34432033936098,-4.777025030552963,31.676686740483895,43.10269819523119,-11.426011454747297,-0.03720431345768378,0.0,-0.03720431345768378
0.44000000000000034,move_to_zero,-0.13756676845983626,-3.4366466918145986,3.2990799233547623,-64.98790818500353,-72.04428611757409,7.056377932570555,65.46745363320656,70.25436596552548,-4.78691233231892,31.603812612293375,43.04757965533959,-11.443767043046215,-0.03734920831689195,0.0,-0.03734920831689195
0.44200000000000034,move_to_zero,-0.13733787481833237,-3.4322463759479986,3.294908501129666,-64.8987801392638,-71.95203991255798,7.053259773294172,65.36762004735972,70.16441159168997,-4.796791544330247,31.53096748119754,42.992461115447995,-11.461493634250456,-0.03749115859324538,0.0,-0.03749115859324538
0.44400000000000034,move_to_zero,-0.1371282209312052,-3.427846060081399,3.290717839150194,-64.80969831483765,-71.85979370754188,7.050095392704236,65.26781520757804,70.07445721785447,-4.806642010276434,31.458147722720803,42.937342575556386,-11.479194852835583,-0.03763113404242715,0.0,-0.03763113404242715
0.44600000000000034,move_to_zero,-0.13693212285348602,-3.423445744214799,3.2865136213613133,-64.7206264830761,-71.76754750252577,7.04692101944967,65.16804200035499,69.98450284401898,-4.8164608436639895,31.385369447332785,42.88222403566479,-11.496854588332006,-0.03776871900436774,0.0,-0.03776871900436774
0.44800000000000034,move_to_zero,-0.13672250964701507,-3.419045428348199,3.2823229187011838,-64.63158509688849,-71.67530129750969,7.043716200621205,65.06829813477475,69.89454847018347,-4.826250335408716,31.312634881634313,42.82710549577319,-11.514470614138876,-0.037903070496577415,0.0,-0.037903070496577415
0.45000000000000034,move_to_zero,-0.13649004371921017,-3.414645112481599,3.2781550687623886,-64.54258443408334,-71.58305509249358,7.040470658410243,64.96856732608984,69.80459409634798,-4.836026770258144,31.239943537420775,42.77198695588159,-11.532043418460812,-0.038036036290577564,0.0,-0.038036036290577564
0.45200000000000035,move_to_zero,-0.1362541111328535,-3.410244796614999,3.2739906854821452,-64.45362877534227,-71.49080888747748,7.037180112135218,64.86882811891212,69.71463972251247,-4.845811603600353,31.167273935506287,42.71686841598999,-11.549594480483705,-0.038170507030557375,0.0,-0.038170507030557375
0.45400000000000035,move_to_zero,-0.13600559336306145,-3.405844480748399,3.2698388873853377,-64.36468845243641,-71.39856268246137,7.0338742300249635,64.76906069982104,69.62468534867698,-4.855624648855937,31.094615202768665,42.66174987609839,-11.567134673329726,-0.03830473803764198,0.0,-0.03830473803764198
0.45600000000000035,move_to_zero,-0.13575016801207782,-3.4014441648817986,3.2656939968697207,-64.27574271318787,-71.30631647744528,7.0305737642574115,64.66926202758529,69.53473097484148,-4.86546894725619,31.02194920503668,42.60663133620679,-11.584682131170108,-0.03844081310878112,0.0,-0.03844081310878112
0.45800000000000035,move_to_zero,-0.13548405284740092,-3.397043849015199,3.261559796167798,-64.18681543522082,-71.21407027242918,7.0272548372083605,64.56942407160626,69.44477660100597,-4.875352529399706,30.949286706031273,42.55151279631519,-11.602226090283914,-0.03857736809434355,0.0,-0.03857736809434355
0.46000000000000035,move_to_zero,-0.13520201194156223,-3.392643533148599,3.2574415212070367,-64.09790000456988,-71.12182406741309,7.023924062843207,64.46952746771228,69.35482222717047,-4.885294759458191,30.876624840028292,42.49639425642359,-11.6197694163953,-0.038713555997725815,0.0,-0.038713555997725815
0.46200000000000035,move_to_zero,-0.13494037982378398,-3.3882432172819987,3.253302837458215,-64.00900666356134,-71.02957786239699,7.020571198835654,64.36958512664641,69.26486785333498,-4.8952827266885635,30.803987588269536,42.44127571653199,-11.637288128262455,-0.03885275403529458,0.0,-0.03885275403529458
0.46400000000000036,move_to_zero,-0.1347027489553036,-3.383842901415399,3.2491401524600954,-63.92012802711085,-70.93733165738088,7.017203630270032,64.26961401013635,69.17491347949948,-4.905299469363129,30.731387164904366,42.38615717664039,-11.654770011736023,-0.038993895943983205,0.0,-0.038993895943983205
0.46600000000000036,move_to_zero,-0.1344742152573075,-3.379442585548799,3.2449683702914913,-63.831276010098385,-70.84508545236478,7.0138094422664,64.16958418570653,69.08495910566397,-4.9153749199574435,30.658866926408148,42.331038636748794,-11.672171710340645,-0.03913522155219003,0.0,-0.03913522155219003
0.46800000000000036,move_to_zero,-0.13426002090524636,-3.375042269682199,3.2407822487769526,-63.74243669704747,-70.75283924734867,7.010402550301208,64.06951702415425,68.99500473182847,-4.925487707674222,30.58644259267154,42.275920096857185,-11.689477504185646,-0.039276461438887904,0.0,-0.039276461438887904
0.47000000000000036,move_to_zero,-0.13405201193400534,-3.3706419538155985,3.236589941881593,-63.65364305306557,-70.66059304233258,7.006949989267007,63.96939841012517,68.90505035799298,-4.935651947867804,30.514110795749637,42.22080155696559,-11.706690761215953,-0.0394188885749735,0.0,-0.0394188885749735
0.47200000000000036,move_to_zero,-0.13384319431007183,-3.3662416379489986,3.232398443638927,-63.56487199900389,-70.56834683731647,7.003474838312577,63.86924650526119,68.81509598415747,-4.945849478896278,30.441861863637737,42.16568301707399,-11.723821153436251,-0.0395600364194492,0.0,-0.0395600364194492
0.47400000000000037,move_to_zero,-0.1336322306145238,-3.361841322082399,3.228209091467875,-63.47611330427157,-70.47610063230039,6.999987328028816,63.76904866800033,68.72514161032198,-4.9560929423216535,30.369686096044596,42.11056447718239,-11.740878381137797,-0.03970190156150004,0.0,-0.03970190156150004
0.47600000000000037,move_to_zero,-0.13339183024516335,-3.357441006215799,3.224049175970636,-63.38738276510453,-70.38385442728428,6.996471662179744,63.66881433262681,68.63518723648647,-4.966372903859664,30.297564340240903,42.05544593729079,-11.757881597049888,-0.039845743174522955,0.0,-0.039845743174522955
0.47800000000000037,move_to_zero,-0.13311000874633408,-3.3530406903491987,3.2199306816028646,-63.29865222949158,-70.29160822226818,6.992955992776601,63.568550805005394,68.54523286265096,-4.976682057645569,30.225480359696675,42.00032739739919,-11.774847037702514,-0.03998961053886377,0.0,-0.03998961053886377
0.48000000000000037,move_to_zero,-0.13279304857451943,-3.3486403744825988,3.2158473259080793,-63.20992528447797,-70.19936201725208,6.9894367327741165,63.46826427907246,68.45527848881548,-4.987014209743023,30.15344029740633,41.94520885750759,-11.791768560101257,-0.04013394846885208,0.0,-0.04013394846885208
0.4820000000000004,move_to_zero,-0.13248426491270987,-3.344240058615999,3.211755793703289,-63.12121265403243,-70.10711581223597,6.985903158203541,63.36794119298587,68.36532411497997,-4.997382921994102,30.081440252886704,41.890090317615986,-11.808650064729282,-0.040279665327412104,0.0,-0.040279665327412104
0.4840000000000004,move_to_zero,-0.13218255838744927,-3.339839742749399,3.2076571843619495,-63.03253823873415,-70.01486960721988,6.982331368485731,63.26757853027251,68.27536974114447,-5.007791210871964,30.009464279277353,41.83497177772439,-11.825507498447038,-0.040424769680439544,0.0,-0.040424769680439544
0.4860000000000004,move_to_zero,-0.13188115889575955,-3.3354394268827985,3.203558267987039,-62.94391185767099,-69.92262340220378,6.978711544532793,63.16720049755894,68.18541536730898,-5.0182148697500395,29.937486563976133,41.77985323783279,-11.842366673856656,-0.04056651209384218,0.0,-0.04056651209384218
0.4880000000000004,move_to_zero,-0.1316124904355236,-3.331039111016199,3.1994266205806756,-62.85530135241988,-69.83037719718769,6.975075844767808,63.06682617495655,68.09546099347347,-5.028634818516913,29.865489695736336,41.72473469794119,-11.859245002204851,-0.04070483687760226,0.0,-0.04070483687760226
0.4900000000000004,move_to_zero,-0.13136975225725397,-3.326638795149599,3.195269042892345,-62.76673203295353,-69.73813099217158,6.97139895921805,62.966449987358644,68.00550661963797,-5.039056632279326,29.79348430902424,41.66961615804959,-11.876131849025352,-0.040839637969433476,0.0,-0.040839637969433476
0.4920000000000004,move_to_zero,-0.1311473794170122,-3.3222384792829986,3.1910910998659863,-62.67817399721787,-69.64588478715548,6.9677107899376125,62.866060867511585,67.91555224580247,-5.049491378290888,29.721475755621622,41.61449761815798,-11.893021862536362,-0.04097418686171572,0.0,-0.04097418686171572
0.4940000000000004,move_to_zero,-0.13092570753997776,-3.3178381634163987,3.186912455876421,-62.589647437050175,-69.55363858213937,6.963991145089196,62.76566917435657,67.82559787196698,-5.05992869761041,29.649464279762373,41.55937907826639,-11.909914798504015,-0.04110966768815466,0.0,-0.04110966768815466
0.4960000000000004,move_to_zero,-0.13070953605476407,-3.3134378475497988,3.1827283114950347,-62.50116474435052,-69.46139237712327,6.960227632772757,62.665285782473475,67.73564349813147,-5.070357715657991,29.577460676693804,41.50426053837479,-11.926799861680983,-0.04124624435831766,0.0,-0.04124624435831766
0.4980000000000004,move_to_zero,-0.1304907875837268,-3.309037531683199,3.178546744099472,-62.41273277078225,-69.36914617210718,6.95641340132493,62.564921683527864,67.64568912429597,-5.080767440768106,29.505504954551867,41.44914199848319,-11.943637043931325,-0.041381791028258494,0.0,-0.041381791028258494
0.5000000000000003,move_to_zero,-0.13027073376387815,-3.3046372158165984,3.1743664820527204,-62.32436378735368,-69.27689996709108,6.9525361797374,62.46456764254763,67.55573475046047,-5.091167107912845,29.433580600015766,41.39402345859159,-11.960442858575824,-0.04151655701238878,0.0,-0.04151655701238878
0.5020000000000003,move_to_zero,-0.130038187932086,-3.300236899949999,3.170198712017913,-62.23606348627516,-69.18465376207499,6.94859027579983,62.36422310734955,67.46578037662498,-5.101557269275425,29.361668349082393,41.33890491869999,-11.977236569617595,-0.04164754847785011,0.0,-0.04164754847785011
0.5040000000000003,move_to_zero,-0.1297732366472662,-3.2958365840833994,3.166063347436133,-62.14782331881398,-69.09240755705889,6.944584238244914,62.26390561995761,67.37582600278948,-5.111920382831869,29.28976327913751,41.283786378808394,-11.994023099670883,-0.04177389090664257,0.0,-0.04177389090664257
0.5060000000000003,move_to_zero,-0.12950763553348524,-3.291436268216799,3.161928632683314,-62.05963074027583,-69.00016135204278,6.9405306117669525,62.16363284508591,67.28587162895397,-5.122238783868063,29.217870874741447,41.228667838916785,-12.010796964175338,-0.0418948754321911,0.0,-0.0418948754321911
0.5080000000000003,move_to_zero,-0.12925570830771968,-3.287035952350199,3.1577802440424794,-61.97148067825911,-68.90791514702669,6.9364344687675725,62.06339131749239,67.19591725511847,-5.1325259376260846,29.14598225048722,41.1735492990252,-12.027567048537978,-0.04201217208958714,0.0,-0.04201217208958714
0.5100000000000003,move_to_zero,-0.12901451330046318,-3.2826356364835987,3.1536211231831355,-61.88336827287577,-68.81566894201057,6.932300669134804,61.963158784640726,67.10596288128298,-5.1428040966422515,29.074131016077313,41.11843075913359,-12.044299743056275,-0.04212429516397481,0.0,-0.04212429516397481
0.5120000000000003,move_to_zero,-0.12878792655475357,-3.278235320616999,3.1494473940622454,-61.795299151076016,-68.7234227369945,6.9281235859184775,61.86294180541617,67.01600850744748,-5.15306670203131,29.002322051795325,41.06331221924199,-12.060990167446668,-0.042234651562374215,0.0,-0.042234651562374215
0.5140000000000003,move_to_zero,-0.12853145982769182,-3.273835004750399,3.145303544922707,-61.70730360835102,-68.63117653197838,6.923872923627364,61.76275469078019,66.92605413361197,-5.163299442831779,28.930559505857595,41.00819367935039,-12.077634173492797,-0.04234340775820992,0.0,-0.04234340775820992
0.5160000000000003,move_to_zero,-0.12827601461318383,-3.2694346888837993,3.1411586742706152,-61.61938082579431,-68.53893032696229,6.919549501167978,61.66261388492058,66.83609975977649,-5.173485874855906,28.858837188774398,40.95307513945879,-12.094237950684391,-0.042451192183835876,0.0,-0.042451192183835876
0.5180000000000003,move_to_zero,-0.12803241337258434,-3.265034373017199,3.1370019596446146,-61.53150738224306,-68.44668412194618,6.915176739703114,61.56250131316793,66.74614538594096,-5.183644072773035,28.7871679503934,40.89795659956719,-12.110788649173788,-0.04255981687708735,0.0,-0.04255981687708735
0.5200000000000004,move_to_zero,-0.12780191558832085,-3.2606340571505994,3.1328321415622784,-61.44372082886161,-68.35443791693008,6.910717088068473,61.46241969335546,66.65619101210548,-5.193771318750024,28.715534093252433,40.84283805967559,-12.12730396642316,-0.0426693707848839,0.0,-0.0426693707848839
0.5220000000000004,move_to_zero,-0.12758943485219973,-3.2562337412839986,3.128644306431799,-61.35603588010979,-68.26219171191397,6.906155831804178,61.36238597780713,66.56623663826997,-5.203850660462841,28.643935795408332,40.78771951978399,-12.143783724375659,-0.042776708194381376,0.0,-0.042776708194381376
0.5240000000000004,move_to_zero,-0.12739209813637867,-3.251833425417399,3.1244413272810205,-61.268451437907956,-68.16994550689789,6.901494068989933,61.26241066643435,66.47628226443447,-5.213871598000125,28.572386014346577,40.732600979892396,-12.16021496554582,-0.04288183277946671,0.0,-0.04288183277946671
0.5260000000000004,move_to_zero,-0.12720668210765512,-3.2474331095507987,3.1202264274431437,-61.18097402728756,-68.07769930188178,6.896725274594218,61.16251395259698,66.38632789059898,-5.223813938001996,28.500881732818513,40.677482440000794,-12.176600707182281,-0.042986564395310026,0.0,-0.042986564395310026
0.5280000000000004,move_to_zero,-0.12702965280650827,-3.2430327936841996,3.1160031408776914,-61.093588663057375,-67.9854530968657,6.891864433808323,61.06268677212465,66.29637351676348,-5.233686744638831,28.429411310861617,40.62236390010919,-12.192952589247575,-0.04309046161488048,0.0,-0.04309046161488048
0.5300000000000004,move_to_zero,-0.12686033365276497,-3.2386324778175983,3.111772144164833,-61.006279432138484,-67.89320689184957,6.886927459711089,60.962914881553765,66.20641914292797,-5.2435042613742056,28.357980645767768,40.56724536021758,-12.209264714449816,-0.04319125475063791,0.0,-0.04319125475063791
0.5320000000000004,move_to_zero,-0.1266967113166471,-3.2342321619509993,3.107535450634352,-60.919014850360995,-67.80096068683349,6.881945836472497,60.86319824712924,66.11646476909249,-5.253266521963248,28.286582249744857,40.512126820325996,-12.225544570581139,-0.04328796271449061,0.0,-0.04328796271449061
0.5340000000000004,move_to_zero,-0.12653809636111849,-3.229831846084399,3.10329374972328,-60.83179355318329,-67.70871448181737,6.876920928634078,60.76353090392122,66.02651039525698,-5.262979491335756,28.21518588697705,40.45700828043439,-12.241822393457337,-0.0433812987482885,0.0,-0.0433812987482885
0.5360000000000004,move_to_zero,-0.12638345860933364,-3.2254315302177994,3.0990480716084656,-60.74463882053058,-67.61646827680129,6.871829456270703,60.663905271238086,65.93655602142148,-5.272650750183395,28.14379474238409,40.4018897405428,-12.258094998158708,-0.043471408270349676,0.0,-0.043471408270349676
0.5380000000000004,move_to_zero,-0.12623081736063774,-3.2210312143511985,3.0948003969905606,-60.65756614426131,-67.52422207178519,6.86665592752388,60.56431360464655,65.84660164758597,-5.28228804293942,28.07243246917216,40.34677120065119,-12.27433873147903,-0.04355969794584159,0.0,-0.04355969794584159
0.5400000000000004,move_to_zero,-0.12605984703781545,-3.216630898484599,3.0905710514467835,-60.570577129526704,-67.4319758667691,6.861398737242389,60.46474732785072,65.75664727375049,-5.291899945899765,28.001103730910465,40.29165266075959,-12.290548929849123,-0.0436444852483782,0.0,-0.0436444852483782
0.5420000000000004,move_to_zero,-0.1258845204765055,-3.2122305826179987,3.086346062141493,-60.48368011136945,-67.33972966175298,6.856049550383531,60.365190238536805,65.66669289991496,-5.301502661378159,27.92979709714772,40.23653412086799,-12.306737023720267,-0.04372750012410802,0.0,-0.04372750012410802
0.5440000000000004,move_to_zero,-0.1257153391303413,-3.207830266751399,3.082114927621058,-60.39686900023849,-67.24748345673689,6.850614456498398,60.265644057901675,65.57673852607948,-5.3110944681778065,27.858502195763943,40.18141558097639,-12.322913385212448,-0.04380855077419951,0.0,-0.04380855077419951
0.5460000000000004,move_to_zero,-0.12554315165224073,-3.2034299508847988,3.077886799232558,-60.31014795807415,-67.15523725172078,6.84508929364663,60.1661057125973,65.48678415224397,-5.32067843964667,27.787207528919573,40.12629704108479,-12.339089512165216,-0.04388726517456292,0.0,-0.04388726517456292
0.5480000000000004,move_to_zero,-0.12537651261285804,-3.1990296350181993,3.073653122405341,-60.22351648205978,-67.06299104670468,6.839474564644902,60.06658599131915,65.39682977840847,-5.330243787089323,27.715907886524622,40.071178501193195,-12.355270614668573,-0.04396349572417295,0.0,-0.04396349572417295
0.5500000000000004,move_to_zero,-0.1252148670169317,-3.194629319151599,3.069414452134667,-60.136979611709876,-66.97074484168859,6.8337652299787095,59.967108030870556,65.30687540457298,-5.339767373702422,27.644599377983457,40.01605996130159,-12.371460583318136,-0.04403826019490088,0.0,-0.04403826019490088
0.5520000000000004,move_to_zero,-0.12505704276384405,-3.190229003284999,3.065171960521155,-60.05052346880434,-66.87849863667249,6.827975167868146,59.86766449354897,65.21692103073748,-5.349256537188509,27.573317514219212,39.96094142140999,-12.387623907190779,-0.04411119559694993,0.0,-0.04411119559694993
0.5540000000000004,move_to_zero,-0.12490010654563233,-3.1858286874183985,3.0609285808727664,-59.9641328639487,-66.78625243165638,6.822119567707681,59.76823055708055,65.12696665690197,-5.358736099821421,27.50206352052226,39.90582288151839,-12.40375936099613,-0.0441824584421185,0.0,-0.0441824584421185
0.5560000000000004,move_to_zero,-0.12474734033299376,-3.1814283715517995,3.0566810312188055,-59.87779192985797,-66.69400622664028,6.816214296782313,59.6687960942492,65.03701228306649,-5.368216188817286,27.43083276352674,39.850704341626795,-12.419871578100054,-0.0442524609822304,0.0,-0.0442524609822304
0.5580000000000004,move_to_zero,-0.12459709867696286,-3.1770280556851986,3.052430957008236,-59.791515051785545,-66.60176002162417,6.810244969838628,59.56934752527167,64.94705790923096,-5.377710383959297,27.35963346117471,39.795585801735186,-12.435952340560476,-0.04432089518742923,0.0,-0.04432089518742923
0.5600000000000004,move_to_zero,-0.12444910002740768,-3.172627739818599,3.0481786397911916,-59.70531080709101,-66.50951381660808,6.804203009517067,59.469881391627034,64.85710353539548,-5.387222143768447,27.288485680463683,39.7404672618436,-12.451981581379915,-0.044389389061238266,0.0,-0.044389389061238266
0.5620000000000004,move_to_zero,-0.12430151153221128,-3.1682274239519987,3.0439259124197875,-59.61918182811769,-66.41726761159198,6.798085783474292,59.37040679851303,64.76714916155997,-5.39674236304694,27.217366868847403,39.68534872195198,-12.467981853104579,-0.04446023801643878,0.0,-0.04446023801643878
0.5640000000000004,move_to_zero,-0.12415446992675214,-3.1638271080853992,3.039672638158647,-59.53312720882761,-66.3250214065759,6.791894197748292,59.270914356949916,64.67719478772447,-5.406280430774558,27.146281319046395,39.630230182060394,-12.483948863014,-0.044535805502009605,0.0,-0.044535805502009605
0.5660000000000004,move_to_zero,-0.12400901044356477,-3.159426792218799,3.035417781775234,-59.44715024154366,-66.23277520155978,6.785624960016115,59.171398281558744,64.58724041388896,-5.415842132330219,27.075214052552,39.575111642168785,-12.499897589616786,-0.04461665516952082,0.0,-0.04461665516952082
0.5680000000000004,move_to_zero,-0.12386447774709207,-3.155026476352199,3.031161998605107,-59.36123839244295,-66.1405289965437,6.779290604100744,59.07186316953026,64.49728604005348,-5.425422870523221,27.004152472542486,39.51999310227719,-12.515840629734704,-0.04470221756115885,0.0,-0.04470221756115885
0.5700000000000004,move_to_zero,-0.12371988081760134,-3.1506261604855985,3.026906279667997,-59.275416966677604,-66.04828279152757,6.772865824849966,58.9723251816914,64.40733166621797,-5.435006484526568,26.93309331014602,39.46487456238559,-12.531781252239568,-0.044791931835290205,0.0,-0.044791931835290205
0.5720000000000004,move_to_zero,-0.12355848029551848,-3.1462258446189995,3.022667364323481,-59.18967616936478,-65.95603658651149,6.766360417146707,58.87279263300506,64.31737729238247,-5.444584659377412,26.862042422394826,39.409756022493994,-12.547713600099168,-0.04488213161463843,0.0,-0.04488213161463843
0.5740000000000004,move_to_zero,-0.12338543817385068,-3.141825528752399,3.0184400905785482,-59.10399076778069,-65.86379038149538,6.759799613714691,58.773260723067004,64.22742291854698,-5.454162195479974,26.791005125059556,39.354637482602385,-12.56363235754283,-0.04497325337594206,0.0,-0.04497325337594206
0.5760000000000004,move_to_zero,-0.12319408563304678,-3.137425212885799,3.0142311272527524,-59.018376023932575,-65.7715441764793,6.753168152546721,58.67373509977064,64.13746854471148,-5.463733444940843,26.71999107869904,39.29951894271079,-12.579527864011752,-0.04506372799722076,0.0,-0.04506372799722076
0.5780000000000004,move_to_zero,-0.1229943330737238,-3.1330248970191987,3.0100305639454747,-58.932816716877916,-65.67929797146319,6.7464812545852695,58.57420065152553,64.04751417087597,-5.473313519350441,26.6490059584648,39.24440040281919,-12.595394444354387,-0.04515643657077768,0.0,-0.04515643657077768
0.5800000000000004,move_to_zero,-0.12280171938870849,-3.1286245811525992,3.0058228617638907,-58.84729477546496,-65.58705176644709,6.73975699098213,58.47462918099517,63.95755979704048,-5.482930616045309,26.57806513037008,39.189281862927594,-12.611216732557512,-0.0452502424590325,0.0,-0.0452502424590325
0.5820000000000004,move_to_zero,-0.12261955873936137,-3.1242242652859984,3.001604706546637,-58.76181982525753,-65.49480556143098,6.732985736173447,58.3750489756099,63.867605423204964,-5.492556447595064,26.50715641671535,39.134163323035985,-12.627006906320634,-0.04534493412462673,0.0,-0.04534493412462673
0.5840000000000004,move_to_zero,-0.12244685881369209,-3.119823949419399,2.9973770906057067,-58.67637517955294,-65.40255935641488,6.726184176861942,58.27547700470716,63.777651049369474,-5.502174044662311,26.436270558038878,39.0790447831444,-12.64277422510552,-0.045441885751790596,0.0,-0.045441885751790596
0.5860000000000004,move_to_zero,-0.12228054059807228,-3.1154236335527985,2.993143092954726,-58.59094981976364,-65.31031315139877,6.719363331635137,58.17592284376003,63.68769667553397,-5.511773831773944,26.36539752157477,39.02392624325278,-12.65852872167801,-0.04553968468169602,0.0,-0.04553968468169602
0.5880000000000004,move_to_zero,-0.12212076556287485,-3.1110233176861994,2.988902552123325,-58.505530138693615,-65.21806694638268,6.712536807689062,58.07636958422601,63.597742301698474,-5.521372717472467,26.29457767463079,38.96880770336119,-12.674230028730403,-0.04563680085155966,0.0,-0.04563680085155966
0.5900000000000004,move_to_zero,-0.12196530241847954,-3.1066230018195986,2.984657699401119,-58.42009347792895,-65.12582074136658,6.70572726343763,57.9768181314402,63.50778792786297,-5.530969796422774,26.22379380692941,38.913689163469584,-12.689895356540173,-0.045731550611324986,0.0,-0.045731550611324986
0.5920000000000004,move_to_zero,-0.12181371236499061,-3.102222685952999,2.9804089735880086,-58.33465568521383,-65.03357453635049,6.6989188511366535,57.87727868488809,63.41783355402748,-5.540554869139392,26.153051343524776,38.858570623578,-12.70551928005322,-0.045824909534031406,0.0,-0.045824909534031406
0.5940000000000004,move_to_zero,-0.1216658981550711,-3.0978223700863987,2.976156471931328,-58.24921565667864,-64.94132833133438,6.692112674655732,57.77774677761518,63.32787918019197,-5.550132402576793,26.082371149591506,38.80345208368639,-12.721080934094882,-0.04591481241807929,0.0,-0.04591481241807929
0.5960000000000004,move_to_zero,-0.12152055017393736,-3.093422054219799,2.971901504045862,-58.163764949538475,-64.84908212631828,6.6853171767798045,57.678221806693145,63.23792480635648,-5.559702999663337,26.011770083527807,38.74833354379479,-12.736563460266986,-0.0460016189708429,0.0,-0.0460016189708429
0.5980000000000004,move_to_zero,-0.12137608761062088,-3.0890217383531984,2.9676456507425777,-58.07831849523229,-64.75683592130217,6.678517426069881,57.57867398904754,63.147970432520964,-5.5692964434734265,25.941266834941832,38.693215003903184,-12.751948168961352,-0.04608589740699156,0.0,-0.04608589740699156
0.6000000000000004,move_to_zero,-0.1212336980305051,-3.0846214224865993,2.963387724456094,-57.99289446556079,-64.66458971628607,6.671695250725286,57.479089674298876,63.05801605868548,-5.578926384386605,25.870856549763698,38.63809646401159,-12.767239914247892,-0.046166398040635576,0.0,-0.046166398040635576
0.6020000000000004,move_to_zero,-0.12109206918423067,-3.0802211066199985,2.9591290374357677,-57.90750792868421,-64.57234351126998,6.664835582585766,57.37945596633955,62.968061684849964,-5.588605718510415,25.80055023295339,38.58297792411999,-12.782427691166596,-0.04624285813004913,0.0,-0.04624285813004913
0.6040000000000004,move_to_zero,-0.1209413211938365,-3.075820790753399,2.9548794695595624,-57.82216999462027,-64.4800973062539,6.657927311633628,57.279777107350235,62.878107311014475,-5.59833020366424,25.730349259857324,38.52785938422839,-12.797510124371069,-0.04631278963701403,0.0,-0.04631278963701403
0.6060000000000004,move_to_zero,-0.12077137992239514,-3.0714204748867986,2.9506490949644033,-57.7368899172092,-64.38785110123777,6.650961184028574,57.18006863499047,62.78815293717897,-5.608084302188502,25.660239376797367,38.47274084433679,-12.812501467539423,-0.046377069117458626,0.0,-0.046377069117458626
0.6080000000000004,move_to_zero,-0.12058729046277315,-3.067020159020199,2.946432868557426,-57.65166652955299,-64.29560489622169,6.643938366668699,57.08035645311973,62.698198563343475,-5.617842110223748,25.59022315388921,38.417622304445196,-12.827399150555987,-0.04643714703792157,0.0,-0.04643714703792157
0.6100000000000004,move_to_zero,-0.12041135344826992,-3.0626198431535987,2.9422084897053287,-57.566482849713694,-64.20335869120557,6.636875841491872,56.98065122107354,62.60824418950797,-5.627592968434428,25.520289474488138,38.36250376455359,-12.84221429006545,-0.04649390327330081,0.0,-0.04649390327330081
0.6120000000000004,move_to_zero,-0.12024216362186338,-3.0582195272869988,2.9379773636651354,-57.48135022446339,-64.11111248618948,6.629762261726093,56.88095972781402,62.51828981567248,-5.637330087858459,25.45040741148776,38.30738522466199,-12.856977813174232,-0.04654774121210277,0.0,-0.04654774121210277
0.6140000000000004,move_to_zero,-0.12007886394984751,-3.0538192114203984,2.933740347470551,-57.39625978617032,-64.01886628117337,6.622606495003055,56.78126130381504,62.42833544183697,-5.647074138021928,25.380589671200273,38.25226668477038,-12.87167701357011,-0.04659859820796673,0.0,-0.04659859820796673
0.6160000000000004,move_to_zero,-0.1199218703307366,-3.0494188955537993,2.9294970252230628,-57.311225438339704,-63.926620076157285,6.61539463781758,56.681560267902945,62.33838106800148,-5.6568208000985365,25.310823503772415,38.197148144878796,-12.88632464110638,-0.0466460605492716,0.0,-0.0466460605492716
0.6180000000000004,move_to_zero,-0.11976896545903609,-3.045018579687199,2.925249614228163,-57.22622176806099,-63.83437387114118,6.608152103080194,56.58184817675615,62.248426694165964,-5.6665785174098176,25.241094976410327,38.14202960498719,-12.90093462857686,-0.04668833815675508,0.0,-0.04668833815675508
0.6200000000000004,move_to_zero,-0.11961828949120455,-3.040618263820599,2.9209999743293946,-57.14124983846063,-63.742127666125086,6.600877827664455,56.48213644876941,62.15847232033048,-5.676335871561072,25.171419916154285,38.08691106509559,-12.915491148941307,-0.04672455059626819,0.0,-0.04672455059626819
0.6220000000000004,move_to_zero,-0.11946913490863639,-3.0362179479539986,2.9167488130453623,-57.05630606009101,-63.649881461108976,6.593575401017965,56.382423309994124,62.068517946494964,-5.68609463650084,25.101816028094284,38.03179252520398,-12.929976497109699,-0.04675598183576763,0.0,-0.04675598183576763
0.6240000000000004,move_to_zero,-0.11932147267594384,-3.031817632087399,2.912496159411455,-56.97137615639419,-63.55763525609289,6.586259099698694,56.28270331327334,61.978563572659475,-5.695860259386137,25.032280911054972,37.97667398531239,-12.944393074257416,-0.046779725891101916,0.0,-0.046779725891101916
0.6260000000000004,move_to_zero,-0.11917649444766819,-3.0274173162207987,2.9082408217731306,-56.886470704703314,-63.46538905107678,6.578918346373463,56.1829691370053,61.888609198823964,-5.705640061818663,24.962849709952565,37.921555445420786,-12.958705735468222,-0.046796433608531085,0.0,-0.046796433608531085
0.6280000000000004,move_to_zero,-0.11903483393449835,-3.0230170003541987,2.9039821664197003,-56.801586370086255,-63.37314284606068,6.571556475974425,56.08322496971826,61.798654824988475,-5.715429855270216,24.893547938983527,37.86643690552919,-12.972888966545664,-0.04680809942547295,0.0,-0.04680809942547295
0.6300000000000004,move_to_zero,-0.11889561134856914,-3.0186166844875983,2.899721073139029,-56.716736556628476,-63.28089664104458,6.564160084416102,55.98347046812487,61.70870045115297,-5.7252299830281,24.82436889989091,37.81131836563759,-12.98694946574668,-0.046818869560751084,0.0,-0.046818869560751084
0.6320000000000005,move_to_zero,-0.11875788131797639,-3.0142163686209993,2.895458487303023,-56.63192412554488,-63.18865043602848,6.556726310483604,55.88368631368432,61.618746077317475,-5.735059763633153,24.755333746257858,37.756199825745995,-13.000866079488137,-0.046827949851515116,0.0,-0.046827949851515116
0.6340000000000005,move_to_zero,-0.11862000093005427,-3.009816052754399,2.8911960518243447,-56.54715549154682,-63.09640423101237,6.549248739465554,55.78388304732581,61.52879170348197,-5.744908656156163,24.686433629600845,37.701081285854386,-13.01464765625354,-0.04683522697881835,0.0,-0.04683522697881835
0.6360000000000005,move_to_zero,-0.11848217152862281,-3.005415736887799,2.8869335653591763,-56.462413438520514,-63.00415802599628,6.541744587475769,55.684059301460216,61.43883732964648,-5.754778028186266,24.617661656442966,37.64596274596279,-13.028301089519825,-0.0468409451464682,0.0,-0.0468409451464682
0.6380000000000005,move_to_zero,-0.11834549315125345,-3.0010154210211986,2.8826699278699452,-56.37770363023648,-62.91191182098017,6.534208190743691,55.58421479936161,61.348882955810964,-5.764668156449353,24.54900600529329,37.59084420607118,-13.041838200777892,-0.046845046297690394,0.0,-0.046845046297690394
0.6400000000000005,move_to_zero,-0.11820782114042357,-2.996615105154599,2.8784072840141754,-56.293007754009565,-62.81966561596408,6.5266578619545115,55.48435211271505,61.25892858197548,-5.774576469260431,24.480462288927,37.535725666179594,-13.055263377252594,-0.046843890479497496,0.0,-0.046843890479497496
0.6420000000000005,move_to_zero,-0.11806967633337602,-2.9922147892879987,2.8741451129546225,-56.208323423197626,-62.727419410947974,6.519095987750347,55.3844723653197,61.168974208139964,-5.784501842820262,24.41204921457289,37.480607126287985,-13.068557911715097,-0.046838114943772206,0.0,-0.046838114943772206
0.6440000000000005,move_to_zero,-0.11793231473037044,-2.987814473421399,2.869882158691029,-56.12364140530419,-62.63517320593189,6.511531800627701,55.28455962070584,61.079019834304475,-5.794460213598633,24.343791137962015,37.42548858639639,-13.081697448434376,-0.0468287477462019,0.0,-0.0468287477462019
0.6460000000000005,move_to_zero,-0.11779485245208637,-2.9834141575547983,2.865619305102712,-56.03894507690301,-62.54292700091577,6.503981924012756,55.184599169548044,60.989065460468964,-5.804466290920921,24.275677348170895,37.37037004650478,-13.094692698333887,-0.04681827795051146,0.0,-0.04681827795051146
0.6480000000000005,move_to_zero,-0.11765767962620492,-2.9790138416881993,2.8613561620619943,-55.954241806397974,-62.450680795899686,6.496438989501712,55.084585510356185,60.899111086633475,-5.8145255762772905,24.2076974837744,37.31525150661319,-13.107554022838787,-0.046807638152586595,0.0,-0.046807638152586595
0.6500000000000005,move_to_zero,-0.1175194341360843,-2.9746135258215984,2.8570940916855143,-55.86956033903809,-62.35843459088357,6.4888742518454805,54.984523203332635,60.80915671279797,-5.824633509465336,24.139841479838427,37.260132966721585,-13.120291486883158,-0.046795608264897974,0.0,-0.046795608264897974
0.6520000000000005,move_to_zero,-0.11738080719539569,-2.970213209954999,2.8528324027596033,-55.78491616012985,-62.26618838586749,6.481272225737634,54.88442451277596,60.719202338962475,-5.834777826186517,24.072106655082248,37.20501442682999,-13.132907771747742,-0.04678224345064397,0.0,-0.04678224345064397
