GerardoFJ/TE3001B_TEAM_3/src/s0s1_gazebo/scripts/results/PI5/state.csv
t,phase,shoulder_pan_actual_deg,shoulder_pan_desired_deg,shoulder_pan_error_deg,shoulder_lift_actual_deg,shoulder_lift_desired_deg,shoulder_lift_error_deg,elbow_flex_actual_deg,elbow_flex_desired_deg,elbow_flex_error_deg,wrist_flex_actual_deg,wrist_flex_desired_deg,wrist_flex_error_deg,wrist_roll_actual_deg,wrist_roll_desired_deg,wrist_roll_error_deg
0.002,move_to_zero,-4.376474382407018,-4.4003158666,0.02384148419298171,-92.21682027023317,-92.2462050161,0.02938474586683526,89.9402674989065,89.9543738355,-0.014106336593499691,55.09939055982472,55.1185398916,-0.019149331775281553,0.0017248340730163765,0.0,0.0017248340730163765
0.004,move_to_zero,-4.329775384828395,-4.3959155507334,0.06614016590500515,-92.15895080991234,-92.15395881108391,-0.004991998828430155,89.91232985434021,89.86441946166448,0.04791039267573183,55.0617764542732,55.0634213517084,-0.0016448974351988,0.00451021202014783,0.0,0.00451021202014783
0.006,move_to_zero,-4.261358412667247,-4.3915152348668,0.13015682219955327,-92.0735678562316,-92.0617126060678,-0.011855250163804953,89.87088595866089,89.77446508782899,0.09642087083190631,55.006362638989884,55.008302811816804,-0.0019401728269201612,0.00768383377152179,0.0,0.00768383377152179
0.008,move_to_zero,-4.172476672281621,-4.3871149190002,0.21463824671857878,-91.96173891526,-91.9694664010517,0.00772748579170468,89.8162802379494,89.68451071399349,0.13176952395591002,54.933825795379406,54.953184271925196,-0.019358476545789927,0.01068412323283966,0.0,0.01068412323283966
0.01,move_to_zero,-4.064462708049985,-4.382714603133599,0.3182518950836144,-91.82460398401652,-91.8772201960356,0.05261621201907474,89.74888068372051,89.594556340158,0.15432434356252145,54.84486872624413,54.8980657320336,-0.053197005789471064,0.013120105521778098,0.0,0.013120105521778098
0.012,move_to_zero,-3.9387355467159146,-4.378314287266999,0.4395787405510845,-91.66333586348871,-91.7849739910195,0.12163812753078673,89.66907535032526,89.50460196632248,0.16447338400277545,54.740215249324365,54.842947192142,-0.10273194281763409,0.015068401913519065,0.0,0.015068401913519065
0.014,move_to_zero,-3.7967645063561344,-4.373913971400399,0.5771494650442648,-91.47915116588469,-91.69272778600339,0.21357662011870104,89.57728532796706,89.41464759248699,0.1626377354800752,54.620576298840454,54.787828652250404,-0.1672523534099497,0.016598043742465426,0.0,0.016598043742465426
0.016,move_to_zero,-3.640088238703601,-4.369513655533799,0.7294254168301983,-91.27327990438022,-91.6004815809873,0.3272016766070891,89.47393257442779,89.32469321865149,0.14923935577630232,54.48667590042031,54.7327101123588,-0.24603421193849329,0.017745948321495845,0.0,0.017745948321495845
0.018000000000000002,move_to_zero,-3.4702621367289717,-4.3651133396672,0.8948512029382285,-91.04699836054199,-91.5082353759712,0.46123701542920514,89.35946471196445,89.234738844816,0.1247258671484559,54.33922541595936,54.6775915724672,-0.3383661565078384,0.018409181473958685,0.0,0.018409181473958685
0.020000000000000004,move_to_zero,-3.2888930263818454,-4.3607130238006,1.0718199974187548,-90.8016276216793,-91.4159891709551,0.6143615492757988,89.23437026012571,89.1447844709805,0.08958578914521809,54.17895403373511,54.6224730325756,-0.4435189988404886,0.01855538584015203,0.0,0.01855538584015203
0.022000000000000006,move_to_zero,-3.097623300777995,-4.356312707934,1.2586894071560053,-90.53850695251113,-91.323742965939,0.7852360134278769,89.09913036860445,89.05483009714499,0.04430027145946269,54.00655784205818,54.567354492684,-0.560796650625818,0.018238283075093776,0.0,0.018238283075093776
0.024000000000000007,move_to_zero,-2.8980784329028735,-4.351912392067399,1.453833959164526,-90.25901495945138,-91.2314967609229,0.9724818014715169,88.95424494596104,88.96487572330949,-0.01063077734845308,53.822747818774715,54.5122359527924,-0.6894881340176866,0.017535305873617516,0.0,0.017535305873617516
0.02600000000000001,move_to_zero,-2.6918971966336476,-4.3475120762007995,1.655614879567152,-89.96450399852998,-91.1392505559068,1.174746557376821,88.80024208312831,88.874921349474,-0.074679266345683,53.62821208710314,54.4571174129008,-0.8289053257976633,0.016584864289340924,0.0,0.016584864289340924
0.02800000000000001,move_to_zero,-2.4806785467394565,-4.3431117603341995,1.862433213594743,-89.6563563956563,-91.0470043508907,1.3906479552343995,88.63764684895267,88.78496697563848,-0.14732012668581262,53.42364403167472,54.401998873009205,-0.978354841334486,0.015531867774592428,0.0,0.015531867774592428
0.030000000000000013,move_to_zero,-2.2660331372714175,-4.3387114444676,2.072678307196182,-89.3359478828949,-90.9547581458746,1.6188102629797072,88.46698845023674,88.695012601803,-0.22802415156625955,53.20974111028957,54.3468803331176,-1.1371392228280328,0.014514306396075788,0.0,0.014514306396075788
0.032000000000000015,move_to_zero,-2.0495080115335673,-4.334311128601,2.2848031170674323,-89.00465411471417,-90.8625119408585,1.8578578261443255,88.28882131825411,88.60505822796749,-0.3162369097133819,52.9871721858915,54.291761793225994,-1.304589607334492,0.013632730814924493,0.0,0.013632730814924493
0.034000000000000016,move_to_zero,-1.8326086784060978,-4.3299108127344,2.4973021343283017,-88.66385599940114,-90.7702657358424,2.1064097364412646,88.10366496250502,88.51510385413198,-0.41143889162695757,52.75659455677775,54.2366432533344,-1.4800486965566506,0.012887723486763682,0.0,0.012887723486763682
0.03600000000000002,move_to_zero,-1.6167581759902008,-4.3255104968678,2.7087523208775988,-88.31490640046974,-90.67801953082629,2.3631131303565525,87.91205764199412,88.4251494802965,-0.5130918383023726,52.5186609810118,54.1815247134428,-1.6628637324309992,0.0122584354505133,0.0,0.0122584354505133
0.03800000000000002,move_to_zero,-1.403352725969744,-4.3211101810012,2.917757455031456,-87.95911523666457,-90.5857733258102,2.6266580891456215,87.7145512744001,88.33519510646099,-0.6206438320608925,52.27399198266433,54.1264061735512,-1.8524141908868756,0.011725785380859612,0.0,0.011725785380859612
0.04000000000000002,move_to_zero,-1.1937297679980048,-4.316709865134599,3.122980097136594,-87.59777357688405,-90.4935271207941,2.895753543910047,87.51167678332611,88.24524073262549,-0.7335639492993806,52.023227810440176,54.0712876336596,-2.0480598232194254,0.011273685382761663,0.0,0.011273685382761663
0.04200000000000002,move_to_zero,-0.9891420714316357,-4.312309549267999,3.323167477836363,-87.23214714937667,-90.401280915778,3.1691337664013304,87.30394953867277,88.15528635879,-0.8513368201172256,51.76696373338168,54.016169093768006,-2.249205360386327,0.01088849253919753,0.0,0.01088849253919753
0.044000000000000025,move_to_zero,-0.7907383431667926,-4.307909233401399,3.5171708902346066,-86.86349498088427,-90.3090347107619,3.4455397298776376,87.09191648724821,88.06533198495448,-0.9734154977062701,51.505784300091264,53.9610505538764,-2.4552662537851333,0.010559080284204958,0.0,0.010559080284204958
0.04600000000000003,move_to_zero,-0.5996140566217779,-4.3035089175348,3.7038948609130222,-86.4929954981539,-90.2167885057458,3.723793007591894,86.87612225801205,87.97537761111899,-1.0992553531069404,51.240270098321105,53.905932013984796,-2.6656619156636907,0.010274181294189118,0.0,0.010274181294189118
0.04800000000000003,move_to_zero,-0.41676355055621367,-4.2991086016682,3.8823450511119866,-86.12178822273118,-90.1245423007297,4.002754077998517,86.65707773515395,87.88542323728349,-1.2283455021295424,50.97098836337681,53.8508134740932,-2.8798251107163892,0.010023420878276956,0.0,0.010023420878276956
0.05000000000000003,move_to_zero,-0.2463057349599315,-4.2947082858016,4.048402550841669,-85.75096826749798,-90.03229609571359,4.281327828215609,86.43528658428131,87.795468863448,-1.360182279166679,50.698502825847875,53.7956949342016,-3.097192108353724,0.009798930064565023,0.0,0.009798930064565023
0.05200000000000003,move_to_zero,-0.10812827731494803,-4.290307969935,4.1821796926200525,-85.38160831101568,-89.9400498906975,4.558441579681812,86.2112376876709,87.70551448961248,-1.4942768019415809,50.42332805298418,53.740576394310004,-3.317248341325822,0.009591555460213504,0.0,0.009591555460213504
0.054000000000000034,move_to_zero,-0.012928193399207295,-4.285907654068399,4.272979460669192,-85.01470093568535,-89.8478036856814,4.833102749996044,85.98540549405809,87.61556011577699,-1.6301546217189014,50.14596260035042,53.6854578544184,-3.5394952540679796,0.009395944830323482,0.0,0.009395944830323482
0.056000000000000036,move_to_zero,0.03576987940402915,-4.281507338201799,4.317277217605828,-84.65121842940947,-89.7555574806653,5.104339051255835,85.75825901258365,87.52560574194149,-1.7673467293578398,49.866884565038724,53.6303393145268,-3.7634547494880763,0.009209208715923307,0.0,0.009209208715923307
0.05800000000000004,move_to_zero,0.04134833586762596,-4.2771070223351995,4.318455358202826,-84.2920926384692,-89.66331127564919,5.371218637179993,85.53026940747466,87.43565136810598,-1.905381960631317,49.58657738339727,53.5752207746352,-3.988643391237929,0.009028439368815169,0.0,0.009028439368815169
0.06000000000000004,move_to_zero,0.01215597280422623,-4.2727067064685995,4.284862679272826,-83.9381723057799,-89.5710650706331,5.632892764853196,85.30187896826637,87.3456969942705,-2.043818026004132,49.305521315490324,53.5201022347436,-4.214580919253272,0.008852054141221045,0.0,0.008852054141221045
0.06200000000000004,move_to_zero,-0.04061072984854537,-4.268306390602,4.227695660753454,-83.59026385508639,-89.478818865617,5.8885550105306095,85.0735185109342,87.25574262043499,-2.1822241095007797,49.024172165804806,53.464983694852,-4.4408115290471954,0.00867919144187743,0.0,0.00867919144187743
0.06400000000000004,move_to_zero,-0.10497761891649902,-4.2639060747354,4.1589284558189,-83.2491217076917,-89.38657266060089,6.137450952909191,84.84560029604106,87.16578824659948,-2.32018795055842,48.74294917811764,53.4098651549604,-4.666915976842759,0.008510662953067157,0.0,0.008510662953067157
0.06600000000000004,move_to_zero,-0.1700578316523188,-4.2595057588688,4.089447927216481,-82.9154434789765,-89.29432645558481,6.37888297660831,84.61853379003097,87.075833872764,-2.4573000827330276,48.46228587903588,53.354746615068805,-4.892460736032923,0.00834686122242179,0.0,0.00834686122242179
0.06800000000000005,move_to_zero,-0.23529084060991473,-4.2551054430022,4.019814602392285,-82.58989250708464,-89.2020802505687,6.612187743484057,84.39270701362574,86.98587949892848,-2.5931724853027447,48.18258454884147,53.299628075177196,-5.117043526335728,0.008186608075574945,0.0,0.008186608075574945
0.07000000000000005,move_to_zero,-0.30013752026807117,-4.250705127135599,3.9505676068675277,-82.27306985848155,-89.1098340455526,6.836764187071054,84.16845672516212,86.89592512509299,-2.7274683999308706,47.904235929600546,53.2445095352856,-5.340273605685056,0.008025963801890868,0.0,0.008025963801890868
0.07200000000000005,move_to_zero,-0.3640917395068768,-4.246304811268999,3.882213071762122,-81.9655250551708,-89.01758784053649,7.052062785365692,83.94609737768202,86.80597075125749,-2.859873373575468,47.62760397588546,53.189390995394,-5.561787019508543,0.007863452730432654,0.0,0.007863452730432654
0.07400000000000005,move_to_zero,-0.4266847124973383,-4.241904495402399,3.8152197829050607,-81.66773848343934,-88.9253416355204,7.25760315208106,83.72593227569214,86.71601637742198,-2.9900841017298347,47.35302703140779,53.1342724555024,-5.781245424094607,0.007696338406050503,0.0,0.007696338406050503
0.07600000000000005,move_to_zero,-0.4874686480221752,-4.2375041795358,3.7500355315136247,-81.38012334186931,-88.83309543050429,7.452972088634979,83.50826986743651,86.62606200358648,-3.1177921361499727,47.08081122198501,53.0791539156108,-5.998342693625794,0.007523001825675461,0.0,0.007523001825675461
0.07800000000000006,move_to_zero,-0.5460454625261686,-4.2331038636692,3.687058401143031,-81.10303213608965,-88.74084922548819,7.637817089398538,83.29338234278138,86.53610762975099,-3.242725286969602,46.81126687487564,53.0240353757192,-6.212768500843559,0.007343791672683177,0.0,0.007343791672683177
0.08000000000000006,move_to_zero,-0.6020548471865221,-4.2287035478026,3.626648700616078,-80.83675284827007,-88.6486030204721,7.811850172202028,83.08153076695373,86.44615325591549,-3.364622488961757,46.544679944577695,52.9689168358276,-6.424236891249905,0.007156271570548405,0.0,0.007156271570548405
0.08200000000000006,move_to_zero,-0.6551377063932381,-4.224303231936,3.569165525542762,-80.58153397246092,-88.556356815456,7.974822842995081,82.87295976424116,86.35619888207998,-3.4832391178388207,46.281314954256054,52.913798295936,-6.632483341679944,0.006962683527525419,0.0,0.006962683527525419
0.08400000000000006,move_to_zero,-0.7050109039907712,-4.219902916069399,3.514892012078628,-80.33757663905696,-88.4641106104399,8.12653397138294,82.6678714373346,86.26624450824448,-3.5983730709098865,46.02137647741128,52.858679756044396,-6.837303278633115,0.006758698266951821,0.0,0.006758698266951821
0.08600000000000006,move_to_zero,-0.7513921965928744,-4.215502600202799,3.464110403609925,-80.10503946215879,-88.37186440542379,8.266824943265007,82.46645854154019,86.17629013440899,-3.7098315928687953,45.765119955457244,52.8035612161528,-7.038441260695556,0.0065388520905157,0.0,0.0065388520905157
0.08800000000000006,move_to_zero,-0.7940356986712779,-4.211102284336199,3.4170665856649216,-79.88401422986583,-88.2796182004077,8.39560397054187,82.26891565348366,86.08633576057349,-3.8174201070898306,45.5127724804681,52.7484426762612,-7.235670195793098,0.00630190227965318,0.0,0.00630190227965318
0.09000000000000007,move_to_zero,-0.8327227346753739,-4.206701968469599,3.3739792337942256,-79.67455427464083,-88.18737199539159,8.51281772075076,82.07542330277543,85.996381386738,-3.92095808396256,45.264516668831675,52.693324136369604,-7.428807467537929,0.006043652005664892,0.0,0.006043652005664892
0.09200000000000007,move_to_zero,-0.8672962472242846,-4.2023016526029995,3.335005405378715,-79.47663156462617,-88.0951257903755,8.61849422574933,81.8861433567599,85.90642701290248,-4.020283656142581,45.02053102510497,52.638205596477995,-7.617674571373023,0.00577781380472518,0.0,0.00577781380472518
0.09400000000000007,move_to_zero,-0.8976515975886707,-4.1979013367363995,3.300249739147729,-79.29019410972607,-88.0028795853594,8.712685475633322,81.70120004170383,85.81647263906699,-4.115272597363159,44.780988643640285,52.5830870565864,-7.8020984129461155,0.00548705648318219,0.0,0.00548705648318219
0.09600000000000007,move_to_zero,-0.9236822768481254,-4.1935010208698,3.2698187440216744,-79.1151341309398,-87.9106333803433,8.795499249403505,81.52070303083698,85.72651826523149,-4.205815234394507,44.54604499966334,52.5279685166948,-7.981923517031461,0.005202079288532214,0.0,0.005202079288532214
0.09800000000000007,move_to_zero,-0.9453184663009838,-4.1891007050032,3.2437822387022157,-78.95134874911037,-87.81838717532719,8.867038426216823,81.34476138119136,85.63656389139598,-4.291802510204619,44.315854953048834,52.4728499768032,-8.156995023754362,0.004929707623687651,0.0,0.004929707623687651
0.10000000000000007,move_to_zero,-0.9625932949939853,-4.184700389136599,3.2221070941426135,-78.79866337966138,-87.72614097031109,8.927477590649715,81.17344150911556,85.5466095175605,-4.373168008444935,44.09054094604641,52.4177314369116,-8.327190490865192,0.0046672608454447284,0.0,0.0046672608454447284
0.10200000000000008,move_to_zero,-0.976148083616408,-4.180300073269999,3.2041519896535906,-78.65687028501479,-87.633894765295,8.977024480280207,81.00678886058449,85.45665514372499,-4.449866283140494,43.87020442244442,52.36261289702,-8.492408474575583,0.00441479638456238,0.0,0.00441479638456238
0.10400000000000008,move_to_zero,-0.9859690329675271,-4.1758997574034,3.1899307244358726,-78.52573162535967,-87.5416485602789,9.015916934919233,80.84482606757383,85.36670076988948,-4.5218747023156425,43.65494277141108,52.3074943571284,-8.652551585717319,0.004171153477239573,0.0,0.004171153477239573
0.10600000000000008,move_to_zero,-0.9920725761105833,-4.1714994415368,3.1794268654262163,-78.4049764570002,-87.4494023552628,9.044425898262602,80.68757653043771,85.276746396054,-4.5891698656162845,43.44481540410924,52.252375817236796,-8.807560413127554,0.003933547076094894,0.0,0.003933547076094894
0.10800000000000008,move_to_zero,-0.9944841629000329,-4.1670991256702,3.172614962770167,-78.29431348338672,-87.3571561502467,9.062842666859979,80.53505167789622,85.18679202221848,-4.651740344322263,43.239916520973985,52.1972572773452,-8.957340756371217,0.003699558205420901,0.0,0.003699558205420901
0.11000000000000008,move_to_zero,-0.9932633826048869,-4.1626988098036,3.169435427198713,-78.19341038987595,-87.2649099452306,9.071499555354649,80.38722827217724,85.09683764838299,-4.709609376205748,43.04031122548719,52.1421387374536,-9.101827511966412,0.0034708340405588587,0.0,0.0034708340405588587
0.11200000000000009,move_to_zero,-0.9884979283000784,-4.158298493937,3.1698005656369217,-78.10192579958286,-87.17266374021449,9.07073794063163,80.24408834223017,85.00688327454749,-4.76279493231732,42.84602502308693,52.087020197562,-9.240995174475067,0.0032437279738929694,0.0,0.0032437279738929694
0.11400000000000009,move_to_zero,-0.9803061930536676,-4.153898178070399,3.1735919850167313,-78.01946622258785,-87.0804175351984,9.060951312610541,80.10561144453517,84.91692890071198,-4.811317456176809,42.65709329289258,52.031901657670396,-9.374808364777813,0.003017908769927891,0.0,0.003017908769927891
0.11600000000000009,move_to_zero,-0.9688153528768672,-4.149497862203799,3.180682509326932,-77.94563939481822,-86.9881713301823,9.042531935364082,79.97172972963398,84.82697452687648,-4.855244797242506,42.4735393990448,51.976783117778794,-9.50324371873399,0.002794527377009107,0.0,0.002794527377009107
0.11800000000000009,move_to_zero,-0.9541807065798512,-4.145097546337199,3.190916839757348,-77.88003955991965,-86.8959251251662,9.015885565246549,79.84237454032014,84.73702015304099,-4.894645612720851,42.29537843660024,51.9216645778872,-9.626286141286961,0.0025718249585881736,0.0,0.0025718249585881736
0.12000000000000009,move_to_zero,-0.936555536594605,-4.140697230470599,3.2041416938759943,-77.82223724054249,-86.80367892015009,8.981441679607599,79.71747131298305,84.64706577920549,-4.92959446622244,42.12261253321466,51.8665460379956,-9.74393350478094,0.002348585449303412,0.0,0.002348585449303412
0.1220000000000001,move_to_zero,-0.9160856026347162,-4.136296914603999,3.2202113119692832,-77.77177609133842,-86.711432715134,8.939656623795571,79.59693672406483,84.55711140536998,-4.960174681305148,41.95520427452104,51.811427498104,-9.856223223582965,0.002121642798415444,0.0,0.002121642798415444
0.1240000000000001,move_to_zero,-0.8929769270637069,-4.1318965987373995,3.2389196716736928,-77.72818649490456,-86.6191865101179,8.891000015213336,79.48068389992154,84.46715703153448,-4.986473131612939,41.79313016183407,51.7563089582124,-9.96317879637833,0.0018561395547065029,0.0,0.0018561395547065029
0.12600000000000008,move_to_zero,-0.8674352172031403,-4.1274962828707995,3.260061065667659,-77.69099539944808,-86.52694030510179,8.835944905653704,79.36863571366474,84.37720265769899,-5.008566944034243,41.6363616707615,51.70119041832079,-10.06482874755929,0.0015451788757389865,0.0,0.0015451788757389865
0.12800000000000009,move_to_zero,-0.8396661772399003,-4.1230959670042,3.2834297897642992,-77.65973112182772,-86.4346941000857,8.774962978257975,79.26066401325525,84.28724828386348,-5.026584270608225,41.484862943021724,51.6460718784292,-10.161208935407473,0.0011840387305495608,0.0,0.0011840387305495608
0.1300000000000001,move_to_zero,-0.8098671588161139,-4.118695651137599,3.308828492321485,-77.63390005822669,-86.3424478950696,8.70854783684291,79.15664026629489,84.197293910028,-5.040653643733108,41.33859436197707,51.590953338537595,-10.252358976560522,0.0007920131396588108,0.0,0.0007920131396588108
0.1320000000000001,move_to_zero,-0.7782617294803982,-4.114295335270999,3.3360336057906004,-77.6130398864917,-86.2502016900535,8.637161803561796,79.05641967776587,84.10733953619248,-5.05091985842661,41.19751357145343,51.535834798646,-10.338321227192573,0.00038732183152837896,0.0,0.00038732183152837896
0.1340000000000001,move_to_zero,-0.7450586728803741,-4.1098950194044,3.364836346524026,-77.59638439651182,-86.15795548503739,8.561571088525568,78.9598373673036,84.01738516235697,-5.057547795053367,41.06155293390339,51.4807162587544,-10.419163324851006,-5.0775359536792564e-06,0.0,-5.0775359536792564e-06
0.1360000000000001,move_to_zero,-0.7104696301190772,-4.1054947035378,3.3950250734187226,-77.58311118395818,-86.0657092800213,8.482598096063114,78.86671527010704,83.92743078852149,-5.0607155184144546,40.93061989887965,51.425597718862804,-10.494977819983156,-0.000363402383794519,0.0,-0.000363402383794519
0.1380000000000001,move_to_zero,-0.67474887066179,-4.1010943876712,3.42634551700941,-77.57266074654481,-85.97346307500518,8.400802328460372,78.77691234085361,83.83747641468598,-5.060564073832367,40.80465456891406,51.370479178971195,-10.565824610057135,-0.0006942609255937881,0.0,-0.0006942609255937881
0.1400000000000001,move_to_zero,-0.6381377659807629,-4.0966940718046,3.458556305823837,-77.5645580678961,-85.88121686998909,8.316658802092988,78.69027990322581,83.74752204085048,-5.0572421376246695,40.68359589842457,51.31536063907959,-10.631764740655022,-0.0010038296191557654,0.0,-0.0010038296191557654
0.1420000000000001,move_to_zero,-0.6008822679739119,-4.092293755938,3.491411487964088,-77.55837957982813,-85.788970664973,8.230591085144866,78.60668649981874,83.65756766701499,-5.050881167196252,40.56733263323783,51.260242099188,-10.692909465950166,-0.0012943521495484005,0.0,-0.0012943521495484005
0.1440000000000001,move_to_zero,-0.5632145835153052,-4.087893440071399,3.524678856556094,-77.55371081139309,-85.6967244599569,8.143013648563809,78.52597842824143,83.56761329317948,-5.041634864938047,40.45576840930668,51.205123559296396,-10.749355149989718,-0.0015705257662855501,0.0,-0.0015705257662855501
0.1460000000000001,move_to_zero,-0.5253506238684694,-4.083493124204799,3.55814250033633,-77.55015376711087,-85.6044782549408,8.05432448782993,78.44799029195431,83.47765891934398,-5.029668627389668,40.34880256386218,51.1500050194048,-10.801202455542622,-0.0018340666884702202,0.0,-0.0018340666884702202
0.1480000000000001,move_to_zero,-0.4874952874625734,-4.079092808338199,3.591597520875626,-77.54733481419487,-85.51223204992469,7.964897235729822,78.37255981722416,83.38770454550848,-5.0151447282843264,40.24634319889978,51.0948864795132,-10.84854328061342,-0.002088699702359575,0.0,-0.002088699702359575
0.1500000000000001,move_to_zero,-0.44985672770243135,-4.074692492471599,3.624835764769168,-77.5450862415019,-85.4199858449086,7.874899603406689,78.29955005976373,83.29775017167299,-4.998200111909256,40.14827266641133,51.0397679396216,-10.891495273210268,-0.002335781785411191,0.0,-0.002335781785411191
0.1520000000000001,move_to_zero,-0.41261446318917155,-4.070292176604999,3.657677713415828,-77.54327248300628,-85.32773963989249,7.784467156886208,78.22881340083063,83.20779579783748,-4.978982397006845,40.05448073344086,50.984649399729996,-10.930168666289134,-0.0025773299123977283,0.0,-0.0025773299123977283
0.1540000000000001,move_to_zero,-0.37596000513511574,-4.065891860738399,3.689931855603284,-77.54176411080165,-85.23549343487639,7.693729324074738,78.16019299477631,83.11784142400198,-4.957648429225671,39.964865079436315,50.929530859838394,-10.964665780402079,-0.0028296959981621017,0.0,-0.0028296959981621017
0.1560000000000001,move_to_zero,-0.3400620851624952,-4.061491544871799,3.721429459709304,-77.54016549242579,-85.1432472298603,7.603081737434508,78.093514702515,83.02788705016648,-4.93437234765149,39.8792863765344,50.8744123199468,-10.995125943412397,-0.0031066840505557664,0.0,-0.0031066840505557664
0.1580000000000001,move_to_zero,-0.30507193691765006,-4.0570912290051995,3.7520192920875495,-77.53812542268376,-85.0510010248442,7.512875602160435,78.02861672704003,82.93793267633099,-4.909315949290956,39.79762832878767,50.8192937800552,-11.02166545126753,-0.00341558406880828,0.0,-0.00341558406880828
0.16000000000000011,move_to_zero,-0.2711480867552489,-4.052690913138599,3.7815428263833497,-77.53531265139908,-84.95875481982809,7.4234421684290055,77.96532440313955,82.84797830249549,-4.882653899355944,39.719791989400086,50.7641752401636,-11.044383250763516,-0.0037507376501165163,0.0,-0.0037507376501165163
0.16200000000000012,move_to_zero,-0.23842279150664908,-4.048290597272,3.8098678057653506,-77.5313940146598,-84.86650861481199,7.335114600152195,77.9034876408404,82.75802392865998,-4.854536287819585,39.645673225742904,50.709056700271994,-11.06338347452909,-0.004115201456278565,0.0,-0.004115201456278565
0.16400000000000012,move_to_zero,-0.20702912289488903,-4.0438902814054,3.836861158510511,-77.5260750799386,-84.7742624097959,7.248187329857302,77.8429698936359,82.66806955482448,-4.825099661188588,39.57514799267121,50.6539381603804,-11.078790167709187,-0.0045059196338458375,0.0,-0.0045059196338458375
0.16600000000000012,move_to_zero,-0.18054664734461798,-4.0394899655388,3.8589433181941817,-77.51903220806695,-84.68201620477979,7.162983996712839,77.78358776351956,82.57811518098899,-4.794527417469425,39.50808552290817,50.5988196204888,-11.09073409758063,-0.004925270792140103,0.0,-0.004925270792140103
0.16800000000000012,move_to_zero,-0.1606261397651578,-4.0350896496722,3.874463509907042,-77.50998741180007,-84.5897699997637,7.079782587963635,77.7251830025231,82.48816080715348,-4.762977804630381,39.444331414697665,50.543701080597195,-11.09936966589953,-0.005328905781831578,0.0,-0.005328905781831578
0.17000000000000012,move_to_zero,-0.14845227488876966,-4.0306893338056,3.88223705891683,-77.49868951648858,-84.4975237947476,6.998834278259011,77.66759683807528,82.398206433318,-4.730609595242711,39.38374071137419,50.4885825407056,-11.104841829331413,-0.005705994431587112,0.0,-0.005705994431587112
0.17200000000000013,move_to_zero,-0.14395670983162143,-4.026289017939,3.8823323081073786,-77.484912333919,-84.4052775897315,6.920365255812499,77.61069815196133,82.30825205948248,-4.697553907521154,39.3261726800864,50.433464000814,-11.107291320727597,-0.006049375332505957,0.0,-0.006049375332505957
0.17400000000000013,move_to_zero,-0.1460896141542993,-4.021888702072399,3.8757990879180997,-77.46844323575047,-84.31303138471539,6.844588148964917,77.55436001210242,82.21829768564697,-4.663937673544552,39.27147813777302,50.3783454609224,-11.106867323149373,-0.006366079292273183,0.0,-0.006366079292273183
0.17600000000000013,move_to_zero,-0.1531697071435257,-4.017488386205799,3.8643186790622734,-77.44906916652313,-84.22078517969929,6.77171601317616,77.49845677960063,82.12834331181149,-4.629886532210861,39.21952120159763,50.323226921030795,-11.103705719433165,-0.006661103119643328,0.0,-0.006661103119643328
0.17800000000000013,move_to_zero,-0.16321801385097248,-4.013088070339199,3.8498700564882267,-77.42660825605378,-84.12853897468318,6.701930718629399,77.4428626087942,82.03838893797598,-4.59552632918178,39.1701665853701,50.2681083811392,-11.097941795769103,-0.006938398595088405,0.0,-0.006938398595088405
0.18000000000000013,move_to_zero,-0.17426287528356518,-4.008687754472599,3.834424879189034,-77.40091303467537,-84.0362927696671,6.63537973499173,77.38745709235597,81.94843456414048,-4.560977471784511,39.12327162863709,50.2129898412476,-11.089718212610506,-0.007204570651976655,0.0,-0.007204570651976655
0.18200000000000013,move_to_zero,-0.18460733564839937,-4.004287438605999,3.8196801029575997,-77.37183715586757,-83.944046564651,6.572209408783436,77.33212542531408,81.85848019030499,-4.526354764990913,39.078692560502226,50.157871301355996,-11.07917874085377,-0.007472144338659502,0.0,-0.007472144338659502
0.18400000000000014,move_to_zero,-0.19379965911498076,-3.9998871227393993,3.8060874636244186,-77.33924774818034,-83.8518003596349,6.512552611454552,77.27674647215864,81.76852581646948,-4.491779344310842,39.036295778146666,50.1027527614644,-11.066456983317735,-0.00773859812217116,0.0,-0.00773859812217116
0.18600000000000014,move_to_zero,-0.20176905412202054,-3.995486806872799,3.793717752750778,-77.30302337924341,-83.7595541546188,6.456530775375384,77.22119786742847,81.67857144263398,-4.457373575205509,38.99595199994853,50.04763422157279,-11.051682221624262,-0.008001294750900103,0.0,-0.008001294750900103
0.18800000000000014,move_to_zero,-0.20844415519753529,-3.991086491006199,3.7826423358086636,-77.26308034405922,-83.66730794960269,6.404227605543468,77.16538172805544,81.58861706879848,-4.423235340743048,38.957534718539165,49.9925156816812,-11.034980963142033,-0.008256281220082404,0.0,-0.008256281220082404
0.19000000000000014,move_to_zero,-0.21379499717844389,-3.986686175139599,3.772891177961155,-77.21933723959523,-83.57506174458659,6.3557245049913575,77.10922123856139,81.49866269496299,-4.389441456401599,38.920922473567124,49.937397141789596,-11.016474668222472,-0.008505024678294228,0.0,-0.008505024678294228
0.19200000000000014,move_to_zero,-0.2180658200945724,-3.9822858592729995,3.764220039178427,-77.17173563698844,-83.48281553957048,6.311079902582037,77.05259926724887,81.40870832112748,-4.356109053878612,38.8859886891142,49.882278601897994,-10.996289912783794,-0.008774707105962542,0.0,-0.008774707105962542
0.19400000000000014,move_to_zero,-0.22145655054540037,-3.9778855434063995,3.7564289928609993,-77.12021667375328,-83.3905693345544,6.270352660801123,76.99543037511135,81.31875394729198,-4.323323572180627,38.852604350632305,49.8271600620064,-10.974555711374094,-0.009035169642581324,0.0,-0.009035169642581324
0.19600000000000015,move_to_zero,-0.22411271510317993,-3.9734852275397996,3.7493725124366195,-77.06475942033609,-83.29832312953829,6.233563709202201,76.93762603590625,81.22879957345648,-4.291173537550236,38.82062912371531,49.7720415221148,-10.95141239839949,-0.00928782552902836,0.0,-0.00928782552902836
0.19800000000000015,move_to_zero,-0.22598512743018317,-3.9690849116731997,3.7430997842430163,-77.005342434306,-83.2060769245222,6.200734490216192,76.87910751459744,81.13884519962097,-4.259737685023538,38.78993438557883,49.716922982223196,-10.926988596644364,-0.009533405195743107,0.0,-0.009533405195743107
0.20000000000000015,move_to_zero,-0.22701842651202733,-3.9646845958065993,3.737666169294572,-76.94196986501815,-83.1138307195061,6.171860854487946,76.81980763871155,81.04889082578549,-4.22908318707394,38.760400121503835,49.661804442331594,-10.901404320827758,-0.00978007611292557,0.0,-0.00978007611292557
0.20200000000000015,move_to_zero,-0.2271720994601391,-3.9602842799399993,3.73311218047986,-76.87466765315445,-83.02158451448999,6.146916861335541,76.75967442724297,80.95893645194998,-4.199262024707011,38.73187706260888,49.60668590244,-10.874808839831118,-0.010036624358032771,0.0,-0.010036624358032771
0.20400000000000015,move_to_zero,-0.22643341760667984,-3.9558839640733994,3.7294505464667194,-76.80350751330514,-82.92933830947389,6.125830796168756,76.69865272172815,80.86898207811447,-4.170329356386318,38.70426053608812,49.5515673625484,-10.847306826460276,-0.010296810494931925,0.0,-0.010296810494931925
0.20600000000000016,move_to_zero,-0.22478437561156112,-3.9514836482067994,3.7266992725952384,-76.72852724201974,-82.8370921044578,6.108564862438058,76.63665954790069,80.77902770427899,-4.142368156378296,38.67743366915114,49.496448822656795,-10.819015153505653,-0.010552760141112602,0.0,-0.010552760141112602
0.20800000000000016,move_to_zero,-0.22218992403159912,-3.947083332340199,3.7248934083086,-76.64977666250506,-82.7448458994417,6.095069236936638,76.57365557528867,80.68907333044348,-4.115417755154809,38.65128609009221,49.4413302827652,-10.790044192672987,-0.010801668549947905,0.0,-0.010801668549947905
0.21000000000000016,move_to_zero,-0.21864737579587878,-3.942683016473599,3.7240356406777204,-76.56732355151686,-82.65259969442559,6.085276142908725,76.50962717980657,80.59911895660798,-4.08949177680141,38.625701937120475,49.38621174287359,-10.760509805753117,-0.011045351979641484,0.0,-0.011045351979641484
0.21200000000000016,move_to_zero,-0.21414135243312707,-3.938282700606999,3.724141348173872,-76.48126014646621,-82.5603534894095,6.079093342943281,76.44456003773658,80.50916458277248,-4.064604545035905,38.60055732741656,49.331093202982,-10.730535875565437,-0.01128855110961088,0.0,-0.01128855110961088
0.21400000000000016,move_to_zero,-0.20867165459219378,-3.933882384740399,3.7252107301482056,-76.39167053383082,-82.46810728439338,6.076436750562564,76.37840508011178,80.41921020893697,-4.040805128825198,38.57573551688889,49.275974663090395,-10.700239146201504,-0.011529758894152796,0.0,-0.011529758894152796
0.21600000000000016,move_to_zero,-0.20227710450782985,-3.929482068873799,3.727204964365969,-76.29865248147343,-82.37586107937729,6.077208597903862,76.3111419640548,80.32925583510148,-4.01811387104668,38.55114318985395,49.2208561231988,-10.669712933344847,-0.01178075942137744,0.0,-0.01178075942137744
0.21800000000000017,move_to_zero,-0.19498338040175583,-3.925081753007199,3.730098372605443,-76.20231072377355,-82.28361487436119,6.081304150587641,76.24273804626576,80.23930146126598,-3.9965634150002245,38.52667093323073,49.1657375833072,-10.639066650076465,-0.012038560892761643,0.0,-0.012038560892761643
0.22000000000000017,move_to_zero,-0.1877015792246663,-3.9206814371406,3.7329798579159337,-76.10277071408068,-82.1913686693451,6.088597955264419,76.17316480439072,80.14934708743048,-3.976182283039762,38.50222707434283,49.110619043415596,-10.60839196907277,-0.012310233474797145,0.0,-0.012310233474797145
0.22200000000000017,move_to_zero,-0.181314030711894,-3.9162811212739994,3.7349670905621055,-76.00015667093754,-82.099122464329,6.098965793391457,76.10240145574654,80.05939271359497,-3.956991257848429,38.47771510903768,49.055500503523994,-10.577785394486312,-0.012574846079629033,0.0,-0.012574846079629033
0.22400000000000017,move_to_zero,-0.17620618211320138,-3.9118808054073995,3.735674623294198,-75.89461453445362,-82.00687625931289,6.112261724859266,76.03044141267624,79.96943833975948,-3.938996927083238,38.453072073319376,49.00038196363239,-10.547309890313016,-0.012837081396031002,0.0,-0.012837081396031002
0.22600000000000017,move_to_zero,-0.17216417687137126,-3.9074804895407995,3.735316312669428,-75.78628897896037,-81.9146300542968,6.128341075336422,75.95727133240862,79.87948396592398,-3.9222126335153575,38.42819046869368,48.9452634237408,-10.51707295504712,-0.013120020314881596,0.0,-0.013120020314881596
0.22800000000000017,move_to_zero,-0.16944910743812538,-3.9030801736741996,3.7336310662360743,-75.67534028836495,-81.82238384928068,6.1470435609157335,75.88289303132103,79.78952959208848,-3.9066365607674527,38.40300075097733,48.890144883849196,-10.487144132871869,-0.01342215899629518,0.0,-0.01342215899629518
0.23000000000000018,move_to_zero,-0.16809872340458215,-3.898679857807599,3.730581134403017,-75.561935084988,-81.73013764426459,6.168202559276594,75.80729606016222,79.69957521825299,-3.8922791580907727,38.377445544642754,48.8350263439576,-10.457580799314847,-0.013734337132268364,0.0,-0.013734337132268364
0.23200000000000018,move_to_zero,-0.1679590429051633,-3.8942795419409992,3.726320499035836,-75.44624271618812,-81.63789143924849,6.191648723060368,75.73049743230311,79.60962084441748,-3.8791234121143674,38.351427349748576,48.77990780406599,-10.428480454317416,-0.014063339494879298,0.0,-0.014063339494879298
0.23400000000000018,move_to_zero,-0.16871075333134367,-3.8898792260743993,3.721168472743056,-75.32841840313041,-81.5456452342324,6.217226831101982,75.65250314412097,79.51966647058198,-3.867163326461011,38.32488883205089,48.72478926417439,-10.399900432123502,-0.014370367578312922,0.0,-0.014370367578312922
0.23600000000000018,move_to_zero,-0.1700256410538567,-3.8854789102077993,3.715453269153943,-75.20861717329402,-81.45339902921629,6.24478185592227,75.57332939136681,79.42971209674648,-3.856382705379673,38.29777442722455,48.669670724282796,-10.371896297058242,-0.014660052848219078,0.0,-0.014660052848219078
0.23800000000000018,move_to_zero,-0.17154103868059234,-3.881078594341199,3.7095375556606065,-75.08700477200722,-81.36115282420019,6.27414805219297,75.4930003552211,79.33975772291097,-3.846757367689875,38.26999086276941,48.614552184391194,-10.344561321621782,-0.014934516661641738,0.0,-0.014934516661641738
0.24000000000000019,move_to_zero,-0.172960798032288,-3.876678278474599,3.703717480442311,-74.96374522172778,-81.2689066191841,6.305161397456317,75.41152893081043,79.24980334907549,-3.8382744182650583,38.24145588094267,48.5594336444996,-10.317977763556932,-0.015196083003969628,0.0,-0.015196083003969628
0.2420000000000002,move_to_zero,-0.17411836008242934,-3.872277962607999,3.69815960252557,-74.8390210825706,-81.17666041416798,6.337639331597387,75.32893232641158,79.15984897523998,-3.8309166488284063,38.21208291860746,48.504315104608,-10.29223218600054,-0.015445469566345266,0.0,-0.015445469566345266
0.2440000000000002,move_to_zero,-0.17505068341272986,-3.867877646741399,3.6928269633286694,-74.7129776544028,-81.08441420915189,6.371436554749081,75.24523070199005,79.06989460140447,-3.8246638994144178,38.181796918158014,48.449196564716395,-10.267399646558381,-0.01568672926364889,0.0,-0.01568672926364889
0.2460000000000002,move_to_zero,-0.17579109619022776,-3.8634773308747987,3.687686234684571,-74.58578571520408,-80.99216800413579,6.4063822889317095,75.16042132023033,78.97994022756899,-3.8195189073386615,38.15056250585493,48.39407802482479,-10.243515518969865,-0.015924135445994494,0.0,-0.015924135445994494
0.2480000000000002,move_to_zero,-0.17636761240674773,-3.8590770150081988,3.682709402601451,-74.4576219919613,-80.8999217991197,6.442299807158392,75.07452948831934,78.88998585373348,-3.8154563654141356,38.11833229448835,48.33895948493319,-10.220627190444844,-0.016166951483702438,0.0,-0.016166951483702438
0.25000000000000017,move_to_zero,-0.17680406740050925,-3.8546766991415997,3.6778726317410904,-74.3286329441412,-80.80767559410359,6.4790426499623806,74.9876033801621,78.80003147989798,-3.8124280997358824,38.085088215104875,48.2838409450416,-10.198752729936722,-0.016405930794231322,0.0,-0.016405930794231322
0.25200000000000017,move_to_zero,-0.1770796805583888,-3.8502763832749993,3.6731967027166106,-74.1989872149004,-80.71542938908749,6.516442174187091,74.89967003396298,78.71007710606249,-3.8104070720995082,38.05079266448192,48.228722405149995,-10.177929740668077,-0.016641954203233136,0.0,-0.016641954203233136
0.25400000000000017,move_to_zero,-0.17714111485485004,-3.8458760674083994,3.6687349525535495,-74.06886503606675,-80.62318318407138,6.554318148004626,74.81075289253269,78.62012273222697,-3.809369839694284,38.01545095441474,48.1736038652584,-10.158152910843661,-0.016879339466314702,0.0,-0.016879339466314702
0.25600000000000017,move_to_zero,-0.1769652089174315,-3.8414757515417994,3.664510542624368,-73.93841473020022,-80.53093697905528,6.592522248855062,74.72086766623981,78.53016835839148,-3.809300692151666,37.97903210451185,48.11848532536679,-10.13945322085494,-0.01711328173799688,0.0,-0.01711328173799688
0.2580000000000002,move_to_zero,-0.17657015030698597,-3.8370754356751995,3.6605052853682136,-73.8077693428926,-80.43869077403919,6.630921431146589,74.63003580328758,78.44021398455598,-3.810178181268398,37.941511948255425,48.063366785475196,-10.121854837219772,-0.01734820198606375,0.0,-0.01734820198606375
0.2600000000000002,move_to_zero,-0.1760277261933249,-3.832675119808599,3.656647393615274,-73.67709007041798,-80.34644456902309,6.6693544986051165,74.53828400710266,78.35025961072049,-3.8119756036178245,37.9028785463298,48.008248245583594,-10.105369699253792,-0.01758061264276637,0.0,-0.01758061264276637
0.2620000000000002,move_to_zero,-0.17540877233275953,-3.828274803941999,3.6528660316092396,-73.54651215363715,-80.254198364007,6.707686210369843,74.44564238181185,78.26030523688497,-3.8146628550731236,37.863101501406824,47.95312970569199,-10.090028204285169,-0.01781048850296047,0.0,-0.01781048850296047
0.2640000000000002,move_to_zero,-0.17478649783415875,-3.823874488075399,3.6490879902412403,-73.41618027920622,-80.16195215899089,6.7457718797846695,74.35212812274354,78.17035086304948,-3.8182227403059414,37.82215542282635,47.8980111658004,-10.07585574297405,-0.018038101498195177,0.0,-0.018038101498195177
0.2660000000000002,move_to_zero,-0.1741684798002698,-3.8194741722087993,3.6453056924085296,-73.28623069359267,-80.06970595397479,6.783475260382119,74.25775907406327,78.08039648921398,-3.8226374151507088,37.78001643094754,47.842892625908796,-10.062876194961255,-0.018271477621569148,0.0,-0.018271477621569148
0.2680000000000002,move_to_zero,-0.1735765510114185,-3.815073856342199,3.6414973053307804,-73.15679970866438,-79.97745974895868,6.8206600402943,74.16254787143886,77.99044211537847,-3.8278942439396104,37.73668628359004,47.787774086017194,-10.051087802427155,-0.0185135186658324,0.0,-0.0185135186658324
0.2700000000000002,move_to_zero,-0.17302949667424036,-3.810673540475599,3.6376440438013584,-73.02800136433441,-79.8852135439426,6.857212179608183,74.06653145521176,77.90048774154299,-3.8339562863312295,37.692174582670056,47.73265554612559,-10.040480963455536,-0.018756792850174574,0.0,-0.018756792850174574
0.2720000000000002,move_to_zero,-0.1725324153841042,-3.806273224608999,3.6337408092248946,-72.89997227319277,-79.79296733892649,6.8929950657337145,73.9697483140937,77.81053336770748,-3.8407850536137715,37.64647074777702,47.677537006234,-10.031066258456974,-0.01899868036200462,0.0,-0.01899868036200462
0.2740000000000002,move_to_zero,-0.1720661485999797,-3.801872908742399,3.6298067601424195,-72.77281737016817,-79.70072113391039,6.927903763742222,73.8722233282502,77.72057899387197,-3.8483556656217672,37.599545274381086,47.622418466342396,-10.02287319196131,-0.01924480931328481,0.0,-0.01924480931328481
0.2760000000000002,move_to_zero,-0.1716445520537723,-3.7974725928757986,3.6258280408220265,-72.64663631275052,-79.60847492889428,6.9618386161437655,73.77398685609043,77.63062462003649,-3.856637763946054,37.55140589430038,47.567299926450794,-10.015894032150413,-0.019505743633193358,0.0,-0.019505743633193358
0.2780000000000002,move_to_zero,-0.1712494056653361,-3.7930722770091996,3.6218228713438636,-72.52148586293346,-79.51622872387819,6.994742860944726,73.67506286896172,77.54067024620097,-3.8656073772392574,37.502046301530996,47.5121813865592,-10.010135085028203,-0.01978911627095792,0.0,-0.01978911627095792
0.2800000000000002,move_to_zero,-0.17089262319681772,-3.7886719611425996,3.617779337945782,-72.39746165822909,-79.42398251886209,7.026520860632999,73.57549201381946,77.45071587236548,-3.875223858546022,37.45145502267558,47.45706284666759,-10.005607823992008,-0.020099386799350145,0.0,-0.020099386799350145
0.2820000000000002,move_to_zero,-0.17057971716664144,-3.7842716452759992,3.6136919281093576,-72.27466526552982,-79.331736313846,7.057071048316175,73.47530983967897,77.36076149852998,-3.885451658851011,37.39964111375026,47.401944306775995,-10.002303193025732,-0.020424035951374316,0.0,-0.020424035951374316
0.2840000000000002,move_to_zero,-0.17030157754911757,-3.7798713294093993,3.6095697518602816,-72.15315931529477,-79.2394901088299,7.086330793535126,73.37456107178112,77.27080712469449,-3.8962460529133693,37.34661043383223,47.34682576688439,-10.00021533305216,-0.020762149240545674,0.0,-0.020762149240545674
0.2860000000000002,move_to_zero,-0.17005073438067214,-3.7754710135427993,3.6054202791621273,-72.03302628509881,-79.14724390381379,7.114217618714974,73.27327377529623,77.18085275085897,-3.9075789755627426,37.292395840733974,47.29170722699279,-9.999311386258817,-0.02109370817904147,0.0,-0.02109370817904147
0.2880000000000002,move_to_zero,-0.16981556663214853,-3.7710706976761994,3.601255131044051,-71.91431049113294,-79.05499769879769,7.1406872076647545,73.17147720368365,77.09089837702348,-3.9194211733398276,37.237005669596456,47.2365886871012,-9.99958301750474,-0.021400134560470116,0.0,-0.021400134560470116
0.2900000000000002,move_to_zero,-0.16958092026506938,-3.766670381809599,3.5970894615445297,-71.79706570675378,-78.96275149378158,7.1656857870277975,73.06921181881552,77.00094400318798,-3.931732184372464,37.18047030575754,47.181470147209595,-10.000999841452057,-0.02168642020734149,0.0,-0.02168642020734149
0.2920000000000002,move_to_zero,-0.16933171478354844,-3.762270065942999,3.5929383511594506,-71.68133675674851,-78.87050528876549,7.1891685320169785,72.96651430784709,76.91098962935247,-3.9444753215053794,37.12282266781796,47.12635160731799,-10.003528939500036,-0.02195554171784001,0.0,-0.02195554171784001
0.2940000000000002,move_to_zero,-0.16906938723641088,-3.757869750076399,3.5888003628399883,-71.56715150508126,-78.77825908374939,7.211107578668134,72.86344465629537,76.82103525551699,-3.957590599221618,37.064085967146646,47.07123306742639,-10.007147100279745,-0.022210194871570745,0.0,-0.022210194871570745
0.2960000000000002,move_to_zero,-0.1687567099451421,-3.753469434209799,3.5847127242646573,-71.45455386729925,-78.6860128787333,7.2314590114340405,72.76003601848129,76.73108088168148,-3.9710448632001913,37.00428235726869,47.016114527534796,-10.011832170266104,-0.022451945751037965,0.0,-0.022451945751037965
0.2980000000000002,move_to_zero,-0.168391480220029,-3.749069118343199,3.58067763812317,-71.34357119030808,-78.59376667371718,7.250195483409101,72.6563231744494,76.64112650784598,-3.9848033333965844,36.94342562235087,46.960995987643194,-10.017570365292322,-0.02268515077914173,0.0,-0.02268515077914173
0.3000000000000002,move_to_zero,-0.16797099650024086,-3.744668802476599,3.576697805976358,-71.23423350776537,-78.50152046870109,7.267286960935721,72.55233541185196,76.55117213401049,-3.9988367221585293,36.88154359755181,46.90587744775159,-10.024333850199781,-0.022913254043998216,0.0,-0.022913254043998216
0.3020000000000002,move_to_zero,-0.167527381131149,-3.740268486609999,3.57274110547885,-71.1265375450301,-78.40927426368499,7.282736718654888,72.44812895045841,76.46121776017497,-4.013088809716564,36.81868238653457,46.85075890786,-10.032076521325429,-0.02313772052747943,0.0,-0.02313772052747943
0.3040000000000002,move_to_zero,-0.16707287643817356,-3.735868170743399,3.5687952943052252,-71.02048683421282,-78.31702805866888,7.296541224456064,72.34375268059797,76.37126338633948,-4.027510705741506,36.75483840998075,46.79564036796839,-10.04080195798764,-0.02335776475760232,0.0,-0.02335776475760232
0.3060000000000002,move_to_zero,-0.1666009687220231,-3.7314678548767994,3.5648668861547765,-70.91607545235907,-78.22478185365279,7.308706401293719,72.23922434039959,76.28130901250398,-4.042084672104394,36.69003645972764,46.740521828076794,-10.050485368349158,-0.023573316169351745,0.0,-0.023573316169351745
0.3080000000000002,move_to_zero,-0.16612181697185605,-3.7270675390101995,3.5609457220383436,-70.81330025720673,-78.13253564863669,7.319235391429956,72.13454305675432,76.19135463866847,-4.056811581914147,36.62431306862723,46.68540328818519,-10.061090219557961,-0.023784435003533506,0.0,-0.023784435003533506
0.3100000000000002,move_to_zero,-0.16565052727527432,-3.7226672231435995,3.557016695868325,-70.71213192458343,-78.0402894436206,7.328157519037163,72.02972830060939,76.10140026483299,-4.071671964223597,36.55767854937573,46.6302847482936,-10.072606198917867,-0.02399260585604565,0.0,-0.02399260585604565
0.3120000000000002,move_to_zero,-0.1652184968042901,-3.718266907276999,3.553048410472709,-70.6125340586448,-77.94804323860448,7.335509179959686,71.92479657625097,76.01144589099748,-4.086649314746509,36.49013877455191,46.575166208401996,-10.085027433850087,-0.02419678296167681,0.0,-0.02419678296167681
0.3140000000000002,move_to_zero,-0.16484446348078546,-3.713866591410399,3.549022127929614,-70.51449070174762,-77.85579703358839,7.341306331840769,71.81978293815958,75.92149151716198,-4.1017085790024055,36.421735064374886,46.520047668510394,-10.098312604135508,-0.024398812596587605,0.0,-0.024398812596587605
0.3160000000000002,move_to_zero,-0.1645080410271636,-3.7094662755437993,3.5449582345166357,-70.41798377688507,-77.76355082857228,7.345567051687212,71.7147151692985,75.83153714332649,-4.116821974027985,36.35249075923446,46.46492912861879,-10.112438369384328,-0.024600337277648487,0.0,-0.024600337277648487
0.3180000000000002,move_to_zero,-0.1641974184772892,-3.7050659596771993,3.5408685411999103,-70.32297951421853,-77.67130462355618,7.348325109337651,71.60960774086622,75.74158276949098,-4.131975028624751,36.28242455529829,46.40981058872719,-10.127386033428898,-0.024800085225801603,0.0,-0.024800085225801603
0.32000000000000023,move_to_zero,-0.16388873235528878,-3.700665643810599,3.53677691145531,-70.2294258680902,-77.57905841854009,7.349632550449883,71.50448470585779,75.65162839565548,-4.147143689797687,36.21159545550205,46.354692048835595,-10.143096593333546,-0.025000081291350708,0.0,-0.025000081291350708
0.32200000000000023,move_to_zero,-0.16357972452840214,-3.696265327943999,3.532685603415597,-70.13725841391275,-77.48681221352399,7.349553799611243,71.39938571234637,75.56167402181998,-4.16228830947361,36.13999618793091,46.29957350894399,-10.159577321013082,-0.025202133542336486,0.0,-0.025202133542336486
0.32400000000000023,move_to_zero,-0.1632534199301225,-3.691865012077399,3.5286115921472767,-70.04642471679455,-77.3945660085079,7.348141291713347,71.29432562826719,75.47171964798449,-4.177394019717298,36.067660065002336,46.2444549690524,-10.176794904050062,-0.02540510055984894,0.0,-0.02540510055984894
0.32600000000000023,move_to_zero,-0.16289547315461392,-3.687464696210799,3.524569223056185,-69.95691214727808,-77.30231980349178,7.345407656213709,71.18933210585489,75.38176527414898,-4.192433168294087,35.99459828937731,46.1893364291608,-10.194738139783489,-0.02560757948707606,0.0,-0.02560757948707606
0.32800000000000024,move_to_zero,-0.16252540060276252,-3.6830643803441987,3.520538979741436,-69.86866460077589,-77.21007359847569,7.341408997699801,71.08440849917748,75.29181090031348,-4.207402401135994,35.92082554510461,46.13421788926919,-10.213392344164575,-0.025812390068195846,0.0,-0.025812390068195846
0.33000000000000024,move_to_zero,-0.16214120202400356,-3.6786640644775987,3.5165228624535954,-69.78161615345228,-77.11782739345958,7.336211240007302,70.97956451219999,75.20185652647798,-4.222292014277997,35.846386235029044,46.07909934937759,-10.232713114348549,-0.026019240204424577,0.0,-0.026019240204424577
0.33200000000000024,move_to_zero,-0.16174229530612522,-3.674263748610999,3.5125214533048736,-69.69569803879305,-77.02558118844348,7.329883149650428,70.87480768538695,75.11190215264247,-4.237094467255517,35.771304837965396,46.02398080948599,-10.252675971520596,-0.026228132189728675,0.0,-0.026228132189728675
0.33400000000000024,move_to_zero,-0.16135074247518263,-3.669863432744399,3.508512690269216,-69.61084076288819,-76.93333498342739,7.322494220539198,70.77014345863121,75.02194777880699,-4.251804320175779,35.69561693727766,45.968862269594396,-10.273245332316733,-0.02644005851116152,0.0,-0.02644005851116152
0.33600000000000024,move_to_zero,-0.1609653580925635,-3.6654631168777994,3.5044977587852357,-69.52699717080128,-76.84108877841129,7.31409160761001,70.6656085564175,74.93199340497148,-4.266384848553983,35.61935480500296,45.913743729702794,-10.294388924699831,-0.026651690706983217,0.0,-0.026651690706983217
0.33800000000000024,move_to_zero,-0.16059923935675666,-3.6610628010111994,3.500463561654443,-69.4441155073963,-76.74884257339518,7.3047270659988754,70.56121820294302,74.84203903113597,-4.280820828192944,35.54254736008941,45.85862518981119,-10.316077829721785,-0.026863079283024668,0.0,-0.026863079283024668
0.34000000000000025,move_to_zero,-0.1602763438050162,-3.6566624851445995,3.4963861413395834,-69.36213707023228,-76.65659636837908,7.294459298146805,70.45695300192425,74.75208465730049,-4.295131655376238,35.46523055563786,45.80350664991959,-10.338276094281731,-0.027075459596567125,0.0,-0.027075459596567125
0.34200000000000025,move_to_zero,-0.15998828225051334,-3.652262169277999,3.4922738870274856,-69.2809955874454,-76.56435016336299,7.283354575917585,70.35280490547514,74.66213028346498,-4.309325377989836,35.387406905487964,45.74838811002799,-10.360981204540025,-0.02729078295681488,0.0,-0.02729078295681488
0.34400000000000025,move_to_zero,-0.15972959232820505,-3.647861853411399,3.488132261083194,-69.20060722361528,-76.47210395834688,7.271496734731599,70.24876651630434,74.57217590962948,-4.323409393325136,35.3091156218757,45.693269570136394,-10.384153948260696,-0.02752914109491862,0.0,-0.02752914109491862
0.34600000000000025,move_to_zero,-0.159492900340633,-3.643461537544799,3.4839686372041663,-69.12091445265037,-76.3798577533308,7.2589433006804285,70.144851634151,74.48222153579398,-4.337369901642987,35.2304110497958,45.63815103024479,-10.407739980448994,-0.027778176029827364,0.0,-0.027778176029827364
0.34800000000000025,move_to_zero,-0.1592738958937517,-3.6390612216781992,3.4797873257844474,-69.04184909582807,-76.28761154831469,7.245762452486616,70.04106303665027,74.39226716195847,-4.3512041253082,35.1513326024257,45.5830324903532,-10.4316998879275,-0.028030446609424848,0.0,-0.028030446609424848
0.35000000000000026,move_to_zero,-0.15907069181896588,-3.634660905811599,3.475590213992633,-68.96335680440788,-76.19536534329859,7.23200853889071,69.93741917124382,74.30231278812298,-4.364893616879158,35.07190020662791,45.52791395046159,-10.45601374383368,-0.02829123487863316,0.0,-0.02829123487863316
0.35200000000000026,move_to_zero,-0.15888019921554114,-3.630260589944999,3.4713803907294576,-68.88537986858499,-76.10311913828248,7.217739269697489,69.83395469284228,74.21235841428748,-4.378403721445196,34.99215495501719,45.472795410569994,-10.480640455552802,-0.028568106085333732,0.0,-0.028568106085333732
0.35400000000000026,move_to_zero,-0.15869802636131763,-3.625860274078399,3.467162247717081,-68.80784375563269,-76.01087293326638,7.203029177633695,69.73066243478576,74.12240404045198,-4.391741605666226,34.91211185335527,45.41767687067839,-10.505565017323121,-0.028834266216242924,0.0,-0.028834266216242924
0.35600000000000026,move_to_zero,-0.15850774184886968,-3.621459958211799,3.4629522163629294,-68.7307042185234,-75.91862672825027,7.187922509726874,69.62752870350333,74.03244966661647,-4.404920963113142,34.83178730446737,45.36255833078679,-10.530771026319421,-0.029117078169395627,0.0,-0.029117078169395627
0.35800000000000026,move_to_zero,-0.15830092176958832,-3.6170596423451986,3.4587587205756103,-68.65389985406601,-75.82638052323418,7.172480669168166,69.5245784885778,73.94249529278098,-4.417916804203173,34.75122244278329,45.307439790895195,-10.556217348111907,-0.029419056065142165,0.0,-0.029419056065142165
0.36000000000000026,move_to_zero,-0.1580484582075696,-3.6126593264785987,3.454610868271029,-68.57738362684636,-75.7341343182181,7.156750691371741,69.42180305517735,73.85254091894548,-4.43073786376813,34.670440838242286,45.25232125100359,-10.581880412761308,-0.029746148832411647,0.0,-0.029746148832411647
0.36200000000000027,move_to_zero,-0.15778238005650724,-3.6082590106119987,3.4504766305554915,-68.50111510541194,-75.64188811320199,7.140773007790045,69.319202525928,73.76258654510997,-4.443384019181963,34.589463315046864,45.19720271111199,-10.607739396065128,-0.030071754661007283,0.0,-0.030071754661007283
0.36400000000000027,move_to_zero,-0.15749977013948604,-3.603858694745399,3.446358924605913,-68.42502084449646,-75.54964190818589,7.124621063689432,69.21675027942348,73.67263217127449,-4.455881891851007,34.508314790103086,45.14208417122039,-10.633769381117304,-0.03038901743249784,0.0,-0.03038901743249784
0.36600000000000027,move_to_zero,-0.1571945512382207,-3.5994583788787993,3.4422638276405784,-68.34906071137843,-75.45739570316978,7.108334991791352,69.11444092988519,73.58267779743898,-4.4682368675537845,34.42703089596262,45.086965631328795,-10.659934735366171,-0.030686463669188382,0.0,-0.030686463669188382
0.36800000000000027,move_to_zero,-0.1568400061970457,-3.5950580630121993,3.4382180568151535,-68.27314943791845,-75.36514949815368,7.092000060235236,69.01225511985332,73.49272342360348,-4.480468303750158,34.34563836228476,45.03184709143719,-10.686208729152433,-0.03096276010761281,0.0,-0.03096276010761281
0.3700000000000003,move_to_zero,-0.15646597820725436,-3.5906577471455994,3.434191768938345,-68.19723569636635,-75.27290329313757,7.0756675967712255,68.91019307986232,73.40276904976798,-4.492575969905658,34.264149879496614,44.97672855154559,-10.712578672048977,-0.031221391450631606,0.0,-0.031221391450631606
0.3720000000000003,move_to_zero,-0.1560722266473759,-3.586257431278999,3.430185204631623,-68.12127844304558,-75.18065708812149,7.05937864507591,68.80825328785565,73.31281467593247,-4.504561388076823,34.18256843798164,44.921610011653996,-10.73904157367236,-0.031465096137299337,0.0,-0.031465096137299337
0.3740000000000003,move_to_zero,-0.15567411487957922,-3.581857115412399,3.42618300053282,-68.04521993931975,-75.08841088310538,7.043190943785632,68.70644057792435,73.22286030209698,-4.516419724172621,34.10092196449981,44.86649147176239,-10.765569507262576,-0.03169561159041909,0.0,-0.03169561159041909
0.3760000000000003,move_to_zero,-0.15528389172091453,-3.577456799545799,3.4221729078248844,-67.96902404478034,-74.99616467808929,7.027140633308946,68.60476745712319,73.13290592826148,-4.528138471138291,34.01921352894996,44.81137293187079,-10.79215940292083,-0.03191295701152315,0.0,-0.03191295701152315
0.3780000000000003,move_to_zero,-0.15491907188431095,-3.573056483679199,3.418137411794888,-67.89265764152992,-74.90391847307319,7.011260831543268,68.503226894975,73.04295155442597,-4.539724659450968,33.93746669508339,44.75625439197919,-10.818787696895804,-0.03212053013165152,0.0,-0.03212053013165152
0.3800000000000003,move_to_zero,-0.15459095492934646,-3.5686561678125988,3.4140652128832523,-67.81611367945646,-74.81167226805708,6.995558588600616,68.40181549686581,72.95299718059049,-4.551181683724678,33.85567205638229,44.70113585208759,-10.8454637957053,-0.0323200866682868,0.0,-0.0323200866682868
0.3820000000000003,move_to_zero,-0.15428431330666387,-3.564255851945999,3.409971538639335,-67.73937416107552,-74.71942606304098,6.980051901965467,68.30052457273062,72.86304280675498,-4.562518234024353,33.773878068555426,44.646017312195994,-10.872139243640568,-0.032512554609484504,0.0,-0.032512554609484504
0.3840000000000003,move_to_zero,-0.1540004972263724,-3.559855536079399,3.4058550388530264,-67.6623930898568,-74.62717985802489,6.964786768168082,68.19938275565869,72.77308843291948,-4.57370567726079,33.692120078934245,44.59089877230439,-10.898778693370147,-0.03269903650431011,0.0,-0.03269903650431011
0.3860000000000003,move_to_zero,-0.1537223350064744,-3.5554552202127994,3.401732885206325,-67.58514552012454,-74.53493365300879,6.949788132884251,68.09837709852359,72.68313405908398,-4.584756960560398,33.61041696677267,44.53578023241279,-10.925363265640122,-0.03288216282055916,0.0,-0.03288216282055916
0.3880000000000003,move_to_zero,-0.1534428933421953,-3.551054904346199,3.3976120110040036,-67.50756757827031,-74.44268744799268,6.935119869722371,67.99749380452684,72.59317968524847,-4.595685880721632,33.52878301003692,44.48066169252119,-10.95187868248427,-0.033062826175038744,0.0,-0.033062826175038744
0.3900000000000003,move_to_zero,-0.15314392106889957,-3.546654588479599,3.3935106674106996,-67.4296384305835,-74.35044124297659,6.920802812393092,67.89672498057584,72.50322531141298,-4.606500330837136,33.447209858622195,44.425543152629594,-10.978333294007399,-0.033242933571892834,0.0,-0.033242933571892834
0.3920000000000003,move_to_zero,-0.15282739438703477,-3.542254272612999,3.3894268782259642,-67.35134787248067,-74.25819503796048,6.906847165479803,67.7960675132362,72.41327093757748,-4.617203424341284,33.36571474653552,44.37042461273799,-11.004709866202475,-0.03342175882173229,0.0,-0.03342175882173229
0.3940000000000003,move_to_zero,-0.15250139535119833,-3.537853956746399,3.3853525613952007,-67.27269812141414,-74.16594883294438,6.893250711530243,67.69550816041708,72.32331656374198,-4.627808403324906,33.28433916122561,44.31530607284639,-11.03096691162078,-0.033602916561767976,0.0,-0.033602916561767976
0.3960000000000003,move_to_zero,-0.15216734069973747,-3.5334536408797987,3.3812863001800615,-67.19367238583719,-74.07370262792828,6.880030242091095,67.59503797771285,72.23336218990647,-4.6383242121936235,33.203096353896754,44.260187532954795,-11.057091179058041,-0.03378580848054498,0.0,-0.03378580848054498
0.3980000000000003,move_to_zero,-0.15185643062082135,-3.529053325013199,3.3771968943923776,-67.11425259519538,-73.98145642291219,6.867203827716807,67.49464781893742,72.14340781607098,-4.648759997133553,33.12199146960632,44.205068993063186,-11.083077523456865,-0.03396955927959336,0.0,-0.03396955927959336
0.4000000000000003,move_to_zero,-0.15155249394283912,-3.524653009146599,3.3731005152037596,-67.03443079156956,-73.88921021789609,6.85477942632653,67.39434975956536,72.05345344223548,-4.659103682670121,33.04105392253286,44.14995045317159,-11.10889653063873,-0.03415202417488379,0.0,-0.03415202417488379
0.4020000000000003,move_to_zero,-0.15125639084579592,-3.520252693279999,3.368996302434203,-66.95419532130735,-73.79696401287998,6.84276869157263,67.29415595358547,71.96349906839997,-4.669343114814495,32.960273148424534,44.09483191327999,-11.134558764855456,-0.03433295408920122,0.0,-0.03433295408920122
0.4040000000000003,move_to_zero,-0.15097104200666464,-3.515852377413399,3.3648813354067344,-66.87355654484355,-73.70471780786389,6.831161263020334,67.19405742598718,71.87354469456449,-4.679487268577304,32.8796615023592,44.039713373388395,-11.160051871029196,-0.03451109992511799,0.0,-0.03451109992511799
0.4060000000000003,move_to_zero,-0.15069365270528648,-3.511452061546799,3.3607584088415123,-66.79250454966322,-73.61247160284778,6.8199670531845555,67.09404367602555,71.78359032072898,-4.689546644703427,32.799236417778936,43.98459483349679,-11.185358415717857,-0.0346872642151907,0.0,-0.0346872642151907
0.4080000000000003,move_to_zero,-0.15039607038510094,-3.507051745680199,3.356655675295098,-66.71102800339182,-73.52022539783168,6.809197394439863,66.99409723954476,71.69363594689347,-4.699538707348708,32.71899575760756,43.92947629360519,-11.210480535997633,-0.03486396965494341,0.0,-0.03486396965494341
0.4100000000000003,move_to_zero,-0.15006489593053085,-3.5026514298135987,3.352586533883068,-66.62911463687979,-73.42797919281558,6.798864555935793,66.89419926255384,71.60368157305798,-4.709482310504143,32.63896013812546,43.87435775371359,-11.235397615588127,-0.035038952551332846,0.0,-0.035038952551332846
0.4120000000000003,move_to_zero,-0.1497212034734935,-3.4982511139469987,3.348529910473505,-66.54676464291691,-73.33573298779949,6.788968344882576,66.79435479544993,71.51372719922247,-4.719372403772539,32.55914724709608,43.81923921382199,-11.26009196672591,-0.03521055816975848,0.0,-0.03521055816975848
0.4140000000000003,move_to_zero,-0.1493580772043003,-3.493850798080399,3.3444927208760986,-66.4639561072959,-73.24348678278338,6.779530675487479,66.69457308832709,71.42377282538698,-4.729199737059886,32.479539905530274,43.76412067393039,-11.284580768400119,-0.035379550303795575,0.0,-0.035379550303795575
0.4160000000000003,move_to_zero,-0.14899429287932328,-3.4894504822137993,3.340456189334476,-66.38067496076506,-73.15124057776728,6.7705656170022195,66.59485034565088,71.33381845155148,-4.738968105900597,32.40013180896138,43.70900213403879,-11.308870325077407,-0.03554410484263258,0.0,-0.03554410484263258
0.4180000000000003,move_to_zero,-0.14863683300340752,-3.485050166347199,3.3364133333437915,-66.29691178430865,-73.05899437275119,6.762082588442539,66.49519933986164,71.24386407771597,-4.748664737854327,32.32093462518116,43.653883594147196,-11.332948968966036,-0.03570889644962678,0.0,-0.03570889644962678
0.4200000000000003,move_to_zero,-0.1482999245943107,-3.480649850480599,3.3323499258862883,-66.2126850725881,-72.96674816773508,6.754063095146975,66.39562335416791,71.15390970388047,-4.758286349712563,32.24197360136007,43.598765054255594,-11.356791452895521,-0.035874523278937406,0.0,-0.035874523278937406
0.4220000000000003,move_to_zero,-0.1479584753171477,-3.476249534613999,3.328291059296851,-66.12800474658927,-72.87450196271898,6.746497216129711,66.29610789290119,71.06395533004498,-4.767847437143786,32.16325918879529,43.543646514363985,-11.380387325568698,-0.03604000252934514,0.0,-0.03604000252934514
0.4240000000000003,move_to_zero,-0.1476103998767097,-3.471849218747399,3.3242388188706893,-66.04288301349817,-72.78225575770288,6.739372744204715,66.1966429134195,70.97400095620948,-4.777358042789984,32.0847997968606,43.48852797447239,-11.40372817761179,-0.03620400605346293,0.0,-0.03620400605346293
0.4260000000000003,move_to_zero,-0.14726145574322375,-3.4674489028807987,3.3201874471375747,-65.95733261172956,-72.69000955268679,6.732676940957234,66.0972654260122,70.88404658237397,-4.786781156361769,32.00658603862398,43.43340943458079,-11.42682339595681,-0.03636453423349914,0.0,-0.03636453423349914
0.4280000000000003,move_to_zero,-0.14692287542756477,-3.4630485870141987,3.316125711586634,-65.87135415301442,-72.59776334767068,6.726409194656256,65.99798391485176,70.79409220853847,-4.796108293686714,31.928640138247246,43.378290894689194,-11.449650756441947,-0.03652168327389719,0.0,-0.03652168327389719
0.4300000000000003,move_to_zero,-0.14660813556790808,-3.458648271147599,3.312040135579691,-65.78495249876364,-72.50551714265458,6.720564643890938,65.89880268580099,70.70413783470298,-4.805335148901989,31.85098525622976,43.32317235479759,-11.472187098567833,-0.03667542056795025,0.0,-0.03667542056795025
0.43200000000000033,move_to_zero,-0.14629705805295007,-3.454247955280999,3.3079508972280487,-65.69813516471584,-72.41327093763847,6.715135772922636,65.79970298855793,70.61418346086747,-4.8144804723095405,31.773606047911976,43.268053814906,-11.494447766994021,-0.03682863406247863,0.0,-0.03682863406247863
0.43400000000000033,move_to_zero,-0.1460057488202065,-3.449847639414399,3.3038418905941924,-65.61090012194464,-72.32102473262238,6.710124610677738,65.7006881750881,70.52422908703198,-4.82354091194388,31.696528985302525,43.21293527501439,-11.516406289711863,-0.03697979880096535,0.0,-0.03697979880096535
0.43600000000000033,move_to_zero,-0.14573584052482216,-3.445447323547799,3.2997114830229766,-65.52326170965358,-72.22877852760628,6.705516817952699,65.60175993389083,70.43427471319647,-4.83251477930564,31.619745604812856,43.157816735122786,-11.53807113030993,-0.037129330407647335,0.0,-0.037129330407647335
0.43800000000000033,move_to_zero,-0.14549238023467892,-3.441047007681199,3.29555462744652,-65.4352317218261,-72.13653232259018,6.701300600764085,65.5029053784189,70.34432033936098,-4.841414960942075,31.543259198941524,43.10269819523119,-11.559438996289668,-0.03727620440184332,0.0,-0.03727620440184332
0.44000000000000034,move_to_zero,-0.14526897457618798,-3.4366466918145986,3.2913777172384107,-65.3468511482479,-72.04428611757409,6.697434969326196,65.40414018140868,70.25436596552548,-4.850225784116802,31.46705923049466,43.04757965533959,-11.58052042484493,-0.03741996858612262,0.0,-0.03741996858612262
0.44200000000000034,move_to_zero,-0.1450638478098495,-3.4322463759479986,3.2871825281381493,-65.25814864376845,-71.95203991255798,6.693891268789528,65.3054649616707,70.16441159168997,-4.858946630019275,31.391168421566856,42.992461115447995,-11.601292693881138,-0.03756081450563252,0.0,-0.03756081450563252
0.44400000000000034,move_to_zero,-0.1448741856684735,-3.427846060081399,3.2829718744129255,-65.16912441795998,-71.85979370754188,6.690669289581905,65.2068981768972,70.07445721785447,-4.867559040957275,31.315582583388696,42.937342575556386,-11.62175999216769,-0.037699705489519945,0.0,-0.037699705489519945
0.44600000000000034,move_to_zero,-0.14469521431579757,-3.423445744214799,3.2787505298990016,-65.07976145512882,-71.76754750252577,6.687786047396955,65.10844092333495,69.98450284401898,-4.876061920684023,31.24031655971103,42.88222403566479,-11.641907475953762,-0.037836225768133475,0.0,-0.037836225768133475
0.44800000000000034,move_to_zero,-0.1445165939930208,-3.419045428348199,3.274528834355178,-64.99009771549396,-71.67530129750969,6.685203582015731,65.01008889437033,69.89454847018347,-4.884459575813139,31.165371300770495,42.82710549577319,-11.661734195002694,-0.03796953180035195,0.0,-0.03796953180035195
0.45000000000000034,move_to_zero,-0.1443227629156516,-3.414645112481599,3.270322349565947,-64.90016276500842,-71.58305509249358,6.682892327485163,64.91182381094927,69.80459409634798,-4.892770285398711,31.09074468784008,42.77198695588159,-11.681242268041508,-0.038101463032334706,0.0,-0.038101463032334706
0.45200000000000035,move_to_zero,-0.14412604627042416,-3.410244796614999,3.2661187503445746,-64.80998112531138,-71.49080888747748,6.680827762166103,64.81362179090135,69.71463972251247,-4.901017931611122,31.01641318031438,42.71686841598999,-11.700455235675612,-0.03823491331084423,0.0,-0.03823491331084423
0.45400000000000035,move_to_zero,-0.1439139269234807,-3.405844480748399,3.2619305538249184,-64.71954382779415,-71.39856268246137,6.67901885466722,64.71546002632083,69.62468534867698,-4.90922532235615,30.942362727103188,42.66174987609839,-11.719387148995203,-0.03836815662408371,0.0,-0.03836815662408371
0.45600000000000035,move_to_zero,-0.14368863044762467,-3.4014441648817986,3.2577555344341738,-64.62884913859568,-71.30631647744528,6.6774673388495955,64.61733175687458,69.53473097484148,-4.917399217966903,30.8685712488425,42.60663133620679,-11.738060087364289,-0.03850328159926189,0.0,-0.03850328159926189
0.45800000000000035,move_to_zero,-0.1434450846328265,-3.397043849015199,3.2535987643823727,-64.53793884097415,-71.21407027242918,6.676131431455033,64.51922506801992,69.44477660100597,-4.925551532986049,30.795044573481885,42.55151279631519,-11.756468222833302,-0.03863893910027797,0.0,-0.03863893910027797
0.46000000000000035,move_to_zero,-0.14317751811070342,-3.392643533148599,3.249466015037896,-64.44682582367551,-71.12182406741309,6.674998243737576,64.42111662340234,69.35482222717047,-4.933705603768132,30.721774992923613,42.49639425642359,-11.774619263499979,-0.03877428598133654,0.0,-0.03877428598133654
0.46200000000000035,move_to_zero,-0.1429222396423424,-3.3882432172819987,3.2453209776396563,-64.35553940747991,-71.02957786239699,6.674038454917081,64.32301481225589,69.26486785333498,-4.941853041079085,30.648781265466706,42.44127571653199,-11.792494451065284,-0.03891269713942373,0.0,-0.03891269713942373
0.46400000000000036,move_to_zero,-0.14268955706331676,-3.383842901415399,3.241153344352082,-64.26409194358358,-70.93733165738088,6.673239713797301,64.22493246966565,69.17491347949948,-4.949981009833834,30.5760708728541,42.38615717664039,-11.810086303786289,-0.03905312310288065,0.0,-0.03905312310288065
0.46600000000000036,move_to_zero,-0.14246780648613397,-3.379442585548799,3.236974779062665,-64.17251457755115,-70.84508545236478,6.67257087481363,64.12683596218297,69.08495910566397,-4.958123143481004,30.503682502499476,42.331038636748794,-11.827356134249317,-0.03919380980766262,0.0,-0.03919380980766262
0.46800000000000036,move_to_zero,-0.1422617690425333,-3.375042269682199,3.2327805006396657,-64.08081314638504,-70.75283924734867,6.672026100963635,64.02874214046845,68.99500473182847,-4.966262591360021,30.431628427344,42.275920096857185,-11.844291669513186,-0.03933448149756071,0.0,-0.03933448149756071
0.47000000000000036,move_to_zero,-0.14206806802525254,-3.3706419538155985,3.228573885790346,-63.989039324099814,-70.66059304233258,6.671553718232765,63.93063289317172,68.90505035799298,-4.974417464821258,30.35990194860816,42.22080155696559,-11.860899608357428,-0.03947640434685647,0.0,-0.03947640434685647
0.47200000000000036,move_to_zero,-0.1418795792355801,-3.3662416379489986,3.2243620587134183,-63.89719043764396,-70.56834683731647,6.671156399672512,63.83252224043283,68.81509598415747,-4.982573743724636,30.288489684324045,42.16568301707399,-11.877193332749943,-0.039617111849816984,0.0,-0.039617111849816984
0.47400000000000037,move_to_zero,-0.14169316140290097,-3.361841322082399,3.220148160679498,-63.80527489521096,-70.47610063230039,6.67082573708943,63.73439381995964,68.72514161032198,-4.990747790362342,30.21737750802374,42.11056447718239,-11.893186969158652,-0.039758586022394425,0.0,-0.039758586022394425
0.47600000000000037,move_to_zero,-0.14147938209655503,-3.357441006215799,3.215961624119244,-63.71332605181392,-70.38385442728428,6.670528375470354,63.6362529950157,68.63518723648647,-4.998934241470771,30.146541241041415,42.05544593729079,-11.908904696249376,-0.039902084662865114,0.0,-0.039902084662865114
0.47800000000000037,move_to_zero,-0.14122101590279412,-3.3530406903491987,3.2118196744464047,-63.621333864088406,-70.29160822226818,6.670274358179775,63.53810344087068,68.54523286265096,-5.007129421780284,30.075958731252246,42.00032739739919,-11.924368666146943,-0.04004566176825996,0.0,-0.04004566176825996
0.48000000000000037,move_to_zero,-0.1409191216431675,-3.3486403744825988,3.2077212528394314,-63.52931781321023,-70.19936201725208,6.670044204041858,63.43994782059395,68.45527848881548,-5.01533066822153,30.00562939940737,41.94520885750759,-11.93957945810022,-0.040189754490969544,0.0,-0.040189754490969544
0.4820000000000004,move_to_zero,-0.14061464965608705,-3.344240058615999,3.203625408959912,-63.437304255687145,-70.10711581223597,6.669811556548829,63.341769264163275,68.36532411497997,-5.023554850816694,29.935542656349195,41.890090317615986,-11.95454766126679,-0.04033526725486792,0.0,-0.04033526725486792
0.4840000000000004,move_to_zero,-0.14031113104306586,-3.339839742749399,3.199528611706333,-63.34533277873152,-70.01486960721988,6.669536828488361,63.24356118680721,68.27536974114447,-5.03180855433726,29.865675623894195,41.83497177772439,-11.969296153830197,-0.04048021083883026,0.0,-0.04048021083883026
0.4860000000000004,move_to_zero,-0.14000613595758346,-3.3354394268827985,3.195433290925215,-63.2534297228244,-69.92262340220378,6.669193679379383,63.14534436949122,68.18541536730898,-5.040070997817757,29.795994935504115,41.77985323783279,-11.983858302328674,-0.04062182603972795,0.0,-0.04062182603972795
0.4880000000000004,move_to_zero,-0.13973463604327868,-3.331039111016199,3.1913044749729202,-63.1615794264875,-69.83037719718769,6.668797770700188,63.04713527728705,68.09546099347347,-5.048325716186419,29.726474635473537,41.72473469794119,-11.99826006246765,-0.04076003362659144,0.0,-0.04076003362659144
0.4900000000000004,move_to_zero,-0.13949015870252793,-3.326638795149599,3.187148636447071,-63.069821052859304,-69.73813099217158,6.668309939312273,62.94892609752459,68.00550661963797,-5.056580522113379,29.65711611297319,41.66961615804959,-12.012500045076404,-0.04089470810710036,0.0,-0.04089470810710036
0.4920000000000004,move_to_zero,-0.13926732768997513,-3.3222384792829986,3.1829711515930237,-62.97813938775508,-69.64588478715548,6.667745399400403,62.85070351044185,67.91555224580247,-5.06484873536062,29.587915885701197,41.61449761815798,-12.026581732456787,-0.04102910504560411,0.0,-0.04102910504560411
0.4940000000000004,move_to_zero,-0.13906036486869,-3.3178381634163987,3.1787777985477086,-62.886566679327096,-69.55363858213937,6.667071902812275,62.75247512851156,67.82559787196698,-5.073122743455414,29.518865520846344,41.55937907826639,-12.040513557420045,-0.04116441594881059,0.0,-0.04116441594881059
0.4960000000000004,move_to_zero,-0.13886645369577588,-3.3134378475497988,3.174571393854023,-62.79512794030031,-69.46139237712327,6.6662644368229635,62.654249528352274,67.73564349813147,-5.081393969779192,29.449967186032353,41.50426053837479,-12.054293352342434,-0.04130081450005892,0.0,-0.04130081450005892
0.4980000000000004,move_to_zero,-0.13868225029411882,-3.309037531683199,3.17035528138908,-62.7038426331142,-69.36914617210718,6.66530353899298,62.556035764234885,67.64568912429597,-5.089653360061085,29.3812526446758,41.44914199848319,-12.067889353807391,-0.041436185257486914,0.0,-0.041436185257486914
0.5000000000000003,move_to_zero,-0.1385039515246231,-3.3046372158165984,3.1661332642919753,-62.61273529535179,-69.27689996709108,6.664164671739293,62.457822938779,67.55573475046047,-5.09791181168147,29.312698499914436,41.39402345859159,-12.081324958677154,-0.04157077286346222,0.0,-0.04157077286346222
0.5020000000000003,move_to_zero,-0.13831554842057986,-3.300236899949999,3.161921351529419,-62.52182372387741,-69.18465376207499,6.662830038197576,62.35960869452982,67.46578037662498,-5.106171682095159,29.244278084270256,41.33890491869999,-12.094626834429732,-0.041701581205751063,0.0,-0.041701581205751063
0.5040000000000003,move_to_zero,-0.13809162846972337,-3.2958365840833994,3.157744955613676,-62.431110910575974,-69.09240755705889,6.661296646482917,62.261408828186134,67.37582600278948,-5.114417174603346,29.175978465595946,41.283786378808394,-12.107807913212447,-0.04182771755217342,0.0,-0.04182771755217342
0.5060000000000003,move_to_zero,-0.1378575732150469,-3.291436268216799,3.153578695001752,-62.34059447529405,-69.00016135204278,6.659566876748734,62.16323969476316,67.28587162895397,-5.122631934190807,29.107796972246078,41.228667838916785,-12.120870866670707,-0.041948453929502166,0.0,-0.041948453929502166
0.5080000000000003,move_to_zero,-0.13762757534421538,-3.287035952350199,3.1494083770059835,-62.25027790108385,-68.90791514702669,6.657637245942837,62.06508690002924,67.19591725511847,-5.1308303550892305,29.03971677685019,41.1735492990252,-12.133832522175005,-0.04206544270017968,0.0,-0.04206544270017968
0.5100000000000003,move_to_zero,-0.13740149815764677,-3.2826356364835987,3.145234138325952,-62.160163655534355,-68.81566894201057,6.65550528647622,61.96692686050389,67.10596288128298,-5.139036020779088,28.971763367845682,41.11843075913359,-12.146667391287906,-0.04217719444527208,0.0,-0.04217719444527208
0.5120000000000003,move_to_zero,-0.13718596890287846,-3.278235320616999,3.1410493517141207,-62.07026350788451,-68.7234227369945,6.653159229109981,61.868764096443414,67.01600850744748,-5.147244411004067,28.903934781686175,41.06331221924199,-12.159377437555818,-0.04228710585841855,0.0,-0.04228710585841855
0.5140000000000003,move_to_zero,-0.13693965741962885,-3.273835004750399,3.13689534733077,-61.980613430526326,-68.63117653197838,6.650563101452057,61.7706111140588,66.92605413361197,-5.155443019553168,28.83622856325887,41.00819367935039,-12.17196511609152,-0.042395355028574604,0.0,-0.042395355028574604
0.5160000000000003,move_to_zero,-0.13669082465312726,-3.2694346888837993,3.132743864230672,-61.89121932897921,-68.53893032696229,6.647710997983076,61.67248315294982,66.83609975977649,-5.163616606826665,28.768632164071224,40.95307513945879,-12.184442975387565,-0.042502580592130426,0.0,-0.042502580592130426
0.5180000000000003,move_to_zero,-0.13645229585042246,-3.265034373017199,3.1285820771667763,-61.802063604624465,-68.44668412194618,6.644620517321712,61.5743613900233,66.74614538594096,-5.171783995917664,28.70115191937971,40.89795659956719,-12.196804680187476,-0.04261060747619873,0.0,-0.04261060747619873
0.5200000000000004,move_to_zero,-0.13622841392147625,-3.2606340571505994,3.124405643229123,-61.71318729408123,-68.35443791693008,6.641250622848851,61.47624712011497,66.65619101210548,-5.179943891990511,28.633764154825954,40.84283805967559,-12.209073904849639,-0.04271954547992161,0.0,-0.04271954547992161
0.5220000000000004,move_to_zero,-0.1360216242451667,-3.2562337412839986,3.120212117038832,-61.62461004993137,-68.26219171191397,6.637581661982601,61.37815624310502,66.56623663826997,-5.188080395164953,28.56646263704886,40.78771951978399,-12.22125688273513,-0.04282626548799575,0.0,-0.04282626548799575
0.5240000000000004,move_to_zero,-0.1358295043980414,-3.251833425417399,3.1160039210193577,-61.53633576845444,-68.16994550689789,6.633609738443447,61.28009876348463,66.47628226443447,-5.196183500949843,28.499254032675484,40.732600979892396,-12.233346947216912,-0.04293076757060094,0.0,-0.04293076757060094
0.5260000000000004,move_to_zero,-0.13564916844646652,-3.2474331095507987,3.111783941104332,-61.4483750496614,-68.07769930188178,6.629324252220378,61.18209461673987,66.38632789059898,-5.20423327385911,28.4321295783368,40.677482440000794,-12.245352861663996,-0.04303486879197527,0.0,-0.04303486879197527
0.5280000000000004,move_to_zero,-0.13547732308018134,-3.2430327936841996,3.1075554706040185,-61.36071655689757,-67.9854530968657,6.624736539968126,61.08413505890127,66.29637351676348,-5.212238457862213,28.365071883575144,40.62236390010919,-12.257292016534048,-0.04313813555931448,0.0,-0.04313813555931448
0.5300000000000004,move_to_zero,-0.13531345023464017,-3.2386324778175983,3.103319027582958,-61.273346214617334,-67.89320689184957,6.619860677232239,60.9862058071655,66.20641914292797,-5.220213335762473,28.29808084246711,40.56724536021758,-12.269164517750472,-0.04323830198951189,0.0,-0.04323830198951189
0.5320000000000004,move_to_zero,-0.13515565414863842,-3.2342321619509993,3.0990765078023608,-61.18623256892196,-67.80096068683349,6.6147281179115325,60.88830626102397,66.11646476909249,-5.228158508068518,28.231143326056458,40.512126820325996,-12.280983494269538,-0.043334377544527326,0.0,-0.043334377544527326
0.5340000000000004,move_to_zero,-0.13500331701374083,-3.229831846084399,3.094828529070658,-61.099371650584644,-67.70871448181737,6.609342831232723,60.790429702396544,66.02651039525698,-5.236080692860433,28.164223318292116,40.45700828043439,-12.292784962142271,-0.04342706265207565,0.0,-0.04342706265207565
0.5360000000000004,move_to_zero,-0.13485545496112505,-3.2254315302177994,3.090576075256674,-61.0127833743732,-67.61646827680129,6.6036849024280855,60.69256770376452,65.93655602142148,-5.243988317656964,28.0973174066545,40.4018897405428,-12.304572333888299,-0.0435164966905513,0.0,-0.0435164966905513
0.5380000000000004,move_to_zero,-0.13471010973414818,-3.2210312143511985,3.0863211046170504,-60.92648064140795,-67.52422207178519,6.597741430377241,60.59471163195017,65.84660164758597,-5.2518900156358015,28.030443031391005,40.34677120065119,-12.316328169260185,-0.043604082651000894,0.0,-0.043604082651000894
0.5400000000000004,move_to_zero,-0.1345652479781151,-3.216630898484599,3.082065650506484,-60.840462742190844,-67.4319758667691,6.591513124578249,60.496851878683245,65.75664727375049,-5.259795395067243,27.963599683330052,40.29165266075959,-12.328052977429536,-0.04368814556240108,0.0,-0.04368814556240108
0.5420000000000004,move_to_zero,-0.13442130059267318,-3.2122305826179987,3.0778092820253256,-60.75473520230994,-67.33972966175298,6.584994459443045,60.398971025043814,65.66669289991496,-5.26772187487115,27.896771142159174,40.23653412086799,-12.339762978708812,-0.043770408290096166,0.0,-0.043770408290096166
0.5440000000000004,move_to_zero,-0.13427867585868,-3.207830266751399,3.0735515908927193,-60.66928896568826,-67.24748345673689,6.578194491048627,60.301069255571406,65.57673852607948,-5.275669270508075,27.82994209362482,40.18141558097639,-12.351473487351573,-0.04385068370113309,0.0,-0.04385068370113309
0.5460000000000004,move_to_zero,-0.13413640455199433,-3.2034299508847988,3.0692935463328044,-60.58412426550584,-67.15523725172078,6.571112986214935,60.203142042055944,65.48678415224397,-5.283642110188026,27.763095928573566,40.12629704108479,-12.363201112511224,-0.04392860514527245,0.0,-0.04392860514527245
0.5480000000000004,move_to_zero,-0.13399494352400956,-3.1990296350181993,3.0650346914941897,-60.49923640515246,-67.06299104670468,6.563754641552222,60.10519875796564,65.39682977840847,-5.291631020442836,27.6962221817378,40.071178501193195,-12.374956319455396,-0.04400402537249659,0.0,-0.04400402537249659
0.5500000000000004,move_to_zero,-0.13385465740550045,-3.194629319151599,3.0607746617460982,-60.41462572379925,-66.97074484168859,6.556119117889338,60.007261491528126,65.30687540457298,-5.299613913044851,27.629311740078702,40.01605996130159,-12.386748221222891,-0.04407796304635262,0.0,-0.04407796304635262
0.5520000000000004,move_to_zero,-0.13371513880976202,-3.190229003284999,3.056513864475237,-60.33027355637599,-66.87849863667249,6.548225080296497,59.90932259152775,65.21692103073748,-5.307598439209734,27.562394968238248,39.96094142140999,-12.398546453171743,-0.04415006166343385,0.0,-0.04415006166343385
0.5540000000000004,move_to_zero,-0.13357561227793532,-3.1858286874183985,3.052253075140463,-60.24615866311234,-66.78625243165638,6.54009376854404,59.81135660135812,65.12696665690197,-5.31561005554385,27.495469374191686,39.90582288151839,-12.410353507326704,-0.04422048122992487,0.0,-0.04422048122992487
0.5560000000000004,move_to_zero,-0.13343800295333585,-3.1814283715517995,3.0479903685984637,-60.16225777475677,-66.69400622664028,6.531748451883516,59.71335204754213,65.03701228306649,-5.323660235524358,27.42852688150642,39.850704341626795,-12.422177460120373,-0.044289637261053734,0.0,-0.044289637261053734
0.5580000000000004,move_to_zero,-0.13330116456338462,-3.1770280556851986,3.043726891121814,-60.07857660173491,-66.60176002162417,6.523183419889264,59.61529373032859,64.94705790923096,-5.331764178902375,27.361572305822587,39.795585801735186,-12.434013495912598,-0.044357226867568836,0.0,-0.044357226867568836
0.5600000000000004,move_to_zero,-0.13316521520974778,-3.172627739818599,3.0394625246088514,-59.99511565037781,-66.50951381660808,6.514398166230265,59.51717639714933,64.85710353539548,-5.3399271382461535,27.294622844445172,39.7404672618436,-12.445844417398426,-0.044424880416056335,0.0,-0.044424880416056335
0.5620000000000004,move_to_zero,-0.13302878040335486,-3.1682274239519987,3.035198643548644,-59.9118697897717,-66.41726761159198,6.5053978218202815,59.41900741104228,64.76714916155997,-5.348141750517691,27.22765395596106,39.68534872195198,-12.457694765990922,-0.04449490405673079,0.0,-0.04449490405673079
0.5640000000000004,move_to_zero,-0.13289209505858515,-3.1638271080853992,3.0309350130268142,-59.828830329510154,-66.3250214065759,6.496191077065745,59.320776090757654,64.67719478772447,-5.35641869696682,27.160667338958525,39.630230182060394,-12.469562843101869,-0.04456968208542414,0.0,-0.04456968208542414
0.5660000000000004,move_to_zero,-0.13275641094710167,-3.159426792218799,3.026670381271697,-59.74599253471674,-66.23277520155978,6.486782666843034,59.22247521593453,64.58724041388896,-5.3647651979544335,27.09364577262454,39.575111642168785,-12.481465869544245,-0.04464980719011642,0.0,-0.04464980719011642
0.5680000000000004,move_to_zero,-0.13262126022277837,-3.155026476352199,3.0224052161294206,-59.663335880593216,-66.1405289965437,6.477193115950477,59.12410798588675,64.49728604005348,-5.373178054166729,27.02657411830502,39.51999310227719,-12.49341898397217,-0.04473473519751125,0.0,-0.04473473519751125
0.5700000000000004,move_to_zero,-0.13248579900453988,-3.1506261604855985,3.0181403614810587,-59.580876850653,-66.04828279152757,6.4674059408745705,59.02568937516709,64.40733166621797,-5.3816422910508805,26.959446314450663,39.46487456238559,-12.505428247934926,-0.044823921015376134,0.0,-0.044823921015376134
0.5720000000000004,move_to_zero,-0.1323487742543606,-3.1462258446189995,3.013877070364639,-59.498598315968636,-65.95603658651149,6.457438270542852,58.9272272688685,64.31737729238247,-5.390150023513975,26.89226553450535,39.409756022493994,-12.517490487988645,-0.044913708273009535,0.0,-0.044913708273009535
0.5740000000000004,move_to_zero,-0.13221040460347405,-3.141825528752399,3.009615124148925,-59.41646712549234,-65.86379038149538,6.447323256003038,58.8287167180411,64.22742291854698,-5.3987062005058775,26.825034802400545,39.354637482602385,-12.52960268020184,-0.04500451707279383,0.0,-0.04500451707279383
0.5760000000000004,move_to_zero,-0.1320621672694684,-3.137425212885799,3.0053630456163307,-59.33448909885,-65.7715441764793,6.437055077629296,58.73016302742085,64.13746854471148,-5.407305517290631,26.757761839355243,39.29951894271079,-12.541757103355547,-0.04509476669067301,0.0,-0.04509476669067301
0.5780000000000004,move_to_zero,-0.13190670350013403,-3.1330248970191987,3.0011181935190647,-59.25264058202735,-65.67929797146319,6.426657389435839,58.63155111690094,64.04751417087597,-5.415963053975034,26.69045092148229,39.24440040281919,-12.553949481336897,-0.0451873184752301,0.0,-0.0451873184752301
0.5800000000000004,move_to_zero,-0.1317534171656369,-3.1286245811525992,2.9968711639869623,-59.17089418526158,-65.58705176644709,6.416157581185509,58.53285242044806,63.95755979704048,-5.424707376592423,26.62311639326659,39.189281862927594,-12.566165469661005,-0.045281035050362684,0.0,-0.045281035050362684
0.5820000000000004,move_to_zero,-0.1316028468740471,-3.1242242652859984,2.992621418411951,-59.089249188028305,-65.49480556143098,6.405556373402675,58.43409407914375,63.867605423204964,-5.433511344061216,26.555745764396665,39.134163323035985,-12.57841755863932,-0.045375697584126504,0.0,-0.045375697584126504
0.5840000000000004,move_to_zero,-0.13145550724058427,-3.119823949419399,2.988368442178815,-59.00767940662983,-65.40255935641488,6.39487994978505,58.33529295880497,63.777651049369474,-5.442358090564504,26.488329156436016,39.0790447831444,-12.59071562670838,-0.04547267303080207,0.0,-0.04547267303080207
0.5860000000000004,move_to_zero,-0.13130957152611314,-3.1154236335527985,2.9841140620266855,-58.92616359468947,-65.31031315139877,6.384149556709303,58.23645905023456,63.68769667553397,-5.451237625299413,26.420855705375295,39.02392624325278,-12.603070537877485,-0.04557054973739894,0.0,-0.04557054973739894
0.5880000000000004,move_to_zero,-0.13116621941864243,-3.1110233176861994,2.979857098267557,-58.84467755687235,-65.21806694638268,6.373389389510329,58.13757620600582,63.597742301698474,-5.4601660956926565,26.353364746863747,38.96880770336119,-12.615442956497446,-0.04566778993487053,0.0,-0.04566778993487053
0.5900000000000004,move_to_zero,-0.131024070880627,-3.1066230018195986,2.9755989309389714,-58.76318753280413,-65.12582074136658,6.36263320856245,58.038645587513955,63.50778792786297,-5.469142340349016,26.285839581363373,38.913689163469584,-12.627849582106212,-0.045762694811610556,0.0,-0.045762694811610556
0.5920000000000004,move_to_zero,-0.13088337534212363,-3.102222685952999,2.9713393106108756,-58.68169729918383,-65.03357453635049,6.351877237166654,57.93967770958487,63.41783355402748,-5.478155844442611,26.218285652417034,38.858570623578,-12.640284971160963,-0.04585621821531216,0.0,-0.04585621821531216
0.5940000000000004,move_to_zero,-0.13074460333113117,-3.0978223700863987,2.9670777667552675,-58.600195107102635,-64.94132833133438,6.34113322423174,57.84066895330235,63.32787918019197,-5.487210226889623,26.15072417473919,38.80345208368639,-12.652727908947199,-0.04594628285423918,0.0,-0.04594628285423918
0.5960000000000004,move_to_zero,-0.1306069146430002,-3.093422054219799,2.962815139576799,-58.51866223924435,-64.84908212631828,6.33041988707393,57.741619531558264,63.23792480635648,-5.4963052747982175,26.083173190663658,38.74833354379479,-12.665160353131135,-0.046033227542358175,0.0,-0.046033227542358175
0.5980000000000004,move_to_zero,-0.13046910386419247,-3.0890217383531984,2.958552634489006,-58.43710333513071,-64.75683592130217,6.319732586171462,57.6425005082687,63.147970432520964,-5.505469924252267,26.015653217144045,38.693215003903184,-12.677561786759139,-0.04611760615509864,0.0,-0.04611760615509864
0.6000000000000004,move_to_zero,-0.13033265295288501,-3.0846214224865993,2.954288769533714,-58.355527564940004,-64.66458971628607,6.309062151346069,57.543298475724946,63.05801605868548,-5.514717582960536,25.94816200530182,38.63809646401159,-12.689934458709768,-0.046198161218181655,0.0,-0.046198161218181655
0.6020000000000004,move_to_zero,-0.13019650174620462,-3.0802211066199985,2.9500246048737937,-58.27394249472774,-64.57234351126998,6.298401016542236,57.44400070749929,62.968061684849964,-5.524060977350672,25.8807130927877,38.58297792411999,-12.702264831332286,-0.046274617581384764,0.0,-0.046274617581384764
0.6040000000000004,move_to_zero,-0.13005868981994897,-3.075820790753399,2.94576210093345,-58.19235302098091,-64.4800973062539,6.287744285272986,57.34461150653063,62.878107311014475,-5.533495804483842,25.813310830353057,38.52785938422839,-12.714548553875336,-0.04634447770164527,0.0,-0.04634447770164527
0.6060000000000004,move_to_zero,-0.12990923977105373,-3.0714204748867986,2.941511235115745,-58.110763290757454,-64.38785110123777,6.277087810480317,57.245146830950496,62.78815293717897,-5.543006106228475,25.745944002767516,38.47274084433679,-12.726796841569275,-0.046408596874348784,0.0,-0.046408596874348784
0.6080000000000004,move_to_zero,-0.1297487837490371,-3.067020159020199,2.937271375271162,-58.02916801771599,-64.29560489622169,6.266436878505701,57.14563367894668,62.698198563343475,-5.552564884396794,25.678617725046497,38.417622304445196,-12.7390045793987,-0.046468414079498144,0.0,-0.046468414079498144
0.6100000000000004,move_to_zero,-0.12959203292817487,-3.0626198431535987,2.9330278102254237,-57.947546501721455,-64.20335869120557,6.255812189484111,57.046084626400685,62.60824418950797,-5.562159563107286,25.61132346840481,38.36250376455359,-12.751180296148778,-0.04652480895231514,0.0,-0.04652480895231514
0.6120000000000004,move_to_zero,-0.12943851741881493,-3.0582195272869988,2.928781009868184,-57.865905764974144,-64.11111248618948,6.2452067212153395,56.94650866408465,62.51828981567248,-5.571781151587835,25.5440324722138,38.30738522466199,-12.763352752448192,-0.046578192017178124,0.0,-0.046578192017178124
0.6140000000000004,move_to_zero,-0.1292881467574744,-3.0538192114203984,2.924531064662924,-57.784233682604516,-64.01886628117337,6.234632598568858,56.846887736478294,62.42833544183697,-5.581447705358677,25.4767586052977,38.25226668477038,-12.775508079472683,-0.04662850977837835,0.0,-0.04662850977837835
0.6160000000000004,move_to_zero,-0.1291419665656651,-3.0494188955537993,2.9202769289881343,-57.70254070068881,-63.926620076157285,6.224079375468477,56.747228182349154,62.33838106800148,-5.591152885652328,25.409490789847975,38.197148144878796,-12.78765735503082,-0.046675356604998636,0.0,-0.046675356604998636
0.6180000000000004,move_to_zero,-0.12899828546675063,-3.045018579687199,2.9160202942204485,-57.62079915793423,-63.83437387114118,6.2135747132069525,56.64752389811095,62.248426694165964,-5.600902796055017,25.342216392604954,38.14202960498719,-12.799813212382233,-0.046716947621912745,0.0,-0.046716947621912745
0.6200000000000004,move_to_zero,-0.12885565795352022,-3.040618263820599,2.9117626058670787,-57.539006694606435,-63.742127666125086,6.203120971518651,56.5477883201194,62.15847232033048,-5.61068400021108,25.274952096159833,38.08691106509559,-12.811958968935759,-0.04675239770506791,0.0,-0.04675239770506791
0.6220000000000004,move_to_zero,-0.12871370100142465,-3.0362179479539986,2.907504246952574,-57.457156829485456,-63.649881461108976,6.19272463162352,56.4480220426546,62.068517946494964,-5.620495903840364,25.20771703146281,38.03179252520398,-12.824075493741173,-0.04678298330681814,0.0,-0.04678298330681814
0.6240000000000004,move_to_zero,-0.12857264585258604,-3.031817632087399,2.903244986234813,-57.375232593910056,-63.55763525609289,6.182402662182831,56.34822192603241,61.978563572659475,-5.630341646627066,25.140510851624942,37.97667398531239,-12.836163133687446,-0.04680580062967067,0.0,-0.04680580062967067
0.6260000000000004,move_to_zero,-0.12843389700185304,-3.0274173162207987,2.8989834192189456,-57.2932414228677,-63.46538905107678,6.172147628209075,56.248382757538614,61.888609198823964,-5.64022644128535,25.073370671845417,37.921555445420786,-12.848184773575369,-0.04682148746954524,0.0,-0.04682148746954524
0.6280000000000004,move_to_zero,-0.1282982721031989,-3.0230170003541987,2.8947187282509996,-57.21117788993808,-63.37314284606068,6.161964956122603,56.14851068681467,61.798654824988475,-5.650144138173808,25.006325193945365,37.86643690552919,-12.860111711583826,-0.04683203273818335,0.0,-0.04683203273818335
0.6300000000000004,move_to_zero,-0.1281650453911686,-3.0186166844875983,2.8904516390964297,-57.12905355664643,-63.28089664104458,6.151843084398145,56.04860741552209,61.70870045115297,-5.660093035630879,24.939371697416526,37.81131836563759,-12.871946668221064,-0.046841590544187614,0.0,-0.046841590544187614
0.6320000000000005,move_to_zero,-0.12803338636175568,-3.0142163686209993,2.8861829822592435,-57.046870613375084,-63.18865043602848,6.1417798226533975,55.948655811763366,61.618746077317475,-5.6700902655541086,24.87253503114311,37.756199825745995,-12.883664794602886,-0.04684939694901293,0.0,-0.04684939694901293
0.6340000000000005,move_to_zero,-0.12790173408607236,-3.009816052754399,2.8819143186683265,-56.9646352729355,-63.09640423101237,6.131768958076869,55.84866808180173,61.52879170348197,-5.680123621680238,24.805810712932374,37.701081285854386,-12.895270572922012,-0.04685535917659661,0.0,-0.04685535917659661
0.6360000000000005,move_to_zero,-0.1277703385775434,-3.005415736887799,2.8776453983102557,-56.88233085236256,-63.00415802599628,6.121827173633726,55.74864491848266,61.43883732964648,-5.690192411163821,24.739195795084715,37.64596274596279,-12.906766950878076,-0.046859737712998,0.0,-0.046859737712998
0.6380000000000005,move_to_zero,-0.1276403384218318,-3.0010154210211986,2.8733750825993667,-56.79996284239094,-62.91191182098017,6.111948978589233,55.64858797986232,61.348882955810964,-5.700294975948644,24.672682036148608,37.59084420607118,-12.918162169922574,-0.046862489129750974,0.0,-0.046862489129750974
0.6400000000000005,move_to_zero,-0.12750962703089277,-2.996615105154599,2.869105478123706,-56.717513399251445,-62.81966561596408,6.102152216712632,55.548501854191386,61.25892858197548,-5.710426727784096,24.606268148752427,37.535725666179594,-12.929457517427167,-0.04685998493433003,0.0,-0.04685998493433003
0.6420000000000005,move_to_zero,-0.12737873324733426,-2.9922147892879987,2.8648360560406645,-56.63497984714603,-62.727419410947974,6.092439563801946,55.44838964188334,61.168974208139964,-5.720584566256626,24.53997566898037,37.480607126287985,-12.940631457307614,-0.04685285155413111,0.0,-0.04685285155413111
0.6440000000000005,move_to_zero,-0.12724892120505576,-2.987814473421399,2.8605655522163436,-56.55235287956781,-62.63517320593189,6.082820326364079,55.348237367277285,61.079019834304475,-5.73078246702719,24.47383231841896,37.42548858639639,-12.95165626797743,-0.046842112051046186,0.0,-0.046842112051046186
0.6460000000000005,move_to_zero,-0.1271193218191122,-2.9834141575547983,2.856294835735686,-56.46961554970687,-62.54292700091577,6.073311451208895,55.24803173822391,60.989065460468964,-5.7410337222450565,24.40783147341068,37.37037004650478,-12.9625385730941,-0.046830257343148524,0.0,-0.046830257343148524
0.6480000000000005,move_to_zero,-0.12699032583470177,-2.9790138416881993,2.8520235158534977,-56.38677421155085,-62.450680795899686,6.063906584348835,55.14776819455181,60.899111086633475,-5.7513428920816665,24.341966356687692,37.31525150661319,-12.973285149925495,-0.046818235292013614,0.0,-0.046818235292013614
0.6500000000000005,move_to_zero,-0.12686057183592175,-2.9746135258215984,2.8477529539856765,-56.303857370038834,-62.35843459088357,6.054577220844735,55.047452194559995,60.80915671279797,-5.761704518237977,24.27623003207774,37.260132966721585,-12.983902934643844,-0.046804843021362945,0.0,-0.046804843021362945
0.6520000000000005,move_to_zero,-0.1267307358734328,-2.970213209954999,2.8434824740815663,-56.220882288648504,-62.26618838586749,6.045306097218983,54.947097282175356,60.719202338962475,-5.772105056787119,24.210622532841747,37.20501442682999,-12.994391893988244,-0.04679014243188106,0.0,-0.04679014243188106
