GerardoFJ/TE3001B_TEAM_3/src/s0s1_gazebo/scripts/results/PD4/state.csv
t,phase,shoulder_pan_actual_deg,shoulder_pan_desired_deg,shoulder_pan_error_deg,shoulder_lift_actual_deg,shoulder_lift_desired_deg,shoulder_lift_error_deg,elbow_flex_actual_deg,elbow_flex_desired_deg,elbow_flex_error_deg,wrist_flex_actual_deg,wrist_flex_desired_deg,wrist_flex_error_deg,wrist_roll_actual_deg,wrist_roll_desired_deg,wrist_roll_error_deg
0.002,move_to_zero,-4.376474382407018,-4.4003158666,0.02384148419298171,-92.21682027023317,-92.2462050161,0.02938474586683526,89.9402674989065,89.9543738355,-0.014106336593499691,55.09939055982472,55.1185398916,-0.019149331775281553,0.0017248340730163765,0.0,0.0017248340730163765
0.004,move_to_zero,-4.333528496111494,-4.3959155507334,0.06238705462190541,-92.152518106301,-92.15395881108391,0.001440704782908142,89.90878168676696,89.86441946166448,0.044362225102474895,55.059996045474996,55.0634213517084,-0.0034253062334030915,0.004360107383861688,0.0,0.004360107383861688
0.006,move_to_zero,-4.276199703252503,-4.3915152348668,0.11531553161429642,-92.0579201965225,-92.0617126060678,0.0037924095452979145,89.86117659798622,89.77446508782899,0.08671151015722955,55.002125216894534,55.008302811816804,-0.006177594922270657,0.0072048328405237136,0.0,0.0072048328405237136
0.008,move_to_zero,-4.208291558295644,-4.3871149190002,0.1788233607045555,-91.93722273909421,-91.9694664010517,0.032243661957494396,89.79865247011583,89.68451071399349,0.11414175612233635,54.927438483758806,54.953184271925196,-0.025745788166389616,0.009759359492381861,0.0,0.009759359492381861
0.01,move_to_zero,-4.132837052899586,-4.382714603133599,0.2498775502340127,-91.79421355523989,-91.8772201960356,0.08300664079570197,89.72235724232799,89.594556340158,0.1278009021699944,54.83750947095548,54.8980657320336,-0.06055626107811918,0.011830375296595164,0.0,0.011830375296595164
0.012,move_to_zero,-4.05226210764127,-4.378314287266999,0.3260521796257292,-91.63227275967652,-91.7849739910195,0.15270123134297364,89.6333862548522,89.50460196632248,0.12878428852971524,54.73382602853608,54.842947192142,-0.10912116360591995,0.013486709923117828,0.0,0.013486709923117828
0.014,move_to_zero,-3.968474880522919,-4.373913971400399,0.4054390908774801,-91.45442505862759,-91.69272778600339,0.23830272737579605,89.53279856417471,89.41464759248699,0.11815097168772581,54.61776249509489,54.787828652250404,-0.17006615715551732,0.014789724218097378,0.0,0.014789724218097378
0.016,move_to_zero,-3.8829947805482297,-4.369513655533799,0.48651887498556956,-91.26334626859527,-91.6004815809873,0.33713531239203576,89.42158716634198,89.32469321865149,0.09689394769048931,54.490613255410835,54.7327101123588,-0.2420968569479669,0.01579275254607848,0.0,0.01579275254607848
0.018000000000000002,move_to_zero,-3.7969857584935376,-4.3651133396672,0.5681275811736626,-91.06143322125855,-91.5082353759712,0.4468021547126426,89.30070767508657,89.234738844816,0.06596883027057743,54.35357281771205,54.6775915724672,-0.3240187547551514,0.016495346647600075,0.0,0.016495346647600075
0.020000000000000004,move_to_zero,-3.7113716552367895,-4.3607130238006,0.6493413685638108,-90.85083294595192,-91.4159891709551,0.5651562250031787,89.17109587508669,89.1447844709805,0.02631140410619537,54.20777312811496,54.6224730325756,-0.4146999044606403,0.01684321144858353,0.0,0.01684321144858353
0.022000000000000006,move_to_zero,-3.62687838743946,-4.356312707934,0.7294343204945402,-90.63344424783682,-91.323742965939,0.6902987181021842,89.03362110254352,89.05483009714499,-0.021208994601465747,54.054237586618136,54.567354492684,-0.5131169060658607,0.016855902171535573,0.0,0.016855902171535573
0.024000000000000007,move_to_zero,-3.5440318274410454,-4.351912392067399,0.807880564626354,-90.41096755251502,-91.2314967609229,0.8205292084078764,88.8891160556629,88.96487572330949,-0.0757596676465937,53.893936238972984,54.5122359527924,-0.6182997138194182,0.016565782782127492,0.0,0.016565782782127492
0.02600000000000001,move_to_zero,-3.4632388300030144,-4.3475120762007995,0.8842732461977851,-90.18486325737956,-91.1392505559068,0.9543872985272372,88.73838860483283,88.874921349474,-0.1365327446411584,53.727752379705294,54.4571174129008,-0.7293650331955064,0.016062820616382634,0.0,0.016062820616382634
0.02800000000000001,move_to_zero,-3.3847689872924813,-4.3431117603341995,0.9583427730417182,-89.95643626317879,-91.0470043508907,1.0905680877119153,88.58219278546949,88.78496697563848,-0.202774190168995,53.55651687167061,54.401998873009205,-0.8454820013385955,0.015442701911123754,0.0,0.015442701911123754
0.030000000000000013,move_to_zero,-3.3088442692374174,-4.3387114444676,1.0298671752301822,-89.7268195856657,-90.9547581458746,1.2279385602089121,88.42123909149205,88.695012601803,-0.27377351031094577,53.38101111378147,54.3468803331176,-0.9658692193361347,0.014799771479868037,0.0,0.014799771479868037
0.032000000000000015,move_to_zero,-3.235584004019434,-4.334311128601,1.0987271245815657,-89.49700278099145,-90.8625119408585,1.3655091598670452,88.25621849040805,88.60505822796749,-0.34883973755944453,53.20193845339516,54.291761793225994,-1.0898233398308363,0.014201268289386811,0.0,0.014201268289386811
0.034000000000000016,move_to_zero,-3.1650574054590535,-4.3299108127344,1.1648534072753463,-89.26785640523357,-90.7702657358424,1.5024093306088275,88.0877440208893,88.51510385413198,-0.4273598332426758,53.019946731619996,54.2366432533344,-1.216696521714404,0.013664331336812375,0.0,0.013664331336812375
0.03600000000000002,move_to_zero,-3.0972623524468395,-4.3255104968678,1.2282481444209603,-89.0401156090471,-90.67801953082629,1.6379039217791842,87.91640875197173,88.4251494802965,-0.5087407283247671,52.83563942331326,54.1815247134428,-1.3458852901295373,0.013193057806411525,0.0,0.013193057806411525
0.03800000000000002,move_to_zero,-3.0322041430814655,-4.3211101810012,1.2889060379197343,-88.81438353363026,-90.5857733258102,1.7713897921799315,87.74278271355152,88.33519510646099,-0.5924123929094662,52.649551655795925,54.1264061735512,-1.476854517755278,0.012776091385697342,0.0,0.012776091385697342
0.04000000000000002,move_to_zero,-2.9698705031189236,-4.316709865134599,1.3468393620156753,-88.59117331308943,-90.4935271207941,1.9023538077046709,87.56738038410668,88.24524073262549,-0.6778603485188057,52.462207038082454,54.0712876336596,-1.6090805955771472,0.012404158617541275,0.0,0.012404158617541275
0.04200000000000002,move_to_zero,-2.9102169105451337,-4.312309549267999,1.4020926387228654,-88.37091525046947,-90.401280915778,2.030365665308537,87.39066960505635,88.15528635879,-0.7646167537336481,52.27405468463096,54.016169093768006,-1.742114409137045,0.012069594781151891,0.0,0.012069594781151891
0.044000000000000025,move_to_zero,-2.853160469816671,-4.307909233401399,1.4547487635847283,-88.1539883029337,-90.3090347107619,2.155046407828209,87.21312168892406,88.06533198495448,-0.852210296030421,52.08550841813373,53.9610505538764,-1.8755421357426698,0.011766489421335563,0.0,0.011766489421335563
0.04600000000000003,move_to_zero,-2.798644332372243,-4.3035089175348,1.504864585162557,-87.94065558257931,-90.2167885057458,2.276132923166486,87.03517831662052,87.97537761111899,-0.9401992944984698,51.89695645266835,53.905932013984796,-2.008975561316447,0.01148809740614261,0.0,0.01148809740614261
0.04800000000000003,move_to_zero,-2.7465900297089156,-4.2991086016682,1.5525185719592844,-87.73112175422048,-90.1245423007297,2.393420546509219,86.85722275494797,87.88542323728349,-1.0282004823355209,51.70875442561046,53.8508134740932,-2.142059048482743,0.011227959049849502,0.0,0.011227959049849502
0.05000000000000003,move_to_zero,-2.6969155965228744,-4.2947082858016,1.5977926892787258,-87.5255380547041,-90.03229609571359,2.5067580410094905,86.67961185487057,87.795468863448,-1.1158570085774215,51.521240416933075,53.7956949342016,-2.2744545172685235,0.01098199522124052,0.0,0.01098199522124052
0.05200000000000003,move_to_zero,-2.6495193134239226,-4.290307969935,1.6407886565110776,-87.32403636935524,-89.9400498906975,2.6160135213422535,86.50267779148233,87.70551448961248,-1.202836698130156,51.33470072324097,53.740576394310004,-2.405875671069033,0.010746308260767704,0.0,0.010746308260767704
0.054000000000000034,move_to_zero,-2.6043058154451817,-4.285907654068399,1.6816018386232177,-87.12667189963506,-89.8478036856814,2.7211317860463424,86.32671349316996,87.61556011577699,-1.288846622607025,51.149383172564825,53.6854578544184,-2.5360746818535773,0.010518676223071864,0.0,0.010518676223071864
0.056000000000000036,move_to_zero,-2.5611879562196953,-4.281507338201799,1.720319381982104,-86.93349344261831,-89.7555574806653,2.822064038046989,86.1519878610099,87.52560574194149,-1.3736178809315902,50.965500413305236,53.6303393145268,-2.6648389012215645,0.010297846612474465,0.0,0.010297846612474465
0.05800000000000004,move_to_zero,-2.520054750289021,-4.2771070223351995,1.7570522720461783,-86.7445263780522,-89.66331127564919,2.9187848975969928,85.97875670604306,87.43565136810598,-1.456894662062922,50.78326041421739,53.5752207746352,-2.7919603604178107,0.010081363439873899,0.0,0.010081363439873899
0.06000000000000004,move_to_zero,-2.480818277129266,-4.2727067064685995,1.7918884293393336,-86.55973532206761,-89.5710650706331,3.011329748565487,85.80723482716037,87.3456969942705,-1.5384621671101257,50.60286103838223,53.5201022347436,-2.917241196361367,0.009867397137447857,0.0,0.009867397137447857
0.06200000000000004,move_to_zero,-2.443380745544984,-4.268306390602,1.8249256450570157,-86.37907413611033,-89.478818865617,3.099744729506668,85.63761718277563,87.25574262043499,-1.6181254376593586,50.42447107510121,53.464983694852,-3.0405126197507926,0.00965455712405184,0.0,0.00965455712405184
0.06400000000000004,move_to_zero,-2.407630993856876,-4.2639060747354,1.8562750808785236,-86.20248030405713,-89.38657266060089,3.1840923565437578,85.47007389471057,87.16578824659948,-1.6957143518889097,50.24822072407754,53.4098651549604,-3.161644430882859,0.009443172614004625,0.0,0.009443172614004625
0.06600000000000004,move_to_zero,-2.3734774124188895,-4.2595057588688,1.8860283464499101,-86.02987439311903,-89.29432645558481,3.2644520624657787,85.30476839113395,87.075833872764,-1.7710654816300462,50.0742554277953,53.354746615068805,-3.2804911872735047,0.009233420846076701,0.0,0.009233420846076701
0.06800000000000005,move_to_zero,-2.340809099370767,-4.2551054430022,1.9142963436314329,-85.86118891567018,-89.2020802505687,3.340891334898515,85.14184549833065,86.98587949892848,-1.84403400059783,49.9026970090192,53.299628075177196,-3.396931066157997,0.009025332067288241,0.0,0.009025332067288241
0.07000000000000005,move_to_zero,-2.30952561897955,-4.250705127135599,1.9411795081560488,-85.6963372548738,-89.1098340455526,3.4134967906788063,84.98139671352025,86.89592512509299,-1.9145284115727321,49.73365686026824,53.2445095352856,-3.510852675017361,0.008815954625911572,0.0,0.008815954625911572
0.07200000000000005,move_to_zero,-2.279544393123523,-4.246304811268999,1.9667604181454759,-85.53522751197436,-89.01758784053649,3.4823603285621374,84.82349222194411,86.80597075125749,-1.9824785293133829,49.5672214967492,53.189390995394,-3.6221694986448014,0.008604637248906448,0.0,0.008604637248906448
0.07400000000000005,move_to_zero,-2.2507996906516334,-4.241904495402399,1.9911048047507656,-85.37774630137196,-88.9253416355204,3.54759533414844,84.66819361321286,86.71601637742198,-2.0478227642091156,49.403455294904965,53.1342724555024,-3.7308171605974323,0.008375941748237139,0.0,0.008375941748237139
0.07600000000000005,move_to_zero,-2.223221306320826,-4.2375041795358,2.014282873214974,-85.2237633957528,-88.83309543050429,3.609332034751489,84.51557124369894,86.62606200358648,-2.11049075988754,49.2423953409572,53.0791539156108,-3.836758574653601,0.008117842708719774,0.0,0.008117842708719774
0.07800000000000006,move_to_zero,-2.196762773485405,-4.2331038636692,2.036341090183795,-85.07314027918375,-88.74084922548819,3.667708946304444,84.36566299478986,86.53610762975099,-2.170444634961129,49.08408947806606,53.0240353757192,-3.939945897653139,0.007841641156513845,0.0,0.007841641156513845
0.08000000000000006,move_to_zero,-2.1713838079869743,-4.2287035478026,2.0573197398156258,-84.92572723195815,-88.6486030204721,3.722875788513946,84.21850141405405,86.44615325591549,-2.2276518418614444,48.928567329295916,52.9689168358276,-4.040349506531683,0.007529733031205284,0.0,0.007529733031205284
0.08200000000000006,move_to_zero,-2.1470115362580757,-4.224303231936,2.0772916956779244,-84.78138940747388,-88.556356815456,3.7749674079821176,84.07410903511875,86.35619888207998,-2.2820898469612274,48.77584433691949,52.913798295936,-4.137953959016507,0.007215640045363533,0.0,0.007215640045363533
0.08400000000000006,move_to_zero,-2.123621300276776,-4.219902916069399,2.0962816157926234,-84.63999724669331,-88.4641106104399,3.8241133637465907,83.9324728859132,86.26624450824448,-2.333771622331284,48.62588399422854,52.858679756044396,-4.232795761815858,0.006896337189465001,0.0,0.006896337189465001
0.08600000000000006,move_to_zero,-2.1011516802276025,-4.215502600202799,2.114350919975197,-84.5014303353938,-88.37186440542379,3.8704340700299866,83.79357957588867,86.17629013440899,-2.3827105585203157,48.47871133884234,52.8035612161528,-4.324849877310463,0.006581269762331231,0.0,0.006581269762331231
0.08800000000000006,move_to_zero,-2.0795471585016556,-4.211102284336199,2.1315551258345438,-84.36555133235154,-88.2796182004077,3.9140668680561532,83.65742689528916,86.08633576057349,-2.4289088652843276,48.33433063131471,52.7484426762612,-4.414112044946492,0.0062772194710133955,0.0,0.0062772194710133955
0.09000000000000007,move_to_zero,-2.05874791916678,-4.206701968469599,2.1479540493028195,-84.23223524025695,-88.18737199539159,3.9551367551346317,83.52400764818164,85.996381386738,-2.4723737385563567,48.19271040005738,52.693324136369604,-4.500613736312225,0.005981807361308365,0.0,0.005981807361308365
0.09200000000000007,move_to_zero,-2.038725552691113,-4.2023016526029995,2.1635760999118863,-84.10132415889625,-88.0951257903755,3.9938016314792577,83.39330545429742,85.90642701290248,-2.5131215586050644,48.053825609182496,52.638205596477995,-4.584379987295499,0.005701357145817349,0.0,0.005701357145817349
0.09400000000000007,move_to_zero,-2.0194683314679813,-4.1979013367363995,2.178433005268418,-83.9726869888528,-88.0028795853594,4.030192596506595,83.26527635689995,85.81647263906699,-2.551196282167041,47.91765600533804,52.5830870565864,-4.665431051248362,0.00541909860920542,0.0,0.00541909860920542
0.09600000000000007,move_to_zero,-2.0009244486910203,-4.1935010208698,2.1925765721787793,-83.84618351458192,-87.9106333803433,4.064449865761375,83.13987316431816,85.72651826523149,-2.58664510091333,47.78417354150114,52.5279685166948,-4.743794975193659,0.005149687369761914,0.0,0.005149687369761914
0.09800000000000007,move_to_zero,-1.9830494874351663,-4.1891007050032,2.2060512175680334,-83.72172469872213,-87.81838717532719,4.096662476605061,83.01705951490351,85.63656389139598,-2.619504376492472,47.65335973332769,52.4728499768032,-4.8194902434755065,0.004891628557086242,0.0,0.004891628557086242
0.10000000000000007,move_to_zero,-1.9657951515073782,-4.184700389136599,2.2189052376292207,-83.59918938773922,-87.72614097031109,4.126951582571877,82.89676719126811,85.5466095175605,-2.6498423262923865,47.52517322667687,52.4177314369116,-4.892558210234732,0.0046422347027906975,0.0,0.0046422347027906975
0.10200000000000008,move_to_zero,-1.9491114165395371,-4.180300073269999,2.2311886567304615,-83.47846485120282,-87.633894765295,4.155429914092181,82.77891958673314,85.45665514372499,-2.6777355569918484,47.399562692316024,52.36261289702,-4.9630502047039755,0.004401676576460601,0.0,0.004401676576460601
0.10400000000000008,move_to_zero,-1.9329607271660891,-4.1758997574034,2.2429390302373107,-83.35944666531412,-87.5416485602789,4.182201894964777,82.66342924451737,85.36670076988948,-2.7032715253721022,47.27648312951907,52.3074943571284,-5.031011227609326,0.004168810386620633,0.0,0.004168810386620633
0.10600000000000008,move_to_zero,-1.917312788278495,-4.1714994415368,2.254186653258305,-83.24203339546229,-87.4494023552628,4.207368959800519,82.55022224573193,85.276746396054,-2.7265241503220636,47.15586202118879,52.252375817236796,-5.096513796048008,0.003940892223000621,0.0,0.003940892223000621
0.10800000000000008,move_to_zero,-1.9021232055324875,-4.1670991256702,2.2649759201377124,-83.12613724902722,-87.3571561502467,4.231018901219471,82.43922470321328,85.18679202221848,-2.7475673190051992,47.03767334668881,52.1972572773452,-5.159583930656389,0.003715576189594693,0.0,0.003715576189594693
0.11000000000000008,move_to_zero,-1.8873629001978964,-4.1626988098036,2.2753359096057038,-83.01166017282777,-87.2649099452306,4.253249772402825,82.33033980421571,85.09683764838299,-2.766497844167276,46.92187107698598,52.1421387374536,-5.22026766046762,0.003494603334204407,0.0,0.003494603334204407
0.11200000000000009,move_to_zero,-1.873010631930102,-4.158298493937,2.285287862006898,-82.89852496735743,-87.17266374021449,4.274138772857057,82.2234885254556,85.00688327454749,-2.7833947490918973,46.80837957650864,52.087020197562,-5.278640621053356,0.0032744026613548026,0.0,0.0032744026613548026
0.11400000000000009,move_to_zero,-1.8590557482457881,-4.153898178070399,2.294842429824611,-82.78662799036123,-87.0804175351984,4.293789544837168,82.11860091460095,84.91692890071198,-2.7983279861110333,46.69714440347389,52.031901657670396,-5.334757254196504,0.003054746788408347,0.0,0.003054746788408347
0.11600000000000009,move_to_zero,-1.8454758591086966,-4.149497862203799,2.3040220030951026,-82.67589354834197,-86.9881713301823,4.312277781840322,82.01557031159503,84.82697452687648,-2.8114042152814562,46.58810907190637,51.976783117778794,-5.3886740458724205,0.0028368841077234456,0.0,0.0028368841077234456
0.11800000000000009,move_to_zero,-1.8322603755958162,-4.145097546337199,2.312837170741383,-82.56625426822619,-86.8959251251662,4.329670856940012,81.91430126271983,84.73702015304099,-2.8227188903211555,46.48121863524916,51.9216645778872,-5.440445942638043,0.0026191340623970974,0.0,0.0026191340623970974
0.12000000000000009,move_to_zero,-1.819379782677689,-4.140697230470599,2.3213174477929104,-82.45763800652618,-86.80367892015009,4.346040913623909,81.8147035868489,84.64706577920549,-2.832362192356584,46.3764146991506,51.8665460379956,-5.490131338844996,0.002400366690988424,0.0,0.002400366690988424
0.1220000000000001,move_to_zero,-1.8067856168550886,-4.136296914603999,2.329511297748911,-82.34996320261565,-86.711432715134,4.36146951251834,81.7166889261503,84.55711140536998,-2.840422479219683,46.27360881569221,51.811427498104,-5.537818682411796,0.0021799226677162347,0.0,0.0021799226677162347
0.1240000000000001,move_to_zero,-1.7944841452331004,-4.1318965987373995,2.337412453504299,-82.24315146237858,-86.6191865101179,4.376035047739322,81.62017558885094,84.46715703153448,-2.8469814426835427,46.17273724362987,51.7563089582124,-5.583571714582533,0.0019222857918311021,0.0,0.0019222857918311021
0.12600000000000008,move_to_zero,-1.782466741204884,-4.1274962828707995,2.3450295416659155,-82.13713507102743,-86.52694030510179,4.389805234074359,81.52510120704571,84.37720265769899,-2.8521014506532794,46.073740515694844,51.70119041832079,-5.627449902625948,0.001622830777625316,0.0,0.001622830777625316
0.12800000000000009,move_to_zero,-1.7707150186005367,-4.1230959670042,2.352380948403663,-82.03185911482323,-86.4346941000857,4.402834985262459,81.43136040749478,84.28724828386348,-2.8558878763686977,45.97656052251341,51.6460718784292,-5.6695113559157875,0.0012785144677403388,0.0,0.0012785144677403388
0.1300000000000001,move_to_zero,-1.759196206723484,-4.118695651137599,2.359499444414115,-81.92725480488974,-86.3424478950696,4.415193090179855,81.33885714171498,84.197293910028,-2.8584367683130125,45.88114374947304,51.590953338537595,-5.709809589064555,0.0009094851352384023,0.0,0.0009094851352384023
0.1320000000000001,move_to_zero,-1.7479025409189484,-4.114295335270999,2.36639279435205,-81.82329257796012,-86.2502016900535,4.426909112093384,81.24748780031148,84.10733953619248,-2.8598517358810085,45.78744177062107,51.535834798646,-5.748393028024928,0.0005321355984661299,0.0,0.0005321355984661299
0.1340000000000001,move_to_zero,-1.7368067669700138,-4.1098950194044,2.373088252434386,-81.71995016714735,-86.15795548503739,4.438005317890045,81.15716104319156,84.01738516235697,-2.8602241191654088,45.69539516752992,51.4807162587544,-5.785321091224482,0.00016808271639645142,0.0,0.00016808271639645142
0.1360000000000001,move_to_zero,-1.725885578547406,-4.1054947035378,2.3796091249903935,-81.61717616246537,-86.0657092800213,4.448533117555925,81.06778139591871,83.92743078852149,-2.859649392602776,45.604927567776436,51.425597718862804,-5.820670151086368,-0.00016729051509998324,0.0,-0.00016729051509998324
0.1380000000000001,move_to_zero,-1.7151607368534991,-4.1010943876712,2.3859336508177007,-81.51490950968136,-85.97346307500518,4.458553565323825,80.97927613781835,83.83747641468598,-2.8582002768676347,45.51599704842276,51.370479178971195,-5.854482130548433,-0.00047998745205414696,0.0,-0.00047998745205414696
0.1400000000000001,move_to_zero,-1.704636085505316,-4.0966940718046,2.392057986299284,-81.41307703423757,-85.88121686998909,4.468139835751515,80.89156344647695,83.74752204085048,-2.855958594373533,45.42856454021771,51.31536063907959,-5.886796098861886,-0.0007810731146656782,0.0,-0.0007810731146656782
0.1420000000000001,move_to_zero,-1.6943201956313458,-4.092293755938,2.397973560306654,-81.31165586355125,-85.788970664973,4.477314801421741,80.80458465521815,83.65756766701499,-2.8529830117968373,45.3425466488661,51.260242099188,-5.917695450321901,-0.0010654888191584592,0.0,-0.0010654888191584592
0.1440000000000001,move_to_zero,-1.6842086322519185,-4.087893440071399,2.403684807819481,-81.21062472769634,-85.6967244599569,4.486099732260556,80.71826313154841,83.56761329317948,-2.8493501616310652,45.25788263446161,51.205123559296396,-5.947240924834787,-0.001337616770850594,0.0,-0.001337616770850594
0.1460000000000001,move_to_zero,-1.6742853925122698,-4.083493124204799,2.409207731692529,-81.109970067635,-85.6044782549408,4.494508187305797,80.63251525311112,83.47765891934398,-2.8451436662328575,45.17451374048008,51.1500050194048,-5.975491278924721,-0.001598859772044354,0.0,-0.001598859772044354
0.1480000000000001,move_to_zero,-1.6645318431499485,-4.079092808338199,2.414560965188251,-81.00967360272534,-85.51223204992469,4.502558447199348,80.54726383051326,83.38770454550848,-2.840440714995225,45.092395469887435,51.0948864795132,-6.002491009625764,-0.0018528957807443232,0.0,-0.0018528957807443232
0.1500000000000001,move_to_zero,-1.6549429773199527,-4.074692492471599,2.4197495151516466,-80.90970324502119,-85.4199858449086,4.510282599887404,80.46244491154363,83.29775017167299,-2.83530526012936,45.011457817524466,51.0397679396216,-6.028310122097132,-0.0021005205820643787,0.0,-0.0021005205820643787
0.1520000000000001,move_to_zero,-1.6454937025398666,-4.070292176604999,2.424798474065133,-80.81003541474767,-85.32773963989249,4.517704225144811,80.37798657960911,83.20779579783748,-2.8298092182283625,44.93164409194275,50.984649399729996,-6.053005307787245,-0.0023443530694345605,0.0,-0.0023443530694345605
0.1540000000000001,move_to_zero,-1.636184647304929,-4.065891860738399,2.4297072134334705,-80.71064793421856,-85.23549343487639,4.5248455006578325,80.29381211423852,83.11784142400198,-2.8240293097634606,44.852910899824025,50.929530859838394,-6.076619960014369,-0.0026079505456701687,0.0,-0.0026079505456701687
0.1560000000000001,move_to_zero,-1.6270029068137113,-4.061491544871799,2.434488638058088,-80.61150377797833,-85.1432472298603,4.531743451881965,80.20985210977688,83.02788705016648,-2.8180349403896088,44.775188195730244,50.8744123199468,-6.099224124216555,-0.002899374349618654,0.0,-0.002899374349618654
0.1580000000000001,move_to_zero,-1.6179310198581172,-4.0570912290051995,2.439160209147082,-80.51259909402192,-85.0510010248442,4.538401930822275,80.12605210203724,82.93793267633099,-2.8118805742937525,44.69843420558294,50.8192937800552,-6.120859574472256,-0.003220384110176869,0.0,-0.003220384110176869
0.16000000000000011,move_to_zero,-1.6089735061946957,-4.052690913138599,2.443717406943903,-80.41393460683943,-84.95875481982809,4.544820212988654,80.04234623355968,82.84797830249549,-2.8056320689358074,44.622627952259535,50.7641752401636,-6.141547287904068,-0.0035612374042453664,0.0,-0.0035612374042453664
0.16200000000000012,move_to_zero,-1.6001194536047545,-4.048290597272,2.448171143667245,-80.31549230470013,-84.86650861481199,4.551016310111862,79.95869512230232,82.75802392865998,-2.7993288063576642,44.54774550889825,50.709056700271994,-6.161311191373741,-0.003923529423426582,0.0,-0.003923529423426582
0.16400000000000012,move_to_zero,-1.5913732745760623,-4.0438902814054,2.4525170068293374,-80.21727759258711,-84.7742624097959,4.556984817208786,79.87507322366227,82.66806955482448,-2.7929963311622146,44.473745246248384,50.6539381603804,-6.180192914132014,-0.004304045315076828,0.0,-0.004304045315076828
0.16600000000000012,move_to_zero,-1.5827280733230022,-4.0394899655388,2.4567618922157974,-80.11925103421618,-84.68201620477979,4.562765170563608,79.79140918239902,82.57811518098899,-2.786705998589966,44.40058399875587,50.5988196204888,-6.198235621732927,-0.0046996388718972435,0.0,-0.0046996388718972435
0.16800000000000012,move_to_zero,-1.574187662001189,-4.0350896496722,2.4609019876710105,-80.02140322817276,-84.5897699997637,4.568366771590945,79.70765688323287,82.48816080715348,-2.7805039239206053,44.328196160343204,50.543701080597195,-6.215504920253991,-0.00506761629519068,0.0,-0.00506761629519068
0.17000000000000012,move_to_zero,-1.5657444495784987,-4.0306893338056,2.4649448842271013,-79.92373374723637,-84.4975237947476,4.573790047511224,79.62376907693502,82.398206433318,-2.7744373563829754,44.25652880544995,50.4885825407056,-6.232053735255647,-0.005406372139219019,0.0,-0.005406372139219019
0.17200000000000013,move_to_zero,-1.5573872723386908,-4.026289017939,2.4689017456003093,-79.82624739082328,-84.4052775897315,4.579030198908214,79.53972511675131,82.30825205948248,-2.768526942731171,44.185535136657826,50.433464000814,-6.247928864156172,-0.0057192615005142115,0.0,-0.0057192615005142115
0.17400000000000013,move_to_zero,-1.5491073205461452,-4.021888702072399,2.4727813815262536,-79.72894229496586,-84.31303138471539,4.584089089749526,79.45550622190032,82.21829768564697,-2.7627914637466517,44.11516153707948,50.3783454609224,-6.263183923842917,-0.006012457684631672,0.0,-0.006012457684631672
0.17600000000000013,move_to_zero,-1.5409098529737824,-4.017488386205799,2.4765785332320167,-79.63179668696904,-84.22078517969929,4.588988492730252,79.37109262538146,82.12834331181149,-2.7572506864300266,44.045369725268905,50.323226921030795,-6.277857195761889,-0.0062902117224126605,0.0,-0.0062902117224126605
0.17800000000000013,move_to_zero,-1.5327967658819677,-4.013088070339199,2.4802913044572312,-79.5348029020721,-84.12853897468318,4.59373607261108,79.28646208527329,82.03838893797598,-2.751926852702695,43.976123282158596,50.2681083811392,-6.291985098980604,-0.0065557993364405084,0.0,-0.0065557993364405084
0.18000000000000013,move_to_zero,-1.5247544165166156,-4.008687754472599,2.4839333379559836,-79.43796949076192,-84.0362927696671,4.598323278905184,79.20159549652286,81.94843456414048,-2.7468390676176284,43.90737955448622,50.2129898412476,-6.305610286761379,-0.006834378007139702,0.0,-0.006834378007139702
0.18200000000000013,move_to_zero,-1.516770428934629,-4.004287438605999,2.48751700967137,-79.34128644121189,-83.944046564651,4.602760123439111,79.11647692076721,81.85848019030499,-2.7420032695377756,43.83909620520838,50.157871301355996,-6.318775096147618,-0.007136452544076509,0.0,-0.007136452544076509
0.18400000000000014,move_to_zero,-1.5088446168913126,-3.9998871227393993,2.4910425058480867,-79.24474040609417,-83.8518003596349,4.607059953540727,79.03108188011238,81.76852581646948,-2.7374439363570957,43.77124292418397,50.1027527614644,-6.331509837280429,-0.0074484540699830135,0.0,-0.0074484540699830135
0.18600000000000014,move_to_zero,-1.5009747193774696,-3.995486806872799,2.4945120874953295,-79.14831250376346,-83.7595541546188,4.611241650855334,78.94538235568425,81.67857144263398,-2.7331890869497357,43.70379418240229,50.04763422157279,-6.343840039170502,-0.0077580522955652195,0.0,-0.0077580522955652195
0.18800000000000014,move_to_zero,-1.4931468837501125,-3.991086491006199,2.4979396072560864,-79.0520051439065,-83.66730794960269,4.615302805696189,78.8593723922878,81.58861706879848,-2.729244676510689,43.636727050110814,49.9925156816812,-6.355788631570384,-0.008054107700309761,0.0,-0.008054107700309761
0.19000000000000014,move_to_zero,-1.48537684491485,-3.986686175139599,2.501309330224749,-78.95580458464616,-83.57506174458659,4.619257159940432,78.77306365875016,81.49866269496299,-2.7255990362128273,43.570023227317705,49.937397141789596,-6.367373914471891,-0.008335499928930519,0.0,-0.008335499928930519
0.19200000000000014,move_to_zero,-1.4776416713589537,-3.9822858592729995,2.504644187914046,-78.85970424373684,-83.48281553957048,4.623111295833638,78.6864231273382,81.40870832112748,-2.7222851937892756,43.50365861580651,49.882278601897994,-6.378619986091486,-0.008627078284593359,0.0,-0.008627078284593359
0.19400000000000014,move_to_zero,-1.4699455631463307,-3.9778855434063995,2.507939980260069,-78.763680338406,-83.3905693345544,4.626888996148395,78.59944708990865,81.31875394729198,-2.71930685738333,43.43760594595059,49.8271600620064,-6.3895541160558125,-0.00890412371070637,0.0,-0.00890412371070637
0.19600000000000015,move_to_zero,-1.4622840144782383,-3.9734852275397996,2.511201213061561,-78.66773276820132,-83.29832312953829,4.630590361336971,78.5121248593149,81.22879957345648,-2.7166747141415897,43.3718259346474,49.7720415221148,-6.4002155874674,-0.009168988584512809,0.0,-0.009168988584512809
0.19800000000000015,move_to_zero,-1.4546502937246157,-3.9690849116731997,2.514434617948584,-78.57184446291203,-83.2060769245222,4.634232461610168,78.42445191915242,81.13884519962097,-2.714393280468556,43.30629069883389,49.716922982223196,-6.410632283389305,-0.009423216835427514,0.0,-0.009423216835427514
0.20000000000000015,move_to_zero,-1.447025509623014,-3.9646845958065993,2.5176590861835852,-78.47600999895786,-83.1138307195061,4.637820720548234,78.33643154240093,81.04889082578549,-2.712459283384561,43.24098010027093,49.661804442331594,-6.420824342060662,-0.009670868822243682,0.0,-0.009670868822243682
0.20200000000000015,move_to_zero,-1.439402073962163,-3.9602842799399993,2.5208822059778364,-78.38023123856577,-83.02158451448999,4.641353275924217,78.24807796192205,80.95893645194998,-2.710858490027931,43.175843382921144,49.60668590244,-6.430842519518855,-0.009917956038018781,0.0,-0.009917956038018781
0.20400000000000015,move_to_zero,-1.4317945547271198,-3.9558839640733994,2.5240894093462796,-78.28454138287225,-82.92933830947389,4.644796926601643,78.15939738467638,80.86898207811447,-2.7095846934380887,43.110874406322985,49.5515673625484,-6.440692956225412,-0.010161857878015835,0.0,-0.010161857878015835
0.20600000000000016,move_to_zero,-1.4242022677483066,-3.9514836482067994,2.5272813804584926,-78.18892266906758,-82.8370921044578,4.648169435390216,78.07036376005846,80.77902770427899,-2.7086639442205325,43.04605241226615,49.496448822656795,-6.4503964103906455,-0.010401486686071177,0.0,-0.010401486686071177
0.20800000000000016,move_to_zero,-1.4166005148479284,-3.947083332340199,2.5304828174922704,-78.0933580151242,-82.7448458994417,4.651487884317504,77.98099209744261,80.68907333044348,-2.7080812330008683,42.98136151700911,49.4413302827652,-6.459968765756088,-0.010636935313976196,0.0,-0.010636935313976196
0.21000000000000016,move_to_zero,-1.4089950164614153,-3.942683016473599,2.5336880000121837,-77.997837586519,-82.65259969442559,4.654762107906592,77.89131869157085,80.59911895660798,-2.707800265037136,42.91677844900118,49.38621174287359,-6.469433293872413,-0.0108696403250415,0.0,-0.0108696403250415
0.21200000000000016,move_to_zero,-1.401370951064819,-3.938282700606999,2.5369117495421802,-77.90236543791467,-82.5603534894095,4.657988051494826,77.80137365247023,80.50916458277248,-2.7077909303022523,42.852270301869794,49.331093202982,-6.478822901112203,-0.011103869235574505,0.0,-0.011103869235574505
0.21400000000000016,move_to_zero,-1.3937251381324696,-3.933882384740399,2.5401572466079294,-77.8069263146172,-82.46810728439338,4.661180969776183,77.7111471008417,80.41921020893697,-2.708063108095274,42.78781001296883,49.275974663090395,-6.488164650121561,-0.01133860870733579,0.0,-0.01133860870733579
0.21600000000000016,move_to_zero,-1.3860880098564383,-3.929482068873799,2.5433940590173605,-77.71151005666007,-82.37586107937729,4.664351022717213,77.6206547633876,80.32925583510148,-2.708601071713872,42.723392311511546,49.2208561231988,-6.497463811687254,-0.01158575251065105,0.0,-0.01158575251065105
0.21800000000000017,move_to_zero,-1.3784650708999604,-3.925081753007199,2.5466166821072385,-77.61610526121483,-82.28361487436119,4.667509613146365,77.52989575537484,80.23930146126598,-2.709405705891143,42.658993009747746,49.1657375833072,-6.506744573559452,-0.01184102501615514,0.0,-0.01184102501615514
0.22000000000000017,move_to_zero,-1.3708477079473058,-3.9206814371406,2.5498337291932938,-77.52071469612238,-82.1913686693451,4.670653973222713,77.43887025257794,80.14934708743048,-2.7104768348525425,42.5946043279708,49.110619043415596,-6.516014715444797,-0.012108911891658762,0.0,-0.012108911891658762
0.22200000000000017,move_to_zero,-1.3632358461068677,-3.9162811212739994,2.5530452751671318,-77.42533180612325,-82.099122464329,4.673790658205746,77.34758269289635,80.05939271359497,-2.7118100206986213,42.53021078124109,49.055500503523994,-6.525289722282906,-0.01236783643407061,0.0,-0.01236783643407061
0.22400000000000017,move_to_zero,-1.3556044772855311,-3.9118808054073995,2.5562763281218683,-77.32996502618415,-82.00687625931289,4.676911233128735,77.25604799560843,79.96943833975948,-2.713390344151051,42.46582763719114,49.00038196363239,-6.534554326441253,-0.01262197318734709,0.0,-0.01262197318734709
0.22600000000000017,move_to_zero,-1.3479612596823616,-3.9074804895407995,2.559519229858438,-77.23461402561958,-81.9146300542968,4.6800160286772154,77.16427004208839,79.87948396592398,-2.7152139238355915,42.401421147267435,48.9452634237408,-6.543842276473363,-0.012896721134052979,0.0,-0.012896721134052979
0.22800000000000017,move_to_zero,-1.340324631908518,-3.9030801736741996,2.5627555417656813,-77.13928913704302,-81.82238384928068,4.683094712237661,77.07226481836489,79.78952959208848,-2.717264773723599,42.33699429797808,48.890144883849196,-6.553150585871116,-0.013189373811146357,0.0,-0.013189373811146357
0.23000000000000018,move_to_zero,-1.3327107646120404,-3.898679857807599,2.5659690931955588,-77.04400126908723,-81.73013764426459,4.686136375177355,76.98003216925241,79.69957521825299,-2.7195430490005776,42.27255861260058,48.8350263439576,-6.5624677313570245,-0.013490661871697557,0.0,-0.013490661871697557
0.23200000000000018,move_to_zero,-1.3251245493879156,-3.8942795419409992,2.5691549925530834,-76.94875897969018,-81.63789143924849,4.689132459558309,76.88759643722021,79.60962084441748,-2.7220244071972672,42.208081511781444,48.77990780406599,-6.571826292284548,-0.013808586890099903,0.0,-0.013808586890099903
0.23400000000000018,move_to_zero,-1.3175290479550303,-3.8898792260743993,2.572350178119369,-76.85355262273097,-81.5456452342324,4.6920926115014225,76.79496707403806,79.51966647058198,-2.724699396543926,42.14356892089414,48.72478926417439,-6.5812203432802505,-0.014106645992750605,0.0,-0.014106645992750605
0.23600000000000018,move_to_zero,-1.309936833888525,-3.8854789102077993,2.575542076319274,-76.75837090191432,-81.45339902921629,4.695028127301967,76.7021608494561,79.42971209674648,-2.7275512472903785,42.079024961761476,48.669670724282796,-6.590645762521319,-0.014389349654540728,0.0,-0.014389349654540728
0.23800000000000018,move_to_zero,-1.3023286465856825,-3.881078594341199,2.5787499477555165,-76.66321277985804,-81.36115282420019,4.697940044342147,76.60919937020448,79.33975772291097,-2.7305583527064954,42.01441264693928,48.614552184391194,-6.600139537451916,-0.014658660018320856,0.0,-0.014658660018320856
0.24000000000000019,move_to_zero,-1.2947079239306345,-3.876678278474599,2.5819703545439645,-76.56807475332003,-81.2689066191841,4.70083186586406,76.51608963797601,79.24980334907549,-2.733713711099483,41.94970470998712,48.5594336444996,-6.609728934512482,-0.01491672852697748,0.0,-0.01491672852697748
0.2420000000000002,move_to_zero,-1.2870883757106846,-3.872277962607999,2.5851895868973145,-76.4729721777291,-81.17666041416798,4.703688236438879,76.42284044687214,79.15984897523998,-2.737008528367838,41.88486779820083,48.504315104608,-6.619447306407167,-0.015164080652386768,0.0,-0.015164080652386768
0.2440000000000002,move_to_zero,-1.279460577179197,-3.867877646741399,2.588417069562202,-76.37788209240784,-81.08441420915189,4.706532116744043,76.32946121213895,79.06989460140447,-2.740433389265519,41.81987868776926,48.449196564716395,-6.629317876947134,-0.015404563483814587,0.0,-0.015404563483814587
0.2460000000000002,move_to_zero,-1.2718401640591657,-3.8634773308747987,2.591637166815633,-76.28281044633208,-80.99216800413579,4.709357557803713,76.23593616053557,78.97994022756899,-2.7440040670334156,41.754751722435365,48.39407802482479,-6.639326302389428,-0.01564638867433524,0.0,-0.01564638867433524
0.2480000000000002,move_to_zero,-1.2642338153913946,-3.8590770150081988,2.594843199616804,-76.18777016346765,-80.8999217991197,4.712151635652049,76.1422765275384,78.88998585373348,-2.7477093261950785,41.68948522743995,48.33895948493319,-6.649474257493239,-0.01590073467272417,0.0,-0.01590073467272417
0.25000000000000017,move_to_zero,-1.2566455551296407,-3.8546766991415997,2.598031144011959,-76.09274454101103,-80.80767559410359,4.714931053092556,76.04851444503008,78.80003147989798,-2.751517034867902,41.62410380029513,48.2838409450416,-6.659737144746465,-0.016152897868617073,0.0,-0.016152897868617073
0.25200000000000017,move_to_zero,-1.2490578856224683,-3.8502763832749993,2.601218497652531,-75.99774349801591,-80.71542938908749,4.717685891071582,75.95465806428709,78.71007710606249,-2.755419041775397,41.55860814330123,48.228722405149995,-6.6701142618487665,-0.016402521490986026,0.0,-0.016402521490986026
0.25400000000000017,move_to_zero,-1.2414788779419414,-3.8458760674083994,2.604397189466458,-75.90279077295689,-80.62318318407138,4.720392411114489,75.86071015636303,78.62012273222697,-2.759412575863948,41.49303868384722,48.1736038652584,-6.680565181411183,-0.016652181587465936,0.0,-0.016652181587465936
0.25600000000000017,move_to_zero,-1.233906279679549,-3.8414757515417994,2.6075694718622504,-75.80787957000352,-80.53093697905528,4.723057409051762,75.76666440854282,78.53016835839148,-2.763503949848655,41.42739447910637,48.11848532536679,-6.691090846260423,-0.01689586668959881,0.0,-0.01689586668959881
0.2580000000000002,move_to_zero,-1.2263442643162394,-3.8370754356751995,2.6107311713589603,-75.71299265667274,-80.43869077403919,4.7256981173664485,75.67251957695778,78.44021398455598,-2.7676944075981993,41.36167856453011,48.063366785475196,-6.701688220945087,-0.017137216161107315,0.0,-0.017137216161107315
0.2600000000000002,move_to_zero,-1.2188251467927216,-3.832675119808599,2.6138499730158777,-75.61814736545509,-80.34644456902309,4.728297203568005,75.57827885182527,78.35025961072049,-2.771980758895211,41.29590320583131,48.008248245583594,-6.712345039752286,-0.017374524978337542,0.0,-0.017374524978337542
0.2620000000000002,move_to_zero,-1.2113683141679594,-3.828274803941999,2.6169064897740397,-75.52333826106354,-80.254198364007,4.730860102943453,75.48394781713067,78.26030523688497,-2.776357419754305,41.23005880417988,47.95312970569199,-6.723070901512109,-0.017608023972341687,0.0,-0.017608023972341687
0.2640000000000002,move_to_zero,-1.203995239071805,-3.823874488075399,2.6198792490035943,-75.42857531617253,-80.16195215899089,4.733376842818359,75.38951813419276,78.17035086304948,-2.7808327288567227,41.16413853302466,47.8980111658004,-6.733872632775736,-0.017838204644000245,0.0,-0.017838204644000245
0.2660000000000002,move_to_zero,-1.196670435721059,-3.8194741722087993,2.6228037364877403,-75.33386474842303,-80.06970595397479,4.735841205551765,75.2949817848041,78.08039648921398,-2.785414704409888,41.09813472614043,47.842892625908796,-6.744757899768366,-0.018070161231915856,0.0,-0.018070161231915856
0.2680000000000002,move_to_zero,-1.1893822543859074,-3.815073856342199,2.6256916019562917,-75.23921822402149,-79.97745974895868,4.7382415249371945,75.20032533231661,77.99044211537847,-2.790116783061862,41.032063096275074,47.787774086017194,-6.75571098974212,-0.018307531149545087,0.0,-0.018307531149545087
0.2700000000000002,move_to_zero,-1.1821260708535417,-3.810673540475599,2.628547469622057,-75.14463005032869,-79.8852135439426,4.7405834936139115,75.10555992634477,77.90048774154299,-2.7949278151982213,40.965943868454076,47.73265554612559,-6.766711677671516,-0.018543616680496894,0.0,-0.018543616680496894
0.2720000000000002,move_to_zero,-1.1748938924857104,-3.806273224608999,2.631379332123289,-75.05012417014278,-79.79296733892649,4.742843168783708,75.01069748531268,77.81053336770748,-2.7998358823948024,40.89977364687824,47.677537006234,-6.77776335935576,-0.018777319433619006,0.0,-0.018777319433619006
0.2740000000000002,move_to_zero,-1.167662407293836,-3.801872908742399,2.634210501448563,-74.95569707277231,-79.70072113391039,4.745024061138082,74.91573544611718,77.72057899387197,-2.8048435477547855,40.83352794869484,47.622418466342396,-6.788890517647559,-0.019015616136581252,0.0,-0.019015616136581252
0.2760000000000002,move_to_zero,-1.1604467033884969,-3.7974725928757986,2.637025889487302,-74.86134709112596,-79.60847492889428,4.747127837768318,74.82067677043004,77.63062462003649,-2.809947849606445,40.767218525484374,47.567299926450794,-6.80008140096642,-0.019269534986344962,0.0,-0.019269534986344962
0.2780000000000002,move_to_zero,-1.1532347570481265,-3.7930722770091996,2.6398375199610733,-74.76703660045068,-79.51622872387819,4.749192123427505,74.72551803488469,77.54067024620097,-2.8151522113162883,40.70084034049646,47.5121813865592,-6.811341046062736,-0.019546048637173633,0.0,-0.019546048637173633
0.2800000000000002,move_to_zero,-1.1460471420412228,-3.7886719611425996,2.6426248191013766,-74.67277765565251,-79.42398251886209,4.75120486320958,74.63027287934945,77.45071587236548,-2.82044299301603,40.63438139094319,47.45706284666759,-6.8226814557244,-0.019848502447805557,0.0,-0.019848502447805557
0.2820000000000002,move_to_zero,-1.1389129290214934,-3.7842716452759992,2.645358716254506,-74.5785941023471,-79.331736313846,4.753142211498897,74.53494924856378,77.36076149852998,-2.825812249966205,40.56784876609977,47.401944306775995,-6.834095540676223,-0.020163386113746646,0.0,-0.020163386113746646
0.2840000000000002,move_to_zero,-1.131831317020468,-3.7798713294093993,2.6480400123889316,-74.4844754225381,-79.2394901088299,4.755014686291801,74.43956411743257,77.27080712469449,-2.831243007261918,40.501244070426516,47.34682576688439,-6.845581696457877,-0.02049035880778985,0.0,-0.02049035880778985
0.2860000000000002,move_to_zero,-1.1248028202679987,-3.7754710135427993,2.6506681932748006,-74.390439168477,-79.14724390381379,4.756804735336786,74.34411736888707,77.18085275085897,-2.8367353819719057,40.43459396793577,47.29170722699279,-6.857113259057023,-0.020810053757722824,0.0,-0.020810053757722824
0.2880000000000002,move_to_zero,-1.1178260746291686,-3.7710706976761994,2.653244623047031,-74.29646997850324,-79.05499769879769,4.7585277202944525,74.24861044851302,77.09089837702348,-2.8422879285104585,40.36789745139937,47.2365886871012,-6.868691235701824,-0.021106916509326015,0.0,-0.021106916509326015
0.2900000000000002,move_to_zero,-1.1108999279247893,-3.766670381809599,2.6557704538848097,-74.20257048737851,-78.96275149378158,4.760181006403073,74.15305649058229,77.00094400318798,-2.847887512605695,40.30117396830285,47.181470147209595,-6.880296178906747,-0.02138576953933188,0.0,-0.02138576953933188
0.2920000000000002,move_to_zero,-1.1040200028256684,-3.762270065942999,2.6582500631173307,-74.1087410365015,-78.87050528876549,4.761764252263987,74.05746480412375,76.91098962935247,-2.8535248252287175,40.2344429429,47.12635160731799,-6.89190866441799,-0.021649386562649354,0.0,-0.021649386562649354
0.2940000000000002,move_to_zero,-1.0971940489651553,-3.757869750076399,2.660675701111244,-74.01497167593932,-78.77825908374939,4.763287407810068,73.96186825693617,76.82103525551699,-2.859166998580818,40.1677116857147,47.07123306742639,-6.903521381711691,-0.021900253067079274,0.0,-0.021900253067079274
0.2960000000000002,move_to_zero,-1.0903872872319071,-3.753469434209799,2.6630821469778923,-73.9212763187194,-78.6860128787333,4.764736560013887,73.86627200525606,76.73108088168148,-2.864808876425414,40.1009847413085,47.016114527534796,-6.915129786226295,-0.022139724143321392,0.0,-0.022139724143321392
0.2980000000000002,move_to_zero,-1.0835935074583558,-3.749069118343199,2.665475610884843,-73.82765753389985,-78.59376667371718,4.766109139817331,73.77068315376447,76.64112650784598,-2.870443354081516,40.03425675103767,46.960995987643194,-6.926739236605528,-0.022371956385495672,0.0,-0.022371956385495672
0.3000000000000002,move_to_zero,-1.0767999950426725,-3.744668802476599,2.6678688074339263,-73.73412685275613,-78.50152046870109,4.767393615944954,73.67510360870382,76.55117213401049,-2.876068525306664,39.96753546151105,46.90587744775159,-6.938341986240545,-0.022600182485719114,0.0,-0.022600182485719114
0.3020000000000002,move_to_zero,-1.070024155792984,-3.740268486609999,2.670244330817015,-73.64066744008746,-78.40927426368499,4.768606823597537,73.57956294134758,76.46121776017497,-2.8816548188274,39.90084540116305,46.85075890786,-6.949913506696944,-0.022825657249970453,0.0,-0.022825657249970453
0.3040000000000002,move_to_zero,-1.0632629749152158,-3.735868170743399,2.672605195828183,-73.54727704500753,-78.31702805866888,4.769751013661349,73.48408293892794,76.37126338633948,-2.887180447411538,39.83415921787713,46.79564036796839,-6.9614811500912595,-0.023047405621047002,0.0,-0.023047405621047002
0.3060000000000002,move_to_zero,-1.0564962009905698,-3.7314678548767994,2.67497165388623,-73.45395011292922,-78.22478185365279,4.770831740723565,73.3886539742596,76.28130901250398,-2.892655038244385,39.76747839136321,46.740521828076794,-6.973043436713581,-0.02326520508610408,0.0,-0.02326520508610408
0.3080000000000002,move_to_zero,-1.0497212958971212,-3.7270675390101995,2.677346243113078,-73.36069023690568,-78.13253564863669,4.771845411731007,73.29324899577367,76.19135463866847,-2.898105642894805,39.700815102072205,46.68540328818519,-6.984588186112987,-0.023478989729642238,0.0,-0.023478989729642238
0.3100000000000002,move_to_zero,-1.0429424841359514,-3.7226672231435995,2.679724739007648,-73.26747986665569,-78.0402894436206,4.772809576964903,73.1978633471163,76.10140026483299,-2.9035369177166928,39.63415382886697,46.6302847482936,-6.996130919426626,-0.023690139075026626,0.0,-0.023690139075026626
0.3120000000000002,move_to_zero,-1.0361835788063587,-3.718266907276999,2.6820833284706405,-73.17430129756798,-77.94804323860448,4.773741941036505,73.10249051482843,76.01144589099748,-2.9089553761690468,39.56747468196291,46.575166208401996,-7.007691526439082,-0.02389750873366341,0.0,-0.02389750873366341
0.3140000000000002,move_to_zero,-1.0294616952183349,-3.713866591410399,2.6844048961920643,-73.0811639078653,-77.85579703358839,4.774633125723085,73.00714373421988,75.92149151716198,-2.9143477829421016,39.50079355924278,46.520047668510394,-7.019254109267614,-0.02410287401114482,0.0,-0.02410287401114482
0.3160000000000002,move_to_zero,-1.0227617804036095,-3.7094662755437993,2.68670449514019,-72.98807864904485,-77.76355082857228,4.775472179527426,72.91182916219353,75.83153714332649,-2.9197079811329587,39.43410694014043,46.46492912861879,-7.030822188478361,-0.024307805494262143,0.0,-0.024307805494262143
0.3180000000000002,move_to_zero,-1.0160811887609513,-3.7050659596771993,2.6889847709162478,-72.89504405171262,-77.67130462355618,4.776260571843565,72.81654013153597,75.74158276949098,-2.925042637955002,39.36740627742189,46.40981058872719,-7.042404311305297,-0.024510960837118543,0.0,-0.024510960837118543
0.32000000000000023,move_to_zero,-1.0094064557994058,-3.700665643810599,2.691259188011193,-72.80204445191039,-77.57905841854009,4.777013966629696,72.721280810546,75.65162839565548,-2.930347585109473,39.30072329078977,46.354692048835595,-7.053968758045826,-0.024714320056734827,0.0,-0.024714320056734827
0.32200000000000023,move_to_zero,-1.0027441228562302,-3.696265327943999,2.6935212050877686,-72.70905700902775,-77.48681221352399,4.777755204496245,72.62607184120591,75.56167402181998,-2.935602180614069,39.23402147252369,46.29957350894399,-7.0655520364203,-0.0249196396770588,0.0,-0.0249196396770588
0.32400000000000023,move_to_zero,-0.9960838543028813,-3.691865012077399,2.6957811577745177,-72.61607660449171,-77.3945660085079,4.7784894040161845,72.5309090695999,75.47171964798449,-2.9408105783845855,39.16730648099505,46.2444549690524,-7.077148488057347,-0.025125723776596137,0.0,-0.025125723776596137
0.32600000000000023,move_to_zero,-0.9894145200080837,-3.687464696210799,2.6980501762027154,-72.52314175434661,-77.30231980349178,4.779178049145173,72.43580205363223,75.38176527414898,-2.945963220516745,39.10056124119825,46.1893364291608,-7.088775187962547,-0.02533113753146772,0.0,-0.02533113753146772
0.32800000000000024,move_to_zero,-0.9827545733474488,-3.6830643803441987,2.70030980699675,-72.43024650263136,-77.21007359847569,4.779827095844325,72.34073621313223,75.29181090031348,-2.951074687181247,39.0337727448227,46.13421788926919,-7.100445144446489,-0.025538689014844806,0.0,-0.025538689014844806
0.33000000000000024,move_to_zero,-0.9760990866419859,-3.6786640644775987,2.702564977835613,-72.33737819034467,-77.11782739345958,4.780449203114912,72.24570487081273,75.20185652647798,-2.956151655665252,38.96695814872541,46.07909934937759,-7.112141200652182,-0.025748056098211142,0.0,-0.025748056098211142
0.33200000000000024,move_to_zero,-0.9694433708553887,-3.674263748610999,2.70482037775561,-72.2445248406634,-77.02558118844348,4.78105634778008,72.15070042370535,75.11190215264247,-2.9612017289371266,38.90011366130315,46.02398080948599,-7.123867148182839,-0.025959222641566724,0.0,-0.025959222641566724
0.33400000000000024,move_to_zero,-0.9628045311896986,-3.669863432744399,2.7070589015547,-72.15167688735377,-76.93333498342739,4.781658096073613,72.05571439447384,75.02194777880699,-2.966233384333151,38.833246699143935,45.968862269594396,-7.135615570450462,-0.026174321440258195,0.0,-0.026174321440258195
0.33600000000000024,move_to_zero,-0.9561778026983544,-3.6654631168777994,2.709285314179445,-72.05884968303732,-76.84108877841129,4.782239095373967,71.96077082564535,74.93199340497148,-2.971222579326124,38.76636096676581,45.913743729702794,-7.147382762936985,-0.026388597722075583,0.0,-0.026388597722075583
0.33800000000000024,move_to_zero,-0.9495742693105677,-3.6610628010111994,2.7114885317006316,-71.96605383652599,-76.74884257339518,4.782788736869193,71.86587184977338,74.84203903113597,-2.976167181362584,38.69945665889686,45.85862518981119,-7.159168530914336,-0.02660216564748315,0.0,-0.02660216564748315
0.34000000000000025,move_to_zero,-0.9430184136752525,-3.6566624851445995,2.713644071469347,-71.87329318934158,-76.65659636837908,4.783303179037503,71.77098550702217,74.75208465730049,-2.981099150278311,38.632541005728086,45.80350664991959,-7.170965644191504,-0.026816317065011832,0.0,-0.026816317065011832
0.34200000000000025,move_to_zero,-0.9365067662167771,-3.652262169277999,2.715755403061222,-71.78056455542622,-76.56435016336299,4.783785607936764,71.67609328173799,74.66213028346498,-2.9860370017269844,38.56558748012843,45.74838811002799,-7.18280062989956,-0.027032960648144155,0.0,-0.027032960648144155
0.34400000000000025,move_to_zero,-0.9300467634762273,-3.647861853411399,2.717815089935172,-71.68784800433427,-76.47210395834688,4.7842559540126075,71.58117887545298,74.57217590962948,-2.9909970341765018,38.49860775015178,45.693269570136394,-7.194661819984617,-0.0272717841278719,0.0,-0.0272717841278719
0.34600000000000025,move_to_zero,-0.9236346754853557,-3.643461537544799,2.7198268620594437,-71.59515222057168,-76.3798577533308,4.784705532759119,71.48624875503218,74.48222153579398,-2.9959727807618037,38.431628220010644,45.63815103024479,-7.206522810234148,-0.027518586029954883,0.0,-0.027518586029954883
0.34800000000000025,move_to_zero,-0.9172763967081967,-3.6390612216781992,2.7217848249700025,-71.50247437687435,-76.28761154831469,4.78513717144034,71.39129875211279,74.39226716195847,-3.000968409845683,38.36465926765327,45.5830324903532,-7.218373222699924,-0.02776604710599363,0.0,-0.02776604710599363
0.35000000000000026,move_to_zero,-0.9109901111593416,-3.634660905811599,2.723670794652257,-71.40982557265434,-76.19536534329859,4.785539770644249,71.29634119277054,74.30231278812298,-3.0059715953524346,38.29769157879005,45.52791395046159,-7.2302223716715375,-0.028020518819410607,0.0,-0.028020518819410607
0.35200000000000026,move_to_zero,-0.9047808665724417,-3.630260589944999,2.7254797233725574,-71.31721189335128,-76.10311913828248,4.785907244931195,71.20140466768514,74.21235841428748,-3.0109537466023397,38.23073790516856,45.472795410569994,-7.242057505401434,-0.028290050259152977,0.0,-0.028290050259152977
0.35400000000000026,move_to_zero,-0.898638334057597,-3.625860274078399,2.7272219400208018,-71.22462139559494,-76.01087293326638,4.786251537671447,71.10647524316279,74.12240404045198,-3.0159287972891917,38.163784711313475,45.41767687067839,-7.253892159364916,-0.028550079483523193,0.0,-0.028550079483523193
0.35600000000000026,move_to_zero,-0.8925535842114375,-3.621459958211799,2.7289063740003616,-71.13207299272204,-75.91862672825027,4.78655373552823,71.01153354091234,74.03244966661647,-3.020916125704133,38.09682092762522,45.36255833078679,-7.265737403161573,-0.028826742939229242,0.0,-0.028826742939229242
0.35800000000000026,move_to_zero,-0.8865227370617419,-3.6170596423451986,2.730536905283457,-71.03956535704175,-75.82638052323418,4.786815166192426,70.91660024473934,73.94249529278098,-3.025895048041633,38.02986123553961,45.307439790895195,-7.277578555355582,-0.02912186395791067,0.0,-0.02912186395791067
0.36000000000000026,move_to_zero,-0.8805175784219931,-3.6126593264785987,2.7321417480566055,-70.9471106233745,-75.7341343182181,4.787023694843597,70.82166185857537,73.85254091894548,-3.0308790603701112,37.962902501159434,45.25232125100359,-7.28941874984416,-0.02944078617934623,0.0,-0.02944078617934623
0.36200000000000027,move_to_zero,-0.8745655520111205,-3.6082590106119987,2.7336934586008783,-70.85472507160668,-75.64188811320199,4.787163041595306,70.72671471143073,73.76258654510997,-3.035871833679238,37.89593948650573,45.19720271111199,-7.301263224606259,-0.02975615611468191,0.0,-0.02975615611468191
0.36400000000000027,move_to_zero,-0.868657155614856,-3.603858694745399,2.7352015391305433,-70.76238883831678,-75.54964190818589,4.787253069869109,70.63172895056584,73.67263217127449,-3.0409032207086426,37.82897184098397,45.14208417122039,-7.313112330236422,-0.0300630655909457,0.0,-0.0300630655909457
0.36600000000000027,move_to_zero,-0.8627786461812992,-3.5994583788787993,2.7366797326975,-70.67011584207114,-75.45739570316978,4.787279861098639,70.53669779783806,73.58267779743898,-3.0459799996009167,37.76201047870505,45.086965631328795,-7.324955152623744,-0.03035221716165506,0.0,-0.03035221716165506
0.36800000000000027,move_to_zero,-0.8568940964405576,-3.5950580630121993,2.7381639665716415,-70.57787154426718,-75.36514949815368,4.787277953886502,70.441601278175,73.49272342360348,-3.0511221454284794,37.69505746418146,45.03184709143719,-7.336789627255733,-0.030622096098705146,0.0,-0.030622096098705146
0.3700000000000003,move_to_zero,-0.8510206727307608,-3.5906577471455994,2.739637074414839,-70.48565694890398,-75.27290329313757,4.787246344233594,70.34644045597526,73.40276904976798,-3.0563285937927276,37.62810137008227,44.97672855154559,-7.348627181463321,-0.03087603015497476,0.0,-0.03087603015497476
0.3720000000000003,move_to_zero,-0.845144968947648,-3.586257431278999,2.741112462331351,-70.39348125818553,-75.18065708812149,4.787175829935961,70.25121487069775,73.31281467593247,-3.061599805234721,37.5611223134845,44.921610011653996,-7.360487698169493,-0.03111658290589069,0.0,-0.03111658290589069
0.3740000000000003,move_to_zero,-0.8392696711317879,-3.581857115412399,2.7425874442806113,-70.30133375539192,-75.08841088310538,4.787077127713459,70.15593077019534,73.22286030209698,-3.0669295319016356,37.49412704933309,44.86649147176239,-7.3723644224293,-0.03134531129576319,0.0,-0.03134531129576319
0.3760000000000003,move_to_zero,-0.8333963114051085,-3.577456799545799,2.7440604881406907,-70.20922417612586,-74.99616467808929,4.786940501963429,70.06060214698665,73.13290592826148,-3.072303781274826,37.42709783376177,44.81137293187079,-7.384275098109022,-0.03156206041736028,0.0,-0.03156206041736028
0.3780000000000003,move_to_zero,-0.8275348736896191,-3.573056483679199,2.74552160998958,-70.1171620298498,-74.90391847307319,4.786756443223396,69.96522299783732,73.04295155442597,-3.077728556588653,37.360038997530474,44.75625439197919,-7.396215394448717,-0.0317700755861558,0.0,-0.0317700755861558
0.3800000000000003,move_to_zero,-0.8216936063537521,-3.5686561678125988,2.7469625614588464,-70.02517980164876,-74.81167226805708,4.786492466408319,69.8697912882131,72.95299718059049,-3.083205892377393,37.29292230168216,44.70113585208759,-7.408213550405428,-0.031970951501257144,0.0,-0.031970951501257144
0.3820000000000003,move_to_zero,-0.8158590634972686,-3.564255851945999,2.7483967884487304,-69.9332933867993,-74.71942606304098,4.786132676241678,69.77429980365847,72.86304280675498,-3.0887430030965106,37.22577943419032,44.646017312195994,-7.420237878005672,-0.03216546398850487,0.0,-0.03216546398850487
0.3840000000000003,move_to_zero,-0.8100370278486662,-3.559855536079399,2.7498185082307325,-69.84148637358294,-74.62717985802489,4.78569348444195,69.67877938316423,72.77308843291948,-3.0943090497552532,37.158628089927554,44.59089877230439,-7.4322706823768385,-0.03235457896624649,0.0,-0.03235457896624649
0.3860000000000003,move_to_zero,-0.8042164568416731,-3.5554552202127994,2.751238763371126,-69.74976276366633,-74.53493365300879,4.785170889342467,69.58321820375828,72.68313405908398,-3.0999158553257047,37.09146935644085,44.53578023241279,-7.444310875971944,-0.03254080275160866,0.0,-0.03254080275160866
0.3880000000000003,move_to_zero,-0.7983962555295189,-3.551054904346199,2.75265864881668,-69.65808457738127,-74.44268744799268,4.784602870611408,69.48760444811151,72.59317968524847,-3.1055752371369607,37.024300427403055,44.48066169252119,-7.456361265118133,-0.03272490238558072,0.0,-0.03272490238558072
0.3900000000000003,move_to_zero,-0.7925626090847078,-3.546654588479599,2.7540919793948913,-69.56645836431721,-74.35044124297659,4.783982878659373,69.391933032745,72.50322531141298,-3.1112922786679746,36.95709676431483,44.425543152629594,-7.468446388314767,-0.032908673964929,0.0,-0.032908673964929
0.3920000000000003,move_to_zero,-0.786719016821627,-3.542254272612999,2.755535255791372,-69.47489820552113,-74.25819503796048,4.783296832439348,69.29620393340063,72.41327093757748,-3.117067004176846,36.889861378037466,44.37042461273799,-7.480563234700526,-0.033091284839421635,0.0,-0.033091284839421635
0.3940000000000003,move_to_zero,-0.7808726133340153,-3.537853956746399,2.756981343412384,-69.38342685240696,-74.16594883294438,4.782521980537425,69.20040702436386,72.32331656374198,-3.122909539378128,36.82262204402574,44.31530607284639,-7.492684028820648,-0.03327626987792047,0.0,-0.03327626987792047
0.3960000000000003,move_to_zero,-0.7750227249872514,-3.5334536408797987,2.7584309158925473,-69.29204332430574,-74.07370262792828,4.781659303622547,69.10453701905813,72.23336218990647,-3.1288251708483443,36.75537758643286,44.260187532954795,-7.504809946521938,-0.03346293741143531,0.0,-0.03346293741143531
0.3980000000000003,move_to_zero,-0.7691980928907246,-3.529053325013199,2.759855232122474,-69.20074308097627,-73.98145642291219,4.780713341935922,69.0085888089326,72.14340781607098,-3.1348190071383755,36.68811954125582,44.205068993063186,-7.516949451807363,-0.03365034412253544,0.0,-0.03365034412253544
0.4000000000000003,move_to_zero,-0.7633825340361216,-3.524653009146599,2.7612704751104773,-69.10952969482469,-73.88921021789609,4.779680523071406,68.91257892466696,72.05345344223548,-3.1408745175685198,36.620864921669146,44.14995045317159,-7.529085531502446,-0.03383630075645655,0.0,-0.03383630075645655
0.4020000000000003,move_to_zero,-0.7575780795828595,-3.520252693279999,2.7626746136971394,-69.0184003308289,-73.79696401287998,4.778563682051086,68.81652338309341,71.96349906839997,-3.1469756853065576,36.55359070464269,44.09483191327999,-7.541241208637302,-0.03402054335691311,0.0,-0.03402054335691311
0.4040000000000003,move_to_zero,-0.7517894604024061,-3.515852377413399,2.764062917010993,-68.92737235992531,-73.70471780786389,4.777345447938572,68.72041634899148,71.87354469456449,-3.153128345573009,36.48629870907717,44.039713373388395,-7.5534146643112265,-0.03420181583294836,0.0,-0.03420181583294836
0.4060000000000003,move_to_zero,-0.7460164337431493,-3.511452061546799,2.7654356278036496,-68.8364389008179,-73.61247160284778,4.77603270202988,68.62425077100751,71.78359032072898,-3.159339549721466,36.4189964500423,43.98459483349679,-7.565598383454493,-0.03438092832925875,0.0,-0.03438092832925875
0.4080000000000003,move_to_zero,-0.7402335911963714,-3.507051745680199,2.7668181544838277,-68.7455902719948,-73.52022539783168,4.77463512583688,68.52801308459736,71.69363594689347,-3.165622862296104,36.35167221126796,43.92947629360519,-7.577804082337231,-0.03456040556376941,0.0,-0.03456040556376941
0.4100000000000003,move_to_zero,-0.7344277471569247,-3.5026514298135987,2.768223682656674,-68.65481474812654,-73.42797919281558,4.773164444689044,68.4316890893966,71.60368157305798,-3.171992483661384,36.2843383363219,43.87435775371359,-7.590019417391687,-0.0347379668189261,0.0,-0.0347379668189261
0.4120000000000003,move_to_zero,-0.7286165211556027,-3.4982511139469987,2.769634592791396,-68.56411219511826,-73.33573298779949,4.771620792681233,68.33528931823075,71.51372719922247,-3.178437880991723,36.21700432537752,43.81923921382199,-7.602234888444464,-0.03491196488510059,0.0,-0.03491196488510059
0.4140000000000003,move_to_zero,-0.7227882362535772,-3.493850798080399,2.7710625618268216,-68.47345825921198,-73.24348678278338,4.770028523571398,68.23882821291701,71.42377282538698,-3.1849446124699625,36.14964512752213,43.76412067393039,-7.614475546408265,-0.03508318567633551,0.0,-0.03508318567633551
0.4160000000000003,move_to_zero,-0.7169559171862357,-3.4894504822137993,2.7724945650275634,-68.38283694334021,-73.15124057776728,4.768403634427074,68.14230669356294,71.33381845155148,-3.191511757988536,36.0822486155577,43.70900213403879,-7.626753518481088,-0.03524981857262323,0.0,-0.03524981857262323
0.4180000000000003,move_to_zero,-0.7111216327701454,-3.485050166347199,2.7739285335770534,-68.29223649480396,-73.05899437275119,4.766757877947228,68.04574240090506,71.24386407771597,-3.1981216768109135,36.014821975450815,43.653883594147196,-7.639061618696381,-0.03541656631957283,0.0,-0.03541656631957283
0.4200000000000003,move_to_zero,-0.7052965395547877,-3.480649850480599,2.7753533109258113,-68.20167256000215,-72.96674816773508,4.765075607732925,67.94914276280169,71.15390970388047,-3.2047669410787876,35.94738625954592,43.598765054255594,-7.651378794709672,-0.03558401274145606,0.0,-0.03558401274145606
0.4220000000000003,move_to_zero,-0.6994552019070952,-3.476249534613999,2.7767943327069036,-68.11114902172766,-72.87450196271898,4.763352940991325,67.85249703474884,71.06395533004498,-3.21145829529614,35.879947260604,43.543646514363985,-7.663699253759987,-0.03575116100264206,0.0,-0.03575116100264206
0.4240000000000003,move_to_zero,-0.6935954119840135,-3.471849218747399,2.7782538067633853,-68.02067011692193,-72.78225575770288,4.76158564078095,67.75579938413505,70.97400095620948,-3.2182015720744346,35.81250903645561,43.48852797447239,-7.676018938016782,-0.03591668212350895,0.0,-0.03591668212350895
0.4260000000000003,move_to_zero,-0.6877222605609481,-3.4674489028807987,2.779726642319851,-67.93023849779625,-72.69000955268679,4.759771054890535,67.6590913660954,70.88404658237397,-3.2249552162785733,35.74505832773385,43.43340943458079,-7.6883511068469375,-0.03607858886953946,0.0,-0.03607858886953946
0.4280000000000003,move_to_zero,-0.6818464279556135,-3.4630485870141987,2.7812021590585854,-67.83984287068662,-72.59776334767068,4.757920476984054,67.56238422612608,70.79409220853847,-3.231707982412388,35.67761487483163,43.378290894689194,-7.700676019857561,-0.0362370057943594,0.0,-0.0362370057943594
0.4300000000000003,move_to_zero,-0.6759821458487718,-3.458648271147599,2.782666125298827,-67.74947593183052,-72.50551714265458,4.7560412108240655,67.46568470102999,70.70413783470298,-3.2384531336729907,35.61019898091534,43.32317235479759,-7.7129733738822495,-0.03639192376252777,0.0,-0.03639192376252777
0.43200000000000033,move_to_zero,-0.6701123202198788,-3.454247955280999,2.78413563506112,-67.65913266191903,-72.41327093763847,4.754138275719441,67.36897619523887,70.61418346086747,-3.2452072656285935,35.54279200241081,43.268053814906,-7.725261812495184,-0.03654625118065013,0.0,-0.03654625118065013
0.43400000000000033,move_to_zero,-0.6642565555673551,-3.449847639414399,2.7855910838470437,-67.5687976243687,-72.32102473262238,4.752227108253678,67.27226507654859,70.52422908703198,-3.251964010483391,35.475418662910364,43.21293527501439,-7.737516612104024,-0.03669845655519861,0.0,-0.03669845655519861
0.43600000000000033,move_to_zero,-0.6584212492075512,-3.445447323547799,2.7870260743402477,-67.47847228521466,-72.22877852760628,4.750306242391616,67.17555586782646,70.43427471319647,-3.258718845370012,35.40806807879665,43.157816735122786,-7.749748656326133,-0.03684896418820544,0.0,-0.03684896418820544
0.43800000000000033,move_to_zero,-0.6526320666774176,-3.441047007681199,2.7884149410037815,-67.38815443242821,-72.13653232259018,4.748377890161976,67.07883826478428,70.34432033936098,-3.2654820745766955,35.34074222544788,43.10269819523119,-7.761955969783308,-0.036996756116949664,0.0,-0.036996756116949664
0.44000000000000034,move_to_zero,-0.6468745429492093,-3.4366466918145986,2.7897721488653895,-67.29787051554952,-72.04428611757409,4.74641560202457,66.98213092387623,70.25436596552548,-3.272235041649253,35.273429676823895,43.04757965533959,-7.774149978515695,-0.03714139089347395,0.0,-0.03714139089347395
0.44200000000000034,move_to_zero,-0.6411835713723437,-3.4322463759479986,2.791062804575655,-67.20763112704957,-71.95203991255798,4.744408785508412,66.8854364425546,70.16441159168997,-3.2789751491353627,35.206153336791594,42.992461115447995,-7.786307778656401,-0.03728307899163227,0.0,-0.03728307899163227
0.44400000000000034,move_to_zero,-0.6355696109531749,-3.427846060081399,2.792276449128224,-67.11741644270748,-71.85979370754188,4.742377264834403,66.78877529530133,70.07445721785447,-3.285681922553138,35.13890861451004,42.937342575556386,-7.798433961046342,-0.037422794592182236,0.0,-0.037422794592182236
0.44600000000000034,move_to_zero,-0.6300085783802646,-3.423445744214799,2.7934371658345345,-67.02719057600902,-71.76754750252577,4.740356926516753,66.69214998845386,69.98450284401898,-3.292352855565113,35.07171081492695,42.88222403566479,-7.810513220737839,-0.037560118656242446,0.0,-0.037560118656242446
0.44800000000000034,move_to_zero,-0.6244751493029761,-3.419045428348199,2.7945702790452227,-66.93697594362732,-71.67530129750969,4.738325353882374,66.59555760932169,69.89454847018347,-3.298990860861778,35.00456101845833,42.82710549577319,-7.822544477314857,-0.0376942094936538,0.0,-0.0376942094936538
0.45000000000000034,move_to_zero,-0.6189627013313603,-3.414645112481599,2.7956824111502385,-66.84678396617052,-71.58305509249358,4.736271126323061,66.49898120165139,69.80459409634798,-3.305612894696594,34.93745757285216,42.77198695588159,-7.834529383029427,-0.03782691855333776,0.0,-0.03782691855333776
0.45200000000000035,move_to_zero,-0.6134888477766589,-3.410244796614999,2.79675594883834,-66.75661969043075,-71.49080888747748,4.734189197046732,66.40239882295216,69.71463972251247,-3.312240899560308,34.870377873747906,42.71686841598999,-7.846490542242087,-0.03796113378470462,0.0,-0.03796113378470462
0.45400000000000035,move_to_zero,-0.6080440866934086,-3.405844480748399,2.7978003940549905,-66.66645373534095,-71.39856268246137,4.732108947120423,66.30579062671806,69.62468534867698,-3.3188947219589124,34.803310386494424,42.66174987609839,-7.858439489603967,-0.03809510052804725,0.0,-0.03809510052804725
0.45600000000000035,move_to_zero,-0.6026310541900763,-3.4014441648817986,2.7988131106917224,-66.57626659933798,-71.30631647744528,4.730049878107295,66.20915390829956,69.53473097484148,-3.325577066541925,34.736236552707695,42.60663133620679,-7.870394783499094,-0.03823089929090194,0.0,-0.03823089929090194
0.45800000000000035,move_to_zero,-0.59724292503902,-3.397043849015199,2.799800923976179,-66.48608431872759,-71.21407027242918,4.727985953701591,66.11248088161882,69.44477660100597,-3.3322957193871474,34.66916697143391,42.55151279631519,-7.882345824881277,-0.03836715767080705,0.0,-0.03836715767080705
0.46000000000000035,move_to_zero,-0.5918700703135885,-3.392643533148599,2.8007734628350107,-66.39590133240374,-71.12182406741309,4.725922735009348,66.01575257011906,69.35482222717047,-3.339069657051411,34.60209845001584,42.49639425642359,-7.894295806407754,-0.038503025975864455,0.0,-0.038503025975864455
0.46200000000000035,move_to_zero,-0.5865429573828501,-3.3882432172819987,2.8017002598991487,-66.30572898226116,-71.02957786239699,4.723848880135833,65.91898262170851,69.26486785333498,-3.3458852316264682,34.5350547113309,42.44127571653199,-7.90622100520109,-0.03864188178991744,0.0,-0.03864188178991744
0.46400000000000036,move_to_zero,-0.5812710815447056,-3.383842901415399,2.802571819870693,-66.21556036093816,-70.93733165738088,4.721771296442725,65.82218860113754,69.17491347949948,-3.35272487836194,34.46804734755024,42.38615717664039,-7.918109829090149,-0.0387826515371873,0.0,-0.0387826515371873
0.46600000000000036,move_to_zero,-0.5760373367488714,-3.379442585548799,2.8034052487999275,-66.12540839927749,-70.84508545236478,4.719677053087295,65.72534079516177,69.08495910566397,-3.3596183105021993,34.401118824055054,42.331038636748794,-7.92991981269374,-0.03892357141440446,0.0,-0.03892357141440446
0.46800000000000036,move_to_zero,-0.5708493869420773,-3.375042269682199,2.8041928827401215,-66.0352592844924,-70.75283924734867,4.717579962856277,65.62846144646554,68.99500473182847,-3.366543285362937,34.33428333564953,42.275920096857185,-7.941636761207654,-0.03906437502638605,0.0,-0.03906437502638605
0.47000000000000036,move_to_zero,-0.5657027959754319,-3.3706419538155985,2.804939157840167,-65.94514711737969,-70.66059304233258,4.715445924952888,65.53153670886056,68.90505035799298,-3.37351364913242,34.267535670041624,42.22080155696559,-7.953265886923965,-0.03920633905832194,0.0,-0.03920633905832194
0.47200000000000036,move_to_zero,-0.5605930067867285,-3.3662416379489986,2.80564863116227,-65.85504815758257,-70.56834683731647,4.713298679733896,65.43458543666762,68.81509598415747,-3.3805105474898482,34.20086456755045,42.16568301707399,-7.964818449523541,-0.03934699653153352,0.0,-0.03934699653153352
0.47400000000000037,move_to_zero,-0.5555194304750245,-3.361841322082399,2.8063218916073747,-65.76495257447799,-70.47610063230039,4.711148057822399,65.33759532799834,68.72514161032198,-3.3875462823236404,34.134258947228005,42.11056447718239,-7.976305529954388,-0.03948835068673717,0.0,-0.03948835068673717
0.47600000000000037,move_to_zero,-0.550454407112037,-3.357441006215799,2.8069865991037624,-65.67487698254413,-70.38385442728428,4.7089774447401425,65.2405762725488,68.63518723648647,-3.39461096393768,34.06769849163366,42.05544593729079,-7.987747445657135,-0.039631660545617564,0.0,-0.039631660545617564
0.47800000000000037,move_to_zero,-0.5453791005711347,-3.3530406903491987,2.807661589778064,-65.58479309528406,-70.29160822226818,4.706815126984125,65.1435360118312,68.54523286265096,-3.4016968508197607,34.00116627520741,42.00032739739919,-7.999161122191779,-0.039774971130890895,0.0,-0.039774971130890895
0.48000000000000037,move_to_zero,-0.5402881598170792,-3.3486403744825988,2.8083522146655193,-65.49470550884315,-70.19936201725208,4.704656508408931,65.04648100286762,68.45527848881548,-3.408797485947858,33.934668040263425,41.94520885750759,-8.010540817244163,-0.03991872896936986,0.0,-0.03991872896936986
0.4820000000000004,move_to_zero,-0.5352124183061949,-3.344240058615999,2.809027640309804,-65.40462594201712,-70.10711581223597,4.702489870218855,64.94939773110445,68.36532411497997,-3.415926383875515,33.86819936311606,41.890090317615986,-8.021890954499924,-0.04006384275990493,0.0,-0.04006384275990493
0.4840000000000004,move_to_zero,-0.5301460957569137,-3.339839742749399,2.809693646992485,-65.31457893187768,-70.01486960721988,4.7002906753422025,64.8522833191312,68.27536974114447,-3.42308642201327,33.801743840654,41.83497177772439,-8.033227937070393,-0.04020832007086832,0.0,-0.04020832007086832
0.4860000000000004,move_to_zero,-0.525079408333439,-3.3354394268827985,2.8103600185493596,-65.22457383751345,-69.92262340220378,4.698049564690336,64.75516217845465,68.18541536730898,-3.430253188854323,33.73527556461879,41.77985323783279,-8.044577673214,-0.04034941672008212,0.0,-0.04034941672008212
0.4880000000000004,move_to_zero,-0.5200547811988679,-3.331039111016199,2.810984329817331,-65.13457735527068,-69.83037719718769,4.695799841917008,64.65805336588731,68.09546099347347,-3.437407627586154,33.66877758351527,41.72473469794119,-8.055957114425915,-0.040487090903949356,0.0,-0.040487090903949356
0.4900000000000004,move_to_zero,-0.5150654008535085,-3.326638795149599,2.8115733942960905,-65.04461534690611,-69.73813099217158,4.693515645265464,64.56095078885065,68.00550661963797,-3.4445558307873227,33.602261190069136,41.66961615804959,-8.067354967980457,-0.04062124660463319,0.0,-0.04062124660463319
0.4920000000000004,move_to_zero,-0.5101062119363701,-3.3222384792829986,2.8121322673466285,-64.95465715676482,-69.64588478715548,4.691227630390657,64.46384311062712,67.91555224580247,-3.4517091351753493,33.53573227063365,41.61449761815798,-8.078765347524332,-0.04075516374965069,0.0,-0.04075516374965069
0.4940000000000004,move_to_zero,-0.50515603757249,-3.3178381634163987,2.8126821258439088,-64.8647235784111,-69.55363858213937,4.688915003728269,64.3667404925577,67.82559787196698,-3.458857379409281,33.46919144562385,41.55937907826639,-8.09018763264254,-0.04089002371532692,0.0,-0.04089002371532692
0.4960000000000004,move_to_zero,-0.5002237803781641,-3.3134378475497988,2.813214067171635,-64.77482677887762,-69.46139237712327,4.68656559824565,64.26965343673947,67.73564349813147,-3.4659900613919916,33.40264988137055,41.50426053837479,-8.101610657004237,-0.04102598554355286,0.0,-0.04102598554355286
0.4980000000000004,move_to_zero,-0.495305499023925,-3.309037531683199,2.813732032659274,-64.68497285726146,-69.36914617210718,4.684173314845722,64.17259243816957,67.64568912429597,-3.4730966861263965,33.33614777021896,41.44914199848319,-8.112994228264235,-0.04116091894619478,0.0,-0.04116091894619478
0.5000000000000003,move_to_zero,-0.4904044704876513,-3.3046372158165984,2.814232745328947,-64.59517344064305,-69.27689996709108,4.681726526448031,64.07554747444672,67.55573475046047,-3.4801872760137513,33.26966805368515,41.39402345859159,-8.124355404906439,-0.041295075330548305,0.0,-0.041295075330548305
0.5020000000000003,move_to_zero,-0.48551078306287015,-3.300236899949999,2.8147261168871287,-64.50543313901495,-69.18465376207499,4.679220623060033,63.97851734463126,67.46578037662498,-3.48726303199372,33.20319124991784,41.33890491869999,-8.135713668782145,-0.041425461726501245,0.0,-0.041425461726501245
0.5040000000000003,move_to_zero,-0.48060263834983263,-3.2958365840833994,2.8152339457335667,-64.41574195786714,-69.09240755705889,4.67666559919175,63.881519060681214,67.37582600278948,-3.494306942108267,33.13671262597745,41.283786378808394,-8.147073752830941,-0.0415512122568949,0.0,-0.0415512122568949
0.5060000000000003,move_to_zero,-0.4757046696469566,-3.291436268216799,2.8157315985698426,-64.326086223817,-69.00016135204278,4.67407512822578,63.78456956867281,67.28587162895397,-3.501302060281162,33.07023797564695,41.228667838916785,-8.158429863269838,-0.04167162673706047,0.0,-0.04167162673706047
0.5080000000000003,move_to_zero,-0.47082861536446796,-3.287035952350199,2.8162073369857312,-64.23646049048834,-68.90791514702669,4.671454656538344,63.68765434339257,67.19591725511847,-3.5082629117259003,33.003758585562814,41.1735492990252,-8.169790713462383,-0.041788384625801055,0.0,-0.041788384625801055
0.5100000000000003,move_to_zero,-0.4659723811244757,-3.2826356364835987,2.816663255359123,-64.14685969254612,-68.81566894201057,4.668809249464459,63.59075032095759,67.10596288128298,-3.515212560325388,32.9373083578525,41.11843075913359,-8.181122401281087,-0.04190000331678446,0.0,-0.04190000331678446
0.5120000000000003,move_to_zero,-0.461141415150537,-3.278235320616999,2.817093905466462,-64.05728943168431,-68.7234227369945,4.666133305310183,63.49386362304074,67.01600850744748,-3.5221448844067424,32.87089187118124,41.06331221924199,-8.19242034806075,-0.04200989620747199,0.0,-0.04200989620747199
0.5140000000000003,move_to_zero,-0.45629410151487215,-3.273835004750399,2.8175409032355265,-63.96777996093006,-68.63117653197838,4.663396571048324,63.39700792084512,66.92605413361197,-3.5290462127668505,32.8045128634136,41.00819367935039,-8.203680815936792,-0.04211822524441816,0.0,-0.04211822524441816
0.5160000000000003,move_to_zero,-0.45145591898940585,-3.2694346888837993,2.8179787698943937,-63.878329169441294,-68.53893032696229,4.660601157520993,63.300198875368075,66.83609975977649,-3.535900884408413,32.73816474422689,40.95307513945879,-8.214910395231897,-0.042225613416947916,0.0,-0.042225613416947916
0.5180000000000003,move_to_zero,-0.44663653861490005,-3.265034373017199,2.818397834402299,-63.78891241105471,-68.44668412194618,4.657771710891467,63.203417453574374,66.74614538594096,-3.5427279323665886,32.6718600998772,40.89795659956719,-8.226096499689987,-0.04233386694269089,0.0,-0.04233386694269089
0.5200000000000004,move_to_zero,-0.4418386861751056,-3.2606340571505994,2.8187953709754936,-63.6995673908338,-68.35443791693008,4.654870526096282,63.106665505105504,66.65619101210548,-3.549525506999977,32.60558065949256,40.84283805967559,-8.237257400183033,-0.042443065162455704,0.0,-0.042443065162455704
0.5220000000000004,move_to_zero,-0.4370786934737654,-3.2562337412839986,2.8191550478102334,-63.610307400938886,-68.26219171191397,4.651884310975085,63.00995912277277,66.56623663826997,-3.5562775154972,32.53932639944267,40.78771951978399,-8.24839312034132,-0.04255005559532105,0.0,-0.04255005559532105
0.5240000000000004,move_to_zero,-0.43236581089867643,-3.251833425417399,2.8194676145187225,-63.521129401142055,-68.16994550689789,4.648816105755834,62.91330776329953,66.47628226443447,-3.5629745011349456,32.47311011492796,40.732600979892396,-8.259490864964434,-0.042654845310522264,0.0,-0.042654845310522264
0.5260000000000004,move_to_zero,-0.4276961597445047,-3.2474331095507987,2.819736949806294,-63.432038218319484,-68.07769930188178,4.645661083562295,62.81673044615336,66.38632789059898,-3.5695974444456198,32.4069284305829,40.677482440000794,-8.270554009417893,-0.04275925512417516,0.0,-0.04275925512417516
0.5280000000000004,move_to_zero,-0.4230547753060037,-3.2430327936841996,2.8199780183781957,-63.34301709626441,-67.9854530968657,4.642436000601286,62.72021667426886,66.29637351676348,-3.576156842494619,32.34076944651739,40.62236390010919,-8.2815944535918,-0.04286283781012978,0.0,-0.04286283781012978
0.5300000000000004,move_to_zero,-0.41845834387920805,-3.2386324778175983,2.8201741339383903,-63.25404894251572,-67.89320689184957,4.63915794933385,62.62375098207051,66.20641914292797,-3.582668160857459,32.274638993882775,40.56724536021758,-8.292606366334809,-0.04296332408099839,0.0,-0.04296332408099839
0.5320000000000004,move_to_zero,-0.41390108831432704,-3.2342321619509993,2.8203310736366722,-63.16510156017291,-67.80096068683349,4.635859126660584,62.52733252179804,66.11646476909249,-3.589132247294451,32.208529488684455,40.512126820325996,-8.30359733164154,-0.043059736690211806,0.0,-0.043059736690211806
0.5340000000000004,move_to_zero,-0.4093905602160277,-3.229831846084399,2.8204412858683714,-63.07617432239065,-67.70871448181737,4.632540159426718,62.43095443725491,66.02651039525698,-3.595555958002066,32.142410680338514,40.45700828043439,-8.314597600095873,-0.04315279629480581,0.0,-0.04315279629480581
0.5360000000000004,move_to_zero,-0.4049264488816048,-3.2254315302177994,2.8205050813361945,-62.98729143719739,-67.61646827680129,4.629176839603893,62.33460826012808,65.93655602142148,-3.6019477612934026,32.07628620712485,40.4018897405428,-8.325603533417947,-0.04324265117802031,0.0,-0.04324265117802031
0.5380000000000004,move_to_zero,-0.4004932515498081,-3.2210312143511985,2.8205379628013905,-62.898468418888065,-67.52422207178519,4.625753652897124,62.238285501008235,65.84660164758597,-3.608316146577735,32.01018009830557,40.34677120065119,-8.336591102345622,-0.04333070790112289,0.0,-0.04333070790112289
0.5400000000000004,move_to_zero,-0.3960726648425699,-3.216630898484599,2.820558233642029,-62.809706302575044,-67.4319758667691,4.622269564194049,62.141977005780234,65.75664727375049,-3.6146702679702543,31.944096968546646,40.29165266075959,-8.347555692212943,-0.043415281862104686,0.0,-0.043415281862104686
0.5420000000000004,move_to_zero,-0.39167714454569863,-3.2122305826179987,2.8205534380723,-62.72101302951751,-67.33972966175298,4.618716632235476,62.045666097589056,65.66669289991496,-3.6210268023259076,31.878025226336035,40.23653412086799,-8.358508894531951,-0.043498105514220016,0.0,-0.043498105514220016
0.5440000000000004,move_to_zero,-0.3873171768163998,-3.207830266751399,2.8205130899349995,-62.63238165400672,-67.24748345673689,4.615101802730166,61.94935438905762,65.57673852607948,-3.6273841370218634,31.811954583640432,40.18141558097639,-8.36946099733596,-0.04357898430900613,0.0,-0.04357898430900613
0.5460000000000004,move_to_zero,-0.382983858078397,-3.2034299508847988,2.8204460928064017,-62.5438158846216,-67.15523725172078,4.611421367099176,61.85303866716931,65.48678415224397,-3.6337454850746624,31.74587378709464,40.12629704108479,-8.380423253990148,-0.04365754446240365,0.0,-0.04365754446240365
0.5480000000000004,move_to_zero,-0.3786860733207445,-3.1990296350181993,2.8203435616974546,-62.45531453230103,-67.06299104670468,4.60767651440365,61.75672971054656,65.39682977840847,-3.6401000678619155,31.679778090664747,40.071178501193195,-8.391400410528448,-0.043733637951700544,0.0,-0.043733637951700544
0.5500000000000004,move_to_zero,-0.37443054387956276,-3.194629319151599,2.8201987752720363,-62.36688197209534,-66.97074484168859,4.603862869593243,61.66045052334408,65.30687540457298,-3.6464248812288957,31.613664159477675,40.01605996130159,-8.402395801823918,-0.043808283459510114,0.0,-0.043808283459510114
0.5520000000000004,move_to_zero,-0.3702131544769651,-3.190229003284999,2.820015848808034,-62.278503456954006,-66.87849863667249,4.5999951797184835,61.56419338771529,65.21692103073748,-3.652727643022189,31.54756812880969,39.96094142140999,-8.413373292600301,-0.043881114427948245,0.0,-0.043881114427948245
0.5540000000000004,move_to_zero,-0.36602452583054035,-3.1858286874183985,2.819804161587858,-62.19016364812205,-66.78625243165638,4.596088783534327,61.467933251067976,65.12696665690197,-3.659033405833995,31.481491188924007,39.90582288151839,-8.424331692594382,-0.04395228501126638,0.0,-0.04395228501126638
0.5560000000000004,move_to_zero,-0.3618902541724538,-3.1814283715517995,2.819538117379346,-62.10184694387689,-66.69400622664028,4.59215928276339,61.371660219406316,65.03701228306649,-3.6653520636601726,31.415428643151493,39.850704341626795,-8.435275698475301,-0.044022208929003076,0.0,-0.044022208929003076
0.5580000000000004,move_to_zero,-0.3577950724110821,-3.1770280556851986,2.8192329832741168,-62.013568851800464,-66.60176002162417,4.588191169823709,61.27536103524011,64.94705790923096,-3.6716968739908538,31.349388674364423,39.795585801735186,-8.446197127370763,-0.04409057332612534,0.0,-0.04409057332612534
0.5600000000000004,move_to_zero,-0.35374020163340514,-3.172627739818599,2.818887538185194,-61.92533836592895,-66.50951381660808,4.584175450679126,61.17903280345376,64.85710353539548,-3.678070731941723,31.283391161491366,39.7404672618436,-8.457076100352232,-0.044159005234192326,0.0,-0.044159005234192326
0.5620000000000004,move_to_zero,-0.34970715476555997,-3.1682274239519987,2.818520269186439,-61.837158227007315,-66.41726761159198,4.5801093845846665,61.08268527037403,64.76714916155997,-3.684463891185942,31.217413059128692,39.68534872195198,-8.46793566282329,-0.04422979233179153,0.0,-0.04422979233179153
0.5640000000000004,move_to_zero,-0.34569852940124973,-3.1638271080853992,2.8181285786841497,-61.749027528893414,-66.3250214065759,4.575993877682485,60.9863095386926,64.67719478772447,-3.690885249031872,31.15145855674358,39.630230182060394,-8.478771625316813,-0.04430528806422123,0.0,-0.04430528806422123
0.5660000000000004,move_to_zero,-0.34172998890152173,-3.159426792218799,2.8176968033172773,-61.6609496588766,-66.23277520155978,4.571825542683172,60.88990043677268,64.58724041388896,-3.697339977116286,31.085512486101322,39.575111642168785,-8.489599156067463,-0.04438604316523286,0.0,-0.04438604316523286
0.5680000000000004,move_to_zero,-0.33779443433483414,-3.155026476352199,2.817232042017365,-61.57291187834358,-66.1405289965437,4.567617118200111,60.79346336808852,64.49728604005348,-3.7038226719649643,31.019562391879457,39.51999310227719,-8.500430710397733,-0.044471473632649285,0.0,-0.044471473632649285
0.5700000000000004,move_to_zero,-0.33387986909095096,-3.1506261604855985,2.8167462913946477,-61.4849399879207,-66.04828279152757,4.563342803606872,60.697015114731684,64.40733166621797,-3.7103165514862866,30.9536053083146,39.46487456238559,-8.511269254070989,-0.04456100832489304,0.0,-0.04456100832489304
0.5720000000000004,move_to_zero,-0.3299690911349808,-3.1462258446189995,2.816256753484019,-61.397023470686335,-65.95603658651149,4.559013115825152,60.600564461258365,64.31737729238247,-3.716812831124109,30.887647508662404,39.409756022493994,-8.52210851383159,-0.044650976037046736,0.0,-0.044650976037046736
0.5740000000000004,move_to_zero,-0.32606426576646613,-3.141825528752399,2.8157612629859328,-61.309136668650986,-65.86379038149538,4.554653712844392,60.50410705024794,64.22742291854698,-3.7233158682990393,30.821694645367582,39.354637482602385,-8.532942837234803,-0.04474181986281683,0.0,-0.04474181986281683
0.5760000000000004,move_to_zero,-0.32215529462928255,-3.137425212885799,2.8152699182565164,-61.22129559601927,-65.7715441764793,4.550248580460028,60.4076489494567,64.13746854471148,-3.7298195952547815,30.755756542573465,39.29951894271079,-8.543762400137325,-0.04483197519658948,0.0,-0.04483197519658948
0.5780000000000004,move_to_zero,-0.3182465838467633,-3.1330248970191987,2.8147783131724355,-61.13348507206986,-65.67929797146319,4.545812899393326,60.31117543985182,64.04751417087597,-3.736338731024148,30.689838902424786,39.24440040281919,-8.554561500394403,-0.04492433134408877,0.0,-0.04492433134408877
0.5800000000000004,move_to_zero,-0.31434936201801184,-3.1286245811525992,2.8142752191345872,-61.04568760431518,-65.58705176644709,4.541364162131913,60.21465898758292,63.95755979704048,-3.7429008094575593,30.623956998615014,39.189281862927594,-8.56532486431258,-0.04501775072492636,0.0,-0.04501775072492636
0.5820000000000004,move_to_zero,-0.31047599495492667,-3.1242242652859984,2.8137482703310717,-60.95791392053525,-65.49480556143098,4.536891640895732,60.11812896654608,63.867605423204964,-3.7494764566588827,30.558098290046757,39.134163323035985,-8.576065032989227,-0.045112026316801564,0.0,-0.045112026316801564
0.5840000000000004,move_to_zero,-0.30663742961019436,-3.119823949419399,2.8131865198092045,-60.87014779779274,-65.40255935641488,4.532411558622144,60.021603058146894,63.777651049369474,-3.75604799122258,30.492253452039446,39.0790447831444,-8.586791331104951,-0.04520853716217706,0.0,-0.04520853716217706
0.5860000000000004,move_to_zero,-0.3028131918882354,-3.1154236335527985,2.812610441664563,-60.782379313995655,-65.31031315139877,4.527933837403118,59.92509128182194,63.68769667553397,-3.762605393712029,30.42641257617825,39.02392624325278,-8.59751366707453,-0.04530586697306215,0.0,-0.04530586697306215
0.5880000000000004,move_to_zero,-0.2990215577128989,-3.1110233176861994,2.8120017599733007,-60.694596173375686,-65.21806694638268,4.523470773006991,59.82857702171243,63.597742301698474,-3.769165279986048,30.36061628113643,38.96880770336119,-8.608191422224763,-0.04540249173064155,0.0,-0.04540249173064155
0.5900000000000004,move_to_zero,-0.29524669771082745,-3.1066230018195986,2.811376304108771,-60.60677736793397,-65.12582074136658,4.519043373432609,59.7320618082599,63.50778792786297,-3.775726119603071,30.294846955639823,38.913689163469584,-8.618842207829761,-0.04549673288596911,0.0,-0.04549673288596911
0.5920000000000004,move_to_zero,-0.29149370367981764,-3.102222685952999,2.8107289822731816,-60.51894123757744,-65.03357453635049,4.514633298773049,59.635556299238814,63.41783355402748,-3.782277254788667,30.229109857417402,38.858570623578,-8.629460766160594,-0.04558957756894481,0.0,-0.04558957756894481
0.5940000000000004,move_to_zero,-0.2877700879164978,-3.0978223700863987,2.810052282169901,-60.431088327052706,-64.94132833133438,4.51024000428167,59.53905631280743,63.32787918019197,-3.788822867384539,30.163425606955656,38.80345208368639,-8.640026476730732,-0.04567896745692573,0.0,-0.04567896745692573
0.5960000000000004,move_to_zero,-0.28406590714842067,-3.093422054219799,2.8093561470713784,-60.34321167690869,-64.84908212631828,4.505870449409592,59.44256163058779,63.23792480635648,-3.795363175768692,30.097810486953904,38.74833354379479,-8.650523056840889,-0.04576527139130882,0.0,-0.04576527139130882
0.5980000000000004,move_to_zero,-0.2803663297217295,-3.0890217383531984,2.808655408631469,-60.25532829535672,-64.75683592130217,4.50150762594545,59.34604268336911,63.147970432520964,-3.801927749151851,30.032282238941637,38.693215003903184,-8.660932764961547,-0.04584906325197762,0.0,-0.04584906325197762
0.6000000000000004,move_to_zero,-0.2766914099633653,-3.0846214224865993,2.807930012523234,-60.16745775951401,-64.66458971628607,4.497131956772066,59.24948638495072,63.05801605868548,-3.8085296737347605,29.966834721180508,38.63809646401159,-8.671261742831081,-0.045929100463906844,0.0,-0.045929100463906844
0.6020000000000004,move_to_zero,-0.27302769723512654,-3.0802211066199985,2.807193409384872,-60.07961583040683,-64.57234351126998,4.4927276808631476,59.1528805664418,62.968061684849964,-3.8151811184081623,29.901477780725255,38.58297792411999,-8.681500143394732,-0.04600512513526106,0.0,-0.04600512513526106
0.6040000000000004,move_to_zero,-0.26935007021454244,-3.075820790753399,2.8064707205388566,-59.99181364614301,-64.4800973062539,4.488283660110888,59.05623038280703,62.878107311014475,-3.8218769282074447,29.83621150117306,38.52785938422839,-8.691647883055332,-0.04607465322744337,0.0,-0.04607465322744337
0.6060000000000004,move_to_zero,-0.2656506405270805,-3.0714204748867986,2.805769834359718,-59.90406002684283,-64.38785110123777,4.483791074394944,58.95955218221928,62.78815293717897,-3.8286007549596945,29.771020377327698,38.47274084433679,-8.701720467009093,-0.04613857355978625,0.0,-0.04613857355978625
0.6080000000000004,move_to_zero,-0.26193307232970997,-3.067020159020199,2.805087086690489,-59.816352851533274,-64.29560489622169,4.479252044688415,58.86287249028325,62.698198563343475,-3.835326073060223,29.70590608365466,38.417622304445196,-8.711716220790535,-0.04619834318012114,0.0,-0.04619834318012114
0.6100000000000004,move_to_zero,-0.2582209112285876,-3.0626198431535987,2.804398931925011,-59.728674217871365,-64.20335869120557,4.4746844733342,58.76620223098436,62.60824418950797,-3.842041958523609,29.64085665431909,38.36250376455359,-8.721647110234496,-0.046254843134672825,0.0,-0.046254843134672825
0.6120000000000004,move_to_zero,-0.25451653132057084,-3.0582195272869988,2.803702995966428,-59.64103552631993,-64.11111248618948,4.470076959869552,58.6695481411279,62.51828981567248,-3.848741674544584,29.575840498340813,38.30738522466199,-8.731544726321179,-0.04630847513180284,0.0,-0.04630847513180284
0.6140000000000004,move_to_zero,-0.25082582594835195,-3.0538192114203984,2.8029933854720466,-59.5534274333071,-64.01886628117337,4.465438847866274,58.57288940580036,62.42833544183697,-3.8554460360366107,29.51087023826822,38.25226668477038,-8.741396446502161,-0.04635917399582594,0.0,-0.04635917399582594
0.6160000000000004,move_to_zero,-0.24716817676840466,-3.0494188955537993,2.8022507187853947,-59.46586382988149,-63.926620076157285,4.460756246275793,58.47623043205597,62.33838106800148,-3.862150635945511,29.445932786667615,38.197148144878796,-8.75121535821118,-0.0464065253574456,0.0,-0.0464065253574456
0.6180000000000004,move_to_zero,-0.24352629493310976,-3.045018579687199,2.8014922847540893,-59.37831856213381,-63.83437387114118,4.456055309007368,58.37956292653512,62.248426694165964,-3.8688637676308417,29.381014218741477,38.14202960498719,-8.76101538624571,-0.04644873481769985,0.0,-0.04644873481769985
0.6200000000000004,move_to_zero,-0.23988546687627899,-3.040618263820599,2.80073279694432,-59.29079288392596,-63.742127666125086,4.451334782199126,58.28289857686557,62.15847232033048,-3.875573743464912,29.31613058441907,38.08691106509559,-8.770780480676521,-0.04648492349382555,0.0,-0.04648492349382555
0.6220000000000004,move_to_zero,-0.23624423827620017,-3.0362179479539986,2.7999737096777984,-59.20328333736609,-63.649881461108976,4.446598123742888,58.18623569728253,62.068517946494964,-3.8822822492124374,29.251299528833655,38.03179252520398,-8.780492996370327,-0.04651638038797305,0.0,-0.04651638038797305
0.6240000000000004,move_to_zero,-0.23260852276393706,-3.031817632087399,2.799209109323462,-59.11577583208341,-63.55763525609289,4.441859424009479,58.08956899072567,61.978563572659475,-3.888994581933808,29.186518311445973,37.97667398531239,-8.790155673866415,-0.04654020049511351,0.0,-0.04654020049511351
0.6260000000000004,move_to_zero,-0.22899881769486566,-3.0274173162207987,2.798418498525933,-59.02828173070781,-63.46538905107678,4.437107320368966,57.992891289526405,61.888609198823964,-3.8957179092975593,29.12182171881391,37.921555445420786,-8.799733726606878,-0.04655704498498701,0.0,-0.04655704498498701
0.6280000000000004,move_to_zero,-0.2254273706186821,-3.0230170003541987,2.7975896297355165,-58.940797888984456,-63.37314284606068,4.432344957076225,57.89620711469014,61.798654824988475,-3.9024477102983326,29.05723434925712,37.86643690552919,-8.809202556272073,-0.04656891326196126,0.0,-0.04656891326196126
0.6300000000000004,move_to_zero,-0.2218859869558207,-3.0186166844875983,2.796730697531778,-58.85333832021818,-63.28089664104458,4.4275583208263996,57.799516278729236,61.70870045115297,-3.9091841724237355,28.99274815040187,37.81131836563759,-8.81857021523572,-0.04657994692379469,0.0,-0.04657994692379469
0.6320000000000005,move_to_zero,-0.21836497312130573,-3.0142163686209993,2.7958513954996937,-58.765905958071436,-63.18865043602848,4.422744477957046,57.70279959812511,61.618746077317475,-3.915946479192364,28.92838308121881,37.756199825745995,-8.827816744527183,-0.046589335850430645,0.0,-0.046589335850430645
0.6340000000000005,move_to_zero,-0.21484507384952162,-3.009816052754399,2.7949709789048773,-58.6785071382938,-63.09640423101237,4.417897092718569,57.60606804489757,61.52879170348197,-3.9227236585844025,28.864128796614956,37.701081285854386,-8.83695248923943,-0.046596954645237096,0.0,-0.046596954645237096
0.6360000000000005,move_to_zero,-0.21133050420267516,-3.005415736887799,2.794085232685124,-58.591124129514206,-63.00415802599628,4.413033896482077,57.50932057773283,61.43883732964648,-3.9295167519136527,28.799977168359703,37.64596274596279,-8.845985577603088,-0.04660304084569332,0.0,-0.04660304084569332
0.6380000000000005,move_to_zero,-0.2078366993318443,-3.0010154210211986,2.793178721689354,-58.50376291351557,-62.91191182098017,4.4081489074646,57.412557170955324,61.348882955810964,-3.93632578485564,28.735915263368074,37.59084420607118,-8.854928942703108,-0.04660753159089559,0.0,-0.04660753159089559
0.6400000000000005,move_to_zero,-0.20433678969217234,-2.996615105154599,2.792278315462427,-58.416405044662646,-62.81966561596408,4.403260571301431,57.31578076371162,61.25892858197548,-3.94314781826386,28.671937927688973,37.535725666179594,-8.863787738490622,-0.04660677793214025,0.0,-0.04660677793214025
0.6420000000000005,move_to_zero,-0.20083816507188618,-2.9922147892879987,2.7913766242161127,-58.32904865388212,-62.727419410947974,4.398370757065855,57.218992769994955,61.168974208139964,-3.9499814381450093,28.608063165933554,37.480607126287985,-8.872543960354431,-0.04660142437489737,0.0,-0.04660142437489737
0.6440000000000005,move_to_zero,-0.1973575059853902,-2.987814473421399,2.790456967436009,-58.24168506861379,-62.63517320593189,4.393488137318101,57.122177536601136,61.079019834304475,-3.9568422977033393,28.5443143294633,37.42548858639639,-8.88117425693309,-0.04659250411964497,0.0,-0.04659250411964497
0.6460000000000005,move_to_zero,-0.19388364848793446,-2.9834141575547983,2.789530509066864,-58.1542985486447,-62.54292700091577,4.388628452271071,57.02532092178851,60.989065460468964,-3.9637445386804515,28.480679353810306,37.37037004650478,-8.889690692694476,-0.046582503955777115,0.0,-0.046582503955777115
0.6480000000000005,move_to_zero,-0.1907931097760417,-2.9790138416881993,2.7882207319121575,-58.06689738729763,-62.450680795899686,4.383783408602056,56.928417954311676,60.899111086633475,-3.9706931323217987,28.41714650508214,37.31525150661319,-8.898105001531047,-0.0465723988792818,0.0,-0.0465723988792818
0.6500000000000005,move_to_zero,-0.1882878936371748,-2.9746135258215984,2.7863256321844236,-57.979511447656755,-62.35843459088357,4.378923143226814,56.831473730927044,60.80915671279797,-3.9776829818709274,28.35370463762649,37.260132966721585,-8.906428329095096,-0.04656097586310759,0.0,-0.04656097586310759
0.6520000000000005,move_to_zero,-0.18627589925138488,-2.970213209954999,2.783937310703614,-57.89215660501566,-62.26618838586749,4.37403178085183,56.73450107731237,60.719202338962475,-3.984701261650102,28.29035041223741,37.20501442682999,-8.914664014592582,-0.04654825880721168,0.0,-0.04654825880721168
0.6540000000000005,move_to_zero,-0.1846684091586838,-2.9658128940883985,2.781144484929715,-57.80485327134171,-62.17394218085137,4.369088909509657,56.6375110803433,60.62924796512697,-3.99173688478367,28.227083872463698,37.14989588693839,-8.92281201447469,-0.04653424810562358,0.0,-0.04653424810562358
