GerardoFJ/TE3001B_TEAM_3/src/s0s1_gazebo/scripts/results/PID2/state.csv
t,phase,shoulder_pan_actual_deg,shoulder_pan_desired_deg,shoulder_pan_error_deg,shoulder_lift_actual_deg,shoulder_lift_desired_deg,shoulder_lift_error_deg,elbow_flex_actual_deg,elbow_flex_desired_deg,elbow_flex_error_deg,wrist_flex_actual_deg,wrist_flex_desired_deg,wrist_flex_error_deg,wrist_roll_actual_deg,wrist_roll_desired_deg,wrist_roll_error_deg
0.002,move_to_zero,-4.376474382407018,-4.4003158666,0.02384148419298171,-92.21682027023317,-92.2462050161,0.02938474586683526,89.9402674989065,89.9543738355,-0.014106336593499691,55.09939055982472,55.1185398916,-0.019149331775281553,0.0017248340730163765,0.0,0.0017248340730163765
0.004,move_to_zero,-4.3322053560861296,-4.3959155507334,0.06371019464727024,-92.15480004883779,-92.15395881108391,-0.0008412377538746796,89.91008256400652,89.86441946166448,0.04566310234203286,55.060624078694346,55.0634213517084,-0.002797273014053303,0.004411541228085654,0.0,0.004411541228085654
0.006,move_to_zero,-4.2710619720360405,-4.3915152348668,0.1204532628307593,-92.06345956353937,-92.0617126060678,-0.0017469574715676117,89.86480881565959,89.77446508782899,0.09034372783060007,55.00363094972068,55.008302811816804,-0.004671862096124357,0.007367255867259041,0.0,0.007367255867259041
0.008,move_to_zero,-4.196113466947865,-4.3871149190002,0.1910014520523351,-91.9458866453276,-91.9694664010517,0.023579755724099982,89.80538682889448,89.68451071399349,0.12087611490099448,54.92972822699416,54.953184271925196,-0.023456044931037923,0.010070126371964203,0.0,0.010070126371964203
0.01,move_to_zero,-4.109985960857555,-4.382714603133599,0.27272864227604376,-91.80493973701822,-91.8772201960356,0.07228045901737801,89.73271590012484,89.594556340158,0.13815955996685148,54.8401793255806,54.8980657320336,-0.057886406453000916,0.012262448590095124,0.0,0.012262448590095124
0.012,move_to_zero,-4.01494035622658,-4.378314287266999,0.36337393104041915,-91.64323028679819,-91.7849739910195,0.14174370422131233,89.64765406491594,89.50460196632248,0.1430520985934578,54.73619349345271,54.842947192142,-0.10675369868928897,0.014015956399430363,0.0,0.014015956399430363
0.014,move_to_zero,-3.912896421044738,-4.373913971400399,0.46101755035566105,-91.46315703970559,-91.69272778600339,0.22957074629779584,89.55103463119788,89.41464759248699,0.1363870387108932,54.61889648318915,54.787828652250404,-0.1689321690612573,0.01539476367704165,0.0,0.01539476367704165
0.016,move_to_zero,-3.8055092875056094,-4.369513655533799,0.5640043680281899,-91.26689665885202,-91.6004815809873,0.33358492213528734,89.4436369112033,89.32469321865149,0.11894369255180948,54.489361979502974,54.7327101123588,-0.24334813285582868,0.016454792536602005,0.0,0.016454792536602005
0.018000000000000002,move_to_zero,-3.694164482080927,-4.3651133396672,0.6709488575862732,-91.05645820453816,-91.5082353759712,0.45177717143303653,89.32621481781598,89.234738844816,0.09147597299998722,54.34859012235177,54.6775915724672,-0.3290014501154275,0.017156520606439473,0.0,0.017156520606439473
0.020000000000000004,move_to_zero,-3.5800609571663093,-4.3607130238006,0.7806520666342909,-90.83369962719306,-91.4159891709551,0.5822895437620446,89.19951482778752,89.1447844709805,0.05473035680702765,54.19754288972803,54.6224730325756,-0.4249301428475718,0.01745404916410255,0.0,0.01745404916410255
0.022000000000000006,move_to_zero,-3.4642323259877146,-4.356312707934,0.8920803819462857,-90.60031793664706,-91.323742965939,0.7234250292919455,89.06422996774003,89.05483009714499,0.009399870595046877,54.037096814217605,54.567354492684,-0.5302576784663913,0.017377877155095336,0.0,0.017377877155095336
0.024000000000000007,move_to_zero,-3.347528677858195,-4.351912392067399,1.0043837142092045,-90.3578878434672,-91.2314967609229,0.873608917455698,88.9210294448511,88.96487572330949,-0.043846278458389065,53.8680960616168,54.5122359527924,-0.6441398911756053,0.016973703919235517,0.0,0.016973703919235517
0.02600000000000001,move_to_zero,-3.2306829920099918,-4.3475120762007995,1.1168290841908077,-90.10781092768823,-91.1392505559068,1.031439628218564,88.77057066945228,88.874921349474,-0.10435068002171022,53.69131789835303,54.4571174129008,-0.7657995145477727,0.016345122342242287,0.0,0.016345122342242287
0.02800000000000001,move_to_zero,-3.1142852039427154,-4.3431117603341995,1.2288265563914842,-89.8513897391045,-91.0470043508907,1.1956146117861977,88.61347047841556,88.78496697563848,-0.17149649722291826,53.5075052089535,54.401998873009205,-0.8944936640557017,0.015601453954222027,0.0,0.015601453954222027
0.030000000000000013,move_to_zero,-2.9988636482872497,-4.3387114444676,1.3398477961803499,-89.58980413464111,-90.9547581458746,1.3649540112334932,88.45031527140742,88.695012601803,-0.2446973303955815,53.31736836555976,54.3468803331176,-1.0295119675578448,0.014849073051484685,0.0,0.014849073051484685
0.032000000000000015,move_to_zero,-2.8848286864770056,-4.334311128601,1.449482442123994,-89.32413204175086,-90.8625119408585,1.538379899107639,88.28168487261388,88.60505822796749,-0.3233733553536098,53.12155555933054,54.291761793225994,-1.1702062338954562,0.014164496443993294,0.0,0.014164496443993294
0.034000000000000016,move_to_zero,-2.772520234420068,-4.3299108127344,1.5573905783143318,-89.055367446349,-90.7702657358424,1.714898289493405,88.10809434853626,88.51510385413198,-0.4070095055957239,52.92067374846384,54.2366432533344,-1.3159695048705586,0.013570222357315065,0.0,0.013570222357315065
0.03600000000000002,move_to_zero,-2.6621855771020666,-4.3255104968678,1.6633249197657332,-88.78439847676347,-90.67801953082629,1.8936210540628196,87.93005121519275,88.4251494802965,-0.4950982651037492,52.71529867457446,54.1815247134428,-1.466226038868335,0.013054895729096645,0.0,0.013054895729096645
0.03800000000000002,move_to_zero,-2.5540556619463985,-4.3211101810012,1.7670545190548013,-88.51200493719645,-90.5857733258102,2.0737683886137432,87.74805235673198,88.33519510646099,-0.5871427497290114,52.50594988554867,54.1264061735512,-1.6204562880025364,0.012605083876282256,0.0,0.012605083876282256
0.04000000000000002,move_to_zero,-2.448323267832772,-4.316709865134599,1.8683865973018268,-88.23889471011995,-90.4935271207941,2.254632410674148,87.56255142399948,88.24524073262549,-0.68268930862601,52.293146148134085,54.0712876336596,-1.7781414855255164,0.012209695252515567,0.0,0.012209695252515567
0.04200000000000002,move_to_zero,-2.345129405590171,-4.312309549267999,1.9671801436778282,-87.96570693411576,-90.401280915778,2.4355739816622446,87.37396713207457,88.15528635879,-0.781319226715425,52.07734214587006,54.016169093768006,-1.9388269478979439,0.011859480811360248,0.0,0.011859480811360248
0.044000000000000025,move_to_zero,-2.2445571270973246,-4.307909233401399,2.0633521063040745,-87.69303985486879,-90.3090347107619,2.6159948558931205,87.18273285964615,88.06533198495448,-0.8825991253083316,51.85896621740029,53.9610505538764,-2.1020843364761106,0.011547155953316643,0.0,0.011547155953316643
0.04600000000000003,move_to_zero,-2.146695422938684,-4.3035089175348,2.156813494596116,-87.42138396762377,-90.2167885057458,2.7954045381220283,86.9892637801163,87.97537761111899,-0.9861138310026831,51.63842925892188,53.905932013984796,-2.267502755062914,0.011264790669294025,0.0,0.011264790669294025
0.04800000000000003,move_to_zero,-2.0515954172002924,-4.2991086016682,2.2475131844679077,-87.15117485290168,-90.1245423007297,2.973367447828025,86.79392762809003,87.88542323728349,-1.0914956091934584,51.41611713954253,53.8508134740932,-2.4346963345506722,0.01100490283389938,0.0,0.01100490283389938
0.05000000000000003,move_to_zero,-1.959288704913666,-4.2947082858016,2.335419580887934,-86.88279574785642,-90.03229609571359,3.1495003478571704,86.59707585715773,87.795468863448,-1.1983930062902601,51.19240505312099,53.7956949342016,-2.603289881080606,0.010762533427024707,0.0,0.010762533427024707
0.05200000000000003,move_to_zero,-1.8697724895635788,-4.290307969935,2.4205354803714214,-86.61660946462935,-89.9400498906975,3.323440426068146,86.39904498256473,87.70551448961248,-1.3064695070477512,50.96762287239758,53.740576394310004,-2.7729535219124273,0.01053303559473275,0.0,0.01053303559473275
0.054000000000000034,move_to_zero,-1.7830358180943011,-4.285907654068399,2.5028718359740982,-86.35290016241207,-89.8478036856814,3.494903523269329,86.20014167995775,87.61556011577699,-1.4154184358192339,50.74206745645858,53.6854578544184,-2.943390397959824,0.010313551875899524,0.0,0.010313551875899524
0.056000000000000036,move_to_zero,-1.6990633037687395,-4.281507338201799,2.5824440344330597,-86.09194076247739,-89.7555574806653,3.6636167181879102,86.00065727992559,87.52560574194149,-1.5249484620158995,50.51600513961062,53.6303393145268,-3.1143341749161806,0.010102296963083167,0.0,0.010102296963083167
0.05800000000000004,move_to_zero,-1.6178048595569177,-4.2771070223351995,2.659302162778282,-85.83397564011723,-89.66331127564919,3.8293356355319617,85.80087830501097,87.43565136810598,-1.634773063095011,50.28970153223436,53.5752207746352,-3.285519242400838,0.009896372854482242,0.0,0.009896372854482242
0.06000000000000004,move_to_zero,-1.5392220084502688,-4.2727067064685995,2.733484698018331,-85.5791824405499,-89.5710650706331,3.9918826300831967,85.60105822285222,87.3456969942705,-1.7446387714182805,50.063415930560176,53.5201022347436,-3.456686304183421,0.009693582330877906,0.0,0.009693582330877906
0.06200000000000004,move_to_zero,-1.4632575939292811,-4.268306390602,2.8050487966727182,-85.32771995636533,-89.478818865617,4.151098909251672,85.4014377692326,87.25574262043499,-1.8543048512023859,49.83738207947331,53.464983694852,-3.627601615378694,0.00949223219152629,0.0,0.00949223219152629
0.06400000000000004,move_to_zero,-1.389832422591145,-4.2639060747354,2.8740736521442547,-85.07972220336652,-89.38657266060089,4.3068504572343755,85.20223952358077,87.16578824659948,-1.9635487230187039,49.61179807422004,53.4098651549604,-3.79806708074036,0.009292405636792836,0.0,0.009292405636792836
0.06600000000000004,move_to_zero,-1.3188780490865994,-4.2595057588688,2.9406277097822002,-84.8352974199399,-89.29432645558481,4.459029035644903,85.00368547918762,87.075833872764,-2.07214839357637,49.38687943355061,53.354746615068805,-3.9678671815181943,0.009094086745907323,0.0,0.009094086745907323
0.06800000000000005,move_to_zero,-1.2503000583543213,-4.2551054430022,3.004805384647878,-84.59455647993182,-89.2020802505687,4.607523770636874,84.80598483990512,86.98587949892848,-2.179894659023361,49.1628204388487,53.299628075177196,-4.1368076363284985,0.008897156377688927,0.0,0.008897156377688927
0.07000000000000005,move_to_zero,-1.1840070780811804,-4.250705127135599,3.0666980490544185,-84.35758237984282,-89.1098340455526,4.752251665709778,84.60929887807661,86.89592512509299,-2.286626247016372,48.9398068756475,53.2445095352856,-4.304702659638103,0.008698549818186022,0.0,0.008698549818186022
0.07200000000000005,move_to_zero,-1.119919506326923,-4.246304811268999,3.126385304942076,-84.12444355932062,-89.01758784053649,4.893144281215868,84.41377187389803,86.80597075125749,-2.392198877359462,48.7180013603056,53.189390995394,-4.4713896350884,0.008497524374558807,0.0,0.008497524374558807
0.07400000000000005,move_to_zero,-1.0579701799809667,-4.241904495402399,3.1839343154214323,-83.89517771975109,-88.9253416355204,5.030163915769307,84.21954324167505,86.71601637742198,-2.4964731357469248,48.49754557675709,53.1342724555024,-4.636726878745307,0.008291737594513687,0.0,0.008291737594513687
0.07600000000000005,move_to_zero,-0.9980846035197903,-4.2375041795358,3.23941957601601,-83.66979595668286,-88.83309543050429,5.163299473821425,84.02676445921499,86.62606200358648,-2.5992975443714954,48.27855464473805,53.0791539156108,-4.800599270872752,0.008061754186253014,0.0,0.008061754186253014
0.07800000000000006,move_to_zero,-0.9402089741199492,-4.2331038636692,3.2928948895492507,-83.44829094610044,-88.74084922548819,5.292558279387748,83.83555771924763,86.53610762975099,-2.700549910503355,48.06115461677693,53.0240353757192,-4.962880758942269,0.007812490972459171,0.0,0.007812490972459171
0.08000000000000006,move_to_zero,-0.8842944390589184,-4.2287035478026,3.344409108743682,-83.23063401649287,-88.6486030204721,5.417969003979223,83.64604228429356,86.44615325591549,-2.8001109716219332,47.845453648271416,52.9689168358276,-5.123463187556183,0.0075222199075244385,0.0,0.0075222199075244385
0.08200000000000006,move_to_zero,-0.830258819298344,-4.224303231936,3.394044412637656,-83.01680108338775,-88.556356815456,5.539555732068251,83.458329492351,86.35619888207998,-2.8978693897289816,47.63154565591282,52.913798295936,-5.282252640023181,0.007221719739422739,0.0,0.007221719739422739
0.08400000000000006,move_to_zero,-0.7780651030407729,-4.219902916069399,3.4418378130286262,-82.80676383013825,-88.4641106104399,5.657346780301651,83.27249695856271,86.26624450824448,-2.993747549681771,47.41947228098883,52.858679756044396,-5.439207475055568,0.006908025505246445,0.0,0.006908025505246445
0.08600000000000006,move_to_zero,-0.7276400440403933,-4.215502600202799,3.487862556162406,-82.60049402218625,-88.37186440542379,5.771370383237539,83.08862282201174,86.17629013440899,-3.087667312397244,47.20933541828972,52.8035612161528,-5.594225797863082,0.006591636307699019,0.0,0.006591636307699019
0.08800000000000006,move_to_zero,-0.6789141606980692,-4.211102284336199,3.53218812363813,-82.39793810510157,-88.2796182004077,5.881680095306123,82.90679703374656,86.08633576057349,-3.1795387268269337,47.001215947427944,52.7484426762612,-5.747226728833255,0.006281310665760537,0.0,0.006281310665760537
0.09000000000000007,move_to_zero,-0.6318120839890303,-4.206701968469599,3.574889884480569,-82.19904610526757,-88.18737199539159,5.988325890124017,82.72710515841044,85.996381386738,-3.2692762283275556,46.79515834731684,52.693324136369604,-5.8981657890527615,0.005976969208275427,0.0,0.005976969208275427
0.09200000000000007,move_to_zero,-0.5862879900472855,-4.2023016526029995,3.616013662555714,-82.0037271437944,-88.0951257903755,6.091398646581098,82.54962384872907,85.90642701290248,-3.3568031641734137,46.59121219629181,52.638205596477995,-6.046993400186182,0.005689198276601591,0.0,0.005689198276601591
0.09400000000000007,move_to_zero,-0.5423131292179733,-4.1979013367363995,3.6555882075184263,-81.81190814273728,-88.0028795853594,6.190971442622114,82.37440211152209,85.81647263906699,-3.4420705275448995,46.389430599149335,52.5830870565864,-6.193656457437065,0.0053996494183762645,0.0,0.0053996494183762645
0.09600000000000007,move_to_zero,-0.4998201734868089,-4.1935010208698,3.6936808473829905,-81.62349920085622,-87.9106333803433,6.287134179487083,82.20148499780804,85.72651826523149,-3.525033267423453,46.18985768741769,52.5279685166948,-6.338110829277106,0.005124398846959527,0.0,0.005124398846959527
0.09800000000000007,move_to_zero,-0.4587477025011689,-4.1891007050032,3.7303530025020306,-81.43845375314258,-87.81838717532719,6.379933422184607,82.03092743389576,85.63656389139598,-3.605636457500225,45.99254579392204,52.4728499768032,-6.480304182881156,0.004861738544719266,0.0,0.004861738544719266
0.10000000000000007,move_to_zero,-0.4190295419612839,-4.184700389136599,3.765670847175315,-81.25668740110676,-87.72614097031109,6.469453569204333,81.86275157612853,85.5466095175605,-3.6838579414319668,45.79752322029684,52.4177314369116,-6.620208216614763,0.0046087927429540616,0.0,0.0046087927429540616
0.10200000000000008,move_to_zero,-0.3805966801867078,-4.180300073269999,3.7997033930832913,-81.07811748728403,-87.633894765295,6.555777278010964,81.69696954460481,85.45665514372499,-3.759685599120175,45.604806681753125,52.36261289702,-6.757806215266875,0.004365562642440972,0.0,0.004365562642440972
0.10400000000000008,move_to_zero,-0.34339136927243225,-4.1758997574034,3.8325083881309676,-80.90266349753027,-87.5416485602789,6.638985062748631,81.53358064649139,85.36670076988948,-3.833120123398089,45.41441742404267,52.3074943571284,-6.89307693308573,0.004130759850533916,0.0,0.004130759850533916
0.10600000000000008,move_to_zero,-0.30736282655028396,-4.1714994415368,3.8641366149865157,-80.73024231372048,-87.4494023552628,6.719160041542324,81.37259539060854,85.276746396054,-3.9041510054454562,45.22634745641842,52.252375817236796,-7.02602836081838,0.003901513751215896,0.0,0.003901513751215896
0.10800000000000008,move_to_zero,-0.2724464006733028,-4.1670991256702,3.894652724996897,-80.56077915746604,-87.3571561502467,6.796376992780651,81.2140220046827,85.18679202221848,-3.9727700175357796,45.040633056126694,52.1972572773452,-7.156624221218507,0.00367536293739941,0.0,0.00367536293739941
0.11000000000000008,move_to_zero,-0.2385918918854841,-4.1626988098036,3.924106917918116,-80.39418437752083,-87.2649099452306,6.870725567709769,81.05784336319776,85.09683764838299,-4.038994285185225,44.85728911088974,52.1421387374536,-7.284849626563862,0.003453944357326405,0.0,0.003453944357326405
0.11200000000000009,move_to_zero,-0.20575740487680205,-4.158298493937,3.952541089060198,-80.23038438488622,-87.17266374021449,6.942279355328267,80.90405718609257,85.00688327454749,-4.102826088454918,44.67629911681364,52.087020197562,-7.41072108074836,0.0032336045463986092,0.0,0.0032336045463986092
0.11400000000000009,move_to_zero,-0.177811858484194,-4.153898178070399,3.976086319586205,-80.06927326751831,-87.0804175351984,7.011144267680081,80.75266519944435,84.91692890071198,-4.164263701267629,44.497662500722186,52.031901657670396,-7.53423915694821,0.003013532194596286,0.0,0.003013532194596286
0.11600000000000009,move_to_zero,-0.15595615525610304,-4.149497862203799,3.9935417069476964,-79.91076997729056,-86.9881713301823,7.077401352891741,80.603631423862,84.82697452687648,-4.223343103014486,44.321377068022585,51.976783117778794,-7.655406049756209,0.002794861063110419,0.0,0.002794861063110419
0.11800000000000009,move_to_zero,-0.14095496014626815,-4.145097546337199,4.004142586190931,-79.75479863520135,-86.8959251251662,7.141126489964847,80.45692790967693,84.73702015304099,-4.280092243364052,44.14744058486026,51.9216645778872,-7.774223993026936,0.0025758869089089606,0.0,0.0025758869089089606
0.12000000000000009,move_to_zero,-0.13241486188773732,-4.140697230470599,4.008282368582862,-79.60127630452416,-86.80367892015009,7.202402615625928,80.31252920082744,84.64706577920549,-4.334536578378049,43.975846265791766,51.8665460379956,-7.890699772203831,0.0023491000324043017,0.0,0.0023491000324043017
0.1220000000000001,move_to_zero,-0.12921522603518368,-4.136296914603999,4.007081688568816,-79.45010803219856,-86.711432715134,7.261324682935438,80.17040858011906,84.55711140536998,-4.3867028252509215,43.80655567686335,51.811427498104,-8.004871821240656,0.0021162267114961234,0.0,0.0021162267114961234
0.1240000000000001,move_to_zero,-0.12996315479414047,-4.1318965987373995,4.001933443943259,-79.30119898129337,-86.6191865101179,7.317987528824531,80.03054257409222,84.46715703153448,-4.436614457442261,43.63955263120085,51.7563089582124,-8.11675632701155,0.0018472236545278716,0.0,0.0018472236545278716
0.12600000000000008,move_to_zero,-0.13320684803246552,-4.1274962828707995,3.994289434838334,-79.15446205762997,-86.52694030510179,7.372478247471818,79.89292349374382,84.37720265769899,-4.484279163955165,43.47482297318596,51.70119041832079,-8.226367445134834,0.0015403267241294776,0.0,0.0015403267241294776
0.12800000000000009,move_to_zero,-0.13764442288932033,-4.1230959670042,3.9854515441148792,-79.00982022316309,-86.4346941000857,7.424873876922604,79.75749744289142,84.28724828386348,-4.529750840972056,43.312351693197265,51.6460718784292,-8.333720185231932,0.0011935225598970615,0.0,0.0011935225598970615
0.1300000000000001,move_to_zero,-0.14223538450230858,-4.118695651137599,3.97646026663529,-78.86718055808858,-86.3424478950696,7.47526733698102,79.62421572298456,84.197293910028,-4.573078187043436,43.1521261055643,51.590953338537595,-8.438827232973296,0.0008263434966114125,0.0,0.0008263434966114125
0.1320000000000001,move_to_zero,-0.14628400027307473,-4.114295335270999,3.9680113349979242,-78.72648672118021,-86.2502016900535,7.523714968873293,79.49301817960551,84.10733953619248,-4.61432135658697,42.99413644382689,51.535834798646,-8.541698354819111,0.0004540365154349254,0.0,0.0004540365154349254
0.1340000000000001,move_to_zero,-0.14952933236989333,-4.1098950194044,3.9603656870345065,-78.58768860563475,-86.15795548503739,7.570266879402638,79.36385279300332,84.01738516235697,-4.653532369353655,42.83835979787486,51.4807162587544,-8.64235646087954,9.649664109601667e-05,0.0,9.649664109601667e-05
0.1360000000000001,move_to_zero,-0.15210558577460379,-4.1054947035378,3.953389117763196,-78.45070638912124,-86.0657092800213,7.615002890900058,79.23665944051847,83.92743078852149,-4.690771348003025,42.684754042068455,51.425597718862804,-8.740843676794348,-0.0002336185796800797,0.0,-0.0002336185796800797
0.1380000000000001,move_to_zero,-0.15409827675487162,-4.1010943876712,3.946996110916328,-78.31544946123174,-85.97346307500518,7.6580136137734485,79.11139682421833,83.83747641468598,-4.7260795904676485,42.533309269147516,51.370479178971195,-8.837169909823679,-0.0005420833147712111,0.0,-0.0005420833147712111
0.1400000000000001,move_to_zero,-0.1554027239298392,-4.0966940718046,3.9412913478747607,-78.18181366898031,-85.88121686998909,7.699403201008778,78.98801106627626,83.74752204085048,-4.759510974574226,42.38401689247166,51.31536063907959,-8.931343746607936,-0.0008388657040599855,0.0,-0.0008388657040599855
0.1420000000000001,move_to_zero,-0.1560452266050484,-4.092293755938,3.9362485293329517,-78.04974300898931,-85.788970664973,7.739227655983683,78.86646783480046,83.65756766701499,-4.7910998322145275,42.23682227008978,51.260242099188,-9.023419829098216,-0.0011198742003434108,0.0,-0.0011198742003434108
0.1440000000000001,move_to_zero,-0.15611983587071843,-4.087893440071399,3.931773604200681,-77.91918289245865,-85.6967244599569,7.777541567498247,78.74671166145122,83.56761329317948,-4.820901631728262,42.091691018898445,51.205123559296396,-9.113432540397952,-0.0013893441404718577,0.0,-0.0013893441404718577
0.1460000000000001,move_to_zero,-0.15575230511699262,-4.083493124204799,3.9277408190878065,-77.79008637523353,-85.6044782549408,7.814391879707273,78.62867670132314,83.47765891934398,-4.848982218020836,41.9485887979662,51.1500050194048,-9.201416221438599,-0.001648568388749291,0.0,-0.001648568388749291
0.1480000000000001,move_to_zero,-0.15507955206884624,-4.079092808338199,3.924013256269353,-77.66240217156367,-85.51223204992469,7.849829878361021,78.5123000016433,83.38770454550848,-4.875404543865187,41.807493647093935,51.0948864795132,-9.287392832419265,-0.0019020786280748376,0.0,-0.0019020786280748376
0.1500000000000001,move_to_zero,-0.15424371900943307,-4.074692492471599,3.9204487734621662,-77.53606551705536,-85.4199858449086,7.883920327853232,78.39752842453973,83.29775017167299,-4.9002217471332585,41.66835647824102,51.0397679396216,-9.371411461380575,-0.002149443289070718,0.0,-0.002149443289070718
0.1520000000000001,move_to_zero,-0.15334160937247318,-4.070292176604999,3.916950567232526,-77.4110198733074,-85.32773963989249,7.916719766585089,78.28429776892484,83.20779579783748,-4.923498028912633,41.531139496497374,50.984649399729996,-9.453509903232622,-0.0023947611861927865,0.0,-0.0023947611861927865
0.1540000000000001,move_to_zero,-0.1524680137354054,-4.065891860738399,3.913423847002994,-77.28721019670378,-85.23549343487639,7.948283238172607,78.17253583074508,83.11784142400198,-4.945305593256904,41.39581645195192,50.929530859838394,-9.533714407886471,-0.002661208488072361,0.0,-0.002661208488072361
0.1560000000000001,move_to_zero,-0.15167088514124927,-4.061491544871799,3.90982065973055,-77.16456689011805,-85.1432472298603,7.97868033974224,78.06217445803046,83.02788705016648,-4.965712592136029,41.26233292092965,50.8744123199468,-9.612079399017148,-0.0029569826014813586,0.0,-0.0029569826014813586
0.1580000000000001,move_to_zero,-0.15096640648291298,-4.0570912290051995,3.9061248225222864,-77.04305313759507,-85.0510010248442,8.00794788724913,77.9531573889394,82.93793267633099,-4.984775287391585,41.13066076420176,50.8192937800552,-9.68863301585344,-0.0032839274473071296,0.0,-0.0032839274473071296
0.16000000000000011,move_to_zero,-0.1503725877605403,-4.052690913138599,3.9023183253780585,-76.92263752904279,-84.95875481982809,8.036117290785299,77.84541424888458,82.84797830249549,-5.002564053610911,41.00079122543786,50.7641752401636,-9.763384014725744,-0.0036321795349258603,0.0,-0.0036321795349258603
0.16200000000000012,move_to_zero,-0.14987011690621274,-4.048290597272,3.898420480365787,-76.80327121044023,-84.86650861481199,8.063237404371762,77.73889812877371,82.75802392865998,-5.019125799886268,40.87271150680822,50.709056700271994,-9.836345193463771,-0.004002754683464363,0.0,-0.004002754683464363
0.16400000000000012,move_to_zero,-0.14944133882636637,-4.0438902814054,3.894448942579033,-76.68492908317116,-84.7742624097959,8.08933332662474,77.63357361223338,82.66806955482448,-5.034495942591107,40.746389985607,50.6539381603804,-9.907548174773396,-0.004391937763043724,0.0,-0.004391937763043724
0.16600000000000012,move_to_zero,-0.1490709592891542,-4.0394899655388,3.8904190062496453,-76.56754246854858,-84.68201620477979,8.114473736231204,77.52935738642446,82.57811518098899,-5.048757794564523,40.62179215255057,50.5988196204888,-9.977027467938228,-0.0047961271910717815,0.0,-0.0047961271910717815
0.16800000000000012,move_to_zero,-0.14874712663775436,-4.0350896496722,3.8863425230344455,-76.45107228389772,-84.5897699997637,8.138697715865987,77.42618868555229,82.48816080715348,-5.061972121601187,40.49885962848358,50.543701080597195,-10.044841452113616,-0.005172226234217892,0.0,-0.005172226234217892
0.17000000000000012,move_to_zero,-0.1484565866109718,-4.0306893338056,3.882232747194628,-76.33548906997072,-84.4975237947476,8.162034724776873,77.32400340250285,82.398206433318,-5.074203030815141,40.37754493890317,50.4885825407056,-10.11103760180243,-0.00551744450512589,0.0,-0.00551744450512589
0.17200000000000013,move_to_zero,-0.14817168355557303,-4.026289017939,3.8781173343834268,-76.2207697327984,-84.4052775897315,8.184507856933095,77.22276181104516,82.30825205948248,-5.085490248437324,40.25780517703164,50.433464000814,-10.175658823782356,-0.005835346815401877,0.0,-0.005835346815401877
0.17400000000000013,move_to_zero,-0.14787387570501168,-4.021888702072399,3.8740148263673873,-76.10688576804706,-84.31303138471539,8.206145616668323,77.12242438009429,82.21829768564697,-5.095873305552686,40.13958919713482,50.3783454609224,-10.238756263787579,-0.006132299681282079,0.0,-0.006132299681282079
0.17600000000000013,move_to_zero,-0.14756518857025183,-4.017488386205799,3.869923197635547,-75.99378985644309,-84.22078517969929,8.226995323256205,77.02294894726758,82.12834331181149,-5.105394364543912,40.02285966633995,50.323226921030795,-10.300367254690848,-0.00641273992146179,0.0,-0.00641273992146179
0.17800000000000013,move_to_zero,-0.14724704398913147,-4.013088070339199,3.8658410263500675,-75.8814489460917,-84.12853897468318,8.247090028591487,76.92428943770285,82.03838893797598,-5.114099500273127,39.90757990602429,50.2681083811392,-10.360528475114911,-0.006680115277533766,0.0,-0.006680115277533766
0.18000000000000013,move_to_zero,-0.14690744580957132,-4.008687754472599,3.861780308663028,-75.76984685354442,-84.0362927696671,8.266445916122677,76.82640158349929,81.94843456414048,-5.122032980641194,39.79370585979465,50.2129898412476,-10.41928398145295,-0.0069562512904537185,0.0,-0.0069562512904537185
0.18200000000000013,move_to_zero,-0.14654005539300285,-4.004287438605999,3.8577473832129963,-75.65895026843492,-83.944046564651,8.285096296216082,76.72924296940934,81.85848019030499,-5.1292372208956465,39.68119254377796,50.157871301355996,-10.476678757578036,-0.007253817802434924,0.0,-0.007253817802434924
0.18400000000000014,move_to_zero,-0.1461541367178077,-3.9998871227393993,3.8537329860215914,-75.54872315748504,-83.8518003596349,8.30307720214985,76.63276150663458,81.76852581646948,-5.135764309834897,39.570005811944654,50.1027527614644,-10.532746949519748,-0.00756140016101585,0.0,-0.00756140016101585
0.18600000000000014,move_to_zero,-0.1457567736877286,-3.995486806872799,3.8497300331850703,-75.43912447460474,-83.7595541546188,8.320429680014058,76.53690035982359,81.67857144263398,-5.14167108281039,39.46011534882581,50.04763422157279,-10.587518872746983,-0.007867839413806654,0.0,-0.007867839413806654
0.18800000000000014,move_to_zero,-0.14534274075469655,-3.991086491006199,3.8457437502515024,-75.33013474385288,-83.66730794960269,8.337173205749806,76.44162359952529,81.58861706879848,-5.146993469273198,39.35149256604946,49.9925156816812,-10.64102311563174,-0.008162321854663823,0.0,-0.008162321854663823
0.19000000000000014,move_to_zero,-0.14493739708095688,-3.986686175139599,3.8417487780586423,-75.22171960046231,-83.57506174458659,8.353342144124284,76.34691206996492,81.49866269496299,-5.151750624998073,39.24411268287992,49.937397141789596,-10.693284458909673,-0.008442558345504132,0.0,-0.008442558345504132
0.19200000000000014,move_to_zero,-0.1445223481262512,-3.9822858592729995,3.8377635111467483,-75.11385200320422,-83.48281553957048,8.368963536366266,76.25270176904196,81.40870832112748,-5.156006552085515,39.137944537954304,49.882278601897994,-10.74433406394369,-0.008734184352598557,0.0,-0.008734184352598557
0.19400000000000014,move_to_zero,-0.14410868602454807,-3.9778855434063995,3.8337768573818516,-75.00648866727599,-83.3905693345544,8.384080667278411,76.15895688309014,81.31875394729198,-5.15979706420184,39.0329529986827,49.8271600620064,-10.794207063323697,-0.009011413622073338,0.0,-0.009011413622073338
0.19600000000000015,move_to_zero,-0.1436963670928356,-3.9734852275397996,3.829788860446964,-74.89960984436544,-83.29832312953829,8.398713285172846,76.065634330805,81.22879957345648,-5.163165242651488,38.92909016480064,49.7720415221148,-10.842951357314156,-0.009276554688322489,0.0,-0.009276554688322489
0.19800000000000015,move_to_zero,-0.14328233403227547,-3.9690849116731997,3.8258025776409244,-74.79317987573002,-83.2060769245222,8.412897048792175,75.9726966609183,81.13884519962097,-5.1661485387026715,38.82631855435053,49.716922982223196,-10.890604427872667,-0.009531120737066787,0.0,-0.009531120737066787
0.20000000000000015,move_to_zero,-0.1428514715217058,-3.9646845958065993,3.8218331242848933,-74.68717500219176,-83.1138307195061,8.426655717314333,75.88011392899446,81.04889082578549,-5.16877689679103,38.7246076795583,49.661804442331594,-10.937196762773297,-0.009779150202773292,0.0,-0.009779150202773292
0.20200000000000015,move_to_zero,-0.14240290081452595,-3.9602842799399993,3.8178813791254735,-74.58157940211154,-83.02158451448999,8.440005112378444,75.78786713924812,80.95893645194998,-5.17106931270186,38.62389583124135,49.60668590244,-10.98279007119865,-0.010027618899076145,0.0,-0.010027618899076145
0.20400000000000015,move_to_zero,-0.14195861592365863,-3.9558839640733994,3.813925348149741,-74.4764092681322,-82.92933830947389,8.45292904134169,75.6959295927957,80.86898207811447,-5.173052485318777,38.52416486620993,49.5515673625484,-11.027402496338468,-0.010273667378019416,0.0,-0.010273667378019416
0.20600000000000016,move_to_zero,-0.1415211039049682,-3.9514836482067994,3.8099625443018312,-74.37163197129317,-82.8370921044578,8.465460133164626,75.60424245762245,80.77902770427899,-5.1747852466565405,38.425381797972605,49.496448822656795,-11.07106702468419,-0.010515093502927711,0.0,-0.010515093502927711
0.20800000000000016,move_to_zero,-0.14106734226379186,-3.947083332340199,3.806015990076407,-74.2672159483545,-82.7448458994417,8.477629951087195,75.51278745422309,80.68907333044348,-5.1762858762203905,38.327517919762954,49.4413302827652,-11.113812363002246,-0.010752050123312453,0.0,-0.010752050123312453
0.21000000000000016,move_to_zero,-0.14060855311210632,-3.942683016473599,3.802074463361493,-74.16313711691696,-82.65259969442559,8.489462577508633,75.42156789737331,80.59911895660798,-5.177551059234673,38.2305366645015,49.38621174287359,-11.155675078372091,-0.010986025551499488,0.0,-0.010986025551499488
0.21200000000000016,move_to_zero,-0.14013376725596388,-3.938282700606999,3.7981489333510354,-74.0593855526495,-82.5603534894095,8.500967936759992,75.33058181928187,80.50916458277248,-5.17858276349061,38.13439130748088,49.331093202982,-11.196701895501114,-0.011221938783774626,0.0,-0.011221938783774626
0.21400000000000016,move_to_zero,-0.1396457393798126,-3.933882384740399,3.7942366453605865,-73.95593279771946,-82.46810728439338,8.512174486673928,75.23978812544728,80.41921020893697,-5.179422083489698,38.039040359236225,49.275974663090395,-11.23693430385417,-0.011458704602796582,0.0,-0.011458704602796582
0.21600000000000016,move_to_zero,-0.13918043856686393,-3.929482068873799,3.790301630306935,-73.85275578952411,-82.37586107937729,8.523105289853177,75.14917140617003,80.32925583510148,-5.180084428931451,37.94446353840668,49.2208561231988,-11.27639258479212,-0.01170809004654357,0.0,-0.01170809004654357
0.21800000000000017,move_to_zero,-0.13874123650530054,-3.925081753007199,3.786340516501898,-73.74983044714966,-82.28361487436119,8.533784427211529,75.05870038444844,80.23930146126598,-5.180601076817538,37.85062154537209,49.1657375833072,-11.315116037935105,-0.011966021090485644,0.0,-0.011966021090485644
0.22000000000000017,move_to_zero,-0.13831441837207334,-3.9206814371406,3.7823670187685265,-73.64714704007997,-82.1913686693451,8.544221629265124,74.96834532439821,80.14934708743048,-5.1810017630322704,37.75749106394869,49.110619043415596,-11.353127979466905,-0.012236955622395062,0.0,-0.012236955622395062
0.22200000000000017,move_to_zero,-0.13789579724480058,-3.9162811212739994,3.7783853240291987,-73.54468734301878,-82.099122464329,8.55443512131022,74.87808121697088,80.05939271359497,-5.18131149662409,37.66504093222227,49.055500503523994,-11.390459571301726,-0.012498418862744689,0.0,-0.012498418862744689
0.22400000000000017,move_to_zero,-0.13745681710358895,-3.9118808054073995,3.7744239883038104,-73.44244850725707,-82.00687625931289,8.56442775205582,74.787894098776,79.96943833975948,-5.181544240983484,37.57327049035774,49.00038196363239,-11.42711147327465,-0.012755336037010111,0.0,-0.012755336037010111
0.22600000000000017,move_to_zero,-0.13700754027642603,-3.9074804895407995,3.7704729492643736,-73.34041973745474,-81.9146300542968,8.574210316842056,74.6977598782345,79.87948396592398,-5.181724087689474,37.482130392844375,48.9452634237408,-11.463133030896422,-0.013032771412308826,0.0,-0.013032771412308826
0.22800000000000017,move_to_zero,-0.1365683172307967,-3.9030801736741996,3.766511856443403,-73.23860149734881,-81.82238384928068,8.583782351931873,74.60766718281369,79.78952959208848,-5.1818624092748,37.391607487932774,48.890144883849196,-11.498537395916422,-0.013328504812407736,0.0,-0.013328504812407736
0.23000000000000018,move_to_zero,-0.1361534479463496,-3.898679857807599,3.7625264098612496,-73.13699564161836,-81.73013764426459,8.593142002646232,74.51758944875064,79.69957521825299,-5.181985769502347,37.30169734610663,48.8350263439576,-11.533328997850973,-0.013633497253325242,0.0,-0.013633497253325242
0.23200000000000018,move_to_zero,-0.13576205809245132,-3.8942795419409992,3.758517483848548,-73.03560268133128,-81.63789143924849,8.602288757917208,74.42752526753566,79.60962084441748,-5.182095576881821,37.21235168941679,48.77990780406599,-11.5675561146492,-0.013955576762687725,0.0,-0.013955576762687725
0.23400000000000018,move_to_zero,-0.13535044039374503,-3.8898792260743993,3.7545287856806544,-72.93440582241759,-81.5456452342324,8.611239411814807,74.33745931269661,79.51966647058198,-5.182207157885372,37.123560286601965,48.72478926417439,-11.601228977572426,-0.014257085727289655,0.0,-0.014257085727289655
0.23600000000000018,move_to_zero,-0.13493260774479227,-3.8854789102077993,3.750546302463007,-72.83338678655396,-81.45339902921629,8.620012242662327,74.24738434510321,79.42971209674648,-5.182327751643271,37.03531130645005,48.669670724282796,-11.634359417832748,-0.014542609394131163,0.0,-0.014542609394131163
0.23800000000000018,move_to_zero,-0.13449002235875387,-3.881078594341199,3.746588571982445,-72.73253749193223,-81.36115282420019,8.628615332267955,74.15729904254059,79.33975772291097,-5.182458680370388,36.947552001592086,48.614552184391194,-11.667000182799107,-0.014814188417214118,0.0,-0.014814188417214118
0.24000000000000019,move_to_zero,-0.13403145628064644,-3.876678278474599,3.7426468221939526,-72.63184770852557,-81.2689066191841,8.637058910658524,74.06718860857377,79.24980334907549,-5.1826147405017196,36.86023885869268,48.5594336444996,-11.699194785806917,-0.01507404854876826,0.0,-0.01507404854876826
0.2420000000000002,move_to_zero,-0.1335756667356341,-3.872277962607999,3.738702295872365,-72.53132617866108,-81.17666041416798,8.645334235506908,73.97704103741309,79.15984897523998,-5.182807937826894,36.773321976279306,48.504315104608,-11.730993128328691,-0.015322785311270905,0.0,-0.015322785311270905
0.2440000000000002,move_to_zero,-0.13311503196027522,-3.867877646741399,3.7347626147811237,-72.43094459689509,-81.08441420915189,8.6534696122568,73.88684567375697,79.06989460140447,-5.183048927647505,36.68676112117891,48.449196564716395,-11.762435443537484,-0.01556430672311512,0.0,-0.01556430672311512
0.2460000000000002,move_to_zero,-0.1326677187437894,-3.8634773308747987,3.7308096121310093,-72.33070275736343,-80.99216800413579,8.661465246772366,73.7965677250306,78.97994022756899,-5.18337250253839,36.60055349613412,48.39407802482479,-11.793524528690675,-0.015806230570202494,0.0,-0.015806230570202494
0.2480000000000002,move_to_zero,-0.13223890553561973,-3.8590770150081988,3.726838109472579,-72.23060808099555,-80.8999217991197,8.669313718124144,73.70619989446875,78.88998585373348,-5.183785959264725,36.51468071472144,48.33895948493319,-11.824278770211748,-0.016060251902032325,0.0,-0.016060251902032325
0.25000000000000017,move_to_zero,-0.13182870871841196,-3.8546766991415997,3.7228479904231877,-72.13063960038448,-80.80767559410359,8.677035993719102,73.6157564159123,78.80003147989798,-5.18427506398568,36.42915076512356,48.2838409450416,-11.854690179918038,-0.016312409124167048,0.0,-0.016312409124167048
0.25200000000000017,move_to_zero,-0.13141456360925963,-3.8502763832749993,3.7188618196657397,-72.03080227907894,-80.71542938908749,8.684627110008549,73.5252290383197,78.71007710606249,-5.1848480677427915,36.343948466344315,48.228722405149995,-11.88477393880568,-0.016562427390571864,0.0,-0.016562427390571864
0.25400000000000017,move_to_zero,-0.1310032660230552,-3.8458760674083994,3.714872801385344,-71.93111544578414,-80.62318318407138,8.692067738287236,73.43460505806526,78.62012273222697,-5.185517674161716,36.25909866198516,48.1736038652584,-11.914505203273237,-0.01681288156482434,0.0,-0.01681288156482434
0.25600000000000017,move_to_zero,-0.1305906639057687,-3.8414757515417994,3.7108850876360306,-71.83156912621278,-80.53093697905528,8.6993678528425,73.34386347712967,78.53016835839148,-5.186304881261805,36.1745857877584,48.11848532536679,-11.943899537608388,-0.01705725825050411,0.0,-0.01705725825050411
0.2580000000000002,move_to_zero,-0.13018006557227976,-3.8370754356751995,3.7068953701029197,-71.7321430337946,-80.43869077403919,8.706547740244588,73.25298890074696,78.44021398455598,-5.187225083809025,36.0903984714989,48.063366785475196,-11.972968313976295,-0.0172997135478065,0.0,-0.0172997135478065
0.2600000000000002,move_to_zero,-0.12980235908339408,-3.832675119808599,3.702872760725205,-71.6328508078491,-80.34644456902309,8.713593761173996,73.16197118503258,78.35025961072049,-5.188288425687901,36.00653492415538,48.008248245583594,-12.001713321428213,-0.017537958819458733,0.0,-0.017537958819458733
0.2620000000000002,move_to_zero,-0.1294689132613863,-3.828274803941999,3.698805890680613,-71.5336843341369,-80.254198364007,8.720514029870102,73.07080328887335,78.26030523688497,-5.189501948011625,35.92297194839307,47.95312970569199,-12.030157757298923,-0.017772258146634873,0.0,-0.017772258146634873
0.2640000000000002,move_to_zero,-0.12917476416769544,-3.823874488075399,3.694699723907704,-71.43465069372482,-80.16195215899089,8.727301465266066,72.97946518042089,78.17035086304948,-5.19088568262859,35.83968928162046,47.8980111658004,-12.05832188417994,-0.018003129040985107,0.0,-0.018003129040985107
0.2660000000000002,move_to_zero,-0.1288885964869524,-3.8194741722087993,3.6905855757218466,-71.33575374108676,-80.06970595397479,8.733952212888028,72.88793769801379,78.08039648921398,-5.192458791200195,35.756665957107415,47.842892625908796,-12.08622666880138,-0.01823617168938192,0.0,-0.01823617168938192
0.2680000000000002,move_to_zero,-0.1285906282394639,-3.815073856342199,3.686483228102735,-71.2370031119218,-79.97745974895868,8.740456637036885,72.79619682122846,77.99044211537847,-5.194245294150008,35.67390457578139,47.787774086017194,-12.113869510235801,-0.01847501621172088,0.0,-0.01847501621172088
0.2700000000000002,move_to_zero,-0.12827378952805513,-3.810673540475599,3.682399750947544,-71.13839196507027,-79.8852135439426,8.746821578872328,72.70424332615214,77.90048774154299,-5.196244415390851,35.59141273686662,47.73265554612559,-12.14124280925897,-0.01871302212101664,0.0,-0.01871302212101664
0.2720000000000002,move_to_zero,-0.1279316718787198,-3.806273224608999,3.678341552730279,-71.03994271752478,-79.79296733892649,8.753024621401707,72.61207972629737,77.81053336770748,-5.1984536414101115,35.509175084178956,47.677537006234,-12.168361922055041,-0.0189488577774375,0.0,-0.0189488577774375
0.2740000000000002,move_to_zero,-0.1275464696166696,-3.801872908742399,3.6743264391257293,-70.94165138771187,-79.70072113391039,8.75906974619852,72.51969485232992,77.72057899387197,-5.200884141542048,35.42715538238984,47.622418466342396,-12.195263083952554,-0.019189351781434525,0.0,-0.019189351781434525
0.2760000000000002,move_to_zero,-0.1271445801228299,-3.7974725928757986,3.670328012752969,-70.84351588212492,-79.60847492889428,8.764959046769363,72.42708351203227,77.63062462003649,-5.203541108004217,35.345353462652184,47.567299926450794,-12.22194646379861,-0.0194455872753578,0.0,-0.0194455872753578
0.2780000000000002,move_to_zero,-0.12672254293048274,-3.7930722770091996,3.666349734078717,-70.74549844174804,-79.51622872387819,8.770730282130145,72.33423457655938,77.54067024620097,-5.206435669641593,35.26375280156739,47.5121813865592,-12.248428584991807,-0.01972487135061609,0.0,-0.01972487135061609
0.2800000000000002,move_to_zero,-0.1263102692970884,-3.7886719611425996,3.6623616918455113,-70.64760940377536,-79.42398251886209,8.776373115086727,72.24115462046781,77.45071587236548,-5.209561251897668,35.182330110853414,47.45706284666759,-12.274732735814176,-0.020030940601793397,0.0,-0.020030940601793397
0.2820000000000002,move_to_zero,-0.12593988257232122,-3.7842716452759992,3.658331762703678,-70.54987131186314,-79.331736313846,8.781865001982851,72.14784537190089,77.36076149852998,-5.212916126629096,35.10108129575314,47.401944306775995,-12.300863011022855,-0.020350552976874485,0.0,-0.020350552976874485
0.2840000000000002,move_to_zero,-0.1256050685668795,-3.7798713294093993,3.65426626084252,-70.45227365312074,-79.2394901088299,8.787216455709157,72.05431807044792,77.27080712469449,-5.216489054246566,35.01999710604551,47.34682576688439,-12.326828660838885,-0.020683032400610483,0.0,-0.020683032400610483
0.2860000000000002,move_to_zero,-0.1252987054269999,-3.7754710135427993,3.6501723081157995,-70.3548333493138,-79.14724390381379,8.792410554499995,71.96056779668382,77.18085275085897,-5.220284954175156,34.939093729435974,47.29170722699279,-12.352613497556817,-0.021008662507947903,0.0,-0.021008662507947903
0.2880000000000002,move_to_zero,-0.125011161294228,-3.7710706976761994,3.6460595363819714,-70.25753534255834,-79.05499769879769,8.79746235623935,71.86659158176519,77.09089837702348,-5.224306795258286,34.85836037586439,47.2365886871012,-12.378228311236803,-0.021310342415555992,0.0,-0.021310342415555992
0.2900000000000002,move_to_zero,-0.12473397907304021,-3.766670381809599,3.6419364027365586,-70.16038203589821,-78.96275149378158,8.802369457883373,71.77239862129004,77.00094400318798,-5.228545381897945,34.77780695362989,47.181470147209595,-12.403663193579703,-0.021593027983021082,0.0,-0.021593027983021082
0.2920000000000002,move_to_zero,-0.124457195630694,-3.762270065942999,3.637812870312305,-70.06337367831424,-78.87050528876549,8.80713161045125,71.67799495113204,76.91098962935247,-5.232994678220436,34.697443958004534,47.12635160731799,-12.428907649313459,-0.021859623549817672,0.0,-0.021859623549817672
0.2940000000000002,move_to_zero,-0.12418554953192547,-3.757869750076399,3.6336842005444736,-69.96650053452996,-78.77825908374939,8.811758549219434,71.58341061630736,76.82103525551699,-5.237624639209628,34.61727028998117,47.07123306742639,-12.45396277744522,-0.02211273602915706,0.0,-0.02211273602915706
0.2960000000000002,move_to_zero,-0.12388170076547127,-3.753469434209799,3.629587733444328,-69.86977600197628,-78.6860128787333,8.816236876757017,71.48864915840122,76.73108088168148,-5.242431723280262,34.5372825520639,47.016114527534796,-12.478831975470897,-0.02235383215384547,0.0,-0.02235383215384547
0.2980000000000002,move_to_zero,-0.12354537826649803,-3.749069118343199,3.6255237400767006,-69.77320274078109,-78.59376667371718,8.820563932936096,71.3937165809033,76.64112650784598,-5.24740992694268,34.45746775584642,46.960995987643194,-12.503528231796771,-0.022587168999748865,0.0,-0.022587168999748865
0.3000000000000002,move_to_zero,-0.123172838068254,-3.744668802476599,3.6214959644083446,-69.67679238078368,-78.50152046870109,8.824728087917407,71.29861429503981,76.55117213401049,-5.252557838970674,34.37782620121129,46.90587744775159,-12.5280512465403,-0.022816076881463976,0.0,-0.022816076881463976
0.3020000000000002,move_to_zero,-0.12279318918913615,-3.740268486609999,3.617475297420863,-69.58052912019147,-78.40927426368499,8.82874514349352,71.2033715082175,76.46121776017497,-5.257846251957474,34.29837523993863,46.85075890786,-12.552383667921369,-0.023041902379502245,0.0,-0.023041902379502245
0.3040000000000002,move_to_zero,-0.12241075657408818,-3.735868170743399,3.6134574141693108,-69.4844108739108,-78.31702805866888,8.832617184758078,71.10801068610908,76.37126338633948,-5.263252700230396,34.219081022695796,46.79564036796839,-12.576559345272592,-0.023263750097836936,0.0,-0.023263750097836936
0.3060000000000002,move_to_zero,-0.12201123122586817,-3.7314678548767994,3.609456623650931,-69.388432052835,-78.22478185365279,8.836349800817786,71.01252369171648,76.28130901250398,-5.268785320787501,34.139938339627804,46.740521828076794,-12.60058348844899,-0.02348146070890394,0.0,-0.02348146070890394
0.3080000000000002,move_to_zero,-0.12160015794267631,-3.7270675390101995,3.6054673810675233,-69.29259581416514,-78.13253564863669,8.83993983447155,70.91688529548637,76.19135463866847,-5.274469343182105,34.0609530132267,46.68540328818519,-12.624450274958491,-0.023695020102437857,0.0,-0.023695020102437857
0.3100000000000002,move_to_zero,-0.12118880318824846,-3.7226672231435995,3.601478419955351,-69.19688460535508,-78.0402894436206,8.843404838265513,70.82109243216185,76.10140026483299,-5.2803078326711415,33.98210353398887,46.6302847482936,-12.648181214304728,-0.023905849911556705,0.0,-0.023905849911556705
0.3120000000000002,move_to_zero,-0.12080509984692393,-3.718266907276999,3.5974618074300753,-69.10128008865368,-77.94804323860448,8.846763149950803,70.72514039922018,76.01144589099748,-5.2863054917772985,33.903363965637276,46.575166208401996,-12.67180224276472,-0.02411284345917184,0.0,-0.02411284345917184
0.3140000000000002,move_to_zero,-0.12046320594104015,-3.713866591410399,3.593403385469359,-69.00579038126573,-77.85579703358839,8.850006652322662,70.62904439932444,75.92149151716198,-5.29244711783754,33.82474402871882,46.520047668510394,-12.695303639791575,-0.024317802205756755,0.0,-0.024317802205756755
0.3160000000000002,move_to_zero,-0.12013966417847115,-3.7094662755437993,3.589326611365328,-68.91042543118496,-77.76355082857228,8.853125397387316,70.53281312870352,75.83153714332649,-5.298724014622962,33.746234537293205,46.46492912861879,-12.718694591325587,-0.02452232176840576,0.0,-0.02452232176840576
0.3180000000000002,move_to_zero,-0.11982550922753392,-3.7050659596771993,3.5852404504496653,-68.81518317343281,-77.67130462355618,8.856121450123368,70.43644282811555,75.74158276949098,-5.30513994137543,33.667821432695895,46.40981058872719,-12.741989156031295,-0.024725084179352062,0.0,-0.024725084179352062
0.32000000000000023,move_to_zero,-0.11950239847407373,-3.700665643810599,3.5811632453365254,-68.72004762767621,-77.57905841854009,8.859010790863877,70.3399404713238,75.65162839565548,-5.311687924331679,33.58953092825454,46.354692048835595,-12.765161120581055,-0.02492808479855272,0.0,-0.02492808479855272
0.32200000000000023,move_to_zero,-0.11917598004103025,-3.696265327943999,3.5770893479029686,-68.62499515127091,-77.48681221352399,8.861817062253081,70.24332974794439,75.56167402181998,-5.318344273875596,33.51132168526569,46.29957350894399,-12.788251823678301,-0.025133097762041378,0.0,-0.025133097762041378
0.32400000000000023,move_to_zero,-0.11883533791948533,-3.691865012077399,3.5730296741579135,-68.53001879529717,-77.3945660085079,8.864547213210727,70.14661016519295,75.47171964798449,-5.325109482791532,33.43319414488222,46.2444549690524,-12.811260824170176,-0.02533894537736347,0.0,-0.02533894537736347
0.32600000000000023,move_to_zero,-0.11847185367788594,-3.687464696210799,3.568992842532913,-68.43515470442641,-77.30231980349178,8.867165099065375,70.04979533348079,75.38176527414898,-5.331969940668188,33.35512635610071,46.1893364291608,-12.834210073060085,-0.025544203460889703,0.0,-0.025544203460889703
0.32800000000000024,move_to_zero,-0.11810935225141336,-3.6830643803441987,3.5649550280927853,-68.34039619519334,-77.21007359847569,8.869677403282353,69.95287498316972,75.29181090031348,-5.338935917143758,33.27710030266964,46.13421788926919,-12.85711758659955,-0.025751683767155194,0.0,-0.025751683767155194
0.33000000000000024,move_to_zero,-0.11774480685297449,-3.6786640644775987,3.5609192576246245,-68.2457298891871,-77.11782739345958,8.872097504272475,69.85584652563418,75.20185652647798,-5.346010000843805,33.19912806094003,46.07909934937759,-12.87997128843756,-0.025961073344556614,0.0,-0.025961073344556614
0.33200000000000024,move_to_zero,-0.11737563035356088,-3.674263748610999,3.556888118257438,-68.15114260148194,-77.02558118844348,8.874438586961546,69.75870647531686,75.11190215264247,-5.3531956773256155,33.12120123759673,46.02398080948599,-12.902779571889262,-0.026172361333478927,0.0,-0.026172361333478927
0.33400000000000024,move_to_zero,-0.11702120662779651,-3.669863432744399,3.5528422261166024,-68.05662315828172,-76.93333498342739,8.876711825145662,69.66145042239074,75.02194777880699,-5.360497356416246,33.04332276183625,45.968862269594396,-12.925539507758145,-0.026388819012530217,0.0,-0.026388819012530217
0.33600000000000024,move_to_zero,-0.11667503633829268,-3.6654631168777994,3.5487880805395067,-67.96218500427776,-76.84108877841129,8.878903774133533,69.56410643260583,74.93199340497148,-5.367886972365653,32.96549212302885,45.913743729702794,-12.948251606673942,-0.026604308678023103,0.0,-0.026604308678023103
0.33800000000000024,move_to_zero,-0.11634645088803465,-3.6610628010111994,3.544716350123165,-67.86783729143605,-76.74884257339518,8.881005281959133,69.4666812199455,74.84203903113597,-5.375357811190469,32.887705567636054,45.85862518981119,-12.970919622175138,-0.02681897634283053,0.0,-0.02681897634283053
0.34000000000000025,move_to_zero,-0.11605508245969712,-3.6566624851445995,3.5406074026849024,-67.77358261166714,-76.65659636837908,8.883013756711946,69.3691476316149,74.75208465730049,-5.382937025685592,32.80996662598656,45.80350664991959,-12.99354002393303,-0.027034140422415098,0.0,-0.027034140422415098
0.34200000000000025,move_to_zero,-0.11578844036490639,-3.652262169277999,3.5364737289130925,-67.6794167598049,-76.56435016336299,8.884933403558094,69.27149150175181,74.66213028346498,-5.3906387817131645,32.73224533000218,45.74838811002799,-13.01614278002581,-0.027253003944930073,0.0,-0.027253003944930073
0.34400000000000025,move_to_zero,-0.11554505094907332,-3.647861853411399,3.5323168024623257,-67.58531896874844,-76.47210395834688,8.88678498959844,69.17370041182699,74.57217590962948,-5.398475497802494,32.65454956115975,45.693269570136394,-13.038720008976647,-0.027494865541091887,0.0,-0.027494865541091887
0.34600000000000025,move_to_zero,-0.11531207059602885,-3.643461537544799,3.5281494669487703,-67.49129632732495,-76.3798577533308,8.88856142600585,69.07578443050032,74.48222153579398,-5.406437105293662,32.576902300572826,45.63815103024479,-13.061248729671966,-0.02774569154024242,0.0,-0.02774569154024242
0.34800000000000025,move_to_zero,-0.11508868069809045,-3.6390612216781992,3.523972540980109,-67.39734474713977,-76.28761154831469,8.890266801174917,68.97774307000418,74.39226716195847,-5.414524091954291,32.49931111621853,45.5830324903532,-13.083721374134669,-0.02799777111045057,0.0,-0.02799777111045057
0.35000000000000026,move_to_zero,-0.11488158543795814,-3.634660905811599,3.5197793203736407,-67.30347393135132,-76.19536534329859,8.89189141194727,68.87959229601364,74.30231278812298,-5.422720492109335,32.421764197071816,45.52791395046159,-13.106149753389772,-0.028256883785886682,0.0,-0.028256883785886682
0.35200000000000026,move_to_zero,-0.1146877057861274,-3.630260589944999,3.5155728841588716,-67.2096892359875,-76.10311913828248,8.893429902294983,68.78136437899612,74.21235841428748,-5.430994035291363,32.34427170702821,45.472795410569994,-13.12852370354178,-0.028530852484323986,0.0,-0.028530852484323986
0.35400000000000026,move_to_zero,-0.11450098581398414,-3.625860274078399,3.5113592882644147,-67.11597800479848,-76.01087293326638,8.894894928467906,68.68304960400108,74.12240404045198,-5.439354436450898,32.26681790881852,45.41767687067839,-13.150858961859875,-0.028794508980595684,0.0,-0.028794508980595684
0.35600000000000026,move_to_zero,-0.11430794471766405,-3.621459958211799,3.5071520134941347,-67.02235765753562,-75.91862672825027,8.896269070714652,68.58463278730152,74.03244966661647,-5.447816879314956,32.189389507982504,45.36255833078679,-13.173168822804286,-0.02907443035420793,0.0,-0.02907443035420793
0.35800000000000026,move_to_zero,-0.11410387409754681,-3.6170596423451986,3.5029557682476518,-66.92882665538939,-75.82638052323418,8.897553867844792,68.48613816418604,73.94249529278098,-5.456357128594931,32.111998762655155,45.307439790895195,-13.19544102824004,-0.029372813895378935,0.0,-0.029372813895378935
0.36000000000000026,move_to_zero,-0.11386258472464263,-3.6126593264785987,3.498796741753956,-66.8353964164999,-75.7341343182181,8.898737901718192,68.38755631412442,73.85254091894548,-5.464984604821055,32.03464058353406,45.25232125100359,-13.21768066746953,-0.029695344351488285,0.0,-0.029695344351488285
0.36200000000000027,move_to_zero,-0.11362019269494378,-3.6082590106119987,3.494638817917055,-66.74208293087916,-75.64188811320199,8.899805182322822,68.28888740729423,73.76258654510997,-5.473699137815743,31.95730783376541,45.19720271111199,-13.239894877346583,-0.030015046856582978,0.0,-0.030015046856582978
0.36400000000000027,move_to_zero,-0.11337126421446832,-3.603858694745399,3.490487430530931,-66.64886680846521,-75.54964190818589,8.900775099720676,68.19010521988659,73.67263217127449,-5.4825269513878965,31.87999826997746,45.14208417122039,-13.26208590124293,-0.030326424726350113,0.0,-0.030326424726350113
0.36600000000000027,move_to_zero,-0.11310710389161666,-3.5994583788787993,3.486351274987183,-66.55576156304723,-75.45739570316978,8.901634140122553,68.09120610332198,73.58267779743898,-5.491471694116996,31.80272104271402,45.086965631328795,-13.284244588614776,-0.030619191340356542,0.0,-0.030619191340356542
0.36800000000000027,move_to_zero,-0.1127990984392964,-3.5950580630121993,3.4822589645729027,-66.46273314228503,-75.36514949815368,8.902416355868652,67.99217277907806,73.49272342360348,-5.500550644525418,31.725476670265227,45.03184709143719,-13.306370421171966,-0.0308919413917337,0.0,-0.0308919413917337
0.3700000000000003,move_to_zero,-0.11247800402916053,-3.5906577471455994,3.478179743116439,-66.36978154879029,-75.27290329313757,8.903121744347288,67.89300865981508,73.40276904976798,-5.509760389952902,31.648252328611562,44.97672855154559,-13.328476222934029,-0.031148094150172792,0.0,-0.031148094150172792
0.3720000000000003,move_to_zero,-0.11213991559045472,-3.586257431278999,3.4741175156885444,-66.27691491486385,-75.18065708812149,8.90374217325764,67.79371562983299,73.31281467593247,-5.519099046099484,31.571026641864705,44.921610011653996,-13.350583369789291,-0.03139030151836588,0.0,-0.03139030151836588
0.3740000000000003,move_to_zero,-0.1117973025062054,-3.581857115412399,3.4700598129061935,-66.18412214870189,-75.08841088310538,8.904288734403494,67.69430197374756,73.22286030209698,-5.528558328349419,31.493804543886903,44.86649147176239,-13.372686927875485,-0.031620203757287926,0.0,-0.031620203757287926
0.3760000000000003,move_to_zero,-0.11145863023652017,-3.577456799545799,3.465998169309279,-66.09141202725208,-74.99616467808929,8.90475265083721,67.59478382964714,73.13290592826148,-5.538122098614338,31.416566680127467,44.81137293187079,-13.394806251743326,-0.03183772115639561,0.0,-0.03183772115639561
0.3780000000000003,move_to_zero,-0.1111378577057972,-3.573056483679199,3.461918625973402,-65.99879336131424,-74.90391847307319,8.905125111758949,67.49515753020165,73.04295155442597,-5.5477940242243164,31.3393155793859,44.75625439197919,-13.41693881259329,-0.03204616206207438,0.0,-0.03204616206207438
0.3800000000000003,move_to_zero,-0.11084277098940945,-3.5686561678125988,3.4578133968231892,-65.9062979456937,-74.81167226805708,8.905374322363386,67.39542343193395,72.95299718059049,-5.557573748656537,31.26202140351946,44.70113585208759,-13.43911444856813,-0.03224718314625396,0.0,-0.03224718314625396
0.3820000000000003,move_to_zero,-0.11055596700780104,-3.564255851945999,3.4536998849381977,-65.81394242620168,-74.71942606304098,8.905483636839307,67.29557646820132,72.86304280675498,-5.567466338553658,31.184713813893154,44.646017312195994,-13.46130349830284,-0.03244161628137194,0.0,-0.03244161628137194
0.3840000000000003,move_to_zero,-0.11028076410435206,-3.559855536079399,3.4495747719750467,-65.72171233286984,-74.62717985802489,8.905467525155046,67.1956490616675,72.77308843291948,-5.577439371251984,31.10740894211298,44.59089877230439,-13.483489830191413,-0.03263047646572278,0.0,-0.03263047646572278
0.3860000000000003,move_to_zero,-0.11000269671653204,-3.5554552202127994,3.445452523496267,-65.6296123781342,-74.53493365300879,8.905321274874595,67.09563163561585,72.68313405908398,-5.587502423468138,31.030106808120014,44.53578023241279,-13.505673424292777,-0.0328163132067428,0.0,-0.0328163132067428
0.3880000000000003,move_to_zero,-0.1097197674572866,-3.551054904346199,3.4413351368889122,-65.53760588395319,-74.44268744799268,8.905081564039492,66.99551407623026,72.59317968524847,-5.5976656090182075,30.95280351949311,44.48066169252119,-13.52785817302808,-0.032999936398429686,0.0,-0.032999936398429686
0.3900000000000003,move_to_zero,-0.10941841193849758,-3.546654588479599,3.4372361765411013,-65.44569882800093,-74.35044124297659,8.904742414975658,66.89529295111582,72.50322531141298,-5.607932360297156,30.87547353368012,44.425543152629594,-13.550069618949475,-0.033183179270703814,0.0,-0.033183179270703814
0.3920000000000003,move_to_zero,-0.10910572395056004,-3.542254272612999,3.433148548662439,-65.35390497111693,-74.25819503796048,8.904290066843544,66.79496972287745,72.41327093757748,-5.6183012147000255,30.798118495525724,44.37042461273799,-13.572306117212268,-0.03336524454549977,0.0,-0.03336524454549977
0.3940000000000003,move_to_zero,-0.1087921939674601,-3.537853956746399,3.429061762778939,-65.26224710659584,-74.16594883294438,8.903701726348544,66.69453573897862,72.32331656374198,-5.628780824763368,30.72076498827565,44.31530607284639,-13.59454108457074,-0.033549692846507384,0.0,-0.033549692846507384
0.3960000000000003,move_to_zero,-0.10847884743186875,-3.5334536408797987,3.42497479344793,-65.17072530404114,-74.07370262792828,8.902977323887143,66.5939868501377,72.23336218990647,-5.639375339768776,30.643411136106497,44.260187532954795,-13.616776396848298,-0.03373586241465248,0.0,-0.03373586241465248
0.3980000000000003,move_to_zero,-0.10819526111328966,-3.529053325013199,3.4208580638999093,-65.07933602545782,-73.98145642291219,8.902120397454368,66.49331888255004,72.14340781607098,-5.650088933520934,30.56604779582651,44.205068993063186,-13.639021197236676,-0.03392283117729501,0.0,-0.03392283117729501
0.4000000000000003,move_to_zero,-0.10791985412285676,-3.524653009146599,3.416733155023742,-64.9880838442568,-73.88921021789609,8.901126373639286,66.39254902081744,72.05345344223548,-5.660904421418039,30.48869116826193,44.14995045317159,-13.661259284909661,-0.03410842252297127,0.0,-0.03410842252297127
0.4020000000000003,move_to_zero,-0.10765153512352646,-3.520252693279999,3.4126011581564724,-64.89696698518026,-73.79696401287998,8.899997027699726,66.29169412863293,71.96349906839997,-5.671804939767043,30.41131772435789,44.09483191327999,-13.6835141889221,-0.034292375649632105,0.0,-0.034292375649632105
0.4040000000000003,move_to_zero,-0.1073918947838185,-3.515852377413399,3.4084604826295806,-64.80600339352588,-73.70471780786389,8.898714414338002,66.19074957335883,71.87354469456449,-5.6827951212056576,30.333928504180314,44.039713373388395,-13.705784869208081,-0.0344734350219246,0.0,-0.0344734350219246
0.4060000000000003,move_to_zero,-0.10713719466994923,-3.511452061546799,3.4043148668768497,-64.71518763471225,-73.61247160284778,8.897283968135525,66.08970921366783,71.78359032072898,-5.693881107061145,30.256530269389593,43.98459483349679,-13.7280645641072,-0.0346524064062714,0.0,-0.0346524064062714
0.4080000000000003,move_to_zero,-0.10685949949200611,-3.507051745680199,3.400192246188193,-64.62451111231566,-73.52022539783168,8.895714285516021,65.98856023132461,71.69363594689347,-5.705075715568853,30.1791107228906,43.92947629360519,-13.750365570714592,-0.03483181221461405,0.0,-0.03483181221461405
0.4100000000000003,move_to_zero,-0.10654919168643778,-3.5026514298135987,3.396102238127161,-64.53396289650527,-73.42797919281558,8.894016296310312,65.88728879204095,71.60368157305798,-5.716392781017035,30.10168145637187,43.87435775371359,-13.772676297341718,-0.03500937668468778,0.0,-0.03500937668468778
0.4120000000000003,move_to_zero,-0.10623118187809064,-3.4982511139469987,3.392019932068908,-64.44354327784582,-73.33573298779949,8.89218970995367,65.78590542365193,71.51372719922247,-5.727821775570547,30.024251445354235,43.81923921382199,-13.794987768467752,-0.035183449548878754,0.0,-0.035183449548878754
0.4140000000000003,move_to_zero,-0.10589816228901291,-3.493850798080399,3.387952635791386,-64.35322856235993,-73.24348678278338,8.890258220423448,65.68442451884594,71.42377282538698,-5.739348306541032,29.946795216765295,43.76412067393039,-13.817325457165097,-0.03535480810211013,0.0,-0.03535480810211013
0.4160000000000003,move_to_zero,-0.10556876384711704,-3.4894504822137993,3.3838817183666823,-64.26300238827584,-73.15124057776728,8.888238189491446,65.58284713714087,71.33381845155148,-5.750971314410606,29.869299831291038,43.70900213403879,-13.839702302747753,-0.035521636084497,0.0,-0.035521636084497
0.4180000000000003,move_to_zero,-0.10524714657334001,-3.485050166347199,3.379803019773859,-64.17285227416737,-73.05899437275119,8.886142098583818,65.48119090466076,71.24386407771597,-5.762673173055205,29.79177143557796,43.653883594147196,-13.862112158569236,-0.035688625148582946,0.0,-0.035688625148582946
0.4200000000000003,move_to_zero,-0.10494457418149727,-3.480649850480599,3.3757052762991018,-64.08279237983248,-72.96674816773508,8.883955787902593,65.37946363446756,71.15390970388047,-5.774446069412917,29.714230284985554,43.598765054255594,-13.88453476927004,-0.03585636233030501,0.0,-0.03585636233030501
0.4220000000000003,move_to_zero,-0.10463266258519167,-3.476249534613999,3.3716168720288073,-63.992825620315415,-72.87450196271898,8.881676342403566,65.27765511396372,71.06395533004498,-5.786300216081258,29.636681794349723,43.543646514363985,-13.906964720014262,-0.03602385392997668,0.0,-0.03602385392997668
0.4240000000000003,move_to_zero,-0.10431057417766883,-3.471849218747399,3.36753864456973,-63.90295543601289,-72.78225575770288,8.879300321689996,65.17575984526262,70.97400095620948,-5.7982411109468615,29.55912977603137,43.48852797447239,-13.929398198441021,-0.03618977052164593,0.0,-0.03618977052164593
0.4260000000000003,move_to_zero,-0.1039855606432575,-3.4674489028807987,3.3634633422375413,-63.81318424588775,-72.69000955268679,8.876825306799041,65.0738194403333,70.88404658237397,-5.810227142040674,29.481560700973468,43.43340943458079,-13.95184873360732,-0.036352120111999196,0.0,-0.036352120111999196
0.4280000000000003,move_to_zero,-0.10366941485882457,-3.4630485870141987,3.359379172155374,-63.723500674262084,-72.59776334767068,8.874262673408595,64.97184578703782,70.79409220853847,-5.822246421500651,29.403993833199188,43.378290894689194,-13.974297061490006,-0.03651101691911706,0.0,-0.03651101691911706
0.4300000000000003,move_to_zero,-0.10337484169046952,-3.458648271147599,3.35527342945713,-63.63389688965637,-72.50551714265458,8.871620252998213,64.86984644018183,70.70413783470298,-5.834291394521145,29.32644938268885,43.32317235479759,-13.996722972108742,-0.03666644279126271,0.0,-0.03666644279126271
0.43200000000000033,move_to_zero,-0.10308002244587279,-3.454247955280999,3.351167932835126,-63.54436675512853,-72.41327093763847,8.868904182509944,64.76780590670565,70.61418346086747,-5.846377554161819,29.248909043905158,43.268053814906,-14.019144771000839,-0.03682129786212781,0.0,-0.03682129786212781
0.43400000000000033,move_to_zero,-0.10280266511367013,-3.449847639414399,3.347044974300729,-63.45489405081676,-72.32102473262238,8.866130681805615,64.66573115159605,70.52422908703198,-5.858497935435935,29.1713975017146,43.21293527501439,-14.041537773299787,-0.03697405208330692,0.0,-0.03697405208330692
0.43600000000000033,move_to_zero,-0.10254395820830918,-3.445447323547799,3.34290336533949,-63.36547861950143,-72.22877852760628,8.86329990810485,64.56362754469396,70.43427471319647,-5.870647168502515,29.09390432748993,43.157816735122786,-14.063912407632856,-0.03712512578609689,0.0,-0.03712512578609689
0.43800000000000033,move_to_zero,-0.10230939661139082,-3.441047007681199,3.338737611069808,-63.27611669233141,-72.13653232259018,8.860415630258778,64.46148573997932,70.34432033936098,-5.882834599381653,29.016431813512913,43.10269819523119,-14.086266381718278,-0.03727349666231033,0.0,-0.03727349666231033
0.44000000000000034,move_to_zero,-0.10209297853220192,-3.4366466918145986,3.334553713282397,-63.186832930117106,-72.04428611757409,8.857453187456983,64.35932531074559,70.25436596552548,-5.895040654779891,28.938968902443122,43.04757965533959,-14.108610752896467,-0.03741872037429306,0.0,-0.03741872037429306
0.44200000000000034,move_to_zero,-0.1018933149538413,-3.4322463759479986,3.3303530609941574,-63.09763732872109,-71.95203991255798,8.854402583836887,64.25715004966645,70.16441159168997,-5.9072615420235195,28.861538711073468,42.992461115447995,-14.130922404374527,-0.03756099758403353,0.0,-0.03756099758403353
0.44400000000000034,move_to_zero,-0.10170792958531312,-3.427846060081399,3.326138130496086,-63.00851031050643,-71.85979370754188,8.851283397035452,64.15498143677165,70.07445721785447,-5.919475781082824,28.784137127206083,42.937342575556386,-14.153205448350302,-0.03770129808022262,0.0,-0.03770129808022262
0.44600000000000034,move_to_zero,-0.10153235431700497,-3.423445744214799,3.3219133898977944,-62.91941566900979,-71.76754750252577,8.848131833515986,64.0528231482685,69.98450284401898,-5.931679695750475,28.70677980933095,42.88222403566479,-14.175444226333841,-0.03783920616707319,0.0,-0.03783920616707319
0.44800000000000034,move_to_zero,-0.10135767645325376,-3.419045428348199,3.3176877518949452,-62.83037342491423,-71.67530129750969,8.844927872595463,63.9506738821764,69.89454847018347,-5.943874588007063,28.62946864499512,42.82710549577319,-14.197636850778068,-0.03797388101327866,0.0,-0.03797388101327866
0.45000000000000034,move_to_zero,-0.10117082014499394,-3.414645112481599,3.313474292336605,-62.74139345331463,-71.58305509249358,8.841661639178952,63.848518343986086,69.80459409634798,-5.9560757523618975,28.55220285781629,42.77198695588159,-14.219784098065297,-0.038107169132868456,0.0,-0.038107169132868456
0.45200000000000035,move_to_zero,-0.10098711601579173,-3.410244796614999,3.3092576805992073,-62.652479618570766,-71.49080888747748,8.838329268906719,63.7463360635977,69.71463972251247,-5.96830365891477,28.474960711262256,42.71686841598999,-14.241907704727737,-0.03824196010517804,0.0,-0.03824196010517804
0.45400000000000035,move_to_zero,-0.10079400838663427,-3.405844480748399,3.305050472361765,-62.56360207470157,-71.39856268246137,8.834960607759804,63.64410806729683,69.62468534867698,-5.98057728138015,28.397731051664817,42.66174987609839,-14.264018824433574,-0.038376508568238515,0.0,-0.038376508568238515
0.45600000000000035,move_to_zero,-0.10059434275649737,-3.4014441648817986,3.300849822125301,-62.474739862638025,-71.30631647744528,8.831576614807254,63.541832128064804,69.53473097484148,-5.992898846776676,28.320495481358694,42.60663133620679,-14.286135854848094,-0.03851289788705455,0.0,-0.03851289788705455
0.45800000000000035,move_to_zero,-0.10038240452810672,-3.397043849015199,3.2966614444870923,-62.385916362203474,-71.21407027242918,8.828153910225709,63.43950111983532,69.44477660100597,-6.005275481170649,28.243264586052277,42.55151279631519,-14.30824821026291,-0.03864976378362886,0.0,-0.03864976378362886
0.46000000000000035,move_to_zero,-0.10015183378006665,-3.392643533148599,3.2924916993685325,-62.29712457554524,-71.12182406741309,8.824699491867847,63.33709647176301,69.35482222717047,-6.0177257554074615,28.16603530340064,42.49639425642359,-14.330358953022952,-0.038786259325989,0.0,-0.038786259325989
0.46200000000000035,move_to_zero,-0.09993829170449121,-3.3882432172819987,3.2883049255775076,-62.20837441861562,-71.02957786239699,8.821203443781371,63.23463181820078,69.26486785333498,-6.030236035134195,28.08883142954468,42.44127571653199,-14.35244428698731,-0.03892576186471704,0.0,-0.03892576186471704
0.46400000000000036,move_to_zero,-0.09973949579013042,-3.383842901415399,3.2841034056252685,-62.11965828520499,-70.93733165738088,8.81767337217589,63.13212475451655,69.17491347949948,-6.042788724982927,28.011664988771777,42.38615717664039,-14.374492187868611,-0.03906720469734848,0.0,-0.03906720469734848
0.46600000000000036,move_to_zero,-0.0995498938795459,-3.379442585548799,3.279892691669253,-62.03098755848093,-70.84508545236478,8.814097893883854,63.02954605476426,69.08495910566397,-6.055413050899709,27.93457924606633,42.331038636748794,-14.396459390682462,-0.03920882940079433,0.0,-0.03920882940079433
0.46800000000000036,move_to_zero,-0.09936972104235678,-3.375042269682199,3.275672548639842,-61.94234815643404,-70.75283924734867,8.810491090914631,62.9269176157367,68.99500473182847,-6.068087116091775,27.85758978702675,42.275920096857185,-14.418330309830434,-0.03935036608640935,0.0,-0.03935036608640935
0.47000000000000036,move_to_zero,-0.0991967792106208,-3.3706419538155985,3.2714451746049775,-61.853772361540926,-70.66059304233258,8.806820680791652,62.82422603674372,68.90505035799298,-6.08082432124926,27.780693252810664,42.22080155696559,-14.440108304154926,-0.039493088818962636,0.0,-0.039493088818962636
0.47200000000000036,move_to_zero,-0.09902637946632561,-3.3662416379489986,3.267215258482673,-61.76523693675567,-70.56834683731647,8.803109900560798,62.72148992442963,68.81509598415747,-6.093606059727833,27.703879907268092,42.16568301707399,-14.461803109805896,-0.03963453149664408,0.0,-0.03963453149664408
0.47400000000000037,move_to_zero,-0.09885650691917058,-3.361841322082399,3.2629848151632284,-61.676731267410254,-70.47610063230039,8.799369364890133,62.61869714779685,68.72514161032198,-6.106444462525133,27.627140074979234,42.11056447718239,-14.483424402203159,-0.03977669063877519,0.0,-0.03977669063877519
0.47600000000000037,move_to_zero,-0.09865921528518759,-3.357441006215799,3.2587817909306116,-61.58827067645891,-70.38385442728428,8.795583750825365,62.51585767686265,68.63518723648647,-6.1193295596238215,27.55045467095899,42.05544593729079,-14.5049912663318,-0.03992082540615829,0.0,-0.03992082540615829
0.47800000000000037,move_to_zero,-0.09842170426410757,-3.3530406903491987,3.254618986085091,-61.49982682663023,-70.29160822226818,8.791781395637948,62.41297917893694,68.54523286265096,-6.132253683714019,27.473807482202364,42.00032739739919,-14.526519915196825,-0.040064985111347984,0.0,-0.040064985111347984
0.48000000000000037,move_to_zero,-0.09814939613918297,-3.3486403744825988,3.2504909783434157,-61.41140292148332,-70.19936201725208,8.787959095768763,62.310068275766895,68.45527848881548,-6.1452102130485855,27.39720473943543,41.94520885750759,-14.548004118072157,-0.04020961459324901,0.0,-0.04020961459324901
0.4820000000000004,move_to_zero,-0.09788472632115516,-3.344240058615999,3.2463553322948435,-61.32300914331539,-70.10711581223597,8.784106668920586,62.20711187576538,68.36532411497997,-6.158212239214592,27.320642671247082,41.890090317615986,-14.569447646368904,-0.040355622241069734,0.0,-0.040355622241069734
0.4840000000000004,move_to_zero,-0.09762631559472448,-3.339839742749399,3.2422134271546743,-61.23466880740401,-70.01486960721988,8.780200799815866,62.10410744337388,68.27536974114447,-6.171262297770596,27.244105473676846,41.83497177772439,-14.590866304047545,-0.040501016782933864,0.0,-0.040501016782933864
0.4860000000000004,move_to_zero,-0.09736734564341146,-3.3354394268827985,3.238072081239387,-61.1463913757075,-69.92262340220378,8.776232026496281,62.00107955809824,68.18541536730898,-6.184335809210737,27.167567428077223,41.77985323783279,-14.612285809755566,-0.04064304893829457,0.0,-0.04064304893829457
0.4880000000000004,move_to_zero,-0.09713308467677619,-3.331039111016199,3.233906026339423,-61.058144630081436,-69.83037719718769,8.77223256710625,61.89804752548404,68.09546099347347,-6.197413467989428,27.09101115639562,41.72473469794119,-14.633723541545567,-0.04078166211083767,0.0,-0.04078166211083767
0.4900000000000004,move_to_zero,-0.09691849412782054,-3.326638795149599,3.2297203010217785,-60.96995335608292,-69.73813099217158,8.768177636088659,61.79500620128017,68.00550661963797,-6.210500418357803,27.01444742295973,41.66961615804959,-14.655168735089863,-0.04091675062372787,0.0,-0.04091675062372787
0.4920000000000004,move_to_zero,-0.09671946013118574,-3.3222384792829986,3.225519019151813,-60.88178749136701,-69.64588478715548,8.764097295788474,61.69194476988921,67.91555224580247,-6.223607475913262,26.937881615933534,41.61449761815798,-14.67661600222445,-0.04105158615194885,0.0,-0.04105158615194885
0.4940000000000004,move_to_zero,-0.09653098955053015,-3.3178381634163987,3.2213071738658687,-60.79366679192438,-69.55363858213937,8.75997179021499,61.58887396785364,67.82559787196698,-6.23672390411334,26.86131405755638,41.55937907826639,-14.698065020710008,-0.041187354708573376,0.0,-0.041187354708573376
0.4960000000000004,move_to_zero,-0.09635162794232495,-3.3134378475497988,3.2170862196074737,-60.70560333989494,-69.46139237712327,8.755789037228332,61.48580501485011,67.73564349813147,-6.2498384832813585,26.784755614207143,41.50426053837479,-14.719504924167644,-0.041324218957306154,0.0,-0.041324218957306154
0.4980000000000004,move_to_zero,-0.09617688539644728,-3.309037531683199,3.2128606462867517,-60.61760377555329,-69.36914617210718,8.751542396553887,61.38274919990088,67.64568912429597,-6.262939924395091,26.70824635087351,41.44914199848319,-14.740895647609683,-0.04146005339245862,0.0,-0.04146005339245862
0.5000000000000003,move_to_zero,-0.09600542578977464,-3.3046372158165984,3.208631790026824,-60.52967996358852,-69.27689996709108,8.747220003502562,61.27969769135617,67.55573475046047,-6.276037059104304,26.631769848296273,41.39402345859159,-14.762253610295318,-0.041595106751970756,0.0,-0.041595106751970756
0.5020000000000003,move_to_zero,-0.0958237834407851,-3.300236899949999,3.204413116509214,-60.44183731449992,-69.18465376207499,8.742816447575066,61.176650305329744,67.46578037662498,-6.289130071295233,26.555306921313846,41.33890491869999,-14.783597997386142,-0.04172638478079138,0.0,-0.04172638478079138
0.5040000000000003,move_to_zero,-0.0956102378972051,-3.2958365840833994,3.200226346186194,-60.35406723996733,-69.09240755705889,8.738340317091563,61.073624863156304,67.37582600278948,-6.302201139633176,26.478852684631605,41.283786378808394,-14.804933694176789,-0.04185301260264245,0.0,-0.04185301260264245
0.5060000000000003,move_to_zero,-0.09539491392888938,-3.291436268216799,3.19604135428791,-60.26635721349847,-69.00016135204278,8.733804138544308,60.97063929556666,67.28587162895397,-6.315232333387307,26.402412653220306,41.228667838916785,-14.826255185696478,-0.04197428095604002,0.0,-0.04197428095604002
0.5080000000000003,move_to_zero,-0.09519125733885342,-3.287035952350199,3.1918446950113455,-60.17870196638215,-68.90791514702669,8.729213180644535,60.86768050466035,67.19591725511847,-6.3282367504581245,26.325978009709015,41.1735492990252,-14.847571289316182,-0.04209185954364152,0.0,-0.04209185954364152
0.5100000000000003,move_to_zero,-0.09499609202920249,-3.2826356364835987,3.187639544454396,-60.09109649376831,-68.81566894201057,8.724572448242263,60.76472658931911,67.10596288128298,-6.341236291963867,26.249582438620838,41.11843075913359,-14.86884832051275,-0.04220426240501198,0.0,-0.04220426240501198
0.5120000000000003,move_to_zero,-0.09481123349528338,-3.278235320616999,3.1834240871217157,-60.00354629466512,-68.7234227369945,8.719876442329372,60.661784470576386,67.01600850744748,-6.354224036871095,26.17323088800299,41.06331221924199,-14.890081331239003,-0.04231489590014385,0.0,-0.04231489590014385
0.5140000000000003,move_to_zero,-0.09459591264581574,-3.273835004750399,3.179239092104583,-59.91608140644862,-68.63117653197838,8.715095125529764,60.55886888903233,66.92605413361197,-6.3671852445796375,26.096927611081554,41.00819367935039,-14.911266068268837,-0.042423926837574066,0.0,-0.042423926837574066
0.5160000000000003,move_to_zero,-0.09438102607558503,-3.2694346888837993,3.175053662808214,-59.828701000400315,-68.53893032696229,8.710229326561972,60.45599661911465,66.83609975977649,-6.380103140661838,26.020666482714475,40.95307513945879,-14.932408656744315,-0.04253198338026284,0.0,-0.04253198338026284
0.5180000000000003,move_to_zero,-0.09417758351101341,-3.265034373017199,3.1708567895061854,-59.74138170191954,-68.44668412194618,8.705302420026634,60.35314988554521,66.74614538594096,-6.392995500395756,25.944460422394528,40.89795659956719,-14.95349617717266,-0.04264087739747673,0.0,-0.04264087739747673
0.5200000000000004,move_to_zero,-0.09398603927359413,-3.2606340571505994,3.166648017877005,-59.65416073003528,-68.35443791693008,8.700277186894802,60.25033191483824,66.65619101210548,-6.405859097267239,25.86829189072786,40.84283805967559,-14.974546168947732,-0.04275069763825825,0.0,-0.04275069763825825
0.5220000000000004,move_to_zero,-0.09380525533087172,-3.2562337412839986,3.162428485953127,-59.567052790056266,-68.26219171191397,8.695138921857705,60.14756005330296,66.56623663826997,-6.4186765849670095,25.792161178899622,40.78771951978399,-14.995558340884369,-0.04285829761508002,0.0,-0.04285829761508002
0.5240000000000004,move_to_zero,-0.0936339896859044,-3.251833425417399,3.1581994357314946,-59.48005690993061,-68.16994550689789,8.689888596967279,60.04484514550014,66.47628226443447,-6.431437118934333,25.716081337452387,40.732600979892396,-15.01651964244001,-0.042963681387612286,0.0,-0.042963681387612286
0.5260000000000004,move_to_zero,-0.09347035982788619,-3.2474331095507987,3.1539627497229126,-59.39317973399913,-68.07769930188178,8.684519567882646,59.94220777179316,66.38632789059898,-6.44412011880582,25.640049451505458,40.677482440000794,-15.037432988495336,-0.043068669064473916,0.0,-0.043068669064473916
0.5280000000000004,move_to_zero,-0.09331193085274656,-3.2430327936841996,3.1497208628314532,-59.306406431469824,-67.9854530968657,8.679046665395873,59.83963925311512,66.29637351676348,-6.456734263648357,25.564053979815007,40.62236390010919,-15.058309920294185,-0.04317281942020163,0.0,-0.04317281942020163
0.5300000000000004,move_to_zero,-0.09315892302411151,-3.2386324778175983,3.1454735547934867,-59.219721280532376,-67.89320689184957,8.673485611317197,59.7371257382648,66.20641914292797,-6.469293404663169,25.488100924818134,40.56724536021758,-15.07914443539945,-0.043273862915998135,0.0,-0.043273862915998135
0.5320000000000004,move_to_zero,-0.0930100529232667,-3.2342321619509993,3.1412221090277326,-59.133093144517474,-67.80096068683349,8.667867542316017,59.63466752738489,66.11646476909249,-6.481797241707596,25.412182864229145,40.512126820325996,-15.099943956096851,-0.043370818514908184,0.0,-0.043370818514908184
0.5340000000000004,move_to_zero,-0.09286522146673887,-3.229831846084399,3.13696662461766,-59.04652069042476,-67.70871448181737,8.66219379139261,59.53225912774737,66.02651039525698,-6.494251267509604,25.33626968266567,40.45700828043439,-15.120738597768717,-0.04346439940484485,0.0,-0.04346439940484485
0.5360000000000004,move_to_zero,-0.09272387363938624,-3.2254315302177994,3.1327076565784133,-58.960027103469706,-67.61646827680129,8.65644117333158,59.429893490894976,65.93655602142148,-6.506662530526505,25.260364720753284,40.4018897405428,-15.141525019789515,-0.043554750891710195,0.0,-0.043554750891710195
0.5380000000000004,move_to_zero,-0.09258440871229814,-3.2210312143511985,3.1284468056389003,-58.87362789418634,-67.52422207178519,8.650594177598848,59.327563352530206,65.84660164758597,-6.519038295055765,25.184491764053448,40.34677120065119,-15.162279436597743,-0.04364327949198637,0.0,-0.04364327949198637
0.5400000000000004,move_to_zero,-0.0924450996571043,-3.216630898484599,3.1241857988274946,-58.787324737663894,-67.4319758667691,8.644651129105199,59.22526056382065,65.75664727375049,-6.531386709929841,25.10865557073207,40.29165266075959,-15.18299709002752,-0.04372830494036394,0.0,-0.04372830494036394
0.5420000000000004,move_to_zero,-0.09230664009955447,-3.2122305826179987,3.119923942518444,-58.701125988458045,-67.33972966175298,8.638603673294938,59.12296939714151,65.66669289991496,-6.543723502773453,25.032844841505106,40.23653412086799,-15.20368927936288,-0.04381155470875035,0.0,-0.04381155470875035
0.5440000000000004,move_to_zero,-0.09216964244780082,-3.207830266751399,3.1156606243035982,-58.6150257871358,-67.24748345673689,8.632457669601088,59.02069194332518,65.57673852607948,-6.556046582754298,24.95704928759985,40.18141558097639,-15.22436629337654,-0.04389283548449018,0.0,-0.04389283548449018
0.5460000000000004,move_to_zero,-0.0920332939944345,-3.2034299508847988,3.1113966568903644,-58.52902840052773,-67.15523725172078,8.626208851193049,58.91842551300465,65.48678415224397,-6.568358639239321,24.881257501063807,40.12629704108479,-15.245039540020983,-0.04397177644623708,0.0,-0.04397177644623708
0.5480000000000004,move_to_zero,-0.09189818088492317,-3.1990296350181993,3.107131454133276,-58.44313358335015,-67.06299104670468,8.619857463354528,58.81618122168473,65.39682977840847,-6.5806485567237445,24.80546433973884,40.071178501193195,-15.265714161454355,-0.0440482287931111,0.0,-0.0440482287931111
0.5500000000000004,move_to_zero,-0.09176476174952652,-3.194629319151599,3.1028645574020723,-58.35734664175789,-66.97074484168859,8.613398199930693,58.71398251456891,65.30687540457298,-6.592892890004066,24.729665962431525,40.01605996130159,-15.286393998870068,-0.04412321052269907,0.0,-0.04412321052269907
0.5520000000000004,move_to_zero,-0.09163269570797891,-3.190229003284999,3.09859630757702,-58.271654040145854,-66.87849863667249,8.606844596526635,58.61182230247146,65.21692103073748,-6.605098728266022,24.65389791696378,39.96094142140999,-15.307043504446213,-0.0441963588225757,0.0,-0.0441963588225757
0.5540000000000004,move_to_zero,-0.0915012582112198,-3.1858286874183985,3.094327429207179,-58.186040775451794,-66.78625243165638,8.600211656204586,58.50967604984003,65.12696665690197,-6.617290607061939,24.578161475114428,39.90582288151839,-15.327661406403962,-0.044267830535142674,0.0,-0.044267830535142674
0.5560000000000004,move_to_zero,-0.09137241494042155,-3.1814283715517995,3.090055956611378,-58.10049122496327,-66.69400622664028,8.593515001677012,58.40753387589295,65.03701228306649,-6.629478407173536,24.502452038082765,39.850704341626795,-15.34825230354403,-0.04433803772022068,0.0,-0.04433803772022068
0.5580000000000004,move_to_zero,-0.09124502868320702,-3.1770280556851986,3.0857830270019915,-58.01501977216013,-66.60176002162417,8.586740249464043,58.30538252269205,64.94705790923096,-6.641675386538914,24.426777917768405,39.795585801735186,-15.368807883966781,-0.04440667245967678,0.0,-0.04440667245967678
0.5600000000000004,move_to_zero,-0.09111922865495653,-3.172627739818599,3.0815085111636424,-57.92963510989325,-66.50951381660808,8.57987870671483,58.2032187721522,64.85710353539548,-6.653884763243283,24.351159258960667,39.7404672618436,-15.389308002882931,-0.044475362845814846,0.0,-0.044475362845814846
0.5620000000000004,move_to_zero,-0.09099364216126783,-3.1682274239519987,3.077233781790731,-57.84434000261742,-66.41726761159198,8.57292760897456,58.101051927886466,64.76714916155997,-6.666097233673504,24.275573568999313,39.68534872195198,-15.409775152952669,-0.04454640442699349,0.0,-0.04454640442699349
0.5640000000000004,move_to_zero,-0.09086851120460203,-3.1638271080853992,3.072958596880797,-57.75913366547821,-66.3250214065759,8.56588774109769,57.998872762454994,64.67719478772447,-6.67832202526948,24.200025217631666,39.630230182060394,-15.430204964428729,-0.044622160829179434,0.0,-0.044622160829179434
0.5660000000000004,move_to_zero,-0.09074508414623744,-3.159426792218799,3.0686817080725612,-57.67401945618661,-66.23277520155978,8.558755745373162,57.8966756453189,64.58724041388896,-6.690564768570063,24.12449930775773,39.575111642168785,-15.450612334411055,-0.04470319603722722,0.0,-0.04470319603722722
0.5680000000000004,move_to_zero,-0.09062287319687329,-3.155026476352199,3.0644036031553257,-57.58898508549383,-66.1405289965437,8.551543911049862,57.79446522046433,64.49728604005348,-6.702820819589149,24.04898328222639,39.51999310227719,-15.4710098200508,-0.04478894104407579,0.0,-0.04478894104407579
0.5700000000000004,move_to_zero,-0.09050101677511173,-3.1506261604855985,3.060125143710487,-57.50405587335033,-66.04828279152757,8.544226918177237,57.69225778507546,64.40733166621797,-6.715073881142509,23.973473965763713,39.46487456238559,-15.491400596621876,-0.04487883552747316,0.0,-0.04487883552747316
0.5720000000000004,move_to_zero,-0.09037824981654939,-3.1462258446189995,3.05584759480245,-57.41922227953831,-65.95603658651149,8.536814306973177,57.59006163813437,64.31737729238247,-6.727315654248102,23.897977233512073,39.409756022493994,-15.511778788981921,-0.04496921567717187,0.0,-0.04496921567717187
0.5740000000000004,move_to_zero,-0.09025478637616771,-3.141825528752399,3.0515707423762315,-57.33445940210499,-65.86379038149538,8.529330979390387,57.487871922589314,64.22742291854698,-6.739550995957664,23.822498407930613,39.354637482602385,-15.532139074671772,-0.04506051733600306,0.0,-0.04506051733600306
0.5760000000000004,move_to_zero,-0.09012990388249412,-3.137425212885799,3.047295309003305,-57.249782534702526,-65.7715441764793,8.52176164177677,57.38569434505699,64.13746854471148,-6.751774199654491,23.7470472140055,39.29951894271079,-15.552471728705289,-0.04515117233782623,0.0,-0.04515117233782623
0.5780000000000004,move_to_zero,-0.09000398681592026,-3.1330248970191987,3.0430209102032784,-57.16517663756061,-65.67929797146319,8.514121333902573,57.28351376367122,64.04751417087597,-6.7640004072047475,23.671629358772247,39.24440040281919,-15.572771044046942,-0.04524406048125445,0.0,-0.04524406048125445
0.5800000000000004,move_to_zero,-0.08987794460447884,-3.1286245811525992,3.0387466365481206,-57.080623784364484,-65.58705176644709,8.506427982082606,57.18130193316338,63.95755979704048,-6.776257863877099,23.596260252390454,39.189281862927594,-15.59302161053714,-0.04533804351037301,0.0,-0.04533804351037301
0.5820000000000004,move_to_zero,-0.08975277805882939,-3.1242242652859984,3.034471487227169,-56.996133703168965,-65.49480556143098,8.498671858262014,57.079087102893176,63.867605423204964,-6.788518320311788,23.52092775933107,39.134163323035985,-15.613235563704915,-0.0454329102842613,0.0,-0.0454329102842613
0.5840000000000004,move_to_zero,-0.08962937940805533,-3.119823949419399,3.0301945700113437,-56.91168993507544,-65.40255935641488,8.490869421339447,56.97688609856407,63.777651049369474,-6.8007649508054016,23.445622623301265,39.0790447831444,-15.633422159843132,-0.04553003590283015,0.0,-0.04553003590283015
0.5860000000000004,move_to_zero,-0.08950623000863389,-3.1154236335527985,3.0259174035441645,-56.827281565368544,-65.31031315139877,8.48303158603023,56.87470837868653,63.68769667553397,-6.812988296847443,23.370334831601784,39.02392624325278,-15.653591411650996,-0.045628008467477596,0.0,-0.045628008467477596
0.5880000000000004,move_to_zero,-0.08938477963175397,-3.1110233176861994,3.0216385380544453,-56.742895046660905,-65.21806694638268,8.475171899721772,56.77253690499441,63.597742301698474,-6.825205396704064,23.295104792210033,38.96880770336119,-15.67370291115116,-0.045725298505215145,0.0,-0.045725298505215145
0.5900000000000004,move_to_zero,-0.08926385999796282,-3.1066230018195986,3.0173591418216357,-56.658507774007205,-65.12582074136658,8.467312967359376,56.670372427801645,63.50778792786297,-6.837415500061326,23.219915302259732,38.913689163469584,-15.693773861209852,-0.04582022278434831,0.0,-0.04582022278434831
0.5920000000000004,move_to_zero,-0.0891439061864671,-3.102222685952999,3.013078779766532,-56.57413538249512,-65.03357453635049,8.459439153855364,56.56822509931356,63.41783355402748,-6.849608454713923,23.144771867629327,38.858570623578,-15.71379875594867,-0.04591375710704065,0.0,-0.04591375710704065
0.5940000000000004,move_to_zero,-0.08902553792220762,-3.0978223700863987,3.008796832164191,-56.48977662315787,-64.94132833133438,8.451551708176503,56.46609034338892,63.32787918019197,-6.861788836803051,23.06969541912453,38.80345208368639,-15.73375666456186,-0.04600383638230082,0.0,-0.04600383638230082
0.5960000000000004,move_to_zero,-0.08890803241641705,-3.093422054219799,3.004514021803382,-56.40542294719537,-64.84908212631828,8.44365917912291,56.363967412552924,63.23792480635648,-6.873957393803558,22.99470287322249,38.74833354379479,-15.753630670572303,-0.04609082028164278,0.0,-0.04609082028164278
0.5980000000000004,move_to_zero,-0.08879028699357219,-3.0890217383531984,3.000231451359626,-56.32108881157958,-64.75683592130217,8.435747109722591,56.261826499232754,63.147970432520964,-6.88614393328821,22.91981306763137,38.693215003903184,-15.773401936271814,-0.04617527687804841,0.0,-0.04617527687804841
0.6000000000000004,move_to_zero,-0.08867387618480084,-3.0846214224865993,2.9959475463017986,-56.23679192096053,-64.66458971628607,8.427797795325546,56.1596539144359,63.05801605868548,-6.898362144249582,22.845021306660325,38.63809646401159,-15.793075157351264,-0.04625595627906369,0.0,-0.04625595627906369
0.6020000000000004,move_to_zero,-0.08855780078891674,-3.0802211066199985,2.9916633058310818,-56.1525469543406,-64.57234351126998,8.419796556929377,56.05743667164916,62.968061684849964,-6.910625013200807,22.77033876885096,38.58297792411999,-15.812639155269029,-0.04633259546120779,0.0,-0.04633259546120779
0.6040000000000004,move_to_zero,-0.0884401584254599,-3.075820790753399,2.9873806323279393,-56.068364737526345,-64.4800973062539,8.411732568727551,55.955178858642356,62.878107311014475,-6.922928452372119,22.695766997705007,38.52785938422839,-15.832092386523385,-0.0464027070525551,0.0,-0.0464027070525551
0.6060000000000004,move_to_zero,-0.08832036500752886,-3.0714204748867986,2.9831001098792695,-55.98425429550032,-64.38785110123777,8.40359680573745,55.852895823389126,62.78815293717897,-6.935257113789845,22.621291914201848,38.47274084433679,-15.851448930134943,-0.04646716814017805,0.0,-0.04646716814017805
0.6080000000000004,move_to_zero,-0.08819872323478106,-3.067020159020199,2.978821435785418,-55.9002144536982,-64.29560489622169,8.395390442523492,55.75061320818984,62.698198563343475,-6.947585355153635,22.546916258870418,38.417622304445196,-15.870706045574778,-0.046527427573807505,0.0,-0.046527427573807505
0.6100000000000004,move_to_zero,-0.08807706563410905,-3.0626198431535987,2.9745427775194897,-55.816228272642185,-64.20335869120557,8.38713041856338,55.648341388570344,62.60824418950797,-6.959902800937627,22.472629088040094,38.36250376455359,-15.889874676513493,-0.04658436178020796,0.0,-0.04658436178020796
0.6120000000000004,move_to_zero,-0.08795559990458252,-3.0582195272869988,2.9702639273824163,-55.73230680056629,-64.11111248618948,8.378805685623192,55.54608699791509,62.51828981567248,-6.972202817757392,22.398399702456857,38.30738522466199,-15.908985522205136,-0.04663837426839146,0.0,-0.04663837426839146
0.6140000000000004,move_to_zero,-0.08783480364105423,-3.0538192114203984,2.9659844077793442,-55.64844101766211,-64.01886628117337,8.370425263511265,55.443829147763225,62.42833544183697,-6.984506294073746,22.32424101994596,38.25226668477038,-15.928025664824425,-0.046689402417969754,0.0,-0.046689402417969754
0.6160000000000004,move_to_zero,-0.08771619475706693,-3.0494188955537993,2.9617027007967325,-55.564644570747404,-63.926620076157285,8.36197550540988,55.341572015157034,62.33838106800148,-6.996809052844448,22.250140522000883,38.197148144878796,-15.947007622877912,-0.04673703247108405,0.0,-0.04673703247108405
0.6180000000000004,move_to_zero,-0.08759846545203197,-3.045018579687199,2.957420114235167,-55.480892069517374,-63.83437387114118,8.353481801623808,55.23930688140299,62.248426694165964,-7.009119812762975,22.176084431320994,38.14202960498719,-15.965945173666192,-0.046779474246176414,0.0,-0.046779474246176414
0.6200000000000004,move_to_zero,-0.08748050375828699,-3.040618263820599,2.953137760062312,-55.3971845393492,-63.742127666125086,8.344943126775888,55.13704494901044,62.15847232033048,-7.021427371320044,22.10208876266951,38.08691106509559,-15.984822302426082,-0.046815847113152106,0.0,-0.046815847113152106
0.6220000000000004,move_to_zero,-0.08736221511759765,-3.0362179479539986,2.948855732836401,-55.31351831844756,-63.649881461108976,8.336363142661419,55.03478423027242,62.068517946494964,-7.033733716222542,22.028171406245438,38.03179252520398,-16.003621118958545,-0.04684743475189895,0.0,-0.04684743475189895
0.6240000000000004,move_to_zero,-0.08724407131963895,-3.031817632087399,2.9445735607677603,-55.22987907396035,-63.55763525609289,8.32775618213254,54.932519045017685,61.978563572659475,-7.04604452764179,21.954330126049634,37.97667398531239,-16.022343859262755,-0.0468713308605454,0.0,-0.0468713308605454
0.6260000000000004,move_to_zero,-0.08712767147970243,-3.0274173162207987,2.9402896447410964,-55.14627717851332,-63.46538905107678,8.319111872563454,54.830241914031724,61.888609198823964,-7.05836728479224,21.880600292859157,37.921555445420786,-16.04095515256163,-0.046888185868897474,0.0,-0.046888185868897474
0.6280000000000004,move_to_zero,-0.08701397998862898,-3.0230170003541987,2.9360030203655696,-55.06270924854618,-63.37314284606068,8.310433597514503,54.72795680216608,61.798654824988475,-7.070698022822398,21.80700761907492,37.86643690552919,-16.05942928645427,-0.04689999375013618,0.0,-0.04689999375013618
0.6300000000000004,move_to_zero,-0.08690238423804375,-3.0186166844875983,2.9317143002495545,-54.97918838913766,-63.28089664104458,8.301708251906916,54.625663235254045,61.70870045115297,-7.083037215898926,21.733545662081486,37.81131836563759,-16.077772703556104,-0.04691090028315109,0.0,-0.04691090028315109
0.6320000000000005,move_to_zero,-0.08679215310838787,-3.0142163686209993,2.9274242155126116,-54.89571723187902,-63.18865043602848,8.292933204149463,54.52334172460544,61.618746077317475,-7.095404352712038,21.660235847512794,37.756199825745995,-16.0959639782332,-0.04692011100423892,0.0,-0.04692011100423892
0.6340000000000005,move_to_zero,-0.08668181417051647,-3.009816052754399,2.9231342385838825,-54.812302035182356,-63.09640423101237,8.284102195830016,54.42100262967726,61.52879170348197,-7.10778907380471,21.58706960103005,37.701081285854386,-16.114011684824337,-0.046927512388646016,0.0,-0.046927512388646016
0.6360000000000005,move_to_zero,-0.08657170233535555,-3.005415736887799,2.9188440345524436,-54.72892557904985,-63.00415802599628,8.275232446946433,54.318644317353815,61.43883732964648,-7.120193012292667,21.514040284338403,37.64596274596279,-16.131922461624388,-0.046933348507049874,0.0,-0.046933348507049874
0.6380000000000005,move_to_zero,-0.08646302095743405,-3.0010154210211986,2.9145524000637644,-54.64559331299339,-62.91191182098017,8.266318507986782,54.21626633628998,61.348882955810964,-7.132616619520981,21.44113639494788,37.59084420607118,-16.149707811123303,-0.04693756123543643,0.0,-0.04693756123543643
0.6400000000000005,move_to_zero,-0.08635370535774914,-2.996615105154599,2.91026139979685,-54.562286955733434,-62.81966561596408,8.257378660230643,54.11387097669933,61.25892858197548,-7.1450576052761505,21.368353820721158,37.535725666179594,-16.167371845458437,-0.04693651061370716,0.0,-0.04693651061370716
0.6420000000000005,move_to_zero,-0.08624433515436027,-2.9922147892879987,2.905970454133638,-54.479004040581124,-62.727419410947974,8.24841537036685,54.011459131309245,61.168974208139964,-7.15751507683072,21.295711590333067,37.480607126287985,-16.18489553595492,-0.046930833825047036,0.0,-0.046930833825047036
0.6440000000000005,move_to_zero,-0.08613620849872403,-2.987814473421399,2.9016782649226753,-54.39573522010685,-62.63517320593189,8.239437985825042,53.90901462107173,61.079019834304475,-7.1700052132327485,21.223234393394655,37.42548858639639,-16.202254193001735,-0.046921558830003256,0.0,-0.046921558830003256
0.6460000000000005,move_to_zero,-0.08602847106455135,-2.9834141575547983,2.897385686490247,-54.31246372448948,-62.54292700091577,8.230463276426285,53.80652247719653,60.989065460468964,-7.182542983272434,21.150911850642952,37.37037004650478,-16.21945819586183,-0.046911174610756445,0.0,-0.046911174610756445
0.6480000000000005,move_to_zero,-0.08592153119811091,-2.9790138416881993,2.8930923104900885,-54.22919659306935,-62.450680795899686,8.22148420283034,53.703977007680194,60.899111086633475,-7.195134078953281,21.078733992193406,37.31525150661319,-16.23651751441978,-0.046900613755580495,0.0,-0.046900613755580495
0.6500000000000005,move_to_zero,-0.0858140368166159,-2.9746135258215984,2.8887994890049824,-54.14596210655274,-62.35843459088357,8.212472484330831,53.60138263709341,60.80915671279797,-7.207774075704563,21.006691190857484,37.260132966721585,-16.2534417758641,-0.046888656258046404,0.0,-0.046888656258046404
0.6520000000000005,move_to_zero,-0.0857066815126612,-2.970213209954999,2.884506528442338,-54.06277548447719,-62.26618838586749,8.203412901390294,53.49875141272756,60.719202338962475,-7.220450926234918,20.934781170834775,37.20501442682999,-16.270233255995215,-0.046875357394558205,0.0,-0.046875357394558205
