GerardoFJ/TE3001B_TEAM_3/src/s0s1_gazebo/scripts/results/PD5/state.csv
t,phase,shoulder_pan_actual_deg,shoulder_pan_desired_deg,shoulder_pan_error_deg,shoulder_lift_actual_deg,shoulder_lift_desired_deg,shoulder_lift_error_deg,elbow_flex_actual_deg,elbow_flex_desired_deg,elbow_flex_error_deg,wrist_flex_actual_deg,wrist_flex_desired_deg,wrist_flex_error_deg,wrist_roll_actual_deg,wrist_roll_desired_deg,wrist_roll_error_deg
0.002,move_to_zero,-4.376474382407018,-4.4003158666,0.02384148419298171,-92.21682027023317,-92.2462050161,0.02938474586683526,89.9402674989065,89.9543738355,-0.014106336593499691,55.09939055982472,55.1185398916,-0.019149331775281553,0.0017248340730163765,0.0,0.0017248340730163765
0.004,move_to_zero,-4.337281625097087,-4.3959155507334,0.05863392563631287,-92.14608535494197,-92.15395881108391,0.007873456141936686,89.90523348335095,89.86441946166448,0.0408140216864723,55.058215626159225,55.0634213517084,-0.005205725549174645,0.004210002524368872,0.0,0.004210002524368872
0.006,move_to_zero,-4.289593063493425,-4.3915152348668,0.10192217137337511,-92.04355851059687,-92.0617126060678,0.018154095470933385,89.85184156805734,89.77446508782899,0.0773764802283523,54.998081392540236,55.008302811816804,-0.01022141927656861,0.006753527604533691,0.0,0.006753527604533691
0.008,move_to_zero,-4.237530899334809,-4.3871149190002,0.14958401966539103,-91.91684268105699,-91.9694664010517,0.05262371999471327,89.78235145473914,89.68451071399349,0.09784074074565297,54.92167292841345,54.953184271925196,-0.03151134351174534,0.008937161789879557,0.0,0.008937161789879557
0.01,move_to_zero,-4.1835440965502455,-4.382714603133599,0.19917050658335356,-91.77196430902276,-91.8772201960356,0.10525588701283084,89.69876456704364,89.594556340158,0.10420822688564613,54.8313594183652,54.8980657320336,-0.06670631366839785,0.01070831641507725,0.0,0.01070831641507725
0.012,move_to_zero,-4.12909198496063,-4.378314287266999,0.24922230230636888,-91.61366014380216,-91.7849739910195,0.17131384721733411,89.60285926165065,89.50460196632248,0.09825729532816752,54.7292316426117,54.842947192142,-0.11371554953029772,0.012128255211133263,0.0,0.012128255211133263
0.014,move_to_zero,-4.07501277772121,-4.373913971400399,0.298901193679189,-91.44565695334407,-91.69272778600339,0.24707083265931828,89.4962361809555,89.41464759248699,0.08158858846852013,54.617105562956226,54.787828652250404,-0.170723089294178,0.013251036944082854,0.0,0.013251036944082854
0.016,move_to_zero,-4.021802009313674,-4.369513655533799,0.34771164622012485,-91.2708534582975,-91.6004815809873,0.3296281226898117,89.38031125413268,89.32469321865149,0.0556180354811886,54.49658413913722,54.7327101123588,-0.2361259732215828,0.01412303944369168,0.0,0.01412303944369168
0.018000000000000002,move_to_zero,-3.969709150871437,-4.3651133396672,0.3954041887957631,-91.09152878007762,-91.5082353759712,0.4167065958935723,89.25636453182616,89.234738844816,0.021625687010171646,54.36905994223689,54.6775915724672,-0.3085316302303127,0.014784622394139286,0.0,0.014784622394139286
0.020000000000000004,move_to_zero,-3.918883359668897,-4.3607130238006,0.4418296641317032,-90.90947441024306,-91.4159891709551,0.5065147607120366,89.12557288881597,89.1447844709805,-0.019211582164530228,54.235772778320595,54.6224730325756,-0.386700254255004,0.015268211775210809,0.0,0.015268211775210809
0.022000000000000006,move_to_zero,-3.8694107697585616,-4.356312707934,0.4869019381754387,-90.72607413575872,-91.323742965939,0.5976688301802824,88.98897532149509,89.05483009714499,-0.06585477564989617,54.09777931902267,54.567354492684,-0.46957517366132606,0.015542169945615327,0.0,0.015542169945615327
0.024000000000000007,move_to_zero,-3.8212997485365277,-4.351912392067399,0.5306126435308718,-90.54241579083933,-91.2314967609229,0.6890809700835661,88.84751469694498,88.96487572330949,-0.11736102636450596,53.9560239620131,54.5122359527924,-0.5562119907793033,0.015581771507013792,0.0,0.015581771507013792
0.02600000000000001,move_to_zero,-3.7745541535575797,-4.3475120762007995,0.5729579226432198,-90.35929331083078,-91.1392505559068,0.7799572450760195,88.70205840621061,88.874921349474,-0.17286294326338236,53.81131615086957,54.4571174129008,-0.6458012620312275,0.01543006604576085,0.0,0.01543006604576085
0.02800000000000001,move_to_zero,-3.729134075462878,-4.3431117603341995,0.6139776848713216,-90.1773296742362,-91.0470043508907,0.8696746766544976,88.5533766817575,88.78496697563848,-0.23159029388098418,53.66437579595674,54.401998873009205,-0.7376230770524685,0.015143793121223359,0.0,0.015143793121223359
0.030000000000000013,move_to_zero,-3.685035831267519,-4.3387114444676,0.6536756132000807,-89.99698234455133,-90.9547581458746,0.9577758013232796,88.40216001763699,88.695012601803,-0.29285258416601323,53.515843827890166,54.3468803331176,-0.8310365052274378,0.014788106053745998,0.0,0.014788106053745998
0.032000000000000015,move_to_zero,-3.6422133738446822,-4.334311128601,0.6920977547563174,-89.81859024501709,-90.8625119408585,1.043921695841405,88.24904918888512,88.60505822796749,-0.35600903908236603,53.36626013553578,54.291761793225994,-0.9255016576902122,0.014411141209005796,0.0,0.014411141209005796
0.034000000000000016,move_to_zero,-3.600626974810539,-4.3299108127344,0.7292838379238606,-89.64240975168278,-90.7702657358424,1.1278559841596234,88.09458087512435,88.51510385413198,-0.4205229790076288,53.21609321678266,54.2366432533344,-1.0205500365517395,0.014021915986394731,0.0,0.014021915986394731
0.03600000000000002,move_to_zero,-3.560209185358655,-4.3255104968678,0.7653013115091447,-89.46860486458343,-90.67801953082629,1.2094146662428642,87.93925166281817,88.4251494802965,-0.4858978174783317,53.06575617419707,54.1815247134428,-1.1157685392457282,0.01364938754656706,0.0,0.01364938754656706
0.03800000000000002,move_to_zero,-3.520939881007239,-4.3211101810012,0.8001702999939608,-89.29725692366245,-90.5857733258102,1.2885164021477493,87.78351810248797,88.33519510646099,-0.5516770039730119,52.91558660991345,54.1264061735512,-1.210819563637756,0.013299723656133786,0.0,0.013299723656133786
0.04000000000000002,move_to_zero,-3.4828035715683945,-4.316709865134599,0.8339062935662045,-89.12841103956825,-90.4935271207941,1.3651160812258496,87.62776705245827,88.24524073262549,-0.6174736801672225,52.76590803828529,54.0712876336596,-1.305379595374312,0.012975674864307785,0.0,0.012975674864307785
0.04200000000000002,move_to_zero,-3.4457688774544164,-4.312309549267999,0.8665406718135826,-88.9620824133649,-90.401280915778,1.439198502413106,87.47232844688068,88.15528635879,-0.6829579119093125,52.61696783643278,54.016169093768006,-1.3992012573352284,0.012672853711840664,0.0,0.012672853711840664
0.044000000000000025,move_to_zero,-3.409781619855726,-4.307909233401399,0.898127613545673,-88.79828622915822,-90.3090347107619,1.5107484816036845,87.31752837281256,88.06533198495448,-0.7478036121419223,52.46898049343911,53.9610505538764,-1.4920700604372854,0.012388186292928406,0.0,0.012388186292928406
0.04600000000000003,move_to_zero,-3.374829892196972,-4.3035089175348,0.9286790253378281,-88.63696838770423,-90.2167885057458,1.5798201180415674,87.16365648363545,87.97537761111899,-0.811721127483537,52.32213891530898,53.905932013984796,-1.5837930986758124,0.012117367079713032,0.0,0.012117367079713032
0.04800000000000003,move_to_zero,-3.3408842815195876,-4.2991086016682,0.9582243201486125,-88.47806539814502,-90.1245423007297,1.6464769025846806,87.01093957987818,87.88542323728349,-0.8744836574053068,52.176608454914856,53.8508134740932,-1.6742050191783449,0.011856041583741388,0.0,0.011856041583741388
0.05000000000000003,move_to_zero,-3.3079179476574625,-4.2947082858016,0.9867903381441376,-88.32150560105485,-90.03229609571359,1.7107904946587382,86.85957660526039,87.795468863448,-0.9358922581876072,52.03254294455159,53.7956949342016,-1.7631519896500123,0.011599052569191979,0.0,0.011599052569191979
0.05200000000000003,move_to_zero,-3.2758880066016287,-4.290307969935,1.0144199633333715,-88.16723948154298,-89.9400498906975,1.7728104091545163,86.70974176835017,87.70551448961248,-0.9957727212623126,51.890050690572885,53.740576394310004,-1.8505257037371194,0.011337535535130339,0.0,0.011337535535130339
0.054000000000000034,move_to_zero,-3.2447633273037755,-4.285907654068399,1.0411443267646239,-88.01517589510736,-89.8478036856814,1.832627790574037,86.56157092469513,87.61556011577699,-1.053989191081854,51.749209658690475,53.6854578544184,-1.9362481957279272,0.011076608058410957,0.0,0.011076608058410957
0.056000000000000036,move_to_zero,-3.2145224098797986,-4.281507338201799,1.0669849283220008,-87.86525281214111,-89.7555574806653,1.8903046685241947,86.415178740185,87.52560574194149,-1.1104270017564914,51.610071846054225,53.6303393145268,-2.020267468472575,0.010823365519207198,0.0,0.010823365519207198
0.05800000000000004,move_to_zero,-3.1851185856905375,-4.2771070223351995,1.091988436644662,-87.71741357498578,-89.66331127564919,1.9458977006634086,86.27067032652859,87.43565136810598,-1.1649810415773914,51.47269444297093,53.5752207746352,-2.102526331664265,0.010571335773308599,0.0,0.010571335773308599
0.06000000000000004,move_to_zero,-3.1565314550709473,-4.2727067064685995,1.1161752513976522,-87.57156576045485,-89.5710650706331,1.9994993101782512,86.12811373743942,87.3456969942705,-1.2175832568310767,51.33713350437264,53.5201022347436,-2.182968730370959,0.010316024693426091,0.0,0.010316024693426091
0.06200000000000004,move_to_zero,-3.1287276210896837,-4.268306390602,1.1395787695123158,-87.42763188146903,-89.478818865617,2.051186984147975,85.98756294371209,87.25574262043499,-1.2681796767228946,51.2034245026408,53.464983694852,-2.2615591922112017,0.01005601709739717,0.0,0.01005601709739717
0.06400000000000004,move_to_zero,-3.1016597677025284,-4.2639060747354,1.1622463070328712,-87.28553926651301,-89.38657266060089,2.101033394087878,85.84905316712185,87.16578824659948,-1.316735079477624,51.07157328067624,53.4098651549604,-2.3382918742841596,0.009803497982396794,0.0,0.009803497982396794
0.06600000000000004,move_to_zero,-3.075301895928061,-4.2595057588688,1.1842038629407385,-87.14521646901183,-89.29432645558481,2.149109986572981,85.71261964021737,87.075833872764,-1.3632142325466248,50.94161079824347,53.354746615068805,-2.4131358168253385,0.009557879485046192,0.0,0.009557879485046192
0.06800000000000005,move_to_zero,-3.0496054211324854,-4.2551054430022,1.2055000218697143,-87.00661965199548,-89.2020802505687,2.19546059857322,85.57828556729582,86.98587949892848,-1.407593931632661,50.81355237955224,53.299628075177196,-2.4860756956249546,0.009318521196939641,0.0,0.009318521196939641
0.07000000000000005,move_to_zero,-3.024533479023501,-4.250705127135599,1.2261716481120981,-86.86969676963089,-89.1098340455526,2.240137275921711,85.44602753098057,86.89592512509299,-1.4498975941124144,50.68741110324822,53.2445095352856,-2.557098432037378,0.009078593091331355,0.0,0.009078593091331355
0.07200000000000005,move_to_zero,-3.000065301716214,-4.246304811268999,1.246239509552785,-86.73440075927364,-89.01758784053649,2.2831870812628523,85.31580941824403,86.80597075125749,-1.4901613330134609,50.56318288719254,53.189390995394,-2.6262081082014603,0.008833402986673811,0.0,0.008833402986673811
0.07400000000000005,move_to_zero,-2.9761920101363666,-4.241904495402399,1.2657124852660324,-86.60067132642395,-88.9253416355204,2.3246703090964473,85.18759537600667,86.71601637742198,-1.5284210014153103,50.44084960382599,53.1342724555024,-2.6934228516764094,0.008564970229418172,0.0,0.008564970229418172
0.07600000000000005,move_to_zero,-2.952893581690713,-4.2375041795358,1.284610597845087,-86.46843952821847,-88.83309543050429,2.3646559022858185,85.06136694893132,86.62606200358648,-1.5646950546551608,50.320374191454206,53.0791539156108,-2.7587797241565966,0.00827059057425484,0.0,0.00827059057425484
0.07800000000000006,move_to_zero,-2.9301702800726477,-4.2331038636692,1.3029335835965523,-86.33763581922119,-88.74084922548819,2.4032134062669996,84.93708077586123,86.53610762975099,-1.5990268538897539,50.201739173131614,53.0240353757192,-2.8222962025875873,0.007967764683580241,0.0,0.007967764683580241
0.08000000000000006,move_to_zero,-2.9080215693619627,-4.2287035478026,1.3206819784406374,-86.20818590367185,-88.6486030204721,2.4404171168002478,84.8146966041919,86.44615325591549,-1.631456651723596,50.08491606074836,52.9689168358276,-2.8840007750792367,0.007640411243826503,0.0,0.007640411243826503
0.08200000000000006,move_to_zero,-2.8864086026170077,-4.224303231936,1.3378946293189924,-86.08003611658164,-88.556356815456,2.4763206988743605,84.69417211632611,86.35619888207998,-1.6620267657538648,49.969869503019375,52.913798295936,-2.9439287929166227,0.007322900872143604,0.0,0.007322900872143604
0.08400000000000006,move_to_zero,-2.8653434245601104,-4.219902916069399,1.354559491509289,-85.95314074892522,-88.4641106104399,2.510969861514681,84.57543699568662,86.26624450824448,-1.6908075125578677,49.856519309287876,52.858679756044396,-3.0021604467565197,0.007008294090813384,0.0,0.007008294090813384
0.08600000000000006,move_to_zero,-2.84479327450548,-4.215502600202799,1.3707093256973195,-85.82746446267325,-88.37186440542379,2.5443999427505446,84.45842885509053,86.17629013440899,-1.7178612793184556,49.744855687715,52.8035612161528,-3.058705528437798,0.006702793296630966,0.0,0.006702793296630966
0.08800000000000006,move_to_zero,-2.824733369652906,-4.211102284336199,1.3863689146832936,-85.70295446212931,-88.2796182004077,2.576663738278384,84.34310427538601,86.08633576057349,-1.7432314851874793,49.63485274650273,52.7484426762612,-3.1135899297584686,0.006409747587056348,0.0,0.006409747587056348
0.09000000000000007,move_to_zero,-2.805134488213437,-4.206701968469599,1.4015674802561624,-85.57957110811746,-88.18737199539159,2.6078008872741236,84.22942149485621,85.996381386738,-1.7669598918817826,49.526454131449206,52.693324136369604,-3.1668700049203977,0.006123926520087578,0.0,0.006123926520087578
0.09200000000000007,move_to_zero,-2.7859993816503503,-4.2023016526029995,1.4163022709526492,-85.45724083554799,-88.0951257903755,2.6378849548275127,84.1173357410601,85.90642701290248,-1.7890912718423806,49.419616353023805,52.638205596477995,-3.21858924345419,0.005851026185063643,0.0,0.005851026185063643
0.09400000000000007,move_to_zero,-2.7673415770702436,-4.1979013367363995,1.430559759666156,-85.3359189733894,-88.0028795853594,2.666960611969998,84.00678084013198,85.81647263906699,-1.809691798935006,49.31430607698296,52.5830870565864,-3.2687809796034415,0.00557221905291787,0.0,0.00557221905291787
0.09600000000000007,move_to_zero,-2.7491275086188027,-4.1935010208698,1.4443735122509969,-85.21555032683338,-87.9106333803433,2.6950830535099186,83.89769404407393,85.72651826523149,-1.8288242211575607,49.2104865417902,52.5279685166948,-3.317481974904595,0.005305346212595737,0.0,0.005305346212595737
0.09800000000000007,move_to_zero,-2.7313344368085968,-4.1891007050032,1.4577662681946029,-85.09613031232205,-87.81838717532719,2.7222568630051427,83.79002961237293,85.63656389139598,-1.8465342790230466,49.10813480514287,52.4728499768032,-3.364715171660329,0.0050489893936033125,0.0,0.0050489893936033125
0.10000000000000007,move_to_zero,-2.713936200503062,-4.184700389136599,1.4707641886335368,-84.97761628442112,-87.72614097031109,2.7485246858899757,83.68371478597578,85.5466095175605,-1.862894731584717,49.00720820571101,52.4177314369116,-3.4105232312005924,0.004800543873541786,0.0,0.004800543873541786
0.10200000000000008,move_to_zero,-2.696905772067967,-4.180300073269999,1.4833943012020319,-84.8599722496131,-87.633894765295,2.773922515681903,83.57867434515408,85.45665514372499,-1.8779807985709027,48.907658054887555,52.36261289702,-3.4549548421324445,0.0045602767259061965,0.0,0.0045602767259061965
0.10400000000000008,move_to_zero,-2.680229308340683,-4.1758997574034,1.4956704490627168,-84.74316797231707,-87.5416485602789,2.7984805879618335,83.47482785864678,85.36670076988948,-1.8918729112427002,48.809445923785944,52.3074943571284,-3.498048433342454,0.004327126236252353,0.0,0.004327126236252353
0.10600000000000008,move_to_zero,-2.6638981045754093,-4.1714994415368,1.5076013369613905,-84.62717301558256,-87.4494023552628,2.8222293396802485,83.37211396791392,85.276746396054,-1.9046324281400757,48.71250897583773,52.252375817236796,-3.5398668413990677,0.004098429574826169,0.0,0.004098429574826169
0.10800000000000008,move_to_zero,-2.6478865131729625,-4.1670991256702,1.5192126124972374,-84.51196745403212,-87.3571561502467,2.845188696214578,83.27047569005495,85.18679202221848,-1.9163163321635324,48.61683501375228,52.1972572773452,-3.580422263592922,0.0038719334298201098,0.0,0.0038719334298201098
0.11000000000000008,move_to_zero,-2.6321851360096558,-4.1626988098036,1.5305136737939442,-84.39751695283358,-87.2649099452306,2.867392992397015,83.16983699700373,85.09683764838299,-1.9270006513792595,48.522393041874935,52.1421387374536,-3.619745695578665,0.00364947552519616,0.0,0.00364947552519616
0.11200000000000009,move_to_zero,-2.616789907447015,-4.158298493937,1.541508586489985,-84.2838055597627,-87.17266374021449,2.888858180451791,83.07014411867841,85.00688327454749,-1.936739155869077,48.4291245242456,52.087020197562,-3.6578956733163963,0.003427550158257096,0.0,0.003427550158257096
0.11400000000000009,move_to_zero,-2.6017042520432874,-4.153898178070399,1.5521939260271118,-84.17078651266822,-87.0804175351984,2.909631022530178,82.97135546377571,84.91692890071198,-1.9455734369362716,48.336995421696926,52.031901657670396,-3.6949062359734697,0.0032060138002664865,0.0,0.0032060138002664865
0.11600000000000009,move_to_zero,-2.5869158505345835,-4.149497862203799,1.5625820116692157,-84.05844001728772,-86.9881713301823,2.9297313128945746,82.8733951690687,84.82697452687648,-1.953579357807783,48.24597148365326,51.976783117778794,-3.730811634125537,0.002986184676218919,0.0,0.002986184676218919
0.11800000000000009,move_to_zero,-2.572424023913614,-4.145097546337199,1.5726735224235853,-83.94675086610172,-86.8959251251662,2.9491742590644776,82.77620215577575,84.73702015304099,-1.960817997265238,48.15602155209168,51.9216645778872,-3.7656430257955193,0.002766427478230788,0.0,0.002766427478230788
0.12000000000000009,move_to_zero,-2.558206694278732,-4.140697230470599,1.5824905361918673,-83.83569504828664,-86.80367892015009,2.967983871863453,82.67972327115143,84.64706577920549,-1.9673425080540596,48.06711229633188,51.8665460379956,-3.7994337416637194,0.002544670104715028,0.0,0.002544670104715028
0.1220000000000001,move_to_zero,-2.544224924381318,-4.136296914603999,1.5920719902226814,-83.72523620605205,-86.711432715134,2.9861965090819496,82.58390929043344,84.55711140536998,-1.9732021149365409,47.97918162032031,51.811427498104,-3.8322458777836914,0.0023187439391272172,0.0,0.0023187439391272172
0.1240000000000001,move_to_zero,-2.530499483901647,-4.1318965987373995,1.6013971148357524,-83.61533959795506,-86.6191865101179,3.0038469121628424,82.4887194090961,84.46715703153448,-1.9784376224383777,47.89219477861866,51.7563089582124,-3.8641141795937415,0.0020551322341381996,0.0,0.0020551322341381996
0.12600000000000008,move_to_zero,-2.5170285469739855,-4.1274962828707995,1.610467735896814,-83.5059793974051,-86.52694030510179,3.02096090769669,82.39413338524155,84.37720265769899,-1.983069272457442,47.8061223498078,51.70119041832079,-3.895068068512991,0.0017534497050848581,0.0,0.0017534497050848581
0.12800000000000009,move_to_zero,-2.5037987467399283,-4.1230959670042,1.6192972202642713,-83.39714004874423,-86.4346941000857,3.037554051341459,82.30008797070892,84.28724828386348,-1.9871603131545612,47.72093688543783,51.6460718784292,-3.9251349929913673,0.0014131209171841723,0.0,0.0014131209171841723
0.1300000000000001,move_to_zero,-2.4907830929017645,-4.118695651137599,1.6279125582358343,-83.28878872479449,-86.3424478950696,3.053659170275111,82.20653102111822,84.197293910028,-1.9907628889097708,47.636615855346044,51.590953338537595,-3.9543374831915514,0.0010552077790770074,0.0,0.0010552077790770074
0.1320000000000001,move_to_zero,-2.477982874355565,-4.114295335270999,1.6363124609154336,-83.1809304685306,-86.2502016900535,3.0692712215228966,82.11340393980286,84.10733953619248,-1.993935596389619,47.5531418555591,51.535834798646,-3.982692943086903,0.0006940223248023339,0.0,0.0006940223248023339
0.1340000000000001,move_to_zero,-2.4653769271345203,-4.1098950194044,1.6445180922698794,-83.07357253144338,-86.15795548503739,3.084382953594016,82.02066142703683,84.01738516235697,-1.9967237353201455,47.470486140767555,51.4807162587544,-4.010230117986843,0.00034787919343219,0.0,0.00034787919343219
0.1360000000000001,move_to_zero,-2.4529500062480256,-4.1054947035378,1.6525446972897742,-82.96668813031225,-86.0657092800213,3.0990211497090456,81.92825434232381,83.92743078852149,-1.99917644619768,47.388603239633824,51.425597718862804,-4.03699447922898,2.6932193535735695e-05,0.0,2.6932193535735695e-05
0.1380000000000001,move_to_zero,-2.4407324116972333,-4.1010943876712,1.6603619759739665,-82.86023973778427,-85.97346307500518,3.1132233372209157,81.83615689552005,83.83747641468598,-2.001319519165932,47.30748322821899,51.370479178971195,-4.062995950752203,-0.0002744671075551328,0.0,-0.0002744671075551328
0.1400000000000001,move_to_zero,-2.4287280492747865,-4.0966940718046,1.6679660225298134,-82.75417765005177,-85.88121686998909,3.1270392199373163,81.74433373199471,83.74752204085048,-2.003188308855769,47.22711825525907,51.31536063907959,-4.088242383820521,-0.000571329943995549,0.0,-0.000571329943995549
0.1420000000000001,move_to_zero,-2.416943939345967,-4.092293755938,1.6753498165920329,-82.64850363666125,-85.788970664973,3.140467028311747,81.65277245512273,83.65756766701499,-2.004795211892258,47.147455267021066,51.260242099188,-4.1127868321669325,-0.0008528531128764543,0.0,-0.0008528531128764543
0.1440000000000001,move_to_zero,-2.405372243935695,-4.087893440071399,1.682521196135704,-82.54321696421601,-85.6967244599569,3.1535074957408824,81.56144098699613,83.56761329317948,-2.0061723061833447,47.068465205490824,51.205123559296396,-4.136658353805572,-0.0011275366712871452,0.0,-0.0011275366712871452
0.1460000000000001,move_to_zero,-2.393994930461315,-4.083493124204799,1.6894981937434843,-82.43832120744803,-85.6044782549408,3.1661570474927743,81.47029945171683,83.47765891934398,-2.007359467627154,46.990120924358415,51.1500050194048,-4.159884095046387,-0.0013913720035777428,0.0,-0.0013913720035777428
0.1480000000000001,move_to_zero,-2.382794446915069,-4.079092808338199,1.6962983614231302,-82.33381171383421,-85.51223204992469,3.1784203360904826,81.37931391666173,83.38770454550848,-2.0083906288467546,46.9124093050045,51.0948864795132,-4.182477174508698,-0.0016533549355666726,0.0,-0.0016533549355666726
0.1500000000000001,move_to_zero,-2.371769239929445,-4.074692492471599,1.702923252542154,-82.22966763548256,-85.4199858449086,3.1903182094260387,81.28846297144233,83.29775017167299,-2.009287200230659,46.835290790162624,51.0397679396216,-4.204477149458974,-0.0019079258028576298,0.0,-0.0019079258028576298
0.1520000000000001,move_to_zero,-2.360896441246916,-4.070292176604999,1.709395735358083,-82.12587613996051,-85.32773963989249,3.2018634999319744,81.19771593345523,83.20779579783748,-2.0100798643822486,46.75873960933766,50.984649399729996,-4.225909790392336,-0.00216106576797278,0.0,-0.00216106576797278
0.1540000000000001,move_to_zero,-2.3501820785096563,-4.065891860738399,1.715709782228743,-82.02242456073479,-85.23549343487639,3.213068874141598,81.10703636883663,83.11784142400198,-2.010805055165349,46.68274292717105,50.929530859838394,-4.2467879326673454,-0.002434266234468964,0.0,-0.002434266234468964
0.1560000000000001,move_to_zero,-2.3396155413646653,-4.061491544871799,1.721876003507134,-81.91928422065257,-85.1432472298603,3.223963009207722,81.01639446440807,83.02788705016648,-2.0114925857584183,46.60726021732636,50.8744123199468,-4.267152102620436,-0.002732338062066071,0.0,-0.002732338062066071
0.1580000000000001,move_to_zero,-2.329182403023479,-4.0570912290051995,1.7279088259817206,-81.81646020753416,-85.0510010248442,3.234540817310034,80.9257743293836,82.93793267633099,-2.0121583469473876,46.53227965909923,50.8192937800552,-4.287014120955966,-0.003054796890826053,0.0,-0.003054796890826053
0.16000000000000011,move_to_zero,-2.318891592817055,-4.052690913138599,1.7337993203215438,-81.71395934241558,-84.95875481982809,3.2447954774125094,80.83514686932503,82.84797830249549,-2.0128314331704615,46.45780906282473,50.7641752401636,-4.306366177338873,-0.003391098159863889,0.0,-0.003391098159863889
0.16200000000000012,move_to_zero,-2.308733142713197,-4.048290597272,1.7395574545588026,-81.61176693418781,-84.86650861481199,3.2547416806241785,80.74450837732121,82.75802392865998,-2.01351555133877,46.38385117327916,50.709056700271994,-4.325205526992832,-0.0037439643828974037,0.0,-0.0037439643828974037
0.16400000000000012,move_to_zero,-2.2987133514697375,-4.0438902814054,1.745176929935662,-81.50989139908732,-84.7742624097959,3.2643710107085724,80.65386682384667,82.66806955482448,-2.0142027309778143,46.31038937498231,50.6539381603804,-4.343548785398092,-0.004111401234319767,0.0,-0.004111401234319767
0.16600000000000012,move_to_zero,-2.2888247915205184,-4.0394899655388,1.7506651740182813,-81.40829377064341,-84.68201620477979,3.273722434136374,80.56318156125596,82.57811518098899,-2.0149336197330285,46.237404858503574,50.5988196204888,-4.361414761985223,-0.004491760018719887,0.0,-0.004491760018719887
0.16800000000000012,move_to_zero,-2.2790715174150935,-4.0350896496722,1.7560181322571062,-81.30696768535513,-84.5897699997637,3.2828023144085705,80.47243682889273,82.48816080715348,-2.015723978260752,46.164855844279494,50.543701080597195,-4.3788452363177015,-0.004843807148012469,0.0,-0.004843807148012469
0.17000000000000012,move_to_zero,-2.2694445697376353,-4.0306893338056,1.7612447640679645,-81.20591480809479,-84.4975237947476,3.291608986652804,80.38161399214773,82.398206433318,-2.0165924411702605,46.09271384426797,50.4885825407056,-4.395868696437631,-0.005169906105915177,0.0,-0.005169906105915177
0.17200000000000013,move_to_zero,-2.2599326489508393,-4.026289017939,1.7663563689881605,-81.10514036213512,-84.4052775897315,3.3001372275963803,80.29071947801818,82.30825205948248,-2.017532581464309,46.02095635048644,50.433464000814,-4.412507650327555,-0.005473081912249901,0.0,-0.005473081912249901
0.17400000000000013,move_to_zero,-2.250528265246911,-4.021888702072399,1.7713604368254878,-81.0046410511073,-84.31303138471539,3.308390333608088,80.19975897383438,82.21829768564697,-2.018538711812596,45.94955359768074,50.3783454609224,-4.428791863241656,-0.005759184126589193,0.0,-0.005759184126589193
0.17600000000000013,move_to_zero,-2.2412384560022454,-4.017488386205799,1.7762499302035537,-80.9043928684876,-84.22078517969929,3.316392311211686,80.10873479003058,82.12834331181149,-2.01960852178091,45.87849109391138,50.323226921030795,-4.444735827119416,-0.006032125793058443,0.0,-0.006032125793058443
0.17800000000000013,move_to_zero,-2.232064456594948,-4.013088070339199,1.7810236137442512,-80.80438733294567,-84.12853897468318,3.324151641737515,80.01764471520733,82.03838893797598,-2.0207442227686556,45.80775535593099,50.2681083811392,-4.460353025208207,-0.006294853374379243,0.0,-0.006294853374379243
0.18000000000000013,move_to_zero,-2.222991142966457,-4.008687754472599,1.7856966115061423,-80.70463196969055,-84.0362927696671,3.3316607999765466,79.92648776697641,81.94843456414048,-2.0219467971640768,45.737325735086266,50.2129898412476,-4.475664106161332,-0.006581821171746838,0.0,-0.006581821171746838
0.18200000000000013,move_to_zero,-2.2140071340926073,-4.004287438605999,1.790280304513392,-80.60511396010736,-83.944046564651,3.3389326045436434,79.83526417823091,81.85848019030499,-2.023216012074073,45.667181338591824,50.157871301355996,-4.490689962764172,-0.006896701565477899,0.0,-0.006896701565477899
0.18400000000000014,move_to_zero,-2.205114548479599,-3.9998871227393993,1.7947725742598002,-80.50581763429147,-83.8518003596349,3.3459827253434185,79.7439638415405,81.76852581646948,-2.0245619749289716,45.597312787762846,50.1027527614644,-4.505439973701556,-0.007220280586390695,0.0,-0.007220280586390695
0.18600000000000014,move_to_zero,-2.1963118668333474,-3.995486806872799,1.7991749400394514,-80.40672254006378,-83.7595541546188,3.352831614555015,79.65257188002604,81.67857144263398,-2.025999562607936,45.5277143701581,50.04763422157279,-4.519919851414691,-0.007538070548388008,0.0,-0.007538070548388008
0.18800000000000014,move_to_zero,-2.1875854160240076,-3.991086491006199,1.8035010749821914,-80.3078306926215,-83.66730794960269,3.3594772569811937,79.5610945359438,81.58861706879848,-2.0275225328546895,45.458381728699905,49.9925156816812,-4.534133952981293,-0.007839104322759825,0.0,-0.007839104322759825
0.19000000000000014,move_to_zero,-2.1789530883839636,-3.986686175139599,1.8077330867556354,-80.20912669458527,-83.57506174458659,3.365935050001326,79.46955376894448,81.49866269496299,-2.029108926018509,45.389313899616006,49.937397141789596,-4.54808324217359,-0.00812439439873837,0.0,-0.00812439439873837
0.19200000000000014,move_to_zero,-2.1703894991596053,-3.9822858592729995,1.8118963601133942,-80.11060304838823,-83.48281553957048,3.3722124911822533,79.37792433834183,81.40870832112748,-2.0307839827856498,45.320502788678155,49.882278601897994,-4.561775813219839,-0.008419024214245407,0.0,-0.008419024214245407
0.19400000000000014,move_to_zero,-2.16190116069126,-3.9778855434063995,1.8159843827151394,-80.01223493455397,-83.3905693345544,3.3783344000004263,79.28621004155409,81.31875394729198,-2.032543905737896,45.25193614851997,49.8271600620064,-4.5752239134864325,-0.008698367014589791,0.0,-0.008698367014589791
0.19600000000000015,move_to_zero,-2.1534835006253203,-3.9734852275397996,1.8200017269144793,-79.91402288757173,-83.29832312953829,3.3843002419665567,79.19440617102235,81.22879957345648,-2.0343934024341337,45.183589071674014,49.7720415221148,-4.5884524504407835,-0.008965010096897819,0.0,-0.008965010096897819
0.19800000000000015,move_to_zero,-2.145129970572432,-3.9690849116731997,1.8239549411007676,-79.81594943194963,-83.2060769245222,3.39012749257256,79.10251299821914,81.13884519962097,-2.0363322014018337,45.11544801384303,49.716922982223196,-4.601474968380167,-0.0092206692048054,0.0,-0.0092206692048054
0.20000000000000015,move_to_zero,-2.1368224199906467,-3.9646845958065993,1.8278621758159526,-79.71800961716023,-83.1138307195061,3.395821102345863,79.01053737317663,81.04889082578549,-2.0383534526088596,45.047506586117606,49.661804442331594,-4.614297856213987,-0.009469531522164091,0.0,-0.009469531522164091
0.20200000000000015,move_to_zero,-2.12855671094808,-3.9602842799399993,1.8317275689919192,-79.62020533682391,-83.02158451448999,3.4013791776660725,78.9184955897988,80.95893645194998,-2.0404408621511863,44.97972684517217,49.60668590244,-4.626959057267825,-0.009718545649951876,0.0,-0.009718545649951876
0.20400000000000015,move_to_zero,-2.1203503572811546,-3.9558839640733994,1.8355336067922448,-79.52256885935077,-82.92933830947389,3.4067694501231216,78.82639395204502,80.86898207811447,-2.0425881260694467,44.912116160075364,49.5515673625484,-4.639451202473033,-0.009964425043020248,0.0,-0.009964425043020248
0.20600000000000016,move_to_zero,-2.112201018858961,-3.9514836482067994,1.8392826293478386,-79.42507761413687,-82.8370921044578,3.412014490320928,78.73420506918103,80.77902770427899,-2.044822635097958,44.8446655274765,49.496448822656795,-4.651783295180294,-0.010205653751661926,0.0,-0.010205653751661926
0.20800000000000016,move_to_zero,-2.104082464958553,-3.947083332340199,1.843000867381646,-79.32771170793866,-82.7448458994417,3.417134191503038,78.64194313238504,80.68907333044348,-2.04713019805844,44.777370080637795,49.4413302827652,-4.663960202127406,-0.010442404259548696,0.0,-0.010442404259548696
0.21000000000000016,move_to_zero,-2.096003667752408,-3.942683016473599,1.846679348721191,-79.23045993467484,-82.65259969442559,3.422139759750749,78.54964229035697,80.59911895660798,-2.04947666625101,44.71021674230417,49.38621174287359,-4.675995000569422,-0.01067617945867116,0.0,-0.01067617945867116
0.21200000000000016,move_to_zero,-2.0879500305718626,-3.938282700606999,1.8503326700351366,-79.1333254559133,-82.5603534894095,3.4270280334961996,78.45732826122139,80.50916458277248,-2.051836321551093,44.64318245074127,49.331093202982,-4.687910752240725,-0.010911566658723582,0.0,-0.010911566658723582
0.21400000000000016,move_to_zero,-2.0799207571504317,-3.933882384740399,1.8539616275899675,-79.03629121819202,-82.46810728439338,3.431816066201364,78.36498490515658,80.41921020893697,-2.054225303780399,44.57625007173369,49.275974663090395,-4.699724591356706,-0.011147076080214889,0.0,-0.011147076080214889
0.21600000000000016,move_to_zero,-2.0719478099316735,-3.929482068873799,1.8575342589421253,-78.93934649723857,-82.37586107937729,3.436514582138713,78.27262198519381,80.32925583510148,-2.0566338499076693,44.50942400167078,49.2208561231988,-4.71143212152802,-0.011394447074441382,0.0,-0.011394447074441382
0.21800000000000017,move_to_zero,-2.0640311963206313,-3.925081753007199,1.8610505566865676,-78.84247980611035,-82.28361487436119,3.441135068250844,78.1802317829742,80.23930146126598,-2.0590696782917774,44.44268840116587,49.1657375833072,-4.723049182141331,-0.011648387038347629,0.0,-0.011648387038347629
0.22000000000000017,move_to_zero,-2.056157376246969,-3.9206814371406,1.8645240608936309,-78.74569440733332,-82.1913686693451,3.445674262011778,78.08780756415179,80.14934708743048,-2.0615395232786966,44.37604358603827,49.110619043415596,-4.734575457377325,-0.011913327036801629,0.0,-0.011913327036801629
0.22200000000000017,move_to_zero,-2.0483244660473856,-3.9162811212739994,1.8679566552266138,-78.64898327250651,-82.099122464329,3.450139191822487,77.99534674253064,80.05939271359497,-2.0640459710643313,44.30948108688302,49.055500503523994,-4.746019416640976,-0.012169658248584393,0.0,-0.012169658248584393
0.22400000000000017,move_to_zero,-2.040505832799725,-3.9118808054073995,1.8713749726076743,-78.55235453647433,-82.00687625931289,3.454521722838564,77.90285702578757,79.96943833975948,-2.066581313971909,44.24302265787932,49.00038196363239,-4.75735930575307,-0.012420186192547726,0.0,-0.012420186192547726
0.22600000000000017,move_to_zero,-2.0327125180591548,-3.9074804895407995,1.8747679714816448,-78.4558062386985,-81.9146300542968,3.4588238155982935,77.81033441252816,79.87948396592398,-2.0691495533958175,44.17663899226591,48.9452634237408,-4.7686244314748905,-0.012691436353208562,0.0,-0.012691436353208562
0.22800000000000017,move_to_zero,-2.0249630935049043,-3.9030801736741996,1.8781170801692952,-78.35934695646453,-81.82238384928068,3.463036892816149,77.71778692098695,79.78952959208848,-2.071742671101532,44.1103382208925,48.890144883849196,-4.779806662956695,-0.012979266514881285,0.0,-0.012979266514881285
0.23000000000000018,move_to_zero,-2.0172698507810143,-3.898679857807599,1.881410007026585,-78.26298470514087,-81.73013764426459,3.4671529391237215,77.62520585757251,79.69957521825299,-2.0743693606804783,44.04413574966827,48.8350263439576,-4.79089059428933,-0.013273920824097047,0.0,-0.013273920824097047
0.23200000000000018,move_to_zero,-2.0096318294906985,-3.8942795419409992,1.8846477124503007,-78.16672420886105,-81.63789143924849,3.4711672303874366,77.53260728732852,79.60962084441748,-2.0770135570889607,43.97800133858859,48.77990780406599,-4.801906465477401,-0.013584108294623552,0.0,-0.013584108294623552
0.23400000000000018,move_to_zero,-2.0020071491665146,-3.8898792260743993,1.8878720769078847,-78.07055145726359,-81.5456452342324,3.475093776968805,77.43999155296268,79.51966647058198,-2.0796749176193003,43.91194418900196,48.72478926417439,-4.812845075172433,-0.013875715452381048,0.0,-0.013875715452381048
0.23600000000000018,move_to_zero,-1.994412165847422,-3.8854789102077993,1.8910667443603772,-77.97445218149113,-81.45339902921629,3.4789468477251546,77.34736645687681,79.42971209674648,-2.082345639869672,43.84597056389057,48.669670724282796,-4.823700160392228,-0.014153201803181427,0.0,-0.014153201803181427
0.23800000000000018,move_to_zero,-1.9868270693562455,-3.881078594341199,1.8942515249849534,-77.87842368705307,-81.36115282420019,3.4827291371471176,77.25474441135296,79.33975772291097,-2.085013311558015,43.78004474165133,48.614552184391194,-4.834507442739863,-0.014418436052881935,0.0,-0.014418436052881935
0.24000000000000019,move_to_zero,-1.9792583068500873,-3.876678278474599,1.8974199716245117,-77.78246088925528,-81.2689066191841,3.4864457299288176,77.16212265982566,79.24980334907549,-2.0876806892498365,43.714142011748905,48.5594336444996,-4.845291632750694,-0.014673466222185278,0.0,-0.014673466222185278
0.2420000000000002,move_to_zero,-1.9717204059657991,-3.872277962607999,1.9005575566422,-77.68657794855567,-81.17666041416798,3.4900824656123177,77.06950041428667,79.15984897523998,-2.0903485609533163,43.64823218742305,48.504315104608,-4.856082917184949,-0.014918705577894983,0.0,-0.014918705577894983
0.2440000000000002,move_to_zero,-1.9642014133836494,-3.867877646741399,1.9036762333577497,-77.59074906449658,-81.08441420915189,3.49366514465531,76.97687759043093,79.06989460140447,-2.09301701097354,43.582296048525,48.449196564716395,-4.866900516191393,-0.01515789688688635,0.0,-0.01515789688688635
0.2460000000000002,move_to_zero,-1.9567169462571161,-3.8634773308747987,1.9067603846176826,-77.4949799432301,-80.99216800413579,3.4971880609056853,76.88422920332954,78.97994022756899,-2.095711024239449,43.51635218848174,48.39407802482479,-4.877725836343053,-0.015403080834818152,0.0,-0.015403080834818152
0.2480000000000002,move_to_zero,-1.9492703459698264,-3.8590770150081988,1.9098066690383724,-77.39928245805038,-80.8999217991197,3.5006393410693164,76.79155857443446,78.88998585373348,-2.098427279299017,43.45040141198458,48.33895948493319,-4.888558072948612,-0.015662862870731372,0.0,-0.015662862870731372
0.25000000000000017,move_to_zero,-1.9418620452154234,-3.8546766991415997,1.9128146539261763,-77.30363736756193,-80.80767559410359,3.5040382265416525,76.69888998424297,78.80003147989798,-2.101141495655014,43.38447014380697,48.2838409450416,-4.899370801234625,-0.015919759046247615,0.0,-0.015919759046247615
0.25200000000000017,move_to_zero,-1.9344712887636015,-3.8502763832749993,1.9158050945113978,-77.20805390669466,-80.71542938908749,3.507375482392831,76.60622302142545,78.71007710606249,-2.1038540846370353,43.31855907178047,48.228722405149995,-4.910163333369525,-0.01617302898010996,0.0,-0.01617302898010996
0.25400000000000017,move_to_zero,-1.927107299611407,-3.8458760674083994,1.9187687677969925,-77.11255405937472,-80.62318318407138,3.5106291246966634,76.51355208773643,78.62012273222697,-2.106570644490546,43.25270809245276,48.1736038652584,-4.920895772805643,-0.016425206659642456,0.0,-0.016425206659642456
0.25600000000000017,move_to_zero,-1.919766712114096,-3.8414757515417994,1.9217090394277034,-77.01712704314653,-80.53093697905528,3.5138099359087533,76.42086296840378,78.53016835839148,-2.1093053899876963,43.18691325691659,48.11848532536679,-4.931572068450201,-0.01667082936968069,0.0,-0.01667082936968069
0.2580000000000002,move_to_zero,-1.9124532192435142,-3.8370754356751995,1.9246222164316853,-76.92175290497899,-80.43869077403919,3.5169378690602002,76.32814750813625,78.44021398455598,-2.1120664764197272,43.121174588448795,48.063366785475196,-4.942192197026401,-0.016913183513544212,0.0,-0.016913183513544212
0.2600000000000002,move_to_zero,-1.905197893757429,-3.832675119808599,1.9274772260511701,-76.82644835631307,-80.34644456902309,3.5199962127100264,76.23540268365956,78.35025961072049,-2.114856927060927,43.05550115913151,48.008248245583594,-4.952747086452085,-0.017151245035043977,0.0,-0.017151245035043977
0.2620000000000002,move_to_zero,-1.8980130144080034,-3.828274803941999,1.9302617895339957,-76.7312055330734,-80.254198364007,3.522992830933589,76.14262814197596,78.26030523688497,-2.1176770949090127,42.989879528390816,47.95312970569199,-4.963250177301177,-0.01738530594092246,0.0,-0.01738530594092246
0.2640000000000002,move_to_zero,-1.890911937552842,-3.823874488075399,1.9329625505225572,-76.6360328839571,-80.16195215899089,3.525919275033786,76.04980983231005,78.17035086304948,-2.1205410307394317,42.924299609275394,47.8980111658004,-4.973711556525004,-0.017615906286893135,0.0,-0.017615906286893135
0.2660000000000002,move_to_zero,-1.8838499586892732,-3.8194741722087993,1.935624213519526,-76.54093431317837,-80.06970595397479,3.528771640796421,75.95693477483141,78.08039648921398,-2.1234617143825716,42.85875080475865,47.842892625908796,-4.984141821150146,-0.01784797560855703,0.0,-0.01784797560855703
0.2680000000000002,move_to_zero,-1.8768165627899487,-3.815073856342199,1.9382572935522502,-76.4459189334811,-79.97745974895868,3.531540815477584,75.86398529144053,77.99044211537847,-2.126456823937943,42.793246235864565,47.787774086017194,-4.994527850152629,-0.01808495366243575,0.0,-0.01808495366243575
0.2700000000000002,move_to_zero,-1.86980995788848,-3.810673540475599,1.940863582587119,-76.35097767996953,-79.8852135439426,3.534235863973066,75.77096930305194,77.90048774154299,-2.129518438491047,42.72780268086007,47.73265554612559,-5.004852865265519,-0.018319793975116645,0.0,-0.018319793975116645
0.2720000000000002,move_to_zero,-1.8628246415748557,-3.806273224608999,1.9434485830341433,-76.25613224887718,-79.79296733892649,3.5368350900493084,75.67789538860725,77.81053336770748,-2.132637979100224,42.662412405200826,47.677537006234,-5.015124601033172,-0.018552438244782702,0.0,-0.018552438244782702
0.2740000000000002,move_to_zero,-1.8558401679985748,-3.801872908742399,1.9460327407438243,-76.16137484792411,-79.70072113391039,3.5393462859862836,75.58475728738273,77.72057899387197,-2.1358217064892386,42.59704696873852,47.622418466342396,-5.025371497603878,-0.018789395375943787,0.0,-0.018789395375943787
0.2760000000000002,move_to_zero,-1.8488777336958555,-3.7974725928757986,1.9485948591799431,-76.06670065068788,-79.60847492889428,3.541774278206404,75.4915547732114,77.63062462003649,-2.1390698468250804,42.531715603572586,47.567299926450794,-5.035584322878208,-0.019041462381507227,0.0,-0.019041462381507227
0.2780000000000002,move_to_zero,-1.8419259283763783,-3.7930722770091996,1.9511463486328213,-75.97206949307707,-79.51622872387819,3.544159230801114,75.39828156602273,77.54067024620097,-2.142388680178243,42.46641021036236,47.5121813865592,-5.045771176196837,-0.019314615884942866,0.0,-0.019314615884942866
0.2800000000000002,move_to_zero,-1.8350078942663122,-3.7886719611425996,1.9536640668762875,-75.87749504319035,-79.42398251886209,3.5464874756717393,75.30494911495784,77.45071587236548,-2.1457667574076424,42.40111613679996,47.45706284666759,-5.0559467098676265,-0.01961122193238252,0.0,-0.01961122193238252
0.2820000000000002,move_to_zero,-1.8281502343211897,-3.7842716452759992,1.9561214109548095,-75.78300114771243,-79.331736313846,3.548735166133568,75.21156265525828,77.36076149852998,-2.149198843271705,42.33583848299806,47.401944306775995,-5.066105823777939,-0.019917218985885745,0.0,-0.019917218985885745
0.2840000000000002,move_to_zero,-1.8213449573541372,-3.7798713294093993,1.9585263720552621,-75.68857475106724,-79.2394901088299,3.550915357762662,75.11813631692851,77.27080712469449,-2.152670807765972,42.2705764831735,47.34682576688439,-5.076249283710894,-0.02023344528349785,0.0,-0.02023344528349785
0.2860000000000002,move_to_zero,-1.8145882910645803,-3.7754710135427993,1.960882722478219,-75.59423234751604,-79.14724390381379,3.553011556297747,75.02466678614692,77.18085275085897,-2.1561859647120514,42.20535442687904,47.29170722699279,-5.086352800113751,-0.020541535452236324,0.0,-0.020541535452236324
0.2880000000000002,move_to_zero,-1.8078761161205583,-3.7710706976761994,1.963194581555641,-75.4999558702857,-79.05499769879769,3.555041828511989,74.93115265723266,77.09089837702348,-2.15974571979082,42.14016759893196,47.2365886871012,-5.096421088169237,-0.02082904921067829,0.0,-0.02082904921067829
0.2900000000000002,move_to_zero,-1.801205815222225,-3.766670381809599,1.965464566587374,-75.40574722201303,-78.96275149378158,3.557004271768548,74.83760461616475,77.00094400318798,-2.1633393870232283,42.07503204889803,47.181470147209595,-5.106438098311564,-0.021100607860960657,0.0,-0.021100607860960657
0.2920000000000002,move_to_zero,-1.7945722937189934,-3.762270065942999,1.9676977722240057,-75.3116057742947,-78.87050528876549,3.558899514470781,74.74402928498148,76.91098962935247,-2.1669603443709917,42.00996303260606,47.12635160731799,-5.116388574711934,-0.021358761510365205,0.0,-0.021358761510365205
0.2940000000000002,move_to_zero,-1.7879836902089115,-3.757869750076399,1.9698860598674877,-75.21752058545955,-78.77825908374939,3.5607384982898367,74.65045685653531,76.82103525551699,-2.170578398981675,41.94496305105131,47.07123306742639,-5.126270016375081,-0.02160577434764346,0.0,-0.02160577434764346
0.2960000000000002,move_to_zero,-1.7814038462364563,-3.753469434209799,1.9720655879733429,-75.12350568373634,-78.6860128787333,3.562507194996954,74.55688872609038,76.73108088168148,-2.1741921555911006,41.88003193106888,47.016114527534796,-5.1360825964659185,-0.02184278687010641,0.0,-0.02184278687010641
0.2980000000000002,move_to_zero,-1.7748323129172077,-3.749069118343199,1.9742368054259911,-75.02956229668011,-78.59376667371718,3.564204377037072,74.46332832483618,76.64112650784598,-2.1777981830097985,41.815159724783335,46.960995987643194,-5.145836262859859,-0.022073759634550754,0.0,-0.022073759634550754
0.3000000000000002,move_to_zero,-1.768260940647864,-3.744668802476599,1.9764078618287348,-74.9357006231622,-78.50152046870109,3.5658198455388828,74.3697739484607,76.55117213401049,-2.1813981855497815,41.7503502406533,46.90587744775159,-5.155527207098295,-0.022301722122526898,0.0,-0.022301722122526898
0.3020000000000002,move_to_zero,-1.7617122760205135,-3.740268486609999,1.9785562105894854,-74.84190147019032,-78.40927426368499,3.5673727934946697,74.27625194487939,76.46121776017497,-2.184965815295584,41.685623998189556,46.85075890786,-5.165134909670442,-0.022527730761534772,0.0,-0.022527730761534772
0.3040000000000002,move_to_zero,-1.7551829571299347,-3.735868170743399,1.9806852136134643,-74.74816226871627,-78.31702805866888,3.5688657899526106,74.18278014962287,76.37126338633948,-2.188483236716607,41.620948830203105,46.79564036796839,-5.174691537765284,-0.02275063400306639,0.0,-0.02275063400306639
0.3060000000000002,move_to_zero,-1.7486529187642783,-3.7314678548767994,1.9828149361125211,-74.65447740522848,-78.22478185365279,3.5703044484243094,74.08934441217295,76.28130901250398,-2.1919646003310334,41.5563232543691,46.740521828076794,-5.184198573707697,-0.02297007150829193,0.0,-0.02297007150829193
0.3080000000000002,move_to_zero,-1.742123472046405,-3.7270675390101995,1.9849440669637946,-74.56085104236695,-78.13253564863669,3.5716846062697414,73.99591407854103,76.19135463866847,-2.1954405601274374,41.491756567772185,46.68540328818519,-5.193646720413007,-0.023185865825866712,0.0,-0.023185865825866712
0.3100000000000002,move_to_zero,-1.7356015232287747,-3.7226672231435995,1.9870656999148248,-74.46726571539004,-78.0402894436206,3.5730237282305524,73.90248251843036,76.10140026483299,-2.1989177464026284,41.427229891605116,46.6302847482936,-5.203054856688482,-0.023399305069879736,0.0,-0.023399305069879736
0.3120000000000002,move_to_zero,-1.7291116112120621,-3.718266907276999,1.989155296064937,-74.3737054767285,-77.94804323860448,3.574337761875981,73.80904181113654,76.01144589099748,-2.2024040798609406,41.362721067405545,46.575166208401996,-5.212445140996451,-0.023609158334793098,0.0,-0.023609158334793098
0.3140000000000002,move_to_zero,-1.7226666390675536,-3.713866591410399,1.9911999523428456,-74.28018279740952,-77.85579703358839,3.5756142361788648,73.71560436118155,75.92149151716198,-2.2058871559804345,41.298244902517865,46.520047668510394,-5.221802765992528,-0.023817139831720936,0.0,-0.023817139831720936
0.3160000000000002,move_to_zero,-1.7162455743204,-3.7094662755437993,1.9932207012233993,-74.18671008248268,-77.76355082857228,3.5768407460896015,73.62217501981915,75.83153714332649,-2.209362123507333,41.23379599441335,46.46492912861879,-5.231133134205443,-0.024024756036422054,0.0,-0.024024756036422054
0.3180000000000002,move_to_zero,-1.7098449310573192,-3.7050659596771993,1.9952210286198802,-74.09328588043186,-77.67130462355618,3.578018743124318,73.52874566394466,75.74158276949098,-2.2128371055463134,41.16936418945167,46.40981058872719,-5.24044639927552,-0.02423060150791185,0.0,-0.02423060150791185
0.32000000000000023,move_to_zero,-1.7034511198486608,-3.700665643810599,1.997214523961938,-73.99989456324407,-77.57905841854009,3.5791638552960165,73.43531960497097,75.65162839565548,-2.216308790684508,41.104980119657554,46.354692048835595,-5.249711929178041,-0.024436618263249592,0.0,-0.024436618263249592
0.32200000000000023,move_to_zero,-1.6970731150409784,-3.696265327943999,1.9991922129030206,-73.90651468668027,-77.48681221352399,3.5802975268437223,73.34191684624405,75.56167402181998,-2.2197571755759355,41.04060467192063,46.29957350894399,-5.25896883702336,-0.02464451774090296,0.0,-0.02464451774090296
0.32400000000000023,move_to_zero,-1.6907006809206933,-3.691865012077399,2.0011643311567058,-73.81314439548773,-77.3945660085079,3.5814216130201686,73.24853189139823,75.47171964798449,-2.223187756586256,40.97624304727435,46.2444549690524,-5.268211921778047,-0.02485305512039273,0.0,-0.02485305512039273
0.32600000000000023,move_to_zero,-1.6843245962410458,-3.687464696210799,2.0031400999697535,-73.71982532470406,-77.30231980349178,3.582494478787723,73.15517328181433,75.38176527414898,-2.2265919923346473,40.91187735206746,46.1893364291608,-5.27745907709334,-0.025060769243784014,0.0,-0.025060769243784014
0.32800000000000024,move_to_zero,-1.6779665448875836,-3.6830643803441987,2.005097835456615,-73.62655012989819,-77.21007359847569,3.5835234685774964,73.06182487246959,75.29181090031348,-2.2299860278438928,40.84749457258241,46.13421788926919,-5.286723316686775,-0.02527046179370247,0.0,-0.02527046179370247
0.33000000000000024,move_to_zero,-1.6716199013124875,-3.6786640644775987,2.0070441631651113,-73.533305563678,-77.11782739345958,3.584521829781579,72.9684793948751,75.20185652647798,-2.2333771316028788,40.78311241610663,46.07909934937759,-5.29598693327096,-0.02548178404548986,0.0,-0.02548178404548986
0.33200000000000024,move_to_zero,-1.6652797659192737,-3.674263748610999,2.008983982691725,-73.44008033855823,-77.02558118844348,3.58550084988525,72.8751292616874,75.11190215264247,-2.2367728909550664,40.71872662109663,46.02398080948599,-5.3052541883893625,-0.025694704440937546,0.0,-0.025694704440937546
0.33400000000000024,move_to_zero,-1.6589639575916812,-3.669863432744399,2.0108994751527174,-73.34686652742451,-76.93333498342739,3.5864684560028763,72.78176652528678,75.02194777880699,-2.2401812535202055,40.65434429829951,45.968862269594396,-5.314517971294883,-0.025912644886781844,0.0,-0.025912644886781844
0.33600000000000024,move_to_zero,-1.6526647605826756,-3.6654631168777994,2.0127983562951237,-73.25368162467348,-76.84108877841129,3.5874071537378143,72.68841625017882,74.93199340497148,-2.2435771547926606,40.589968435675246,45.913743729702794,-5.3237752940275485,-0.0261292251791842,0.0,-0.0261292251791842
0.33800000000000024,move_to_zero,-1.6463923322350094,-3.6610628010111994,2.01467046877619,-73.16053631064365,-76.74884257339518,3.58830626275153,72.59508040879555,74.84203903113597,-2.246958622340415,40.52559835268889,45.85862518981119,-5.333026837122304,-0.02634463812334859,0.0,-0.02634463812334859
0.34000000000000025,move_to_zero,-1.6401684794198674,-3.6566624851445995,2.016494005724732,-73.06743343838592,-76.65659636837908,3.589162929993165,72.50172678931203,74.75208465730049,-2.2503578679884555,40.46124038474804,45.80350664991959,-5.342266265171553,-0.026560242117882105,0.0,-0.026560242117882105
0.34200000000000025,move_to_zero,-1.6339833802089223,-3.652262169277999,2.0182787890690768,-72.97436868295961,-76.56435016336299,3.589981480403381,72.40833811867707,74.66213028346498,-2.2537921647879102,40.396866704463235,45.74838811002799,-5.351521405564753,-0.02677759218226466,0.0,-0.02677759218226466
0.34400000000000025,move_to_zero,-1.6278412854161677,-3.647861853411399,2.0200205679952314,-72.88132143765897,-76.47210395834688,3.5907825206879096,72.31490014746677,74.57217590962948,-2.257275762162706,40.33248909658287,45.693269570136394,-5.360780473553525,-0.02701613030893875,0.0,-0.02701613030893875
0.34600000000000025,move_to_zero,-1.621735107909078,-3.643461537544799,2.021726429635721,-72.78830172525802,-76.3798577533308,3.591556028072773,72.22142219182588,74.48222153579398,-2.2607993439681024,40.268133421423165,45.63815103024479,-5.370017608821627,-0.02726009308115171,0.0,-0.02726009308115171
0.34800000000000025,move_to_zero,-1.6156694658411122,-3.6390612216781992,2.0233917558370873,-72.69530679012017,-76.28761154831469,3.5923047581945156,72.12790246470607,74.39226716195847,-2.264364697252404,40.20380818644882,45.5830324903532,-5.37922430390438,-0.02750273161848926,0.0,-0.02750273161848926
0.35000000000000026,move_to_zero,-1.609660737955379,-3.634660905811599,2.02500016785622,-72.60234798228062,-76.19536534329859,3.5930173610179708,72.03435573149046,74.30231278812298,-2.267957056632511,40.139501868802746,45.52791395046159,-5.388412081658842,-0.027751619728900962,0.0,-0.027751619728900962
0.35200000000000026,move_to_zero,-1.6037094756308687,-3.630260589944999,2.02655111431413,-72.50943031820225,-76.10311913828248,3.5936888200802315,71.9408122669184,74.21235841428748,-2.2715461473690794,40.07522575337234,45.472795410569994,-5.397569657197657,-0.028015124176187584,0.0,-0.028015124176187584
0.35400000000000026,move_to_zero,-1.5978017061384138,-3.625860274078399,2.0280585679399854,-72.41654028387462,-76.01087293326638,3.5943326493917596,71.84725846564224,74.12240404045198,-2.2751455748097413,40.01096438438626,45.41767687067839,-5.406712486292129,-0.028270137288253748,0.0,-0.028270137288253748
0.35600000000000026,move_to_zero,-1.5919283155685031,-3.621459958211799,2.029531642643296,-72.32369679755077,-75.91862672825027,3.5949299306995073,71.7536758890976,74.03244966661647,-2.2787737775188788,39.946705616807684,45.36255833078679,-5.415852713979106,-0.02854183091444827,0.0,-0.02854183091444827
0.35800000000000026,move_to_zero,-1.5860870905107252,-3.6170596423451986,2.0309725518344734,-72.2308965599452,-75.82638052323418,3.5954839632889843,71.6600868834766,73.94249529278098,-2.282408409304381,39.88246366783868,45.307439790895195,-5.424976123056517,-0.02883115127246087,0.0,-0.02883115127246087
0.36000000000000026,move_to_zero,-1.580251558794746,-3.6126593264785987,2.0324077676838526,-72.1381502445726,-75.7341343182181,3.5959840736454964,71.56647862968484,73.85254091894548,-2.2860622892606415,39.818234256569184,45.25232125100359,-5.434086994434409,-0.029142862186461456,0.0,-0.029142862186461456
0.36200000000000027,move_to_zero,-1.5744557381320115,-3.6082590106119987,2.0338032724799873,-72.04547180873237,-75.64188811320199,3.5964163044696136,71.47284860334135,73.76258654510997,-2.289737941768621,39.75401121032691,45.19720271111199,-5.443191500785083,-0.029449009129525982,0.0,-0.029449009129525982
0.36400000000000027,move_to_zero,-1.5686888947412416,-3.603858694745399,2.035169800004158,-71.95283792156407,-75.54964190818589,3.596803986621822,71.37916812876813,73.67263217127449,-2.2934640425063577,39.68979357264345,45.14208417122039,-5.452290598576937,-0.029746830541484356,0.0,-0.029746830541484356
0.36600000000000027,move_to_zero,-1.5629383301628625,-3.5994583788787993,2.0365200487159365,-71.86026176175594,-75.45739570316978,3.597133941413844,71.28543299533852,73.58267779743898,-2.297244802100451,39.625591684557925,45.086965631328795,-5.46137394677087,-0.030028729695897476,0.0,-0.030028729695897476
0.36800000000000027,move_to_zero,-1.5571712699899272,-3.5950580630121993,2.037886793022272,-71.76770672099691,-75.36514949815368,3.597442777156772,71.191625893017,73.49272342360348,-2.3010975305864747,39.56140651687695,45.03184709143719,-5.470440574560243,-0.030293013782111883,0.0,-0.030293013782111883
0.3700000000000003,move_to_zero,-1.5514136761027524,-3.5906577471455994,2.039244071042847,-71.67517554573163,-75.27290329313757,3.5977277474059406,71.09775144386585,73.40276904976798,-2.305017605902137,39.497225582225475,44.97672855154559,-5.479502969320116,-0.0305428632146798,0.0,-0.0305428632146798
0.3720000000000003,move_to_zero,-1.5456541236215318,-3.586257431278999,2.0406033076574674,-71.58267871125975,-75.18065708812149,3.5979783768617466,71.00381229112637,73.31281467593247,-2.3090023848061065,39.43302864269898,44.921610011653996,-5.488581368955018,-0.03078067862488179,0.0,-0.03078067862488179
0.3740000000000003,move_to_zero,-1.5398989914874854,-3.581857115412399,2.0419581239249136,-71.49020548466201,-75.08841088310538,3.598205398443369,70.90981745113875,73.22286030209698,-2.313042850958226,39.36882314397219,44.86649147176239,-5.497668327790194,-0.031007851340242965,0.0,-0.031007851340242965
0.3760000000000003,move_to_zero,-1.534151462227744,-3.577456799545799,2.0433053373180554,-71.39776657991081,-74.99616467808929,3.598398098178478,70.81578323277772,73.13290592826148,-2.3171226954837607,39.30459163833944,44.81137293187079,-5.506781293531354,-0.031224068723234938,0.0,-0.031224068723234938
0.3780000000000003,move_to_zero,-1.5284221676836758,-3.573056483679199,2.0446343159955234,-71.30537129365143,-74.90391847307319,3.5985471794217574,70.72170498173364,73.04295155442597,-2.3212465726923313,39.24033961129275,44.75625439197919,-5.515914780686444,-0.03143244089947741,0.0,-0.03143244089947741
0.3800000000000003,move_to_zero,-1.5227177849808804,-3.5686561678125988,2.0459383828317184,-71.21305110602087,-74.81167226805708,3.59862116203621,70.62758201173018,72.95299718059049,-2.325415168860303,39.17603955712945,44.70113585208759,-5.525096294958139,-0.031634418532125536,0.0,-0.031634418532125536
0.3820000000000003,move_to_zero,-1.5170222192038298,-3.564255851945999,2.047233632742169,-71.12081793409854,-74.71942606304098,3.5986081289424448,70.53340816434122,72.86304280675498,-2.329634642413751,39.11172516545206,44.646017312195994,-5.534292146743937,-0.03183064211175449,0.0,-0.03183064211175449
0.3840000000000003,move_to_zero,-1.5113421490787724,-3.559855536079399,2.0485133870006265,-71.02865046453877,-74.62717985802489,3.5985293934861176,70.43921570434124,72.77308843291948,-2.3338727285782426,39.04741427687481,44.59089877230439,-5.543484495429581,-0.032021958160534464,0.0,-0.032021958160534464
0.3860000000000003,move_to_zero,-1.5056658702472168,-3.5554552202127994,2.0497893499655824,-70.93655041228442,-74.53493365300879,3.598383240724374,70.34499294080042,72.68313405908398,-2.338141118283559,38.98310728881302,44.53578023241279,-5.552672943599774,-0.03221076538227029,0.0,-0.03221076538227029
0.3880000000000003,move_to_zero,-1.4999939093330432,-3.551054904346199,2.051060995013156,-70.84447751374037,-74.44268744799268,3.59820993425231,70.25072875236427,72.59317968524847,-2.342450932884205,38.91880070774278,44.48066169252119,-5.561860984778406,-0.03239772157681568,0.0,-0.03239772157681568
0.3900000000000003,move_to_zero,-1.494313521235014,-3.546654588479599,2.052341067244585,-70.75244032127853,-74.35044124297659,3.598000921698059,70.15641940188146,72.50322531141298,-2.3468059095315112,38.85446954715312,44.425543152629594,-5.571073605476471,-0.03258452770265689,0.0,-0.03258452770265689
0.3920000000000003,move_to_zero,-1.488631406697804,-3.542254272612999,2.0536228659151954,-70.66045390890487,-74.25819503796048,3.5977411290556063,70.0620661251551,72.41327093757748,-2.351204812422381,38.79011761903914,44.37042461273799,-5.580306993698855,-0.03277026007104413,0.0,-0.03277026007104413
0.3940000000000003,move_to_zero,-1.4829559069647047,-3.537853956746399,2.0548980497816944,-70.5685405055844,-74.16594883294438,3.597408327359986,69.96765978590795,72.32331656374198,-2.355656777834028,38.725773184958236,44.31530607284639,-5.589532887888154,-0.03295838806468537,0.0,-0.03295838806468537
0.3960000000000003,move_to_zero,-1.477285622852349,-3.5334536408797987,2.0561680180274498,-70.47669649787994,-74.07370262792828,3.5970061300483422,69.87319634651242,72.23336218990647,-2.360165843394057,38.66143401799494,44.260187532954795,-5.598753514959853,-0.033148139264542124,0.0,-0.033148139264542124
0.3980000000000003,move_to_zero,-1.4716489768281058,-3.529053325013199,2.057404348185093,-70.38491537122144,-73.98145642291219,3.5965410516907497,69.77867208066546,72.14340781607098,-2.3647357354055174,38.59709078279507,44.205068993063186,-5.607978210268115,-0.03333851388596509,0.0,-0.03333851388596509
0.4000000000000003,move_to_zero,-1.466023991748135,-3.524653009146599,2.058629017398464,-70.29319954960314,-73.88921021789609,3.596010668292948,69.68410504491196,72.05345344223548,-2.3693483973235203,38.532760171164284,44.14995045317159,-5.617190282007307,-0.03352728725959972,0.0,-0.03352728725959972
0.4020000000000003,move_to_zero,-1.4604121958514473,-3.520252693279999,2.0598404974285516,-70.20154487833229,-73.79696401287998,3.595419134547697,69.5895119296988,71.96349906839997,-2.3739871387011675,38.468418058268604,44.09483191327999,-5.626413855011386,-0.03371418870596548,0.0,-0.03371418870596548
0.4040000000000003,move_to_zero,-1.4548175914367516,-3.515852377413399,2.0610347859766476,-70.10996804155033,-73.70471780786389,3.594749766313555,69.49488671060348,71.87354469456449,-2.3786579839610056,38.404066481587634,44.039713373388395,-5.635646891800761,-0.03389796135014785,0.0,-0.03389796135014785
0.4060000000000003,move_to_zero,-1.4492385485594135,-3.511452061546799,2.0622135129873858,-70.01845993236769,-73.61247160284778,3.5940116704800857,69.40022230851204,71.78359032072898,-2.383368012216934,38.33971300718887,43.98459483349679,-5.644881826307923,-0.03407942736198257,0.0,-0.03407942736198257
0.4080000000000003,move_to_zero,-1.4436487377018317,-3.507051745680199,2.0634030079783674,-69.92700983392778,-73.52022539783168,3.5932155639038967,69.30550550128523,71.69363594689347,-2.3881304456082404,38.27534556845826,43.92947629360519,-5.654130725146928,-0.034261116425893835,0.0,-0.034261116425893835
0.4100000000000003,move_to_zero,-1.4380391498527747,-3.5026514298135987,2.0646122799608237,-69.8356061837959,-73.42797919281558,3.5923730090196813,69.21072302561413,71.60368157305798,-2.392958547443854,38.21097676690402,43.87435775371359,-5.663380986809571,-0.034440733591764756,0.0,-0.034440733591764756
0.4120000000000003,move_to_zero,-1.4324324456860484,-3.4982511139469987,2.0658186682609503,-69.74425013065985,-73.33573298779949,3.5914828571396384,69.11588697685083,71.51372719922247,-2.3978402223716415,38.146615687387865,43.81923921382199,-5.672623526434123,-0.03461664170301143,0.0,-0.03461664170301143
0.4140000000000003,move_to_zero,-1.426816551049901,-3.493850798080399,2.067034247030498,-69.65291824514115,-73.24348678278338,3.590568537642227,69.02101277252594,71.42377282538698,-2.4027600528610407,38.08223648640404,43.76412067393039,-5.68188418752635,-0.03478964958089828,0.0,-0.03478964958089828
0.4160000000000003,move_to_zero,-1.4212064181505262,-3.4894504822137993,2.068244064063273,-69.56159759952783,-73.15124057776728,3.5896429782394534,68.92610164226015,71.33381845155148,-2.4077168092913297,38.01782768050007,43.70900213403879,-5.691174453538721,-0.03495796021410517,0.0,-0.03495796021410517
0.4180000000000003,move_to_zero,-1.4156027334405945,-3.485050166347199,2.069447432906604,-69.4702803546819,-73.05899437275119,3.5887140180692825,68.8311715003203,71.24386407771597,-2.412692577395674,37.95339766209914,43.653883594147196,-5.700485932048053,-0.0351263032119652,0.0,-0.0351263032119652
0.4200000000000003,move_to_zero,-1.4100153754688531,-3.480649850480599,2.0706344750117456,-69.37898640153936,-72.96674816773508,3.5877617661957117,68.73622921593343,71.15390970388047,-2.417680487947038,37.88896818952384,43.598765054255594,-5.709796864731757,-0.03529524588510843,0.0,-0.03529524588510843
0.4220000000000003,move_to_zero,-1.40441586048237,-3.476249534613999,2.071833674131629,-69.28772147315345,-72.87450196271898,3.586780489565527,68.64126301636192,71.06395533004498,-2.422692313683058,37.82454454925447,43.543646514363985,-5.719101965109516,-0.03546377483082911,0.0,-0.03546377483082911
0.4240000000000003,move_to_zero,-1.3988048792598287,-3.471849218747399,2.0730443394875704,-69.19649092342763,-72.78225575770288,3.5857648342752526,68.54626649138778,70.97400095620948,-2.4277344648216967,37.7601299883968,43.48852797447239,-5.728397986075592,-0.03563055876051044,0.0,-0.03563055876051044
0.4260000000000003,move_to_zero,-1.393189653060991,-3.4674489028807987,2.0742592498198076,-69.10529777223469,-72.69000955268679,3.5847117804520963,68.4512808873586,70.88404658237397,-2.4327656950153624,37.695710327369895,43.43340943458079,-5.737699107210894,-0.035793621202017775,0.0,-0.035793621202017775
0.4280000000000003,move_to_zero,-1.3875811493765442,-3.4630485870141987,2.0754674376376547,-69.01413059359248,-72.59776334767068,3.583632754078195,68.35631531065391,70.79409220853847,-2.437776897884561,37.63130526116971,43.378290894689194,-5.746985633519486,-0.03595311290171333,0.0,-0.03595311290171333
0.4300000000000003,move_to_zero,-1.3819917192056255,-3.458648271147599,2.0766565519419737,-68.92298300552163,-72.50551714265458,3.582534137132953,68.26137418021379,70.70413783470298,-2.442763654489184,37.566934072661944,43.32317235479759,-5.756238282135648,-0.03610904518960346,0.0,-0.03610904518960346
0.43200000000000033,move_to_zero,-1.3764003019652056,-3.454247955280999,2.0778476533157932,-68.8318514766905,-72.41327093763847,3.58141946094797,68.1664384978329,70.61418346086747,-2.447744963034566,37.50257617531226,43.268053814906,-5.76547763959374,-0.03626434329152175,0.0,-0.03626434329152175
0.43400000000000033,move_to_zero,-1.3708273404987499,-3.449847639414399,2.079020298915649,-68.74072216185647,-72.32102473262238,3.580302570765909,68.07151315525688,70.52422908703198,-2.452715931775103,37.43825548732439,43.21293527501439,-5.774679787689998,-0.03641746623574526,0.0,-0.03641746623574526
0.43600000000000033,move_to_zero,-1.3652760103035213,-3.445447323547799,2.0801713132442776,-68.6495992856958,-72.22877852760628,3.579179241910481,67.97660114025409,70.43427471319647,-2.457673572942383,37.373959176091944,43.157816735122786,-5.783857559030842,-0.03656884385738469,0.0,-0.03656884385738469
0.43800000000000033,move_to_zero,-1.3597688664192757,-3.441047007681199,2.0812781412619232,-68.55848267798243,-72.13653232259018,3.578049644607759,67.88169042517005,70.34432033936098,-2.462629914190927,37.30968803149579,43.10269819523119,-5.793010163735403,-0.036717459820928326,0.0,-0.036717459820928326
0.44000000000000034,move_to_zero,-1.354284639448522,-3.4366466918145986,2.0823620523660766,-68.4674006782868,-72.04428611757409,3.5768854392872953,67.7867984634112,70.25436596552548,-2.467567502114278,37.24542944167773,43.04757965533959,-5.802150213661861,-0.03686288263148488,0.0,-0.03686288263148488
0.44200000000000034,move_to_zero,-1.3488569703321212,-3.4322463759479986,2.0833894056158773,-68.37636273620451,-71.95203991255798,3.575677176353466,67.69192569507265,70.16441159168997,-2.4724858966173144,37.1812058260011,42.992461115447995,-5.811255289446898,-0.03700533560115367,0.0,-0.03700533560115367
0.44400000000000034,move_to_zero,-1.3434890407165514,-3.427846060081399,2.0843570193648477,-68.28534692705605,-71.85979370754188,3.574446780485829,67.59709059741918,70.07445721785447,-2.4773666204352907,37.117011028070664,42.937342575556386,-5.820331547485722,-0.03714580090906212,0.0,-0.03714580090906212
0.44600000000000034,move_to_zero,-1.3381503532885486,-3.423445744214799,2.085295390926251,-68.19431743118882,-71.76754750252577,3.573230071336951,67.50229320857287,69.98450284401898,-2.482209635446111,37.05285931092966,42.88222403566479,-5.829364724735129,-0.03728385820044034,0.0,-0.03728385820044034
0.44800000000000034,move_to_zero,-1.3328162601532128,-3.419045428348199,2.0862291681949863,-68.10330031307232,-71.67530129750969,3.5720009844373664,67.40752844962455,69.89454847018347,-2.4870200205589157,36.98875006910039,42.82710549577319,-5.838355426672798,-0.03741866952511392,0.0,-0.03741866952511392
0.45000000000000034,move_to_zero,-1.327485436660328,-3.414645112481599,2.0871596758212707,-68.01230777205863,-71.58305509249358,3.570747320434947,67.3127772522553,69.80459409634798,-2.491816844092682,36.924680026016205,42.77198695588159,-5.847306929865383,-0.03755209716777822,0.0,-0.03755209716777822
0.45200000000000035,move_to_zero,-1.3221801283615453,-3.410244796614999,2.0880646682534536,-67.92134446794992,-71.49080888747748,3.569464419527563,67.21801634822603,69.71463972251247,-2.496623374286443,36.860625152569746,42.71686841598999,-5.856243263420247,-0.037687022366427445,0.0,-0.037687022366427445
0.45400000000000035,move_to_zero,-1.3168903511763925,-3.405844480748399,2.0889541295720067,-67.83038017674589,-71.39856268246137,3.568182505715484,67.12322562305528,69.62468534867698,-2.5014597256217,36.79657377640472,42.66174987609839,-5.86517609969367,-0.037821660865939875,0.0,-0.037821660865939875
0.45600000000000035,move_to_zero,-1.3116203039650396,-3.4014441648817986,2.089823860916759,-67.73939753830294,-71.30631647744528,3.56691893914234,67.02840322861613,69.53473097484148,-2.5063277462253524,36.732507825325726,42.60663133620679,-5.874123510881063,-0.0379580853408044,0.0,-0.0379580853408044
0.45800000000000035,move_to_zero,-1.3063636381126833,-3.397043849015199,2.0906802109025158,-67.64842626674515,-71.21407027242918,3.5656440056840353,66.9335422818228,69.44477660100597,-2.511234319183174,36.66843925985834,42.55151279631519,-5.883073536456848,-0.03809490058089954,0.0,-0.03809490058089954
0.46000000000000035,move_to_zero,-1.3011123147341144,-3.392643533148599,2.0915312184144845,-67.55746114658182,-71.12182406741309,3.5643629208312717,66.83862477726798,69.35482222717047,-2.516197449902492,36.60436547879257,42.49639425642359,-5.892028777631019,-0.038231251462888804,0.0,-0.038231251462888804
0.46200000000000035,move_to_zero,-1.2958997299101747,-3.3882432172819987,2.0923434873718243,-67.46651427333849,-71.02957786239699,3.563063589058501,66.74366614035027,69.26486785333498,-2.5212017129847055,36.54031086197906,42.44127571653199,-5.900964854552932,-0.038370519564816304,0.0,-0.038370519564816304
0.46400000000000036,move_to_zero,-1.2907314659621083,-3.383842901415399,2.0931114354532907,-67.37557804130479,-70.93733165738088,3.561753616076089,66.64868500520666,69.17491347949948,-2.5262284742928216,36.47628642898849,42.38615717664039,-5.909870747651901,-0.03851160656505521,0.0,-0.03851160656505521
0.46600000000000036,move_to_zero,-1.2855862105625322,-3.379442585548799,2.0938563749862666,-67.28466551376236,-70.84508545236478,3.560419938602422,66.55365191520173,69.08495910566397,-2.5313071904622433,36.412333574396015,42.331038636748794,-5.918705062352778,-0.038652739337288744,0.0,-0.038652739337288744
0.46800000000000036,move_to_zero,-1.2804723780943745,-3.375042269682199,2.0945698915878244,-67.19376155133715,-70.75283924734867,3.559077696011528,66.45859073677852,68.99500473182847,-2.536413995049955,36.34846335366437,42.275920096857185,-5.927456743192813,-0.03879366080381376,0.0,-0.03879366080381376
0.47000000000000036,move_to_zero,-1.275384587216089,-3.3706419538155985,2.0952573665995096,-67.10290066018449,-70.66059304233258,3.5576923821480904,66.36348814824777,68.90505035799298,-2.5415622097452086,36.284667130871945,42.22080155696559,-5.936134426093645,-0.038935658199553955,0.0,-0.038935658199553955
0.47200000000000036,move_to_zero,-1.2703185859635922,-3.3662416379489986,2.095923051985406,-67.01205590416872,-70.56834683731647,3.55629093314775,66.26836390867905,68.81509598415747,-2.546732075478417,36.22093089869241,42.16568301707399,-5.9447521183815795,-0.03907626354825656,0.0,-0.03907626354825656
0.47400000000000037,move_to_zero,-1.2652748847174715,-3.361841322082399,2.0965664373649275,-66.92121717757325,-70.47610063230039,3.5548834547271326,66.17320588254324,68.72514161032198,-2.5519357277787407,36.157241849670335,42.11056447718239,-5.953322627512058,-0.03921750094784357,0.0,-0.03921750094784357
0.47600000000000037,move_to_zero,-1.2602265545649645,-3.357441006215799,2.0972144516508346,-66.83040187941344,-70.38385442728428,3.553452547870833,66.07802463574478,68.63518723648647,-2.557162600741691,36.093578723311396,42.05544593729079,-5.961867213979396,-0.03936063002250216,0.0,-0.03936063002250216
0.47800000000000037,move_to_zero,-1.2551603954436121,-3.3530406903491987,2.0978802949055866,-66.73958052813803,-70.29160822226818,3.552027694130146,65.9828279865588,68.54523286265096,-2.5624048760921596,36.02992486151157,42.00032739739919,-5.970402535887622,-0.03950368733816429,0.0,-0.03950368733816429
0.48000000000000037,move_to_zero,-1.2500780374246472,-3.3486403744825988,2.0985623370579516,-66.64875948175266,-70.19936201725208,3.550602535499422,65.88762229085143,68.45527848881548,-2.5676561979640553,35.9662871821258,41.94520885750759,-5.978921675381791,-0.03964713007175683,0.0,-0.03964713007175683
0.4820000000000004,move_to_zero,-1.2450156708951237,-3.344240058615999,2.0992243877208754,-66.55795146115258,-70.10711581223597,3.549164351083391,65.79239356238803,68.36532411497997,-2.5729305525919415,35.90266199964596,41.890090317615986,-5.9874283179700285,-0.0397918721862268,0.0,-0.0397918721862268
0.4840000000000004,move_to_zero,-1.2399648933390084,-3.339839742749399,2.0998748494103907,-66.46718077329545,-70.01486960721988,3.5476888339244255,65.69713891155541,68.27536974114447,-2.57823082958906,35.83903373442288,41.83497177772439,-5.995938043301514,-0.039935917522182014,0.0,-0.039935917522182014
0.4860000000000004,move_to_zero,-1.234915320900616,-3.3354394268827985,2.100524105982182,-66.37645414268772,-69.92262340220378,3.5461692595160628,65.60188267843765,68.18541536730898,-2.5835326888713297,35.77537803481869,41.77985323783279,-6.004475203014103,-0.04007653649498635,0.0,-0.04007653649498635
0.4880000000000004,move_to_zero,-1.2299109651149123,-3.331039111016199,2.1011281459012867,-66.28573499856967,-69.83037719718769,3.544642198618021,65.50664283903836,68.09546099347347,-2.5888181544351028,35.71168075240997,41.72473469794119,-6.013053945531219,-0.040213722374054094,0.0,-0.040213722374054094
0.4900000000000004,move_to_zero,-1.2249379097902964,-3.326638795149599,2.1017008853593024,-66.1950499506726,-69.73813099217158,3.5430810414989793,65.41141168805461,68.00550661963797,-2.5940949315833564,35.64795657371701,41.66961615804959,-6.021659584332582,-0.04034740602518983,0.0,-0.04034740602518983
0.4920000000000004,move_to_zero,-1.219988010122345,-3.3222384792829986,2.1022504691606536,-66.10436629026216,-69.64588478715548,3.5415184968933175,65.31617663111547,67.91555224580247,-2.5993756146870055,35.58421375365894,41.61449761815798,-6.03028386449904,-0.04048088965289014,0.0,-0.04048088965289014
0.4940000000000004,move_to_zero,-1.2150390792370545,-3.3178381634163987,2.1027990841793445,-66.01370623773222,-69.55363858213937,3.5399323444071484,65.22094742067381,67.82559787196698,-2.6046504512931676,35.520454691256795,41.55937907826639,-6.038924387009594,-0.04061534481602338,0.0,-0.04061534481602338
0.4960000000000004,move_to_zero,-1.2101034402410906,-3.3134378475497988,2.103334407308708,-65.923081032913,-69.46139237712327,3.538311344210271,65.12573359922237,67.73564349813147,-2.6099098989090947,35.45669206145708,41.50426053837479,-6.047568476917704,-0.040750913344637,0.0,-0.040750913344637
0.4980000000000004,move_to_zero,-1.2051775502135946,-3.309037531683199,2.103859981469604,-65.83249477704662,-69.36914617210718,3.5366513950605594,65.03054435443534,67.64568912429597,-2.6151447698606347,35.39296681713354,41.44914199848319,-6.056175181349651,-0.04088544959448931,0.0,-0.04088544959448931
0.5000000000000003,move_to_zero,-1.2002656794392341,-3.3046372158165984,2.1043715363773643,-65.74195701028066,-69.27689996709108,3.5349429568104256,64.93536807063745,67.55573475046047,-2.6203666798230216,35.32926051516474,41.39402345859159,-6.0647629434268495,-0.04101921069893811,0.0,-0.04101921069893811
0.5020000000000003,move_to_zero,-1.1953578556790037,-3.300236899949999,2.1048790442709953,-65.65146962500965,-69.18465376207499,3.5331841370653336,64.84020244484998,67.46578037662498,-2.6255779317749983,35.26555328435311,41.33890491869999,-6.073351634346878,-0.04114920596836542,0.0,-0.04114920596836542
0.5040000000000003,move_to_zero,-1.190434009450593,-3.2958365840833994,2.1054025746328064,-65.56101993604949,-69.09240755705889,3.531387621009401,64.7450635886798,67.37582600278948,-2.6307624141096824,35.201841061540264,41.283786378808394,-6.081945317268129,-0.04127459629876775,0.0,-0.04127459629876775
0.5060000000000003,move_to_zero,-1.1855240001502556,-3.291436268216799,2.105912268066543,-65.47059298171634,-69.00016135204278,3.5295683703264444,64.64996708785056,67.28587162895397,-2.6359045411034145,35.13813054592749,41.228667838916785,-6.090537292989296,-0.041394709840958215,0.0,-0.041394709840958215
0.5080000000000003,move_to_zero,-1.1806381228449745,-3.287035952350199,2.106397829505225,-65.38018368051121,-68.90791514702669,3.527731466515476,64.55489658707404,67.19591725511847,-2.6410206680444333,35.07441356554339,41.1735492990252,-6.099135733481809,-0.04151125252879203,0.0,-0.04151125252879203
0.5100000000000003,move_to_zero,-1.1757711354874127,-3.2826356364835987,2.1068645009961857,-65.28978785794493,-68.81566894201057,3.525881084065645,64.45982803871314,67.10596288128298,-2.646134842569836,35.01072487651385,41.11843075913359,-6.10770588261974,-0.04162274742328405,0.0,-0.04162274742328405
0.5120000000000003,move_to_zero,-1.1709269479214375,-3.278235320616999,2.1073083726955617,-65.19941237421342,-68.7234227369945,3.5240103627810697,64.36476780290856,67.01600850744748,-2.651240704538921,34.94706801790192,41.06331221924199,-6.1162442013400735,-0.0417326238011168,0.0,-0.0417326238011168
0.5140000000000003,move_to_zero,-1.1660618039316806,-3.273835004750399,2.107773200818718,-65.10908803177284,-68.63117653197838,3.522088500205541,64.26972941606938,66.92605413361197,-2.6563247175425886,34.883445561445576,41.00819367935039,-6.124748117904815,-0.04184102648437781,0.0,-0.04184102648437781
0.5160000000000003,move_to_zero,-1.1612077899779611,-3.2694346888837993,2.108226898905838,-65.018810138392,-68.53893032696229,3.5201201885702886,64.17472766268989,66.83609975977649,-2.6613720970865984,34.81984970317309,40.95307513945879,-6.133225436285699,-0.04194856383252245,0.0,-0.04194856383252245
0.5180000000000003,move_to_zero,-1.1563738320438508,-3.265034373017199,2.1086605409733483,-64.92855215257092,-68.44668412194618,3.5181319693752613,64.07974215358358,66.74614538594096,-2.666403232357382,34.75629235450496,40.89795659956719,-6.1416642450622305,-0.042057023583307165,0.0,-0.042057023583307165
0.5200000000000004,move_to_zero,-1.1515603549398192,-3.2606340571505994,2.10907370221078,-64.83835293870243,-68.35443791693008,3.516084978227653,63.98477447967622,66.65619101210548,-2.6714165324292622,34.692753960872054,40.84283805967559,-6.150084098803539,-0.04216645479292914,0.0,-0.04216645479292914
0.5220000000000004,move_to_zero,-1.1467818112491204,-3.2562337412839986,2.1094519300348784,-64.74822306180079,-68.26219171191397,3.513968650113185,63.88984012247788,66.56623663826997,-2.676396515792092,34.62923425791507,40.78771951978399,-6.158485261868918,-0.042273680360232546,0.0,-0.042273680360232546
0.5240000000000004,move_to_zero,-1.1420432580140583,-3.251833425417399,2.109790167403341,-64.65815597070802,-68.16994550689789,3.511789536189866,63.79494732031988,66.47628226443447,-2.681334944114596,34.56574587520027,40.732600979892396,-6.166855104692125,-0.042378713857784585,0.0,-0.042378713857784585
0.5260000000000004,move_to_zero,-1.137336508709312,-3.2474331095507987,2.1100966008414868,-64.56815400048293,-68.07769930188178,3.5095453013988447,63.70011374224119,66.38632789059898,-2.6862141483577844,34.50228468893524,40.677482440000794,-6.175197751065554,-0.042483381116996434,0.0,-0.042483381116996434
0.5280000000000004,move_to_zero,-1.1326446679043791,-3.2430327936841996,2.1103881257798207,-64.47819794670578,-67.9854530968657,3.5072551501599207,63.605326897783776,66.29637351676348,-2.691046618979705,34.43883836558178,40.62236390010919,-6.183525534527412,-0.04258722401740173,0.0,-0.04258722401740173
0.5300000000000004,move_to_zero,-1.127986161460127,-3.2386324778175983,2.1106463163574714,-64.3882704507719,-67.89320689184957,3.5049364410776747,63.51057016366686,66.20641914292797,-2.6958489792611076,34.37541295857587,40.56724536021758,-6.191832401641712,-0.04268796897694276,0.0,-0.04268796897694276
0.5320000000000004,move_to_zero,-1.1233531649536401,-3.2342321619509993,2.110878996997359,-64.29834071874389,-67.80096068683349,3.502619968089604,63.41584257086952,66.11646476909249,-2.700622198222966,34.31200080188568,40.512126820325996,-6.200126018440315,-0.04278465374784347,0.0,-0.04278465374784347
0.5340000000000004,move_to_zero,-1.1187531396306296,-3.229831846084399,2.1110787064537693,-64.2084124890947,-67.70871448181737,3.500301992722669,63.32113736225977,66.02651039525698,-2.7053730329972083,34.24857198217989,40.45700828043439,-6.208436298254497,-0.04287801905203979,0.0,-0.04287801905203979
0.5360000000000004,move_to_zero,-1.1141843559628408,-3.2254315302177994,2.1112471742549586,-64.11851368684204,-67.61646827680129,3.4979545899592495,63.226446273173686,65.93655602142148,-2.7101097482477954,34.1851319042675,40.4018897405428,-6.216757836275299,-0.04296822247412865,0.0,-0.04296822247412865
0.5380000000000004,move_to_zero,-1.1096305022843007,-3.2210312143511985,2.1114007120668976,-64.02866052334558,-67.52422207178519,3.4955615484396105,63.13176116430291,65.84660164758597,-2.714840483283062,34.12170587319668,40.34677120065119,-6.225065327454509,-0.04305667630008057,0.0,-0.04305667630008057
0.5400000000000004,move_to_zero,-1.1050756811538949,-3.216630898484599,2.111555217330704,-63.93885312699535,-67.4319758667691,3.493122739773746,63.03707355145355,65.75664727375049,-2.7195737222969356,34.05829835173393,40.29165266075959,-6.233354309025657,-0.04314168871378786,0.0,-0.04314168871378786
0.5420000000000004,move_to_zero,-1.1005373565828978,-3.2122305826179987,2.1116932260351007,-63.84909875044277,-67.33972966175298,3.4906309113102125,62.94236777752378,65.66669289991496,-2.7243251223911855,33.99489734228572,40.23653412086799,-6.241636778582269,-0.043225000401382205,0.0,-0.043225000401382205
0.5440000000000004,move_to_zero,-1.0960268136682423,-3.207830266751399,2.111803453083157,-63.75938913375835,-67.24748345673689,3.48809432297854,62.847647101394514,65.57673852607948,-2.7290914246849667,33.93149276863407,40.18141558097639,-6.249922812342319,-0.04330640788001279,0.0,-0.04330640788001279
0.5460000000000004,move_to_zero,-1.0915336498469324,-3.2034299508847988,2.1118963010378664,-63.66972766464195,-67.15523725172078,3.4855095870788304,62.75290980620814,65.48678415224397,-2.733874346035833,33.86807411154992,40.12629704108479,-6.258222929534867,-0.043385531252086135,0.0,-0.043385531252086135
0.5480000000000004,move_to_zero,-1.0870675535593484,-3.1990296350181993,2.111962081458851,-63.58011250578104,-67.06299104670468,3.482878540923643,62.65816818208078,65.39682977840847,-2.7386615963276952,33.80463785119318,40.071178501193195,-6.266540650000017,-0.043462220793461646,0.0,-0.043462220793461646
0.5500000000000004,move_to_zero,-1.0826341177780623,-3.194629319151599,2.111995201373537,-63.49054757324629,-66.97074484168859,3.4801972684422964,62.56344620538731,65.30687540457298,-2.7434291991856696,33.74118202317057,40.01605996130159,-6.27487793813102,-0.04353749452915687,0.0,-0.04353749452915687
0.5520000000000004,move_to_zero,-1.0782272800956254,-3.190229003284999,2.1120017231893735,-63.401017219396785,-66.87849863667249,3.4774814172757047,62.468736103222014,65.21692103073748,-2.7481849275154673,33.67774419299155,39.96094142140999,-6.2831972284184445,-0.043610976561963895,0.0,-0.043610976561963895
0.5540000000000004,move_to_zero,-1.0738372314495495,-3.1858286874183985,2.111991455968849,-63.311506873855876,-66.78625243165638,3.474745557800503,62.37401334550494,65.12696665690197,-2.752953311397029,33.61432495881164,39.90582288151839,-6.291497922706746,-0.04368281678170811,0.0,-0.04368281678170811
0.5560000000000004,move_to_zero,-1.069491196825526,-3.1814283715517995,2.1119371747262736,-63.22200305476688,-66.69400622664028,3.4720031718734035,62.2792697289018,65.03701228306649,-2.757742554164686,33.55091900633026,39.850704341626795,-6.299785335296534,-0.043753424471990904,0.0,-0.043753424471990904
0.5580000000000004,move_to_zero,-1.0651700823200618,-3.1770280556851986,2.1118579733651366,-63.132524612056756,-66.60176002162417,3.4692354095674176,62.18449396812692,64.94705790923096,-2.762563941104041,33.48753418022813,39.795585801735186,-6.308051621507055,-0.043822479064863334,0.0,-0.043822479064863334
0.5600000000000004,move_to_zero,-1.06087566953158,-3.172627739818599,2.111752070287019,-63.04308172118647,-66.50951381660808,3.4664320954216095,62.08968537612182,64.85710353539548,-2.76741815927366,33.424189576960565,39.7404672618436,-6.316277684883033,-0.04389160476118824,0.0,-0.04389160476118824
0.5620000000000004,move_to_zero,-1.0565895599259196,-3.1682274239519987,2.111637864026079,-62.95367718646126,-66.41726761159198,3.463590425130718,61.99485578264972,64.76714916155997,-2.7722933789102484,33.360860455300624,39.68534872195198,-6.3244882666513575,-0.04396307354826948,0.0,-0.04396307354826948
0.5640000000000004,move_to_zero,-1.0523179170336885,-3.1638271080853992,2.1115091910517108,-62.86430986946042,-66.3250214065759,3.460711537115479,61.89999766511242,64.67719478772447,-2.7771971226120513,33.29755071360538,39.630230182060394,-6.332679468455012,-0.044039208353081595,0.0,-0.044039208353081595
0.5660000000000004,move_to_zero,-1.0480781959173375,-3.159426792218799,2.111348596301461,-62.77498311870088,-66.23277520155978,3.4577920828588944,61.80510747645953,64.58724041388896,-2.782132937429431,33.23424470319421,39.575111642168785,-6.340866938974578,-0.04412051686156267,0.0,-0.04412051686156267
0.5680000000000004,move_to_zero,-1.0438614492217895,-3.155026476352199,2.1111650271304097,-62.68568375797993,-66.1405289965437,3.454845238563763,61.71019229003898,64.49728604005348,-2.787093750014499,33.17093034273237,39.51999310227719,-6.349062759544822,-0.044206377346713295,0.0,-0.044206377346713295
0.5700000000000004,move_to_zero,-1.0396558408256933,-3.1506261604855985,2.1109703196599052,-62.596438527108084,-66.04828279152757,3.451844264419485,61.61527017513552,64.40733166621797,-2.7920614910824497,33.10760565200838,39.46487456238559,-6.357268910377208,-0.04429619573098069,0.0,-0.04429619573098069
0.5720000000000004,move_to_zero,-1.035446460490263,-3.1462258446189995,2.110779384128737,-62.50723501079047,-65.95603658651149,3.4488015757210206,61.52035019323984,64.31737729238247,-2.797027099142632,33.04427795524059,39.409756022493994,-6.365478067253406,-0.044386289662971735,0.0,-0.044386289662971735
0.5740000000000004,move_to_zero,-1.0312401099145954,-3.141825528752399,2.110585418837804,-62.41804692257765,-65.86379038149538,3.4457434589177254,61.42542803905189,64.22742291854698,-2.8019948794950906,32.98095357408975,39.354637482602385,-6.373683908512632,-0.04447712617280755,0.0,-0.04447712617280755
0.5760000000000004,move_to_zero,-1.0270290720505093,-3.137425212885799,2.11039614083529,-62.32889233471132,-65.7715441764793,3.442651841767976,61.330510169862734,64.13746854471148,-2.8069583748487474,32.917642636239776,39.29951894271079,-6.381876306471014,-0.04456715715915772,0.0,-0.04456715715915772
0.5780000000000004,move_to_zero,-1.0228210864440068,-3.1330248970191987,2.110203810575192,-62.23975610604148,-65.67929797146319,3.4395418654217025,61.235581832876335,64.04751417087597,-2.811932337999636,32.85435060230721,39.24440040281919,-6.3900498005119815,-0.04465929944224526,0.0,-0.04465929944224526
0.5800000000000004,move_to_zero,-1.0186285953433059,-3.1286245811525992,2.1099959858092934,-62.1506222621671,-65.58705176644709,3.4364295042799924,61.14061621787649,63.95755979704048,-2.81694357916399,32.79109222115698,39.189281862927594,-6.398189641770614,-0.044752413984255404,0.0,-0.044752413984255404
0.5820000000000004,move_to_zero,-1.0144625991176757,-3.1242242652859984,2.109761666168323,-62.061504439776314,-65.49480556143098,3.433301121654665,61.04564464986041,63.867605423204964,-2.821960773344557,32.72785368200569,39.134163323035985,-6.4063096410302975,-0.044846302817597855,0.0,-0.044846302817597855
0.5840000000000004,move_to_zero,-1.0103308846856116,-3.119823949419399,2.1094930647337873,-61.97238748943389,-65.40255935641488,3.4301718669809915,60.95068516597535,63.777651049369474,-2.8269658833941236,32.664625277011766,39.0790447831444,-6.4144195061326315,-0.04494235457955657,0.0,-0.04494235457955657
0.5860000000000004,move_to_zero,-1.006208865817865,-3.1154236335527985,2.1092147677349335,-61.88326380431679,-65.31031315139877,3.427049347081983,60.85574740037634,63.68769667553397,-2.8319492751576334,32.60139731311911,39.02392624325278,-6.422528930133673,-0.04503914984087181,0.0,-0.04503914984087181
0.5880000000000004,move_to_zero,-1.0021161703587584,-3.1110233176861994,2.1089071473274412,-61.794123798362854,-65.21806694638268,3.4239431480198235,60.7608139487583,63.597742301698474,-2.836928352940177,32.538211111845634,38.96880770336119,-6.43059659151556,-0.04513517551198757,0.0,-0.04513517551198757
0.5900000000000004,move_to_zero,-0.9980343092863542,-3.1066230018195986,2.108588692533244,-61.70494973782602,-65.12582074136658,3.4208710035405616,60.66588648803195,63.50778792786297,-2.8419014398310196,32.47504760071482,38.913689163469584,-6.438641562754768,-0.04522877445366124,0.0,-0.04522877445366124
0.5920000000000004,move_to_zero,-0.9939697075906759,-3.102222685952999,2.108252978362323,-61.615764619332346,-65.03357453635049,3.4178099170181397,60.57097568802413,63.41783355402748,-2.8468578660033543,32.41191164222754,38.858570623578,-6.44665898135046,-0.045320965565745754,0.0,-0.045320965565745754
0.5940000000000004,move_to_zero,-0.9899297750120479,-3.0978223700863987,2.107892595074351,-61.5265708484573,-64.94132833133438,3.4147574828770786,60.47607667100331,63.32787918019197,-2.8518025091886585,32.34882322040476,38.80345208368639,-6.454628863281627,-0.04540970724013582,0.0,-0.04540970724013582
0.5960000000000004,move_to_zero,-0.985903055253482,-3.093422054219799,2.1075189989663174,-61.43736279921933,-64.84908212631828,3.4117193270989503,60.38118876628946,63.23792480635648,-2.8567360400670196,32.28579699699828,38.74833354379479,-6.462536546796514,-0.045495398194198844,0.0,-0.045495398194198844
0.5980000000000004,move_to_zero,-0.9818755785368188,-3.0890217383531984,2.1071461598163794,-61.34815934406552,-64.75683592130217,3.4086765772366476,60.286281939347454,63.147970432520964,-2.86168849317351,32.222848413457164,38.693215003903184,-6.4703665904460195,-0.04557863258992298,0.0,-0.04557863258992298
0.6000000000000004,move_to_zero,-0.9778707784901449,-3.0846214224865993,2.1067506439964543,-61.25898004070174,-64.66458971628607,3.40560967558433,60.19134373044349,63.05801605868548,-2.8666723282419895,32.15996828154443,38.63809646401159,-6.4781281824671595,-0.04565817870855365,0.0,-0.04565817870855365
0.6020000000000004,move_to_zero,-0.9738734716593888,-3.0802211066199985,2.10634763496061,-61.16983880298456,-64.57234351126998,3.40250470828542,60.096362868395616,62.968061684849964,-2.871698816454348,32.09716402943857,38.58297792411999,-6.485813894681421,-0.04573379594032883,0.0,-0.04573379594032883
0.6040000000000004,move_to_zero,-0.9698598562803312,-3.075820790753399,2.105960934473068,-61.0807437520733,-64.4800973062539,3.3993535541805926,60.00134574943224,62.878107311014475,-2.876761561582235,32.03443309733728,38.52785938422839,-6.493426286891115,-0.04580301533327006,0.0,-0.04580301533327006
0.6060000000000004,move_to_zero,-0.9658274843085014,-3.0714204748867986,2.1055929905782973,-60.9917001587745,-64.38785110123777,3.3961509424632723,59.90630956224819,62.78815293717897,-2.8818433749307815,31.971757705324414,38.47274084433679,-6.5009831390123765,-0.045866757481054954,0.0,-0.045866757481054954
0.6080000000000004,move_to_zero,-0.9617848056131203,-3.067020159020199,2.1052353534070787,-60.902702034447216,-64.29560489622169,3.3929028617744734,59.81128087180753,62.698198563343475,-2.886917691535942,31.909138424240957,38.417622304445196,-6.508483880204238,-0.04592649537955773,0.0,-0.04592649537955773
0.6100000000000004,move_to_zero,-0.9577576512972868,-3.0626198431535987,2.104862191856312,-60.81372842412192,-64.20335869120557,3.3896302670836462,59.71626961399347,62.60824418950797,-2.891974575514503,31.846562378903883,38.36250376455359,-6.515941385649704,-0.045983108468006496,0.0,-0.045983108468006496
0.6120000000000004,move_to_zero,-0.9537453343684087,-3.0582195272869988,2.10447419291859,-60.724790102753786,-64.11111248618948,3.3863223834356972,59.62128123613921,62.51828981567248,-2.8970085795332707,31.78399786389824,38.30738522466199,-6.523387360763753,-0.046036987446689014,0.0,-0.046036987446689014
0.6140000000000004,move_to_zero,-0.9497513639522964,-3.0538192114203984,2.104067847468102,-60.63587611324743,-64.01886628117337,3.3829901679259464,59.52629330511514,62.42833544183697,-2.902042136721832,31.72145902455112,38.25226668477038,-6.5308076602192635,-0.04608805369206862,0.0,-0.04608805369206862
0.6160000000000004,move_to_zero,-0.9457925743910571,-3.0494188955537993,2.103626321162742,-60.547000082059895,-63.926620076157285,3.3796199940973892,59.431309745192046,62.33838106800148,-2.9070713228094363,31.65893343516668,38.197148144878796,-6.538214709712115,-0.046135881407605404,0.0,-0.046135881407605404
0.6180000000000004,move_to_zero,-0.9418463810571683,-3.045018579687199,2.1031721986300305,-60.45813419353236,-63.83437387114118,3.3762396776088224,59.33632156462095,62.248426694165964,-2.9121051295450116,31.596408465582304,38.14202960498719,-6.545621139404883,-0.0461786690026848,0.0,-0.0461786690026848
0.6200000000000004,move_to_zero,-0.9378979392735475,-3.040618263820599,2.1027203245470516,-60.36928085182164,-63.742127666125086,3.3728468143034434,59.241340383169806,62.15847232033048,-2.9171319371606756,31.53390204146628,38.08691106509559,-6.553009023629311,-0.04621554634422048,0.0,-0.04621554634422048
0.6220000000000004,move_to_zero,-0.9339484373142862,-3.0362179479539986,2.1022695106397125,-60.28043733975312,-63.649881461108976,3.369444121355855,59.14636397436236,62.068517946494964,-2.9221539721326053,31.471432671373048,38.03179252520398,-6.560359853830935,-0.04624781571830203,0.0,-0.04624781571830203
0.6240000000000004,move_to_zero,-0.9300056931949001,-3.031817632087399,2.101811938892499,-60.19159044838536,-63.55763525609289,3.3660448077075245,59.0513867021643,61.978563572659475,-2.927176870495174,31.408997495732127,37.97667398531239,-6.567676489580261,-0.04627257039683666,0.0,-0.04627257039683666
0.6260000000000004,move_to_zero,-0.9260903318605878,-3.0274173162207987,2.101326984360211,-60.102753657124246,-63.46538905107678,3.36263539395253,58.956401364471546,61.888609198823964,-2.9322078343524183,31.346631318881137,37.921555445420786,-6.574924126539649,-0.04629049265106043,0.0,-0.04629049265106043
0.6280000000000004,move_to_zero,-0.9222108885948084,-3.0230170003541987,2.1008061117593906,-60.013924353209276,-63.37314284606068,3.3592184928514044,58.861412746169975,61.798654824988475,-2.9372420788184996,31.284356969097363,37.86643690552919,-6.582079936431828,-0.04630359086102601,0.0,-0.04630359086102601
0.6300000000000004,move_to_zero,-0.918354552912457,-3.0186166844875983,2.1002621315751413,-59.92511736425679,-63.28089664104458,3.3557792767877856,58.76642070153841,61.70870045115297,-2.9422797496145634,31.22216360131009,37.81131836563759,-6.5891547643275,-0.04631599528667241,0.0,-0.04631599528667241
0.6320000000000005,move_to_zero,-0.914510275468257,-3.0142163686209993,2.0997060931527423,-59.83633495914744,-63.18865043602848,3.3523154768810386,58.671405906983125,61.618746077317475,-2.94734017033435,31.160069112054366,37.756199825745995,-6.596130713691629,-0.04632685151040215,0.0,-0.04632685151040215
0.6340000000000005,move_to_zero,-0.9106597062313607,-3.009816052754399,2.099156346523038,-59.74758268508395,-63.09640423101237,3.3488215459284234,58.576380048403834,61.52879170348197,-2.952411655078137,31.09806031175475,37.701081285854386,-6.6030209740996355,-0.04633600533248342,0.0,-0.04633600533248342
0.6360000000000005,move_to_zero,-0.9068112321733832,-3.005415736887799,2.098604504714416,-59.658841448127966,-63.00415802599628,3.345316577868317,58.4813422210691,61.43883732964648,-2.9574951085773833,31.036127180903126,37.64596274596279,-6.609835565059665,-0.04634367251524469,0.0,-0.04634367251524469
0.6380000000000005,move_to_zero,-0.9029821435107465,-3.0010154210211986,2.098033277510452,-59.57011791186307,-62.91191182098017,3.3417939091171007,58.38629265415188,61.348882955810964,-2.962590301659084,30.974255586622917,37.59084420607118,-6.616588619448265,-0.046349770450984686,0.0,-0.046349770450984686
0.6400000000000005,move_to_zero,-0.8991437181315541,-2.996615105154599,2.097471387023045,-59.48139347577694,-62.81966561596408,3.3382721401871365,58.29123447109045,61.25892858197548,-2.9676941108850343,30.91244003621271,37.535725666179594,-6.623285629966883,-0.04635063452789246,0.0,-0.04635063452789246
0.6420000000000005,move_to_zero,-0.8953072083148865,-2.9922147892879987,2.096907580973112,-59.392667867013465,-62.727419410947974,3.334751543934509,58.19616925007302,61.168974208139964,-2.972804958066945,30.850698553525735,37.480607126287985,-6.62990857276225,-0.04634692800788365,0.0,-0.04634692800788365
0.6440000000000005,move_to_zero,-0.8914903556640953,-2.987814473421399,2.096324117757304,-59.30393384040902,-62.63517320593189,3.331239365522869,58.10108145822582,61.079019834304475,-2.9779383760786544,30.789053617356338,37.42548858639639,-6.636434969040053,-0.04633969295701699,0.0,-0.04633969295701699
0.6460000000000005,move_to_zero,-0.8876794739311686,-2.9834141575547983,2.09573468362363,-59.215177633738946,-62.54292700091577,3.3277493671768212,58.0059578316478,60.989065460468964,-2.983107628821166,30.727491221734557,37.37037004650478,-6.642878824770225,-0.046331413796346234,0.0,-0.046331413796346234
0.6480000000000005,move_to_zero,-0.8838802378507221,-2.9790138416881993,2.095133603837477,-59.126411333225654,-62.450680795899686,3.3242694626740317,57.910794928149414,60.899111086633475,-2.9883161584840607,30.665998737119708,37.31525150661319,-6.649252769493479,-0.04632299402385082,0.0,-0.04632299402385082
0.6500000000000005,move_to_zero,-0.8800743029260634,-2.9746135258215984,2.094539222895535,-59.03766689292752,-62.35843459088357,3.3207676979560503,57.815599099811145,60.80915671279797,-2.9935576129868267,30.604564712091314,37.260132966721585,-6.655568254630271,-0.046313177310970656,0.0,-0.046313177310970656
0.6520000000000005,move_to_zero,-0.8762733749076803,-2.970213209954999,2.0939398350473186,-58.948958404697606,-62.26618838586749,3.3172299811698807,57.720383624276664,60.719202338962475,-2.998818714685811,30.543185933327894,37.20501442682999,-6.661828493502096,-0.046302007970400225,0.0,-0.046302007970400225
0.6540000000000005,move_to_zero,-0.8724860292990951,-2.9658128940883985,2.0933268647893035,-58.860303350874915,-62.17394218085137,3.3136388299764548,57.62515930809946,60.62924796512697,-3.004088657027509,30.481862771620314,37.14989588693839,-6.6680331153180745,-0.04628950214999567,0.0,-0.04628950214999567
