GerardoFJ/TE3001B_TEAM_3/src/s0s1_gazebo/scripts/results/P3/state.csv
t,phase,shoulder_pan_actual_deg,shoulder_pan_desired_deg,shoulder_pan_error_deg,shoulder_lift_actual_deg,shoulder_lift_desired_deg,shoulder_lift_error_deg,elbow_flex_actual_deg,elbow_flex_desired_deg,elbow_flex_error_deg,wrist_flex_actual_deg,wrist_flex_desired_deg,wrist_flex_error_deg,wrist_roll_actual_deg,wrist_roll_desired_deg,wrist_roll_error_deg
0.002,move_to_zero,-4.376474382407018,-4.4003158666,0.02384148419298171,-92.21682027023317,-92.2462050161,0.02938474586683526,89.9402674989065,89.9543738355,-0.014106336593499691,55.09939055982472,55.1185398916,-0.019149331775281553,0.0017248340730163765,0.0,0.0017248340730163765
0.004,move_to_zero,-4.329721292693667,-4.3959155507334,0.066194258039733,-92.15905413119923,-92.15395881108391,-0.005095320115316326,89.91241850061888,89.86441946166448,0.047999038954401385,55.06180238586236,55.0634213517084,-0.001618965846041931,0.004511261432574899,0.0,0.004511261432574899
0.006,move_to_zero,-4.261080818055866,-4.3915152348668,0.13043441681093348,-92.0739315201511,-92.0617126060678,-0.012218914083305776,89.8712199979006,89.77446508782899,0.09675491007160986,55.006450593183985,55.008302811816804,-0.0018522186328198131,0.007688349584547711,0.0,0.007688349584547711
0.008,move_to_zero,-4.171635580447666,-4.3871149190002,0.21547933855253376,-91.96252737343954,-91.9694664010517,0.006939027612162363,89.81706502961079,89.68451071399349,0.13255431561729836,54.93400739328505,54.953184271925196,-0.01917687864014539,0.01069556836237262,0.0,0.01069556836237262
0.01,move_to_zero,-4.062498574102405,-4.382714603133599,0.3202160290311937,-91.82594633150687,-91.8772201960356,0.05127386452872429,89.7503517917121,89.594556340158,0.15579545155411267,54.84515761745955,54.8980657320336,-0.05290811457405198,0.01313756169063458,0.0,0.01313756169063458
0.012,move_to_zero,-3.9348267781879604,-4.378314287266999,0.44348750907903867,-91.66528661620453,-91.7849739910195,0.11968737481497271,89.6714812348882,89.50460196632248,0.16687926856572233,54.74059473300065,54.842947192142,-0.1023524591413505,0.01509122288267845,0.0,0.01509122288267845
0.014,move_to_zero,-3.7897916405605323,-4.373913971400399,0.5841223308398669,-91.48165460983925,-91.69272778600339,0.21107317616413468,89.58087114981568,89.41464759248699,0.1662235573286921,54.62098805637187,54.787828652250404,-0.16684059587853284,0.016625786563697228,0.0,0.016625786563697228
0.016,move_to_zero,-3.6286048142514074,-4.369513655533799,0.7409088412823919,-91.27613803229823,-91.6004815809873,0.3243435486890718,89.47892513820953,89.32469321865149,0.15423191955804327,54.48700980044116,54.7327101123588,-0.24570031191764485,0.017785623207823342,0.0,0.017785623207823342
0.018000000000000002,move_to_zero,-3.4524723659468055,-4.3651133396672,0.9126409737203947,-91.04984235261271,-91.5082353759712,0.4583930233584823,89.36605853476664,89.234738844816,0.1313196899506437,54.33931037498145,54.6775915724672,-0.3382811974857489,0.018465886216185945,0.0,0.018465886216185945
0.020000000000000004,move_to_zero,-3.2626361054363993,-4.3607130238006,1.098076918364201,-90.80389287244107,-91.4159891709551,0.6120962985140324,89.24271478104794,89.1447844709805,0.09793031006744002,54.178549893824716,54.6224730325756,-0.44392313875088263,0.018631809483577493,0.0,0.018631809483577493
0.022000000000000006,move_to_zero,-3.0603643283117634,-4.356312707934,1.2959483796222369,-90.53941163584902,-91.323742965939,0.7843313300899837,89.10931832962835,89.05483009714499,0.054488232483365096,54.005348250739175,54.567354492684,-0.5620062419448217,0.018334623178336677,0.0,0.018334623178336677
0.024000000000000007,move_to_zero,-2.8469058212865677,-4.351912392067399,1.5050065707808318,-90.25754207008018,-91.2314967609229,0.9739546908427172,88.9663019177167,88.96487572330949,0.0014261944072160304,53.82033405767212,54.5122359527924,-0.6919018951202816,0.017649563774070492,0.0,0.017649563774070492
0.02600000000000001,move_to_zero,-2.6235262895979363,-4.3475120762007995,1.7239857866028632,-89.95938683689555,-91.1392505559068,1.1798637190112515,88.81411713759691,88.874921349474,-0.06080421187708396,53.62410783275172,54.4571174129008,-0.8330095801490813,0.0167134051665158,0.0,0.0167134051665158
0.02800000000000001,move_to_zero,-2.3914612239956643,-4.3431117603341995,1.9516505363385352,-89.64606735622637,-91.0470043508907,1.4009369946643346,88.65320438540154,88.78496697563848,-0.1317625902369457,53.41727099959532,54.401998873009205,-0.9847278734138882,0.015670141989027594,0.0,0.015670141989027594
0.030000000000000013,move_to_zero,-2.151973023118607,-4.3387114444676,2.1867384213489927,-89.31869048677657,-90.9547581458746,1.6360676590980319,88.48400114844964,88.695012601803,-0.2110114533533647,53.2004255590549,54.3468803331176,-1.146454774062704,0.014657600481764897,0.0,0.014657600481764897
0.032000000000000015,move_to_zero,-1.9062810346392192,-4.334311128601,2.4280300939617803,-88.9783581658325,-90.8625119408585,1.8841537750259931,88.30696419797565,88.60505822796749,-0.2980940299918444,52.974142256469314,54.291761793225994,-1.3176195367566805,0.013776834843849227,0.0,0.013776834843849227
0.034000000000000016,move_to_zero,-1.6555885059032243,-4.3299108127344,2.6743223068311757,-88.62617575278178,-90.7702657358424,2.144089983060624,88.12251055132779,88.51510385413198,-0.3925933028041868,52.738978392496826,54.2366432533344,-1.497664860837574,0.013031844740851305,0.0,0.013031844740851305
0.03600000000000002,move_to_zero,-1.4010461222209298,-4.3255104968678,2.92446437464687,-88.26322163144641,-90.67801953082629,2.4147978993798773,87.93107218539934,88.4251494802965,-0.4940772948971528,52.49548559357761,54.1815247134428,-1.6860391198651854,0.012401940471310026,0.0,0.012401940471310026
0.03800000000000002,move_to_zero,-1.1438115848452626,-4.3211101810012,3.1772985961559375,-87.89053505040053,-90.5857733258102,2.6952382754096647,87.73309197765225,88.33519510646099,-0.6021031288087357,52.24418282790587,54.1264061735512,-1.882223345645336,0.011868178431446268,0.0,0.011868178431446268
0.04000000000000002,move_to_zero,-0.885021199916595,-4.316709865134599,3.431688665218004,-87.5091427732259,-90.4935271207941,2.984384347568195,87.52899007017007,88.24524073262549,-0.7162506624554226,51.98560902027789,54.0712876336596,-2.0856786133817096,0.01141458788792275,0.0,0.01141458788792275
0.04200000000000002,move_to_zero,-0.6257670797758748,-4.312309549267999,3.6865424694921245,-87.12005499315072,-90.401280915778,3.2812259226272857,87.31917027223005,88.15528635879,-0.8361160865599402,51.72025899231299,54.016169093768006,-2.2959101014550143,0.011027623798031534,0.0,0.011027623798031534
0.044000000000000025,move_to_zero,-0.36708031256018414,-4.307909233401399,3.940828920841215,-86.72428622185355,-90.3090347107619,3.5847484889083603,87.10406810079455,88.06533198495448,-0.9612638841599335,51.44861830039491,53.9610505538764,-2.512432253481485,0.010696239651341888,0.0,0.010696239651341888
0.04600000000000003,move_to_zero,-0.1324564112708998,-4.3035089175348,4.171052506263901,-86.32277918090524,-90.2167885057458,3.894009324840553,86.88410468549769,87.97537761111899,-1.091272925621297,51.17115206314689,53.905932013984796,-2.734779950837904,0.010406336141588165,0.0,0.010406336141588165
0.04800000000000003,move_to_zero,0.053537524407280386,-4.2991086016682,4.352646126075481,-85.91645076481225,-90.1245423007297,4.208091535917447,86.65967295428956,87.88542323728349,-1.2257502829939284,50.88832025163794,53.8508134740932,-2.962493222455258,0.01014516378921961,0.0,0.01014516378921961
0.05000000000000003,move_to_zero,0.19155760492353946,-4.2947082858016,4.486265890725139,-85.50619506653398,-90.03229609571359,4.526101029179614,86.43118154666534,87.795468863448,-1.3642873167826508,50.600610455200375,53.7956949342016,-3.195084479001224,0.00990668418473376,0.0,0.00990668418473376
0.05200000000000003,move_to_zero,0.28292391260306143,-4.290307969935,4.573231882538062,-85.09290681989698,-89.9400498906975,4.847143070800513,86.19903504540322,87.70551448961248,-1.506479444209262,50.30847400711593,53.740576394310004,-3.432102387194071,0.009685374579943333,0.0,0.009685374579943333
0.054000000000000034,move_to_zero,0.3290934918816876,-4.285907654068399,4.615001145950087,-84.6774198503249,-89.8478036856814,5.170383835356503,85.96361796025526,87.61556011577699,-1.6519421555217235,50.01233598968176,53.6854578544184,-3.6731218647366433,0.009477612996742024,0.0,0.009477612996742024
0.056000000000000036,move_to_zero,0.33164646961084204,-4.281507338201799,4.613153807812641,-84.26056749315144,-89.7555574806653,5.494989987513861,85.72530787292462,87.52560574194149,-1.8002978690168732,49.71259639754698,53.6303393145268,-3.917742916979819,0.009280957408788485,0.0,0.009280957408788485
0.05800000000000004,move_to_zero,0.29230558936716544,-4.2771070223351995,4.569412611702365,-83.84316289355768,-89.66331127564919,5.820148382091517,85.48448531003801,87.43565136810598,-1.9511660580679688,49.409658826623044,53.5752207746352,-4.165561948012154,0.009091952622465786,0.0,0.009091952622465786
0.06000000000000004,move_to_zero,0.21288300658397308,-4.2727067064685995,4.485589713052573,-83.42595741135008,-89.5710650706331,6.145107659283013,85.241505039376,87.3456969942705,-2.104191954894503,49.10392479918648,53.5201022347436,-4.416177435557117,0.008907924244715305,0.0,0.008907924244715305
0.06200000000000004,move_to_zero,0.1063112806464411,-4.268306390602,4.374617671248441,-83.00968574322134,-89.478818865617,6.469133122395661,84.99672219648292,87.25574262043499,-2.259020423952066,48.79578314768068,53.464983694852,-4.669200547171322,0.008728206118261025,0.0,0.008728206118261025
0.06400000000000004,move_to_zero,-0.007890308460564233,-4.2639060747354,4.256015766274835,-82.59505610073373,-89.38657266060089,6.791516559867162,84.7504844147419,87.16578824659948,-2.415303831857571,48.48559629896988,53.4098651549604,-4.924268855990519,0.008554513627979066,0.0,0.008554513627979066
0.06600000000000004,move_to_zero,-0.11332582673390497,-4.2595057588688,4.146179932134895,-82.18274328993483,-89.29432645558481,7.111583165649975,84.50314356499366,87.075833872764,-2.57269030777033,48.173745800873974,53.354746615068805,-5.181000814194832,0.00838767728428921,0.0,0.00838767728428921
0.06800000000000005,move_to_zero,-0.2063009653676553,-4.2551054430022,4.048804477634544,-81.77341135871652,-89.2020802505687,7.428668891852183,84.25503674883016,86.98587949892848,-2.7308427500983186,47.86058647588349,53.299628075177196,-5.439041599293709,0.008226530476730186,0.0,0.008226530476730186
0.07000000000000005,move_to_zero,-0.2868353045672074,-4.250705127135599,3.9638698225683915,-81.36768536227447,-89.1098340455526,7.742148683278131,84.00645534754148,86.89592512509299,-2.8894697775515112,47.546464279179304,53.2445095352856,-5.6980452561062975,0.00806663388338958,0.0,0.00806663388338958
0.07200000000000005,move_to_zero,-0.35500874116299425,-4.246304811268999,3.8912960701060046,-80.96616325140025,-89.01758784053649,8.051424589136246,83.75767634011869,86.80597075125749,-3.048294411138798,47.23170376898894,53.189390995394,-5.957687226405056,0.007906087913772956,0.0,0.007906087913772956
0.07400000000000005,move_to_zero,-0.4109609069679209,-4.241904495402399,3.830943588434478,-80.56939805366922,-88.9253416355204,8.355943581851179,83.50897361761263,86.71601637742198,-3.2070427598093545,46.91660938338334,53.1342724555024,-6.217663072119059,0.007741798742127249,0.0,0.007741798742127249
0.07600000000000005,move_to_zero,-0.4555506807020265,-4.2375041795358,3.7819534988337735,-80.17789919056015,-88.83309543050429,8.655196239944132,83.26063391965015,86.62606200358648,-3.3654280839363366,46.60145836296234,53.0791539156108,-6.477695552648463,0.007571759123038354,0.0,0.007571759123038354
0.07800000000000006,move_to_zero,-0.48905376084144403,-4.2331038636692,3.7440501028277557,-79.79213890853163,-88.74084922548819,8.948710316956564,83.01291646327174,86.53610762975099,-3.5231911664792506,46.286538265336574,53.0240353757192,-6.737497110382627,0.007396084099935841,0.0,0.007396084099935841
0.08000000000000006,move_to_zero,-0.5117245989693797,-4.2287035478026,3.71697894883322,-79.4125475819839,-88.6486030204721,9.236055438488194,82.76607774070386,86.44615325591549,-3.6800755152116267,45.972117996418845,52.9689168358276,-6.996798839408754,0.007212155094034215,0.0,0.007212155094034215
0.08200000000000006,move_to_zero,-0.523822141469807,-4.224303231936,3.700481090466193,-79.03953791972059,-88.556356815456,9.516818895735412,82.52036618037745,86.35619888207998,-3.835832701702529,45.65845071874978,52.913798295936,-7.255347577186214,0.007022067086979915,0.0,0.007022067086979915
0.08400000000000006,move_to_zero,-0.5256808337779713,-4.219902916069399,3.694222082291428,-78.6734962043956,-88.4641106104399,9.790614406044298,82.27599605764922,86.26624450824448,-3.99024845059526,45.34573533474909,52.858679756044396,-7.512944421295309,0.006824924407490933,0.0,0.006824924407490933
0.08600000000000006,move_to_zero,-0.517632275532167,-4.215502600202799,3.6978703246706326,-78.31478621475513,-88.37186440542379,10.057078190668662,82.03318052565028,86.17629013440899,-4.1431096087587065,45.034227246022205,52.8035612161528,-7.769333970130596,0.006618188690863595,0.0,0.006618188690863595
0.08800000000000006,move_to_zero,-0.5000374913586879,-4.211102284336199,3.7110647929775116,-77.96372391801249,-88.2796182004077,10.315894282395206,81.79214265666099,86.08633576057349,-4.294193103912505,44.72415910805577,52.7484426762612,-8.024283568205426,0.006396082508228828,0.0,0.006396082508228828
0.09000000000000007,move_to_zero,-0.4732748508061496,-4.206701968469599,3.73342711766345,-77.62060467784418,-88.18737199539159,10.566767317547402,81.55309946223076,85.996381386738,-4.443281924507232,44.415724661620516,52.693324136369604,-8.277599474749088,0.006150675371078797,0.0,0.006150675371078797
0.09200000000000007,move_to_zero,-0.43777174912490374,-4.2023016526029995,3.764529903478096,-77.28565921599838,-88.0951257903755,10.809466574377126,81.31625704924312,85.90642701290248,-4.590169963659363,44.109119011482605,52.638205596477995,-8.52908658499539,0.005893080303199679,0.0,0.005893080303199679
0.09400000000000007,move_to_zero,-0.39399304631759946,-4.1979013367363995,3.8039082904188,-76.9591096477036,-88.0028795853594,11.043769937655796,81.08179148596095,85.81647263906699,-4.734681153106038,43.80453725097095,52.5830870565864,-8.778549805615448,0.005604611931182988,0.0,0.005604611931182988
0.09600000000000007,move_to_zero,-0.3423847796728124,-4.1935010208698,3.851116241196987,-76.64113640442629,-87.9106333803433,11.269496975917008,80.84987158926846,85.72651826523149,-4.8766466759630305,43.50216214864149,52.5279685166948,-9.02580636805331,0.005315758675339756,0.0,0.005315758675339756
0.09800000000000007,move_to_zero,-0.2834107578777317,-4.1891007050032,3.905689947125468,-76.33193748828153,-87.81838717532719,11.486449687045663,80.6206725976928,85.63656389139598,-5.015891293703177,43.20218103391013,52.4728499768032,-9.270668942893067,0.005039456817937725,0.0,0.005039456817937725
0.10000000000000007,move_to_zero,-0.21753997887477441,-4.184700389136599,3.9671604102618243,-76.03165061651237,-87.72614097031109,11.694490353798727,80.39433387952548,85.5466095175605,-5.152275638035022,42.9047539557582,52.4177314369116,-9.5129774811534,0.004772208994647789,0.0,0.004772208994647789
0.10200000000000008,move_to_zero,-0.1532731373981441,-4.180300073269999,4.027026935871855,-75.74038642408746,-87.633894765295,11.893508341207536,80.17097450309602,85.45665514372499,-5.285680640628968,42.61001922330198,52.36261289702,-9.752593673718017,0.004514071923223819,0.0,0.004514071923223819
0.10400000000000008,move_to_zero,-0.09843753181618509,-4.1758997574034,4.077462225587214,-75.45823395598829,-87.5416485602789,12.08341460429061,79.95069748365059,85.36670076988948,-5.41600328623889,42.31811673291421,52.3074943571284,-9.989377624214185,0.004259313498855961,0.0,0.004259313498855961
0.10600000000000008,move_to_zero,-0.057293936187581135,-4.1714994415368,4.114205505349219,-75.18525823485191,-87.4494023552628,12.26414412041089,79.73361549083752,85.276746396054,-5.543130905216472,42.029156432028905,52.252375817236796,-10.22321938520789,0.003990058700234402,0.0,0.003990058700234402
0.10800000000000008,move_to_zero,-0.032191543625119674,-4.1670991256702,4.13490758204508,-74.92151066156428,-87.3571561502467,12.435645488682411,79.51983594772105,85.18679202221848,-5.666956074497435,41.74328908037171,52.1972572773452,-10.453968196973491,0.003697182622833656,0.0,0.003697182622833656
0.11000000000000008,move_to_zero,-0.022954620019755623,-4.1626988098036,4.139744189783844,-74.66700728698726,-87.2649099452306,12.597902658243342,79.30943816078238,85.09683764838299,-5.787399487600609,41.460642363024384,52.1421387374536,-10.681496374429216,0.003418276855054828,0.0,0.003418276855054828
0.11200000000000009,move_to_zero,-0.027426435652081492,-4.158298493937,4.130872058284918,-74.42175902296528,-87.17266374021449,12.750904717249213,79.10251217731194,85.00688327454749,-5.904371097235554,41.18130952495383,52.087020197562,-10.905710672608166,0.003135680285623057,0.0,0.003135680285623057
0.11400000000000009,move_to_zero,-0.04216042360012784,-4.153898178070399,4.111737754470271,-74.18572690097324,-87.0804175351984,12.894690634225157,78.89914992699924,84.91692890071198,-6.017778973712737,40.90539806449592,52.031901657670396,-11.126503593174476,0.0028648602066508413,0.0,0.0028648602066508413
0.11600000000000009,move_to_zero,-0.0631076190010749,-4.149497862203799,4.086390243202724,-73.95887330674154,-86.9881713301823,13.02929802344076,78.69939954836786,84.82697452687648,-6.127574978508619,40.633007236321106,51.976783117778794,-11.343775881457688,0.0026066968712607336,0.0,0.0026066968712607336
0.11800000000000009,move_to_zero,-0.0862777365428257,-4.145097546337199,4.0588198097943735,-73.74114564889251,-86.8959251251662,13.154779476273688,78.50331101053142,84.73702015304099,-6.233709142509568,40.36423118684954,51.9216645778872,-11.557433391037662,0.002358357691701696,0.0,0.002358357691701696
0.12000000000000009,move_to_zero,-0.10820677997143711,-4.140697230470599,4.0324904504991625,-73.53246450656502,-86.80367892015009,13.27121441358507,78.3109302166274,84.64706577920549,-6.336135562578093,40.099153760688694,51.8665460379956,-11.767392277306904,0.002117577875636199,0.0,0.002117577875636199
0.1220000000000001,move_to_zero,-0.12628377648871808,-4.136296914603999,4.010013138115282,-73.3327189548049,-86.711432715134,13.378713760329092,78.12229546422405,84.55711140536998,-6.434815941145928,39.837821497325315,51.811427498104,-11.973606000778688,0.0018830754087764332,0.0,0.0018830754087764332
0.1240000000000001,move_to_zero,-0.1397084603911959,-4.1318965987373995,3.9921881383462035,-73.1417782814638,-86.6191865101179,13.477408228654099,77.9374414510181,84.46715703153448,-6.529715580516381,39.58029619576317,51.7563089582124,-12.176012762449233,0.0016499621324981661,0.0,0.0016499621324981661
0.12600000000000008,move_to_zero,-0.14769259995259876,-4.1274962828707995,3.9798036829182006,-72.95950169703872,-86.52694030510179,13.567438608063071,77.75641345439766,84.37720265769899,-6.620789203301328,39.32663700165711,51.70119041832079,-12.37455341666368,0.0013996737590625818,0.0,0.0013996737590625818
0.12800000000000009,move_to_zero,-0.15029306089278044,-4.1230959670042,3.972802906111419,-72.78574116938942,-86.4346941000857,13.648952930696268,77.57920562168039,84.28724828386348,-6.7080426621830895,39.07689732908467,51.6460718784292,-12.569174549344524,0.0011128489199514959,0.0,0.0011128489199514959
0.1300000000000001,move_to_zero,-0.14822267480074755,-4.118695651137599,3.9704729763368514,-72.62031738744803,-86.3424478950696,13.722130507621571,77.40581114039,84.197293910028,-6.7914827696379945,38.8311283005677,51.590953338537595,-12.759825037969897,0.0007942235924601284,0.0,0.0007942235924601284
0.1320000000000001,move_to_zero,-0.14265950825496732,-4.114295335270999,3.9716358270160317,-72.46307172674389,-86.2502016900535,13.78712996330961,77.23620627853312,84.10733953619248,-6.871133257659366,38.58937977707976,51.535834798646,-12.946455021566237,0.00044998949336397194,0.0,0.00044998949336397194
0.1340000000000001,move_to_zero,-0.1349628072599375,-4.1098950194044,3.9749322121444624,-72.31383951146223,-86.15795548503739,13.844115973575157,77.07037008596195,84.01738516235697,-6.947015076395019,38.35168478267862,51.4807162587544,-13.129031476075781,9.71898341093947e-05,0.0,9.71898341093947e-05
0.1360000000000001,move_to_zero,-0.12648187783622805,-4.1054947035378,3.9790128257015716,-72.17241543760144,-86.0657092800213,13.893293842419851,76.90826861922412,83.92743078852149,-7.019162169297374,38.1180531908934,51.425597718862804,-13.307544527969405,-0.0002434186223881779,0.0,-0.0002434186223881779
0.1380000000000001,move_to_zero,-0.11842851839827243,-4.1010943876712,3.9826658692729273,-72.03857118202065,-85.97346307500518,13.934891892984538,76.74988139005197,83.83747641468598,-7.0875950246340125,37.88852231249084,51.370479178971195,-13.481956866480353,-0.0005757749059090973,0.0,-0.0005757749059090973
0.1400000000000001,move_to_zero,-0.11170001096113305,-4.0966940718046,3.9849940608434666,-71.9120526258391,-85.88121686998909,13.969164244149994,76.59517074295722,83.74752204085048,-7.1523512978932615,37.66312723857319,51.31536063907959,-13.652233400506404,-0.0009074429495243444,0.0,-0.0009074429495243444
0.1420000000000001,move_to_zero,-0.10634722703556086,-4.092293755938,3.985946528902439,-71.79264170011817,-85.788970664973,13.996328964854825,76.4441145649668,83.65756766701499,-7.213453102048192,37.441854183016524,51.260242099188,-13.818387916171474,-0.0012171758527726505,0.0,-0.0012171758527726505
0.1440000000000001,move_to_zero,-0.10249940748501199,-4.087893440071399,3.9853940325863872,-71.68011292919863,-85.6967244599569,14.016611530758269,76.29666568448704,83.56761329317948,-7.270947608692438,37.2247047000836,51.205123559296396,-13.980418859212797,-0.0015140978075604214,0.0,-0.0015140978075604214
0.1460000000000001,move_to_zero,-0.10028826992167597,-4.083493124204799,3.983204854283123,-71.5742404184015,-85.6044782549408,14.0302378365393,76.15276222731853,83.47765891934398,-7.3248966920254475,37.011676334989644,51.1500050194048,-14.138328684415157,-0.0017952330952646315,0.0,-0.0017952330952646315
0.1480000000000001,move_to_zero,-0.09960739415448296,-4.079092808338199,3.979485414183716,-71.47478736127232,-85.51223204992469,14.037444688652371,76.01234081163439,83.38770454550848,-7.375363733874096,36.80277521790604,51.0948864795132,-14.292111261607161,-0.002064683617194673,0.0,-0.002064683617194673
0.1500000000000001,move_to_zero,-0.10018991975663039,-4.074692492471599,3.974502572714969,-71.38149729350764,-85.4199858449086,14.03848855140096,75.87534360944534,83.29775017167299,-7.42240656222765,36.597976968952594,51.0397679396216,-14.441790970669004,-0.0023241224618121186,0.0,-0.0023241224618121186
0.1520000000000001,move_to_zero,-0.10164496575319557,-4.070292176604999,3.968647210851804,-71.29411527291845,-85.32773963989249,14.033624366974038,75.74169794957936,83.20779579783748,-7.466097848258116,36.397264288570206,50.984649399729996,-14.58738511115979,-0.002575838830923933,0.0,-0.002575838830923933
0.1540000000000001,move_to_zero,-0.10357290941094921,-4.065891860738399,3.9623189513274504,-71.21238231644584,-85.23549343487639,14.023111118430549,75.6113191427555,83.11784142400198,-7.506522281246475,36.20062768893493,50.929530859838394,-14.728903170903465,-0.002837324475866425,0.0,-0.002837324475866425
0.1560000000000001,move_to_zero,-0.10558463457626835,-4.061491544871799,3.955906910295531,-71.13602016995212,-85.1432472298603,14.007227059908175,75.48412238234252,83.02788705016648,-7.5437646678239645,36.00802619428916,50.8744123199468,-14.866386125657641,-0.0031203959486532274,0.0,-0.0031203959486532274
0.1580000000000001,move_to_zero,-0.10735415655605589,-4.0570912290051995,3.9497370724491434,-71.06477803244024,-85.0510010248442,13.986222992403953,75.36003092768081,82.93793267633099,-7.577901748650177,35.81944095675633,50.8192937800552,-14.999852823298866,-0.003431403368320281,0.0,-0.003431403368320281
0.16000000000000011,move_to_zero,-0.1087854285931668,-4.052690913138599,3.9439054845454318,-70.99840785651986,-84.95875481982809,13.960346963308226,75.23895060011132,82.84797830249549,-7.609027702384168,35.634869344454394,50.7641752401636,-15.129305895709209,-0.0037649769366267993,0.0,-0.0037649769366267993
0.16200000000000012,move_to_zero,-0.10992989551020092,-4.048290597272,3.9383607017617988,-70.93664283430198,-84.86650861481199,13.929865780510013,75.12080692274456,82.75802392865998,-7.637217005915417,35.454302209868246,50.709056700271994,-15.254754490403748,-0.004125266365520184,0.0,-0.004125266365520184
0.16400000000000012,move_to_zero,-0.11083229763063603,-4.0438902814054,3.9330579837747637,-70.87923776138169,-84.7742624097959,13.895024648414207,75.00553434920738,82.66806955482448,-7.662535205617104,35.27770920582283,50.6539381603804,-15.376228954557568,-0.004510417722799973,0.0,-0.004510417722799973
0.16600000000000012,move_to_zero,-0.11152990063402636,-4.0394899655388,3.9279600649047732,-70.82590394609994,-84.68201620477979,13.856112258679843,74.89301734265929,82.57811518098899,-7.685097838329696,35.105054258317125,50.5988196204888,-15.493765362171672,-0.004917189378154571,0.0,-0.004917189378154571
0.16800000000000012,move_to_zero,-0.11203350647163868,-4.0350896496722,3.923056143200561,-70.77637980482555,-84.5897699997637,13.813390194938151,74.78315959703646,82.48816080715348,-7.705001210117018,34.93627454598227,50.543701080597195,-15.607426534614923,-0.005301600977818142,0.0,-0.005301600977818142
0.17000000000000012,move_to_zero,-0.11227564181629332,-4.0306893338056,3.9184136919893064,-70.73041342633117,-84.4975237947476,13.767110368416425,74.67585909517808,82.398206433318,-7.722347338139912,34.77131465779765,50.4885825407056,-15.717267882907947,-0.0056547695751916986,0.0,-0.0056547695751916986
0.17200000000000013,move_to_zero,-0.1122313359771545,-4.026289017939,3.9140576819618453,-70.68776049383655,-84.4052775897315,13.717517095894948,74.57103569751959,82.30825205948248,-7.7372163619628935,34.61012060147249,50.433464000814,-15.82334339934151,-0.00597911114931169,0.0,-0.00597911114931169
0.17400000000000013,move_to_zero,-0.11191749795448581,-4.021888702072399,3.9099712041179133,-70.64817333211965,-84.31303138471539,13.664858052595733,74.46860789066058,82.21829768564697,-7.749689794986395,34.45262729298359,50.3783454609224,-15.925718167938804,-0.006281076702831015,0.0,-0.006281076702831015
0.17600000000000013,move_to_zero,-0.11139418618395046,-4.017488386205799,3.906094200021849,-70.61138770383877,-84.22078517969929,13.609397475860519,74.36848996977278,82.12834331181149,-7.75985334203871,34.29878043485261,50.323226921030795,-16.024446486178185,-0.006565227124576282,0.0,-0.006565227124576282
0.17800000000000013,move_to_zero,-0.11073423720507926,-4.013088070339199,3.9023538331341197,-70.57715475381794,-84.12853897468318,13.551384220865245,74.27059094011686,82.03838893797598,-7.76779799785912,34.14852397893493,50.2681083811392,-16.119584402204268,-0.0068351523053544316,0.0,-0.0068351523053544316
0.18000000000000013,move_to_zero,-0.10999878438580361,-4.008687754472599,3.8986889700867957,-70.54524490788823,-84.0362927696671,13.491047861778867,74.17482035557086,81.94843456414048,-7.773614208569626,34.00179224567112,50.2129898412476,-16.21119759557648,-0.007108315756566275,0.0,-0.007108315756566275
0.18200000000000013,move_to_zero,-0.1092449761292719,-4.004287438605999,3.8950424624767273,-70.51541563875216,-83.944046564651,13.428630925898844,74.08108842262523,81.85848019030499,-7.7773917676797595,33.85851620280065,50.157871301355996,-16.299355098555345,-0.007399735683501149,0.0,-0.007399735683501149
0.18400000000000014,move_to_zero,-0.10853048265801855,-3.9998871227393993,3.891356640081381,-70.4874248956542,-83.8518003596349,13.364375463980693,73.98929466973685,81.76852581646948,-7.779231146732627,33.71863533915847,50.1027527614644,-16.384117422305934,-0.00770091569091974,0.0,-0.00770091569091974
0.18600000000000014,move_to_zero,-0.10789479257993703,-3.995486806872799,3.8875920142928617,-70.46102898512514,-83.7595541546188,13.298525169493658,73.89933266831628,81.67857144263398,-7.7792387743177045,33.5820911237675,50.04763422157279,-16.465543097805295,-0.008002331304956258,0.0,-0.008002331304956258
0.18800000000000014,move_to_zero,-0.10734811550488928,-3.991086491006199,3.8837383755013097,-70.43600906205442,-83.66730794960269,13.231298887548263,73.81111569529999,81.58861706879848,-7.777501373498495,33.44882510232349,49.9925156816812,-16.54369057935771,-0.008293596607302302,0.0,-0.008293596607302302
0.19000000000000014,move_to_zero,-0.10688532705155297,-3.986686175139599,3.879800848088046,-70.41213672759284,-83.57506174458659,13.162925016993754,73.72457320858193,81.49866269496299,-7.774089486381058,33.318781084792576,49.937397141789596,-16.61861605699702,-0.008571314856660768,0.0,-0.008571314856660768
0.19200000000000014,move_to_zero,-0.10648917165733725,-3.9822858592729995,3.8757966876156624,-70.38919478994981,-83.48281553957048,13.09362074962067,73.63959011176199,81.40870832112748,-7.769118209365487,33.19189526808061,49.882278601897994,-16.690383333817387,-0.008861111244772285,0.0,-0.008861111244772285
0.19400000000000014,move_to_zero,-0.10614692123517293,-3.9778855434063995,3.8717386221712267,-70.36695511974068,-83.3905693345544,13.023614214813719,73.55607822473131,81.31875394729198,-7.762675722560672,33.068098406279915,49.8271600620064,-16.759061655726484,-0.009136982822976678,0.0,-0.009136982822976678
0.19600000000000015,move_to_zero,-0.10584737502631575,-3.9734852275397996,3.867637852513484,-70.34521695944152,-83.29832312953829,12.953106170096774,73.47394205657633,81.22879957345648,-7.754857516880151,32.947307026403216,49.7720415221148,-16.82473449571158,-0.009401087620687658,0.0,-0.009401087620687658
0.19800000000000015,move_to_zero,-0.10558098908614519,-3.9690849116731997,3.8635039225870544,-70.32376969513838,-83.2060769245222,12.882307229383812,73.39309137748363,81.13884519962097,-7.745753822137345,32.829446224295516,49.716922982223196,-16.88747675792768,-0.009654827589495658,0.0,-0.009654827589495658
0.20000000000000015,move_to_zero,-0.10533383566175142,-3.9646845958065993,3.859350760144848,-70.30241956936011,-83.1138307195061,12.811411150145986,73.31344340711578,81.04889082578549,-7.7354474186697075,32.714446697035726,49.661804442331594,-16.947357745295868,-0.009902158775342758,0.0,-0.009902158775342758
0.20200000000000015,move_to_zero,-0.10507776353569798,-3.9602842799399993,3.8552065164043015,-70.28098666798009,-83.02158451448999,12.7405978465099,73.23492667161474,80.95893645194998,-7.724009780335237,32.60220684970858,49.60668590244,-17.00447905273142,-0.010149462478235758,0.0,-0.010149462478235758
0.20400000000000015,move_to_zero,-0.1048115729712188,-3.9558839640733994,3.8510723911021807,-70.25932937055246,-82.92933830947389,12.670008938921427,73.15746286179775,80.86898207811447,-7.7115192163167166,32.49266669602397,49.5515673625484,-17.05890066652443,-0.01039419176277283,0.0,-0.01039419176277283
0.20600000000000016,move_to_zero,-0.10452394829893932,-3.9514836482067994,3.84695969990786,-70.23726612205871,-82.8370921044578,12.599825982399082,73.08094206333875,80.77902770427899,-7.698085640940235,32.38575097266817,49.496448822656795,-17.110697849988625,-0.010634536412546802,0.0,-0.010634536412546802
0.20800000000000016,move_to_zero,-0.10418496002158156,-3.947083332340199,3.8428983723186176,-70.21462228383061,-82.7448458994417,12.530223615611092,73.005294313772,80.68907333044348,-7.68377901667148,32.281387711776446,49.4413302827652,-17.159942570988754,-0.01087059594938566,0.0,-0.01087059594938566
0.21000000000000016,move_to_zero,-0.10380156291714686,-3.942683016473599,3.838881453556452,-70.19123656653552,-82.65259969442559,12.461363127890067,72.9304720014005,80.59911895660798,-7.668646955207478,32.179496308800495,49.38621174287359,-17.206715434073097,-0.011103814786064517,0.0,-0.011103814786064517
0.21200000000000016,move_to_zero,-0.10336588870661907,-3.938282700606999,3.83491681190038,-70.16696800972265,-82.5603534894095,12.393385479686842,72.85642386634319,80.50916458277248,-7.652740716429292,32.07998507894878,49.331093202982,-17.251108124033216,-0.011338707706955447,0.0,-0.011338707706955447
0.21400000000000016,move_to_zero,-0.10288621988017509,-3.933882384740399,3.830996164860224,-70.14166428889331,-82.46810728439338,12.326442995500074,72.78306104417818,80.41921020893697,-7.636149164758791,31.98276645072649,49.275974663090395,-17.293208212363904,-0.011574571114307134,0.0,-0.011574571114307134
0.21600000000000016,move_to_zero,-0.10240677419890468,-3.929482068873799,3.827075294674894,-70.1151846776719,-82.37586107937729,12.260676401705382,72.7103205255014,80.32925583510148,-7.618935309600076,31.887773121169896,49.2208561231988,-17.333083002028904,-0.011823395927922066,0.0,-0.011823395927922066
0.21800000000000017,move_to_zero,-0.10194503051084466,-3.925081753007199,3.823136722496354,-70.08739371952835,-82.28361487436119,12.196221154832841,72.63812459539324,80.23930146126598,-7.601176865872745,31.79491865800917,49.1657375833072,-17.37081892529803,-0.012081893295479885,0.0,-0.012081893295479885
0.22000000000000017,move_to_zero,-0.1015001735357683,-3.9206814371406,3.8191812636048317,-70.05817653461894,-82.1913686693451,12.133192134726158,72.56639779920441,80.14934708743048,-7.582949288226075,31.70413194038878,49.110619043415596,-17.406487103026816,-0.012354749920122837,0.0,-0.012354749920122837
0.22200000000000017,move_to_zero,-0.10107598858634444,-3.9162811212739994,3.815205132687655,-70.02741707059506,-82.099122464329,12.071705393733936,72.49507014723117,80.05939271359497,-7.564322566363799,31.615333895249726,49.055500503523994,-17.440166608274268,-0.012619196992214072,0.0,-0.012619196992214072
0.22400000000000017,move_to_zero,-0.10064844105036,-3.9118808054073995,3.8112323643570396,-69.99502129101212,-82.00687625931289,12.011854968300767,72.42408358991426,79.96943833975948,-7.545354749845217,31.528475646592817,49.00038196363239,-17.471906317039576,-0.012879592530257623,0.0,-0.012879592530257623
0.22600000000000017,move_to_zero,-0.10022519602201364,-3.9074804895407995,3.8072552935187858,-69.96089468064527,-81.9146300542968,11.953735373651526,72.35337133453751,79.87948396592398,-7.526112631386468,31.443460404983732,48.9452634237408,-17.501803018757066,-0.013160226578873103,0.0,-0.013160226578873103
0.22800000000000017,move_to_zero,-0.09982397444489281,-3.9030801736741996,3.8032561992293066,-69.92496097733859,-81.82238384928068,11.897422871942098,72.28288028690616,79.78952959208848,-7.5066493051823215,31.36022673282255,48.890144883849196,-17.529918151026646,-0.013459695824399523,0.0,-0.013459695824399523
0.23000000000000018,move_to_zero,-0.09945801577255427,-3.898679857807599,3.799221842035045,-69.88715278934949,-81.73013764426459,11.842984854915102,72.21254361928625,79.69957521825299,-7.4870315989667375,31.278722396752332,48.8350263439576,-17.55630394720527,-0.013769404895932966,0.0,-0.013769404895932966
0.23200000000000018,move_to_zero,-0.09912613400296262,-3.8942795419409992,3.7951534079380367,-69.84740899777493,-81.63789143924849,11.790482441473557,72.14232061913401,79.60962084441748,-7.467300225283466,31.198852025910263,48.77990780406599,-17.58105577815573,-0.01409689946052815,0.0,-0.01409689946052815
0.23400000000000018,move_to_zero,-0.09878336773578823,-3.8898792260743993,3.791095858338611,-69.80565866245,-81.5456452342324,11.739986571782396,72.0721582770594,79.51966647058198,-7.44750819352258,31.120557588449053,48.72478926417439,-17.604231675725337,-0.014402919919695114,0.0,-0.014402919919695114
0.23600000000000018,move_to_zero,-0.09843568712109507,-3.8854789102077993,3.7870432230867044,-69.76183549805873,-81.45339902921629,11.691563531157556,72.00201282532572,79.42971209674648,-7.427699271420764,31.04378006605372,48.669670724282796,-17.625890658229075,-0.01469206892274003,0.0,-0.01469206892274003
0.23800000000000018,move_to_zero,-0.09805995914385329,-3.881078594341199,3.7830186351973456,-69.7158891189372,-81.36115282420019,11.645263705262991,71.93184795808146,79.33975772291097,-7.407909764829512,30.968420097324174,48.614552184391194,-17.64613208706702,-0.01496643828749,0.0,-0.01496643828749
0.24000000000000019,move_to_zero,-0.09765916287015028,-3.876678278474599,3.7790191156044486,-69.66777327422028,-81.2689066191841,11.601133344963813,71.86161562484203,79.24980334907549,-7.388187724233461,30.894386822840367,48.5594336444996,-17.66504682165923,-0.015228316526793713,0.0,-0.015228316526793713
0.2420000000000002,move_to_zero,-0.09724951364642279,-3.872277962607999,3.775028448961576,-69.61746651614605,-81.17666041416798,11.559193898021931,71.79127196530202,79.15984897523998,-7.368577009937965,30.82158265539159,48.504315104608,-17.682732449216406,-0.015478371952516522,0.0,-0.015478371952516522
0.2440000000000002,move_to_zero,-0.09682533304424912,-3.867877646741399,3.77105231369715,-69.56491779434958,-81.08441420915189,11.519496414802305,71.72077566968821,79.06989460140447,-7.349118931716262,30.749919078178824,48.449196564716395,-17.69927748653757,-0.0157205836707864,0.0,-0.0157205836707864
0.2460000000000002,move_to_zero,-0.09640637110712956,-3.8634773308747987,3.7670709597676693,-69.5101083102281,-80.99216800413579,11.482059693907686,71.65006273167596,78.97994022756899,-7.3298774958930295,30.679344955350018,48.39407802482479,-17.714733069474775,-0.015959165688431812,0.0,-0.015959165688431812
0.2480000000000002,move_to_zero,-0.09600241902414859,-3.8590770150081988,3.76307459598405,-69.45303308850075,-80.8999217991197,11.44688871061895,71.57909724970209,78.88998585373348,-7.3108886040313905,30.609794708320816,48.33895948493319,-17.729164776612375,-0.01620715318833987,0.0,-0.01620715318833987
0.25000000000000017,move_to_zero,-0.09561840792979001,-3.8546766991415997,3.75905829121181,-69.39366571352508,-80.80767559410359,11.414009880578504,71.50786600211232,78.80003147989798,-7.292165477785659,30.54122966495414,48.2838409450416,-17.742611280087456,-0.016452767099930755,0.0,-0.016452767099930755
0.25200000000000017,move_to_zero,-0.09523567394036415,-3.8502763832749993,3.755040709334635,-69.33200973080096,-80.71542938908749,11.383419658286527,71.43633542716374,78.71007710606249,-7.273741678898745,30.473589555261217,48.228722405149995,-17.755132849888778,-0.01669672249145916,0.0,-0.01669672249145916
0.25400000000000017,move_to_zero,-0.09486046434416942,-3.8458760674083994,3.75101560306423,-69.26808885618615,-80.62318318407138,11.355094327885226,71.3644689012623,78.62012273222697,-7.255653830964675,30.406854955676067,48.1736038652584,-17.766748909582333,-0.01694226718566118,0.0,-0.01694226718566118
0.25600000000000017,move_to_zero,-0.09448852046875239,-3.8414757515417994,3.746987231073047,-69.20190418950803,-80.53093697905528,11.329032789547256,71.29222267563881,78.53016835839148,-7.237945682752667,30.34096813378101,48.11848532536679,-17.77751719158578,-0.01718279133432944,0.0,-0.01718279133432944
0.2580000000000002,move_to_zero,-0.09412192169758556,-3.8370754356751995,3.7429535139776138,-69.13345108962434,-80.43869077403919,11.305239684414843,71.21955939133261,78.44021398455598,-7.220654593223372,30.27587624944256,48.063366785475196,-17.787490536032635,-0.017423070764143154,0.0,-0.017423070764143154
0.2600000000000002,move_to_zero,-0.09379031020644353,-3.832675119808599,3.7388848096021556,-69.06276215620584,-80.34644456902309,11.283682412817257,71.14644804920736,78.35025961072049,-7.20381156151312,30.211536972050894,48.008248245583594,-17.7967112735327,-0.017659690065456094,0.0,-0.017659690065456094
0.2620000000000002,move_to_zero,-0.09349726669171649,-3.828274803941999,3.7347775372502827,-68.98985396058806,-80.254198364007,11.264344403418932,71.07286190297545,78.26030523688497,-7.187443333909528,30.147887733905606,47.95312970569199,-17.805241971786387,-0.017892805647281542,0.0,-0.017892805647281542
0.2640000000000002,move_to_zero,-0.09323672277062617,-3.823874488075399,3.730637765304773,-68.91476194298849,-80.16195215899089,11.247190216002394,70.9987625630155,78.17035086304948,-7.171588300033974,30.084869426175576,47.8980111658004,-17.81314173962482,-0.018122845517831165,0.0,-0.018122845517831165
0.2660000000000002,move_to_zero,-0.092999719982892,-3.8194741722087993,3.7264744522259075,-68.83752294721262,-80.06970595397479,11.23218300676217,70.92411337491572,78.08039648921398,-7.156283114298262,30.022422837115858,47.842892625908796,-17.820469788792938,-0.018356385684773737,0.0,-0.018356385684773737
0.2680000000000002,move_to_zero,-0.0927664880921872,-3.815073856342199,3.7223073682500116,-68.7581837663871,-79.97745974895868,11.219275982571574,70.84887371484723,77.99044211537847,-7.141568400531241,29.96051297251163,47.787774086017194,-17.827261113505564,-0.01859686821700081,0.0,-0.01859686821700081
0.2700000000000002,move_to_zero,-0.0925224421253816,-3.810673540475599,3.7181510983502175,-68.67677937728907,-79.8852135439426,11.208434166653532,70.77302824869625,77.90048774154299,-7.127459492846739,29.89911117206199,47.73265554612559,-17.833544374063603,-0.01883753589776778,0.0,-0.01883753589776778
0.2720000000000002,move_to_zero,-0.09225327359851018,-3.806273224608999,3.714019951010489,-68.59337678424852,-79.79296733892649,11.199590554677968,70.69656484809414,77.81053336770748,-7.113968519613337,29.83816737847638,47.677537006234,-17.839369627757616,-0.019076461950164166,0.0,-0.019076461950164166
0.2740000000000002,move_to_zero,-0.09193413463443427,-3.801872908742399,3.7099387741079646,-68.50802137960343,-79.70072113391039,11.192699754306958,70.61945912407069,77.72057899387197,-7.1011198698012805,29.777611374696985,47.622418466342396,-17.84480709164541,-0.019319885243975845,0.0,-0.019319885243975845
0.2760000000000002,move_to_zero,-0.09158407669906121,-3.7974725928757986,3.7058885161767376,-68.42076327155903,-79.60847492889428,11.187711657335257,70.54169351984108,77.63062462003649,-7.08893110019541,29.717409048907413,47.567299926450794,-17.84989087754338,-0.019578828133069826,0.0,-0.019578828133069826
0.2780000000000002,move_to_zero,-0.09119897122383241,-3.7930722770091996,3.701873305785367,-68.33161980255348,-79.51622872387819,11.18460892132471,70.46324540416428,77.54067024620097,-7.077424842036692,29.65751112172502,47.5121813865592,-17.85467026483418,-0.019861206236812205,0.0,-0.019861206236812205
0.2800000000000002,move_to_zero,-0.09080932188787398,-3.7886719611425996,3.697862639254726,-68.24065623750239,-79.42398251886209,11.183326281359697,70.3841107159986,77.45071587236548,-7.066605156366876,29.597862270014332,47.45706284666759,-17.859200576653258,-0.020171580084827112,0.0,-0.020171580084827112
0.2820000000000002,move_to_zero,-0.09045311350039108,-3.7842716452759992,3.6938185317756083,-68.14795300739836,-79.331736313846,11.183783306447637,70.30428199066043,77.36076149852998,-7.056479507869554,29.53842687462622,47.401944306775995,-17.863517432149774,-0.020497399457261447,0.0,-0.020497399457261447
0.2840000000000002,move_to_zero,-0.09013401679052158,-3.7798713294093993,3.6897373126188775,-68.05356143956608,-79.2394901088299,11.185928669263816,70.22376230681517,77.27080712469449,-7.047044817879311,29.479165210043007,47.34682576688439,-17.867660556841386,-0.02083754993939782,0.0,-0.02083754993939782
0.2860000000000002,move_to_zero,-0.08985024351169214,-3.7754710135427993,3.685620770031107,-67.95756128593959,-79.14724390381379,11.189682617874197,70.14254003998558,77.18085275085897,-7.038312710873399,29.4200639897137,47.29170722699279,-17.87164323727909,-0.021171733131311297,0.0,-0.021171733131311297
0.2880000000000002,move_to_zero,-0.08959476993478972,-3.7710706976761994,3.6814759277414097,-67.86000334337218,-79.05499769879769,11.194994355425507,70.06060628956811,77.09089837702348,-7.030292087455365,29.36108468648584,47.2365886871012,-17.875504000615358,-0.021480333914231896,0.0,-0.021480333914231896
0.2900000000000002,move_to_zero,-0.08936176198153857,-3.766670381809599,3.6773086198280605,-67.7609563757326,-78.96275149378158,11.201795118048977,69.97796512043193,77.00094400318798,-7.02297888275605,29.302210308382644,47.181470147209595,-17.87925983882695,-0.021768424381401544,0.0,-0.021768424381401544
0.2920000000000002,move_to_zero,-0.08914199185944781,-3.762270065942999,3.6731280740835515,-67.66048848060946,-78.87050528876549,11.210016808156027,69.89461859092603,76.91098962935247,-7.016371038426442,29.24342596691047,47.12635160731799,-17.882925640407525,-0.0220390485250554,0.0,-0.0220390485250554
0.2940000000000002,move_to_zero,-0.08893556653336983,-3.757869750076399,3.6689341835430294,-67.55865914244616,-78.77825908374939,11.21959994130323,69.81059366254533,76.82103525551699,-7.0104415929716595,29.18470661160298,47.07123306742639,-17.88652645582341,-0.02229495799806344,0.0,-0.02229495799806344
0.2960000000000002,move_to_zero,-0.08870134443982129,-3.753469434209799,3.6647680897699777,-67.45555095104268,-78.6860128787333,11.230461927690612,69.72589262729873,76.73108088168148,-7.005188254382745,29.12602602401476,47.016114527534796,-17.890088503520037,-0.02253776568275806,0.0,-0.02253776568275806
0.2980000000000002,move_to_zero,-0.08843061689199377,-3.749069118343199,3.660638501451205,-67.35123741634794,-78.59376667371718,11.242529257369242,69.64052114871215,76.64112650784598,-7.000605359133829,29.067349388545498,46.960995987643194,-17.893646599097696,-0.02277186685507387,0.0,-0.02277186685507387
0.3000000000000002,move_to_zero,-0.0881133541242992,-3.744668802476599,3.6565554483522997,-67.24580162394362,-78.50152046870109,11.255718844757467,69.55448127336079,76.55117213401049,-6.996690860649693,29.008655867198783,46.90587744775159,-17.89722158055281,-0.023000738146534607,0.0,-0.023000738146534607
0.3020000000000002,move_to_zero,-0.08777416297960153,-3.740268486609999,3.6524943236303975,-67.13930076630119,-78.40927426368499,11.269973497383802,69.46780335206235,76.46121776017497,-6.993414408112628,28.949942676813205,46.85075890786,-17.900816231046793,-0.023225871807675127,0.0,-0.023225871807675127
0.3040000000000002,move_to_zero,-0.08741931132969694,-3.735868170743399,3.648448859413702,-67.03180468700877,-78.31702805866888,11.28522337166011,69.38051252095876,76.37126338633948,-6.990750865380718,28.891157433806125,46.79564036796839,-17.904482934162264,-0.02344650549176482,0.0,-0.02344650549176482
0.3060000000000002,move_to_zero,-0.08703831231184347,-3.7314678548767994,3.6444295425649558,-66.92337951759255,-78.22478185365279,11.301402336060235,69.29260462719013,76.28130901250398,-6.988704385313852,28.832276305999567,46.740521828076794,-17.908245522077227,-0.02366258815742663,0.0,-0.02366258815742663
0.3080000000000002,move_to_zero,-0.08663897853321736,-3.7270675390101995,3.640428560476982,-66.81409942737343,-78.13253564863669,11.318436221263255,69.20405881404008,76.19135463866847,-6.98729582462839,28.77328743932631,46.68540328818519,-17.912115848858882,-0.023874196301453616,0.0,-0.023874196301453616
0.3100000000000002,move_to_zero,-0.08623583714008048,-3.7226672231435995,3.636431386003519,-66.70401796808211,-78.0402894436206,11.336271475538481,69.1148760733585,76.10140026483299,-6.986524191474487,28.714152833794415,46.6302847482936,-17.916131914499182,-0.024082828009169596,0.0,-0.024082828009169596
0.3120000000000002,move_to_zero,-0.08586108480008617,-3.718266907276999,3.632405822476913,-66.59318631391139,-77.94804323860448,11.354856924693095,69.02505611618238,76.01144589099748,-6.986389774815095,28.654830320828882,46.575166208401996,-17.920335887573113,-0.024287448622377226,0.0,-0.024287448622377226
0.3140000000000002,move_to_zero,-0.08553306161156958,-3.713866591410399,3.6283335297988297,-66.48168034441463,-77.85579703358839,11.37411668917376,68.93461884101964,75.92149151716198,-6.98687267614234,28.595313524028846,46.520047668510394,-17.924734144481548,-0.024489913154780055,0.0,-0.024489913154780055
0.3160000000000002,move_to_zero,-0.08523839210581911,-3.7094662755437993,3.62422788343798,-66.36957754532247,-77.76355082857228,11.393973283249807,68.8435785879356,75.83153714332649,-6.98795855539089,28.53557848503051,46.46492912861879,-17.929350643588283,-0.02469187212177226,0.0,-0.02469187212177226
0.3180000000000002,move_to_zero,-0.08496874212295438,-3.7050659596771993,3.6200972175542447,-66.25694323960849,-77.67130462355618,11.414361383947693,68.75193794444937,75.74158276949098,-6.9896448250416086,28.475597041244995,46.40981058872719,-17.934213547482194,-0.02489205961745399,0.0,-0.02489205961745399
0.32000000000000023,move_to_zero,-0.0847033477935336,-3.700665643810599,3.615962296017065,-66.1438280473041,-77.57905841854009,11.435230371235988,68.65971031203628,75.65162839565548,-6.991918083619197,28.415381750946853,46.354692048835595,-17.939310297888742,-0.025092504976710558,0.0,-0.025092504976710558
0.32200000000000023,move_to_zero,-0.08444186693416139,-3.696265327943999,3.6118234610098376,-66.03027292856608,-77.48681221352399,11.456539284957913,68.56692620792889,75.56167402181998,-6.994747813891095,28.354879351424298,46.29957350894399,-17.944694157519695,-0.025295019521017946,0.0,-0.025295019521017946
0.32400000000000023,move_to_zero,-0.08416851468503757,-3.691865012077399,3.6076964973923613,-65.9163327636655,-77.3945660085079,11.4782332448424,68.47359295897517,75.47171964798449,-6.998126689009311,28.29407788105346,46.2444549690524,-17.950377087998937,-0.025498464290052966,0.0,-0.025498464290052966
0.32600000000000023,move_to_zero,-0.08386913585612342,-3.687464696210799,3.603595560354676,-65.80210355242151,-77.30231980349178,11.50021625107027,68.37973242220771,75.38176527414898,-7.002032851941266,28.232943982232072,46.1893364291608,-17.956392446928724,-0.02570143808516885,0.0,-0.02570143808516885
0.32800000000000024,move_to_zero,-0.08356219601069019,-3.6830643803441987,3.5995021843335087,-65.68763969432881,-77.21007359847569,11.52243390414688,68.28534328739161,75.29181090031348,-7.006467612921867,28.171448380339154,46.13421788926919,-17.962769508930034,-0.025906761484963854,0.0,-0.025906761484963854
0.33000000000000024,move_to_zero,-0.08324453303694142,-3.6786640644775987,3.5954195314406574,-65.57298720632296,-77.11782739345958,11.544840187136614,68.19043170473472,75.20185652647798,-7.011424821743262,28.109592167872954,46.07909934937759,-17.96950718150464,-0.02611414296959114,0.0,-0.02611414296959114
0.33200000000000024,move_to_zero,-0.08291415746482433,-3.674263748610999,3.5913495911461744,-65.4581899264121,-77.02558118844348,11.567391262031379,68.09500295519244,75.11190215264247,-7.01689919745003,28.04735724895562,46.02398080948599,-17.97662356053037,-0.02632358511948241,0.0,-0.02632358511948241
0.33400000000000024,move_to_zero,-0.08259143308417316,-3.669863432744399,3.5872719996602256,-65.34329133969588,-76.93333498342739,11.590043643731505,67.9990613741886,75.02194777880699,-7.02288640461839,27.984737422307283,45.968862269594396,-17.984124847287113,-0.026536542910791203,0.0,-0.026536542910791203
0.33600000000000024,move_to_zero,-0.08227408979624014,-3.6654631168777994,3.583189027081559,-65.22835725655578,-76.84108877841129,11.612731521855508,67.90264373232016,74.93199340497148,-7.029349672651321,27.92172396850288,45.913743729702794,-17.992019761199913,-0.02674912451951097,0.0,-0.02674912451951097
0.33800000000000024,move_to_zero,-0.08197429031789709,-3.6610628010111994,3.5790885106933024,-65.11344837891866,-76.74884257339518,11.635394194476518,67.80576646853953,74.84203903113597,-7.036272562596437,27.85830572419634,45.85862518981119,-18.00031946561485,-0.026961395877538465,0.0,-0.026961395877538465
0.34000000000000025,move_to_zero,-0.08170655536794247,-3.6566624851445995,3.574955929776657,-64.99861759990571,-76.65659636837908,11.65797876847337,67.70841253614962,74.75208465730049,-7.043672121150863,27.794479539762595,45.80350664991959,-18.009027110156996,-0.027174604402492687,0.0,-0.027174604402492687
0.34200000000000025,move_to_zero,-0.08146447771826654,-3.652262169277999,3.5707976915597324,-64.88390939879737,-76.56435016336299,11.680440764565617,67.61057714370278,74.66213028346498,-7.051553139762191,27.730209666153282,45.74838811002799,-18.018178443874707,-0.02739182578803974,0.0,-0.02739182578803974
0.34400000000000025,move_to_zero,-0.08124349852461563,-3.647861853411399,3.5666183548867836,-64.76934984135998,-76.47210395834688,11.702754116986895,67.51225676616339,74.57217590962948,-7.0599191434660895,27.665497936418017,45.693269570136394,-18.027771633718377,-0.027632769480522425,0.0,-0.027632769480522425
0.34600000000000025,move_to_zero,-0.08103911466793884,-3.643461537544799,3.5624224228768604,-64.6549896313654,-76.3798577533308,11.7248681219654,67.41346993867523,74.48222153579398,-7.068751597118748,27.600362309195937,45.63815103024479,-18.037788721048855,-0.0278847044038518,0.0,-0.0278847044038518
0.34800000000000025,move_to_zero,-0.0808482727461001,-3.6390612216781992,3.5582129489320993,-64.54086696271477,-76.28761154831469,11.746744585599913,67.31422493311563,74.39226716195847,-7.078042228842847,27.53480681458331,45.5830324903532,-18.04822567576989,-0.02813986074572241,0.0,-0.02813986074572241
0.35000000000000026,move_to_zero,-0.08066946747990139,-3.634660905811599,3.5539914383316975,-64.42703165410076,-76.19536534329859,11.768333689197831,67.21454646912973,74.30231278812298,-7.087766318993246,27.46881702864848,45.52791395046159,-18.059096921813108,-0.028403268752738284,0.0,-0.028403268752738284
0.35200000000000026,move_to_zero,-0.0805007569695819,-3.630260589944999,3.549759832975417,-64.31352813435278,-76.10311913828248,11.7895910039297,67.11447596041495,74.21235841428748,-7.097882453872529,27.402400691423633,45.472795410569994,-18.07039471914636,-0.02868234204969315,0.0,-0.02868234204969315
0.35400000000000026,move_to_zero,-0.08033948828860517,-3.625860274078399,3.545520785789794,-64.20038116005904,-76.01087293326638,11.810491773207346,67.01401377134349,74.12240404045198,-7.108390269108497,27.335540593271816,45.41767687067839,-18.082136277406576,-0.0289502578414277,0.0,-0.0289502578414277
0.35600000000000026,move_to_zero,-0.0801834584951864,-3.621459958211799,3.5412764997166124,-64.08764249976414,-75.91862672825027,11.83098422848613,66.91315456987155,74.03244966661647,-7.119295096744921,27.268222118164882,45.36255833078679,-18.094336212621908,-0.029234395247250345,0.0,-0.029234395247250345
0.35800000000000026,move_to_zero,-0.0800311386959176,-3.6170596423451986,3.537028503649281,-63.97534458729815,-75.82638052323418,11.851035935936025,66.81193181375887,73.94249529278098,-7.130563479022101,27.200456307269835,45.307439790895195,-18.10698348362536,-0.029537355547420575,0.0,-0.029537355547420575
0.36000000000000026,move_to_zero,-0.07986953698257859,-3.6126593264785987,3.53278978949602,-63.863530457447155,-75.7341343182181,11.870603860770942,66.71034603699493,73.85254091894548,-7.1421948819505445,27.132237884670186,45.25232125100359,-18.120083366333407,-0.02986523118211595,0.0,-0.02986523118211595
0.36200000000000027,move_to_zero,-0.07971189083853608,-3.6082590106119987,3.528547119773463,-63.75224651004702,-75.64188811320199,11.889641603154963,66.60840708067427,73.76258654510997,-7.1541794644357,27.063559965783565,45.19720271111199,-18.133642745328427,-0.030191502409136227,0.0,-0.030191502409136227
0.36400000000000027,move_to_zero,-0.07955400752759968,-3.603858694745399,3.5243046872177994,-63.641502932743826,-75.54964190818589,11.908138975442064,66.50609825027472,73.67263217127449,-7.166533920999768,26.994420833577202,45.14208417122039,-18.147663337643188,-0.030509427103683838,0.0,-0.030509427103683838
0.36600000000000027,move_to_zero,-0.0793790356207485,-3.5994583788787993,3.520079343258051,-63.53133946607042,-75.45739570316978,11.92605623709936,66.40342452915205,73.58267779743898,-7.179253268286928,26.92483067574925,45.086965631328795,-18.162134955579546,-0.030807421252877238,0.0,-0.030807421252877238
0.36800000000000027,move_to_zero,-0.07915118620827187,-3.5950580630121993,3.5159068768039274,-63.42174752571157,-75.36514949815368,11.943401972442118,66.30037690028585,73.49272342360348,-7.1923465233176245,26.854791797597954,45.03184709143719,-18.17705529383924,-0.031084182805783914,0.0,-0.031084182805783914
0.3700000000000003,move_to_zero,-0.0788925970552164,-3.5906577471455994,3.511765150090383,-63.31274829543543,-75.27290329313757,11.96015499770214,66.19696633780559,73.40276904976798,-7.2058027119623915,26.784293672249188,44.97672855154559,-18.192434879296403,-0.031343221416589,0.0,-0.031343221416589
0.3720000000000003,move_to_zero,-0.07859860337997687,-3.586257431278999,3.507658827899022,-63.20436913306933,-75.18065708812149,11.976287955052165,66.09320232880033,73.31281467593247,-7.219612347132141,26.713317245721043,44.921610011653996,-18.208292765932953,-0.03158729565394205,0.0,-0.03158729565394205
0.3740000000000003,move_to_zero,-0.07828270799971361,-3.581857115412399,3.5035744074126853,-63.09661713731265,-75.08841088310538,11.991793745792734,65.98910059998589,73.22286030209698,-7.233759702111087,26.64186945536348,44.86649147176239,-18.224622016398907,-0.03181815898782726,0.0,-0.03181815898782726
0.3760000000000003,move_to_zero,-0.0779578618596751,-3.577456799545799,3.499498937686124,-62.98951662059322,-74.99616467808929,12.006648057496065,65.8846848464012,73.13290592826148,-7.2482210818602795,26.569933550545212,44.81137293187079,-18.24143938132558,-0.03203584330332208,0.0,-0.03203584330332208
0.3780000000000003,move_to_zero,-0.07764417134566792,-3.573056483679199,3.4954123123335314,-62.88309067504315,-74.90391847307319,12.02082779803004,65.77995936193355,73.04295155442597,-7.262992192492419,26.497514454770393,44.75625439197919,-18.258739937208798,-0.03224375607380361,0.0,-0.03224375607380361
0.3800000000000003,move_to_zero,-0.07735691443449103,-3.5686561678125988,3.4912992533781075,-62.77738390308504,-74.81167226805708,12.034288364972042,65.6749323956409,72.95299718059049,-7.278064784949592,26.424585293787647,44.70113585208759,-18.27655055829994,-0.032443660410803744,0.0,-0.032443660410803744
0.3820000000000003,move_to_zero,-0.07708578239271921,-3.564255851945999,3.4871700695532795,-62.67242625247694,-74.71942606304098,12.046999810564046,65.56960670556195,72.86304280675498,-7.2934361011930235,26.351178124926573,44.646017312195994,-18.29483918726942,-0.03263648976938142,0.0,-0.03263648976938142
0.3840000000000003,move_to_zero,-0.07683655856688229,-3.559855536079399,3.4830189775125167,-62.568216382328444,-74.62717985802489,12.058963475696444,65.46402199976836,72.77308843291948,-7.309066433151116,26.27731278160814,44.59089877230439,-18.313585990696254,-0.0328233504125388,0.0,-0.0328233504125388
0.3860000000000003,move_to_zero,-0.0765960537418676,-3.5554552202127994,3.4788591664709316,-62.46476913239542,-74.53493365300879,12.070164520613375,65.3581768112373,72.68313405908398,-7.324957247846683,26.20299391285462,44.53578023241279,-18.33278631955817,-0.0330068751397644,0.0,-0.0330068751397644
0.3880000000000003,move_to_zero,-0.07636003269771179,-3.551054904346199,3.474694871648487,-62.36205694799628,-74.44268744799268,12.080630499996403,65.25206848367172,72.59317968524847,-7.3411112015767515,26.128222516164065,44.48066169252119,-18.352439176357123,-0.03318795780423316,0.0,-0.03318795780423316
0.3900000000000003,move_to_zero,-0.07611185085694479,-3.546654588479599,3.470542737622654,-62.260090607227426,-74.35044124297659,12.09035063574916,65.14570057530463,72.50322531141298,-7.357524736108346,26.052978163456267,44.425543152629594,-18.372564989173327,-0.03336850582944341,0.0,-0.03336850582944341
0.3920000000000003,move_to_zero,-0.07585354164148402,-3.542254272612999,3.466400730971515,-62.15888753280726,-74.25819503796048,12.099307505153213,65.03908132828964,72.41327093757748,-7.374189609287839,25.97726708735299,44.37042461273799,-18.393157525385003,-0.03354779283371082,0.0,-0.03354779283371082
0.3940000000000003,move_to_zero,-0.07559219638127,-3.537853956746399,3.4622617603651293,-62.05847347004704,-74.16594883294438,12.10747536289734,64.93220883359037,72.32331656374198,-7.391107730151617,25.90112088430425,44.31530607284639,-18.414185188542138,-0.03372943280605477,0.0,-0.03372943280605477
0.3960000000000003,move_to_zero,-0.07532772248710154,-3.5334536408797987,3.4581259183926973,-61.95885156494637,-74.07370262792828,12.114851062981913,64.8250852421628,72.23336218990647,-7.408276947743673,25.82454385878714,44.260187532954795,-18.435643674167654,-0.03391282670425444,0.0,-0.03391282670425444
0.3980000000000003,move_to_zero,-0.07508758818811691,-3.529053325013199,3.453965736825082,-61.860019930842604,-73.98145642291219,12.121436492069584,64.71771236090068,72.14340781607098,-7.425695455170299,25.74753322580673,44.205068993063186,-18.457535767256456,-0.03409709818801639,0.0,-0.03409709818801639
0.4000000000000003,move_to_zero,-0.07485618553314845,-3.524653009146599,3.4497968236134504,-61.76198330641583,-73.88921021789609,12.127226911480264,64.61011298414633,72.05345344223548,-7.443340458089153,25.670111446591207,44.14995045317159,-18.479839006580384,-0.034280101997534826,0.0,-0.034280101997534826
0.4020000000000003,move_to_zero,-0.07463291110061755,-3.520252693279999,3.4456197821793815,-61.66473906168492,-73.79696401287998,12.132224951195063,64.50230989377775,71.96349906839997,-7.46118917462222,25.5922619707914,44.09483191327999,-18.502569942488588,-0.03446158809579203,0.0,-0.03446158809579203
0.4040000000000003,move_to_zero,-0.07441947610093394,-3.515852377413399,3.441432901312465,-61.568302653625004,-73.70471780786389,12.136415154238883,64.39430480955461,71.87354469456449,-7.479239885009875,25.513992267457073,44.039713373388395,-18.52572110593132,-0.03464030633351693,0.0,-0.03464030633351693
0.4060000000000003,move_to_zero,-0.07421234863694537,-3.511452061546799,3.4372397129098538,-61.47266625741326,-73.61247160284778,12.139805345434517,64.28609759023433,71.78359032072898,-7.497492730494642,25.435315747862695,43.98459483349679,-18.549279085634097,-0.034817058096856576,0.0,-0.034817058096856576
0.4080000000000003,move_to_zero,-0.07398338006268033,-3.507051745680199,3.433068365617519,-61.37781727333724,-73.52022539783168,12.142408124494438,64.17768102215831,71.69363594689347,-7.515954924735155,25.356227176735082,43.92947629360519,-18.57324911687011,-0.03499436494818148,0.0,-0.03499436494818148
0.4100000000000003,move_to_zero,-0.07371912467376855,-3.5026514298135987,3.42893230513983,-61.28373914065744,-73.42797919281558,12.144240052158146,64.06904624818578,71.60368157305798,-7.534635324872198,25.27674497078711,43.87435775371359,-18.59761278292648,-0.03516996212877918,0.0,-0.03516996212877918
0.4120000000000003,move_to_zero,-0.07344024702064794,-3.4982511139469987,3.4248108669263506,-61.19042479576864,-73.33573298779949,12.145308192030846,63.960208106354756,71.51372719922247,-7.553519092867717,25.19688547902635,43.81923921382199,-18.622353734795638,-0.03534219374886421,0.0,-0.03534219374886421
0.4140000000000003,move_to_zero,-0.07314013751469572,-3.493850798080399,3.420710660565703,-61.097842422873605,-73.24348678278338,12.145644359909774,63.851185310404006,71.42377282538698,-7.5725875149829704,25.11663093826752,43.76412067393039,-18.647489735662873,-0.03551182243112791,0.0,-0.03551182243112791
0.4160000000000003,move_to_zero,-0.07283762219770015,-3.4894504822137993,3.416612860016099,-61.005965038238166,-73.15124057776728,12.145275539529116,63.74198342597746,71.33381845155148,-7.591835025574021,25.035975349698052,43.70900213403879,-18.67302678434074,-0.035677022819167035,0.0,-0.035677022819167035
0.4180000000000003,move_to_zero,-0.07254011166502781,-3.485050166347199,3.412510054682171,-60.91476781344826,-73.05899437275119,12.144226559302929,63.632624317722765,71.24386407771597,-7.611239759993204,24.9549314482881,43.653883594147196,-18.698952145859096,-0.035842468265675234,0.0,-0.035842468265675234
0.4200000000000003,move_to_zero,-0.07226225262518331,-3.480649850480599,3.4083875978554157,-60.824250790855665,-72.96674816773508,12.142497376879412,63.52312042280176,71.15390970388047,-7.630789281078712,24.873526447225416,43.598765054255594,-18.725238607030178,-0.036008755785559496,0.0,-0.036008755785559496
0.4220000000000003,move_to_zero,-0.07198003623103637,-3.476249534613999,3.4042694983829627,-60.73440293317599,-72.87450196271898,12.140099029542988,63.41346626521124,71.06395533004498,-7.650489064833735,24.79177352210268,43.543646514363985,-18.751872992261305,-0.03617490170258372,0.0,-0.03617490170258372
0.4240000000000003,move_to_zero,-0.07169188220647305,-3.471849218747399,3.400157336540926,-60.645213251597646,-72.78225575770288,12.137042506105239,63.303660640564196,70.97400095620948,-7.670340315645284,24.70968453677767,43.48852797447239,-18.77884343769472,-0.036339577015991144,0.0,-0.036339577015991144
0.4260000000000003,move_to_zero,-0.07140373745632854,-3.4674489028807987,3.39604516542447,-60.55666962525384,-72.69000955268679,12.13333992743295,63.19374906057326,70.88404658237397,-7.690297521800709,24.627254142151486,43.43340943458079,-18.806155292429303,-0.03650078124511251,0.0,-0.03650078124511251
0.4280000000000003,move_to_zero,-0.07112680678228459,-3.4630485870141987,3.391921780231914,-60.46874587443297,-72.59776334767068,12.12901747323771,63.08374831675566,70.79409220853847,-7.710343891782813,24.544509316194144,43.378290894689194,-18.83378157849505,-0.03665860963330157,0.0,-0.03665860963330157
0.4300000000000003,move_to_zero,-0.07087443903929545,-3.458648271147599,3.3877738321083037,-60.38141814456003,-72.50551714265458,12.124098998094553,62.97367095004384,70.70413783470298,-7.730466884659137,24.461478662531523,43.32317235479759,-18.86169369226607,-0.03681302856781833,0.0,-0.03681302856781833
0.43200000000000033,move_to_zero,-0.07062683229971788,-3.454247955280999,3.383621122981281,-60.294663100457356,-72.41327093763847,12.118607837181116,62.86350653413317,70.61418346086747,-7.750676926734293,24.378152983874667,43.268053814906,-18.88990083103133,-0.03696692503680994,0.0,-0.03696692503680994
0.43400000000000033,move_to_zero,-0.07039973833683866,-3.449847639414399,3.37944790107756,-60.20844690724046,-72.32102473262238,12.11257782538192,62.75326634288401,70.52422908703198,-7.7709627441479725,24.294565431309934,43.21293527501439,-18.918369843704454,-0.03711877319051272,0.0,-0.03711877319051272
0.43600000000000033,move_to_zero,-0.07018968880788608,-3.445447323547799,3.375257634739913,-60.12275025102857,-72.22877852760628,12.10602827657771,62.64296009247877,70.43427471319647,-7.791314620717699,24.210714880105705,43.157816735122786,-18.94710185501708,-0.03726898720377038,0.0,-0.03726898720377038
0.43800000000000033,move_to_zero,-0.06999507501566501,-3.441047007681199,3.371051932665534,-60.03754993806669,-72.13653232259018,12.098982384523495,62.53258281673511,70.34432033936098,-7.811737522625869,24.12661256104635,43.10269819523119,-18.97608563418484,-0.037416541166668295,0.0,-0.037416541166668295
0.44000000000000034,move_to_zero,-0.06981189806208325,-3.4366466918145986,3.366834793752515,-59.952850609911636,-72.04428611757409,12.091435507662453,62.42215814446774,70.25436596552548,-7.832207821057743,24.04225644626341,43.04757965533959,-19.00532320907618,-0.037560982812425744,0.0,-0.037560982812425744
0.44200000000000034,move_to_zero,-0.0696403743554114,-3.4322463759479986,3.3626060015925874,-59.86864380745044,-71.95203991255798,12.08339610510754,62.311694430870695,70.16441159168997,-7.8527171608192745,23.95767827504456,42.992461115447995,-19.034782840403434,-0.037702503445491455,0.0,-0.037702503445491455
0.44400000000000034,move_to_zero,-0.06947934532858545,-3.427846060081399,3.3583667147528136,-59.78489238060668,-71.85979370754188,12.074901326935205,62.20121752529722,70.07445721785447,-7.873239692557256,23.872883203691007,42.937342575556386,-19.06445937186538,-0.03784206604412641,0.0,-0.03784206604412641
0.44600000000000034,move_to_zero,-0.06932540915132973,-3.423445744214799,3.3541203350634694,-59.70154143459458,-71.76754750252577,12.066006067931191,62.09073573260591,69.98450284401898,-7.893767111413069,23.787895871504563,42.88222403566479,-19.094328164160228,-0.03797925446084352,0.0,-0.03797925446084352
0.44800000000000034,move_to_zero,-0.069175337002501,-3.419045428348199,3.349870091345698,-59.61858938901079,-71.67530129750969,12.056711908498897,61.98025241911327,69.89454847018347,-7.914296051070195,23.7027277011409,42.82710549577319,-19.124377794632288,-0.038113225516167394,0.0,-0.038113225516167394
0.45000000000000034,move_to_zero,-0.06902753352619687,-3.414645112481599,3.345617578955402,-59.53602579078592,-71.58305509249358,12.04702930170766,61.869756897705805,69.80459409634798,-7.934837198642178,23.617387465591655,42.77198695588159,-19.154599490289932,-0.03824581970551356,0.0,-0.03824581970551356
0.45200000000000035,move_to_zero,-0.06888244306288029,-3.410244796614999,3.3413623535521184,-59.453834804521016,-71.49080888747748,12.036974082956469,61.75923283478317,69.71463972251247,-7.955406887729303,23.53186291368964,42.71686841598999,-19.185005502300353,-0.03837992830209888,0.0,-0.03837992830209888
0.45400000000000035,move_to_zero,-0.06873866325797777,-3.405844480748399,3.3371058174904213,-59.3719675249997,-71.39856268246137,12.026595157461678,61.648664543457684,69.62468534867698,-7.976020805219292,23.446151488115806,42.66174987609839,-19.215598387982585,-0.038513826391458415,0.0,-0.038513826391458415
0.45600000000000035,move_to_zero,-0.06859584707694476,-3.4014441648817986,3.332848317804854,-59.29038221788433,-71.30631647744528,12.01593425956095,61.53805229292898,69.53473097484148,-7.996678681912499,23.36024291910056,42.60663133620679,-19.24638841710623,-0.03864960173264666,0.0,-0.03864960173264666
0.45800000000000035,move_to_zero,-0.06845306303254368,-3.397043849015199,3.3285907859826556,-59.20907995991569,-71.21407027242918,12.004990312513492,61.4273914164152,69.44477660100597,-8.017385184590772,23.274155323158897,42.55151279631519,-19.27735747315629,-0.038785905533463484,0.0,-0.038785905533463484
0.46000000000000035,move_to_zero,-0.06830311478346138,-3.392643533148599,3.324340418365138,-59.12803337541974,-71.12182406741309,11.993790691993347,61.3166655178838,69.35482222717047,-8.038156709286675,23.187893449375668,42.49639425642359,-19.308500807047924,-0.03892189428839117,0.0,-0.03892189428839117
0.46200000000000035,move_to_zero,-0.06815551121447712,-3.3882432172819987,3.320087706067522,-59.0472319819144,-71.02957786239699,11.98234588048259,61.205889757786835,69.26486785333498,-8.058978095548142,23.10148876261716,42.44127571653199,-19.33978695391483,-0.039060939346597434,0.0,-0.039060939346597434
0.46400000000000036,move_to_zero,-0.06801061612411984,-3.383842901415399,3.315832285291279,-58.96664893343914,-70.93733165738088,11.970682723941742,61.09508346399909,69.17491347949948,-8.079830015500391,23.014961584472225,42.38615717664039,-19.371195592168164,-0.039201990889474035,0.0,-0.039201990889474035
0.46600000000000036,move_to_zero,-0.0678668792146223,-3.379442585548799,3.3115757063341764,-58.88627584768025,-70.84508545236478,11.958809604684532,60.98421965665723,69.08495910566397,-8.100739449006738,22.92836385280315,42.331038636748794,-19.402674783945642,-0.03934329740896099,0.0,-0.03934329740896099
0.46800000000000036,move_to_zero,-0.06772467466519615,-3.375042269682199,3.3073175950170026,-58.806080504475744,-70.75283924734867,11.94675874287293,60.873321341390884,68.99500473182847,-8.121683390437589,22.841721078440834,42.275920096857185,-19.43419901841635,-0.039484583393326306,0.0,-0.039484583393326306
0.47000000000000036,move_to_zero,-0.06758353140192076,-3.3706419538155985,3.303058422413678,-58.72607579742881,-70.66059304233258,11.934517244903766,60.76237702541729,68.90505035799298,-8.14267333257569,22.755040286526942,42.22080155696559,-19.465761270438648,-0.039627116233091196,0.0,-0.039627116233091196
0.47200000000000036,move_to_zero,-0.06744301110901602,-3.3662416379489986,3.2987986268399827,-58.64622232309422,-70.56834683731647,11.922124514222247,60.65140661418678,68.81509598415747,-8.163689369970683,22.668321686331094,42.16568301707399,-19.497361330742894,-0.039768431019329815,0.0,-0.039768431019329815
0.47400000000000037,move_to_zero,-0.06730301145939652,-3.361841322082399,3.2945383106230026,-58.566491974102284,-70.47610063230039,11.909608658198103,60.54039974066287,68.72514161032198,-8.184741869659113,22.581565025852235,42.11056447718239,-19.528999451330158,-0.039910510532699166,0.0,-0.039910510532699166
0.47600000000000037,move_to_zero,-0.0671551583528408,-3.357441006215799,3.2902858478629584,-58.486882167348064,-70.38385442728428,11.896972259936213,60.429367793547065,68.63518723648647,-8.205819442939408,22.49476016232065,42.05544593729079,-19.560685774970143,-0.040054615601776596,0.0,-0.040054615601776596
0.47800000000000037,move_to_zero,-0.06697881628820045,-3.3530406903491987,3.2860618740609984,-58.407348659085194,-70.29160822226818,11.884259563182987,60.31831997857423,68.54523286265096,-8.226912884076732,22.4078988949497,42.00032739739919,-19.59242850244949,-0.0401987995629841,0.0,-0.0401987995629841
0.48000000000000037,move_to_zero,-0.06676994959028651,-3.3486403744825988,3.281870424892312,-58.32787723047794,-70.19936201725208,11.871484786774147,60.20726461187467,68.45527848881548,-8.24801387694081,22.320994788166477,41.94520885750759,-19.62421406934111,-0.04034349881100025,0.0,-0.04034349881100025
0.4820000000000004,move_to_zero,-0.06656334068342624,-3.344240058615999,3.2776767179325725,-58.248461135896626,-70.10711581223597,11.858654676339349,60.096190529087814,68.36532411497997,-8.269133585892156,22.234051506006182,41.890090317615986,-19.656038811609804,-0.04048961702384294,0.0,-0.04048961702384294
0.4840000000000004,move_to_zero,-0.066357560503115,-3.339839742749399,3.273482182246284,-58.16910777125869,-70.01486960721988,11.845761835961191,59.98509684087041,68.27536974114447,-8.290272900274061,22.14706045259399,41.83497177772439,-19.6879113251304,-0.04063516466410025,0.0,-0.04063516466410025
0.4860000000000004,move_to_zero,-0.06614630944655395,-3.3354394268827985,3.2692931174362445,-58.089812976470384,-69.92262340220378,11.832810425733399,59.87400970065479,68.18541536730898,-8.311405666654188,22.06000238548442,41.77985323783279,-19.71985085234837,-0.0407773824166336,0.0,-0.0407773824166336
0.4880000000000004,move_to_zero,-0.06595044575363412,-3.331039111016199,3.265088665262565,-58.01053257629055,-69.83037719718769,11.819844620897136,59.76295047368371,68.09546099347347,-8.332510519789757,21.97286524315356,41.72473469794119,-19.751869454787627,-0.04091618944178276,0.0,-0.04091618944178276
0.4900000000000004,move_to_zero,-0.0657670781221864,-3.326638795149599,3.2608717170274124,-57.93127722145923,-69.73813099217158,11.806853770712344,59.65191671281575,68.00550661963797,-8.353589906822222,21.885664513520272,41.66961615804959,-19.78395164452932,-0.041051461143761896,0.0,-0.041051461143761896
0.4920000000000004,move_to_zero,-0.06559382829438601,-3.3222384792829986,3.2566446509886124,-57.852005394753355,-69.64588478715548,11.793879392402125,59.54089990703037,67.91555224580247,-8.374652338772101,21.79841046650909,41.61449761815798,-19.816087151648894,-0.04118645356803483,0.0,-0.04118645356803483
0.4940000000000004,move_to_zero,-0.06542742193307015,-3.3178381634163987,3.2524107414833288,-57.772723642924355,-69.55363858213937,11.780914939215016,59.42991276073947,67.82559787196698,-8.395685111227507,21.71110845931894,41.55937907826639,-19.84827061894745,-0.04132235854789883,0.0,-0.04132235854789883
0.4960000000000004,move_to_zero,-0.06526712559636566,-3.3134378475497988,3.248170721953433,-57.69343279928682,-69.46139237712327,11.767959577836457,59.3189687615705,67.73564349813147,-8.416674736560964,21.623774276339507,41.50426053837479,-19.88048626203528,-0.04145935004031692,0.0,-0.04145935004031692
0.4980000000000004,move_to_zero,-0.06511148206396068,-3.309037531683199,3.243926049619238,-57.61412976356875,-69.36914617210718,11.755016408538431,59.208081684633775,67.64568912429597,-8.437607439662195,21.536453132406795,41.44914199848319,-19.912688866076397,-0.04159531287341162,0.0,-0.04159531287341162
0.5000000000000003,move_to_zero,-0.06495977760425874,-3.3046372158165984,3.2396774382123397,-57.53481725526943,-69.27689996709108,11.742082711821652,59.09724551947955,67.55573475046047,-8.458489230980923,21.449134998682553,41.39402345859159,-19.944888459909038,-0.0417304920156064,0.0,-0.0417304920156064
0.5020000000000003,move_to_zero,-0.06481047059822764,-3.300236899949999,3.2354264293517714,-57.45549286752352,-69.18465376207499,11.72916089455147,58.98646262017839,67.46578037662498,-8.479317756446584,21.3618063533871,41.33890491869999,-19.97709856531289,-0.04186189306522048,0.0,-0.04186189306522048
0.5040000000000003,move_to_zero,-0.06465262397748414,-3.2958365840833994,3.2311839601059154,-57.37614139577367,-69.09240755705889,11.716266161285219,58.875753178929116,67.37582600278948,-8.500072823860364,21.274467111023128,41.283786378808394,-20.009319267785266,-0.041988624449387946,0.0,-0.041988624449387946
0.5060000000000003,move_to_zero,-0.06449800371799216,-3.291436268216799,3.226938264498807,-57.296743867219014,-69.00016135204278,11.703417484823767,58.765137820676124,67.28587162895397,-8.520733808277846,21.187127235402173,41.228667838916785,-20.041540603514612,-0.042109955135243064,0.0,-0.042109955135243064
0.5080000000000003,move_to_zero,-0.06434677130074339,-3.287035952350199,3.222689181049456,-57.21728797588378,-68.90791514702669,11.690627171142907,58.65460656533653,67.19591725511847,-8.541310689781945,21.099782413115364,41.1735492990252,-20.073766885909833,-0.04222753472584306,0.0,-0.04222753472584306
0.5100000000000003,move_to_zero,-0.06419818266066726,-3.2826356364835987,3.2184374538229314,-57.13776187947166,-68.81566894201057,11.677907062538914,58.544140100004164,67.10596288128298,-8.561822781278813,21.0124704333855,41.11843075913359,-20.10596032574809,-0.04233987320006457,0.0,-0.04233987320006457
0.5120000000000003,move_to_zero,-0.06405217364005582,-3.278235320616999,3.2141831469769433,-57.058164428441955,-68.7234227369945,11.665258308552538,58.433747157803744,67.01600850744748,-8.582261349643737,20.925201378785008,41.06331221924199,-20.138110840456985,-0.04245036574971854,0.0,-0.04245036574971854
0.5140000000000003,move_to_zero,-0.06389207013610909,-3.273835004750399,3.20994293461429,-56.97851959991522,-68.63117653197838,11.652656932063167,58.32344454682884,66.92605413361197,-8.602609586783132,20.837984688796233,41.00819367935039,-20.17020899055416,-0.042559193361867406,0.0,-0.042559193361867406
0.5160000000000003,move_to_zero,-0.06373536857721171,-3.2694346888837993,3.2056993203065876,-56.89882330364995,-68.53893032696229,11.64010702331234,58.21325145232878,66.83609975977649,-8.622848307447711,20.75081934212055,40.95307513945879,-20.20225579733824,-0.042666992248279884,0.0,-0.042666992248279884
0.5180000000000003,move_to_zero,-0.0635820854908766,-3.265034373017199,3.2014522875263225,-56.81904942427862,-68.44668412194618,11.62763469766756,58.10315277802635,66.74614538594096,-8.642992607914614,20.663722927352,40.89795659956719,-20.234233672215186,-0.042775585186517154,0.0,-0.042775585186517154
0.5200000000000004,move_to_zero,-0.06343184866983582,-3.2606340571505994,3.1972022084807636,-56.7392306815474,-68.35443791693008,11.615207235382684,57.99315400025238,66.65619101210548,-8.663037011853099,20.576682993978125,40.84283805967559,-20.26615506569747,-0.04288508146004983,0.0,-0.04288508146004983
0.5220000000000004,move_to_zero,-0.06328543006979205,-3.2562337412839986,3.1929483112142063,-56.65938044942583,-68.26219171191397,11.602811262488139,57.883274797077846,66.56623663826997,-8.682961841192125,20.4897041252708,40.78771951978399,-20.29801539451319,-0.042992352097614206,0.0,-0.042992352097614206
0.5240000000000004,move_to_zero,-0.06314316701751188,-3.251833425417399,3.188690258399887,-56.57949795941537,-68.16994550689789,11.590447547482519,57.77352870393966,66.47628226443447,-8.702753560494813,20.40280346588009,40.732600979892396,-20.329797514012306,-0.0430973978480769,0.0,-0.0430973978480769
0.5260000000000004,move_to_zero,-0.06300447681109693,-3.2474331095507987,3.1844286327397016,-56.499590329392696,-68.07769930188178,11.578108972489083,57.66393917159807,66.38632789059898,-8.72238871900091,20.315982458861416,40.677482440000794,-20.361499981139378,-0.043202036233100226,0.0,-0.043202036233100226
0.5280000000000004,move_to_zero,-0.06286798323274098,-3.2430327936841996,3.180164810451459,-56.41964401168193,-67.9854530968657,11.565809085183766,57.554500809794746,66.29637351676348,-8.741872706968735,20.229233592526228,40.62236390010919,-20.393130307582965,-0.04330583404407136,0.0,-0.04330583404407136
0.5300000000000004,move_to_zero,-0.06273475631977161,-3.2386324778175983,3.175897721497827,-56.33964398849226,-67.89320689184957,11.55356290335731,57.44520256957082,66.20641914292797,-8.761216573357153,20.14256634666652,40.56724536021758,-20.424679013551064,-0.04340652569374368,0.0,-0.04340652569374368
0.5320000000000004,move_to_zero,-0.06260421403412646,-3.2342321619509993,3.171627947916873,-56.25955945410753,-67.80096068683349,11.54140123272596,57.33604678868474,66.11646476909249,-8.780417980407748,20.055976752595008,40.512126820325996,-20.456150067730988,-0.043503120761563124,0.0,-0.043503120761563124
0.5340000000000004,move_to_zero,-0.06247681835584702,-3.229831846084399,3.167355027728552,-56.17938733852921,-67.70871448181737,11.529327143288157,57.227029917758465,66.02651039525698,-8.799480477498513,19.96943778940205,40.45700828043439,-20.487570491032336,-0.043596319587194725,0.0,-0.043596319587194725
0.5360000000000004,move_to_zero,-0.06235246978359422,-3.2254315302177994,3.163079060434205,-56.0991491171387,-67.61646827680129,11.517319159662584,57.11814675240365,65.93655602142148,-8.818409269017828,19.8829548380138,40.4018897405428,-20.518934902529,-0.0436862613458868,0.0,-0.0436862613458868
0.5380000000000004,move_to_zero,-0.062229930738353936,-3.2210312143511985,3.1588012836128447,-56.01886050118322,-67.52422207178519,11.50536157060197,57.00939163272382,65.84660164758597,-8.837210014862151,19.796553763365477,40.34677120065119,-20.550217437285713,-0.04377434875411622,0.0,-0.04377434875411622
0.5400000000000004,move_to_zero,-0.06210775009057337,-3.216630898484599,3.1545231483940257,-55.93852471822246,-67.4319758667691,11.493451148546633,56.90075767462693,65.75664727375049,-8.855889599123557,19.7102420825723,40.29165266075959,-20.58141057818729,-0.043858906592190675,0.0,-0.043858906592190675
0.5420000000000004,move_to_zero,-0.06198682260989591,-3.2122305826179987,3.150243760008103,-55.858151812735734,-67.33972966175298,11.481577849017249,56.79223013949257,65.66669289991496,-8.874462760422396,19.62401132627292,40.23653412086799,-20.612522794595066,-0.043941657401785,0.0,-0.043941657401785
0.5440000000000004,move_to_zero,-0.061867923895184154,-3.207830266751399,3.145962342856215,-55.7777386754063,-67.24748345673689,11.46974478133059,56.68381149730439,65.57673852607948,-8.892927028775091,19.537853484782794,40.18141558097639,-20.643562096193598,-0.044022413778527864,0.0,-0.044022413778527864
0.5460000000000004,move_to_zero,-0.06175037240484953,-3.2034299508847988,3.141679578479949,-55.69729202662589,-67.15523725172078,11.457945225094889,56.5754994325321,65.48678415224397,-8.911284719711873,19.451758975660848,40.12629704108479,-20.674538065423942,-0.04410080883751391,0.0,-0.04410080883751391
0.5480000000000004,move_to_zero,-0.06163484439594748,-3.1990296350181993,3.1373947906222517,-55.61681475678966,-67.06299104670468,11.446176289915023,56.46730522951562,65.39682977840847,-8.929524548892857,19.3657239574559,40.071178501193195,-20.705454543737297,-0.0441766951030084,0.0,-0.0441766951030084
0.5500000000000004,move_to_zero,-0.06152186849032218,-3.194629319151599,3.1331074506612766,-55.536315580606015,-66.97074484168859,11.43442926108257,56.35925271100613,65.30687540457298,-8.94762269356685,19.27974558753746,40.01605996130159,-20.736314373764134,-0.04425109101959046,0.0,-0.04425109101959046
0.5520000000000004,move_to_zero,-0.061411156427528625,-3.190229003284999,3.12881784685747,-55.45578511059553,-66.87849863667249,11.422713526076961,56.25133563015959,65.21692103073748,-8.965585400577893,19.1938601328143,39.96094142140999,-20.76708128859569,-0.04432363993224627,0.0,-0.04432363993224627
0.5540000000000004,move_to_zero,-0.061302014176303196,-3.1858286874183985,3.1245266732420953,-55.37521159898043,-66.78625243165638,11.411040832675951,56.143529857043525,65.12696665690197,-8.983436799858445,19.10807069215861,39.90582288151839,-20.79775218935978,-0.044394501731060805,0.0,-0.044394501731060805
0.5560000000000004,move_to_zero,-0.06119641520693273,-3.1814283715517995,3.120231956344867,-55.294582003102306,-66.69400622664028,11.399424223537977,56.03582498126869,65.03701228306649,-9.001187301797799,19.02237441214685,39.850704341626795,-20.828329929479946,-0.04446409184655854,0.0,-0.04446409184655854
0.5580000000000004,move_to_zero,-0.061093239156171285,-3.1770280556851986,3.1159348165290273,-55.21391210913584,-66.60176002162417,11.387847912488333,55.928206931556645,64.94705790923096,-9.018850977674319,18.936781177667864,39.795585801735186,-20.85880462406732,-0.044532107367407425,0.0,-0.044532107367407425
0.5600000000000004,move_to_zero,-0.060992608804191425,-3.172627739818599,3.111635131014408,-55.13321325818782,-66.50951381660808,11.376300558420255,55.82067123325072,64.85710353539548,-9.03643230214476,18.851312894337326,39.7404672618436,-20.889154367506272,-0.04460017866378428,0.0,-0.04460017866378428
0.5620000000000004,move_to_zero,-0.06089313924658731,-3.1682274239519987,3.1073342847054115,-55.05249159272261,-66.41726761159198,11.364776018869371,55.713225761889916,64.76714916155997,-9.053923399670055,18.765949357323873,39.68534872195198,-20.91939936462811,-0.04467061200939805,0.0,-0.04467061200939805
0.5640000000000004,move_to_zero,-0.06079504062901922,-3.1638271080853992,3.10303206745638,-54.97175002291585,-66.3250214065759,11.35327138366005,55.60586008903554,64.67719478772447,-9.071334698688936,18.680696328127404,39.630230182060394,-20.94953385393299,-0.044745792030583736,0.0,-0.044745792030583736
0.5660000000000004,move_to_zero,-0.06069952901900525,-3.159426792218799,3.0987272631997937,-54.89099555697268,-66.23277520155978,11.341779644587092,55.49856706945601,64.58724041388896,-9.088673344432955,18.59554035304989,39.575111642168785,-20.979571289118894,-0.044826312039427336,0.0,-0.044826312039427336
0.5680000000000004,move_to_zero,-0.06060609509872652,-3.155026476352199,3.0944203812534723,-54.81022017839689,-66.1405289965437,11.330308818146804,55.39134952668435,64.49728604005348,-9.10593651336913,18.51046964206307,39.51999310227719,-21.00952346021412,-0.04491162875693948,0.0,-0.04491162875693948
0.5700000000000004,move_to_zero,-0.06051384773314407,-3.1506261604855985,3.0901123127524546,-54.72945246267951,-66.04828279152757,11.318830328848058,55.28422215339983,64.40733166621797,-9.12310951281814,18.425481349381784,39.46487456238559,-21.039393213003805,-0.04500119814702176,0.0,-0.04500119814702176
0.5720000000000004,move_to_zero,-0.060421482963859185,-3.1462258446189995,3.08580436165514,-54.64868826699684,-65.95603658651149,11.307348319514645,55.177191983923244,64.31737729238247,-9.14018530845923,18.340581384433708,39.409756022493994,-21.069174638060286,-0.04509136498803018,0.0,-0.04509136498803018
0.5740000000000004,move_to_zero,-0.06032916414551988,-3.141825528752399,3.0814963646068794,-54.56790772003327,-65.86379038149538,11.295882661462109,55.070252884814934,64.22742291854698,-9.157170033732044,18.255775144804254,39.354637482602385,-21.09886233779813,-0.04518255038037417,0.0,-0.04518255038037417
0.5760000000000004,move_to_zero,-0.06023612351376975,-3.137425212885799,3.0771890893720295,-54.487129248407605,-65.7715441764793,11.28441492807169,54.9634091327782,64.13746854471148,-9.174059411933278,18.17107262343784,39.29951894271079,-21.12844631927295,-0.04527317550802646,0.0,-0.04527317550802646
0.5780000000000004,move_to_zero,-0.06014269575488043,-3.1330248970191987,3.0728822012643184,-54.40634220742607,-65.67929797146319,11.272955764037114,54.85664417657608,64.04751417087597,-9.190869994299888,18.086479970630542,39.24440040281919,-21.157920432188646,-0.045366101909816506,0.0,-0.045366101909816506
0.5800000000000004,move_to_zero,-0.060049747759062584,-3.1286245811525992,3.0685748333935368,-54.32553214676472,-65.58705176644709,11.261519619682367,54.74992774834445,63.95755979704048,-9.207632048696034,18.002013151697707,39.189281862927594,-21.187268711229887,-0.04546019168538753,0.0,-0.04546019168538753
0.5820000000000004,move_to_zero,-0.05995824896868075,-3.1242242652859984,3.0642660163173177,-54.24471120109526,-65.49480556143098,11.250094360335723,54.6432851933454,63.867605423204964,-9.224320229859565,17.917661053197758,39.134163323035985,-21.216502269838227,-0.04555522683778742,0.0,-0.04555522683778742
0.5840000000000004,move_to_zero,-0.05986907060489598,-3.119823949419399,3.059954878814503,-54.163866369874036,-65.40255935641488,11.238692986540848,54.53673112499249,63.777651049369474,-9.240919924376982,17.833414798802668,39.0790447831444,-21.24562998434173,-0.04565257503923277,0.0,-0.04565257503923277
0.5860000000000004,move_to_zero,-0.059780681574995255,-3.1154236335527985,3.0556429519778034,-54.08298918724443,-65.31031315139877,11.227323964154344,54.43027317039427,63.68769667553397,-9.257423505139698,17.749264313552302,39.02392624325278,-21.27466192970048,-0.04575082533330708,0.0,-0.04575082533330708
0.5880000000000004,move_to_zero,-0.059694501562396314,-3.1110233176861994,3.051328816123803,-54.00206801827005,-65.21806694638268,11.215998928112626,54.32389260507479,63.597742301698474,-9.273849696623685,17.6652495265472,38.96880770336119,-21.303558176813993,-0.045848440523527954,0.0,-0.045848440523527954
0.5900000000000004,move_to_zero,-0.05960934815481811,-3.1066230018195986,3.0470136536647807,-53.92108150123022,-65.12582074136658,11.204739240136362,54.21758776632971,63.50778792786297,-9.290200161533264,17.581353990504873,38.913689163469584,-21.33233517296471,-0.045943722207980583,0.0,-0.045943722207980583
0.5920000000000004,move_to_zero,-0.05952562908218182,-3.102222685952999,3.0426970568708174,-53.84004488208819,-65.03357453635049,11.193529654262292,54.11136649654484,63.41783355402748,-9.306467057482642,17.49758338005837,38.858570623578,-21.360987243519627,-0.04603762439237796,0.0,-0.04603762439237796
0.5940000000000004,move_to_zero,-0.059443941898016564,-3.0978223700863987,3.0383784281883823,-53.75895780336763,-64.94132833133438,11.182370527966746,54.00522218230623,63.32787918019197,-9.322656997885744,17.41395887024748,38.80345208368639,-21.389493213438907,-0.046128069804918306,0.0,-0.046128069804918306
0.5960000000000004,move_to_zero,-0.05936354845884673,-3.093422054219799,3.0340585057609526,-53.677812773889016,-64.84908212631828,11.171269352429263,53.89915179429875,63.23792480635648,-9.338773012057729,17.330498218341248,38.74833354379479,-21.417835325453545,-0.0462153970629948,0.0,-0.0462153970629948
0.5980000000000004,move_to_zero,-0.05928332325014209,-3.0890217383531984,3.0297384151030564,-53.59662430201162,-64.75683592130217,11.16021161929055,53.793123330000704,63.147970432520964,-9.35484710252026,17.247221685464293,38.693215003903184,-21.44599331843889,-0.04630015968463006,0.0,-0.04630015968463006
0.6000000000000004,move_to_zero,-0.059204807285511064,-3.0846214224865993,3.025416615201088,-53.51541102083438,-64.66458971628607,11.149178695451695,53.687120167438486,63.05801605868548,-9.370895891246995,17.16412659670188,38.63809646401159,-21.47396986730971,-0.04638109973871811,0.0,-0.04638109973871811
0.6020000000000004,move_to_zero,-0.059126986861590236,-3.0802211066199985,3.0210941197584082,-53.434189736558004,-64.57234351126998,11.138153774711974,53.58112612603084,62.968061684849964,-9.386935558819125,17.08122591324173,38.58297792411999,-21.501752010878256,-0.04645794149840704,0.0,-0.04645794149840704
0.6040000000000004,move_to_zero,-0.05904793600022355,-3.075820790753399,3.0167728547531754,-53.352974468716994,-64.4800973062539,11.127122837536902,53.47514179573508,62.878107311014475,-9.402965515279398,16.998523223265302,38.52785938422839,-21.52933616096309,-0.046528186736681014,0.0,-0.046528186736681014
0.6060000000000004,move_to_zero,-0.058967030439851,-3.0714204748867986,3.0124534444469475,-53.271778185715036,-64.38785110123777,11.116072915522736,53.36917922425394,62.78815293717897,-9.41897371292503,16.91600638889856,38.47274084433679,-21.55673445543823,-0.04659269105676951,0.0,-0.04659269105676951
0.6080000000000004,move_to_zero,-0.058884532233035594,-3.067020159020199,3.0081356267871633,-53.190604561755116,-64.29560489622169,11.105000334466574,53.263261192992694,62.698198563343475,-9.43493737035078,16.83367941220344,38.417622304445196,-21.583942892241755,-0.04665289210251657,0.0,-0.04665289210251657
0.6100000000000004,move_to_zero,-0.05880224096908685,-3.0626198431535987,3.0038176021845118,-53.109441547737504,-64.20335869120557,11.093917143468062,53.15739585613938,62.60824418950797,-9.45084833336859,16.751532476986046,38.36250376455359,-21.61097128756754,-0.04670966659240698,0.0,-0.04670966659240698
0.6120000000000004,move_to_zero,-0.05872035331259295,-3.0582195272869988,2.9994991739744057,-53.028303526832815,-64.11111248618948,11.082808959356669,53.05158804029826,62.51828981567248,-9.466701775374219,16.66953557616574,38.30738522466199,-21.637849648496253,-0.046763424371110196,0.0,-0.046763424371110196
0.6140000000000004,move_to_zero,-0.05863933803253472,-3.0538192114203984,2.9951798733878636,-52.947185682407714,-64.01886628117337,11.07168059876566,52.94581525243379,62.42833544183697,-9.482520189403182,16.58770115666042,38.25226668477038,-21.664565528109964,-0.04681411129068411,0.0,-0.04681411129068411
0.6160000000000004,move_to_zero,-0.05856070793015832,-3.0494188955537993,2.990858187623641,-52.8661050146655,-63.926620076157285,11.060515061491785,52.84007953369433,62.33838106800148,-9.498301534307153,16.506016671181712,38.197148144878796,-21.691131473697084,-0.04686132109230633,0.0,-0.04686132109230633
0.6180000000000004,move_to_zero,-0.05848316491283468,-3.045018579687199,2.986535414774364,-52.78504074488593,-63.83437387114118,11.049333126255249,52.73437003426406,62.248426694165964,-9.514056659901904,16.424467687655113,38.14202960498719,-21.717561917332073,-0.04690326830443945,0.0,-0.04690326830443945
0.6200000000000004,move_to_zero,-0.05840559100454598,-3.040618263820599,2.982212672816053,-52.7039968366246,-63.742127666125086,11.038130829500489,52.62869556008639,62.15847232033048,-9.52977676024409,16.343069090837243,38.08691106509559,-21.74384197425835,-0.0469390671228028,0.0,-0.0469390671228028
0.6220000000000004,move_to_zero,-0.05832787429936571,-3.0362179479539986,2.977890073654633,-52.622972616915014,-63.649881461108976,11.026908844193962,52.52305202083452,62.068517946494964,-9.545465925660444,16.261838109011343,38.03179252520398,-21.76995441619264,-0.046969993213616126,0.0,-0.046969993213616126
0.6240000000000004,move_to_zero,-0.05825046989569497,-3.031817632087399,2.973567162191704,-52.541956552661645,-63.55763525609289,11.015678703431242,52.417431484019474,61.978563572659475,-9.56113208864,16.180772339506408,37.97667398531239,-21.79590164580598,-0.04699314199431531,0.0,-0.04699314199431531
0.6260000000000004,move_to_zero,-0.058174965831057204,-3.0274173162207987,2.9692423503897416,-52.46096068895477,-63.46538905107678,11.004428362122006,52.31182413097021,61.888609198823964,-9.576785067853756,16.09990693203187,37.921555445420786,-21.821648513388915,-0.04700915032100214,0.0,-0.04700915032100214
0.6280000000000004,move_to_zero,-0.058102331350440156,-3.0230170003541987,2.9649146690037584,-52.3799842085178,-63.37314284606068,10.993158637542884,52.20623131316636,61.798654824988475,-9.592423511822112,16.019268465051944,37.86643690552919,-21.847168440477247,-0.04702000610620147,0.0,-0.04702000610620147
0.6300000000000004,move_to_zero,-0.05803196581747846,-3.0186166844875983,2.9605847186701197,-52.29904214713323,-63.28089664104458,10.98185449391135,52.10065017039575,61.70870045115297,-9.608050280757219,15.93885217376534,37.81131836563759,-21.87246619187225,-0.04702986253460487,0.0,-0.04702986253460487
0.6320000000000005,move_to_zero,-0.057963140789906074,-3.0142163686209993,2.9562532278310933,-52.21813990504384,-63.18865043602848,10.97051053098464,51.99505890448357,61.618746077317475,-9.623687172833904,15.858680835002458,37.756199825745995,-21.897518990743535,-0.04703795503986953,0.0,-0.04703795503986953
0.6340000000000005,move_to_zero,-0.05789437814474855,-3.009816052754399,2.9519216746096504,-52.13728666532921,-63.09640423101237,10.959117565683158,51.88946504958898,61.52879170348197,-9.639326653892994,15.778747846331923,37.701081285854386,-21.92233343952246,-0.047044190425765936,0.0,-0.047044190425765936
0.6360000000000005,move_to_zero,-0.05782599246524049,-3.005415736887799,2.9475897444225585,-52.0564687386775,-63.00415802599628,10.94768928731878,51.78386440433639,61.43883732964648,-9.65497292531009,15.699048023204638,37.64596274596279,-21.94691472275815,-0.04704882891319539,0.0,-0.04704882891319539
0.6380000000000005,move_to_zero,-0.05775917207750133,-3.0010154210211986,2.943256248943697,-51.97569364471343,-62.91191182098017,10.936218176266742,51.67825400297039,61.348882955810964,-9.670628952840573,15.619571025751155,37.59084420607118,-21.971273180320026,-0.04705182694828643,0.0,-0.04705182694828643
0.6400000000000005,move_to_zero,-0.05769185200507974,-2.996615105154599,2.9389232531495195,-51.89494587508297,-62.81966561596408,10.924719740881109,51.57263355108113,61.25892858197548,-9.68629503089435,15.540313313591039,37.535725666179594,-21.995412352588556,-0.04704955605161697,0.0,-0.04704955605161697
0.6420000000000005,move_to_zero,-0.05762459024427149,-2.9922147892879987,2.9345901990437273,-51.81422445517766,-62.727419410947974,10.913194955770315,51.46700144363945,61.168974208139964,-9.701972764500518,15.461294279510016,37.480607126287985,-22.01931284677797,-0.047042642539793095,0.0,-0.047042642539793095
0.6440000000000005,move_to_zero,-0.05755867161555517,-2.987814473421399,2.9302558018058438,-51.73352134418321,-62.63517320593189,10.901651861748682,51.361339004464206,61.079019834304475,-9.717680829840269,15.382539513888151,37.42548858639639,-22.04294907250824,-0.047032109313078684,0.0,-0.047032109313078684
0.6460000000000005,move_to_zero,-0.05749324325650051,-2.9834141575547983,2.925920914298298,-51.65282044113912,-62.54292700091577,10.890106559776648,51.25562823793936,60.989065460468964,-9.733437222529602,15.304040235709051,37.37037004650478,-22.06632981079573,-0.04702044716219659,0.0,-0.04702044716219659
0.6480000000000005,move_to_zero,-0.05742870534050567,-2.9790138416881993,2.9215851363476935,-51.572128107224955,-62.450680795899686,10.87855268867473,51.149860145673074,60.899111086633475,-9.749250940960401,15.225787680027869,37.31525150661319,-22.089463826585316,-0.04700860396479487,0.0,-0.04700860396479487
0.6500000000000005,move_to_zero,-0.05736370294056293,-2.9746135258215984,2.9172498228810353,-51.491472097573414,-62.35843459088357,10.866962493310155,51.04403599716759,60.80915671279797,-9.765120715630381,15.147773076430816,37.260132966721585,-22.11235989029077,-0.04699537704223768,0.0,-0.04699537704223768
