GerardoFJ/TE3001B_TEAM_3/src/s0s1_gazebo/scripts/results/PI3/state.csv
t,phase,shoulder_pan_actual_deg,shoulder_pan_desired_deg,shoulder_pan_error_deg,shoulder_lift_actual_deg,shoulder_lift_desired_deg,shoulder_lift_error_deg,elbow_flex_actual_deg,elbow_flex_desired_deg,elbow_flex_error_deg,wrist_flex_actual_deg,wrist_flex_desired_deg,wrist_flex_error_deg,wrist_roll_actual_deg,wrist_roll_desired_deg,wrist_roll_error_deg
0.002,move_to_zero,-4.376474382407018,-4.4003158666,0.02384148419298171,-92.21682027023317,-92.2462050161,0.02938474586683526,89.9402674989065,89.9543738355,-0.014106336593499691,55.09939055982472,55.1185398916,-0.019149331775281553,0.0017248340730163765,0.0,0.0017248340730163765
0.004,move_to_zero,-4.329775371551525,-4.3959155507334,0.06614017918187454,-92.15895084572311,-92.15395881108391,-0.0049920346392013926,89.91232988122228,89.86441946166448,0.047910419557794626,55.061776462161376,55.0634213517084,-0.0016448895470233538,0.004510212187552835,0.0,0.004510212187552835
0.006,move_to_zero,-4.261358331302803,-4.3915152348668,0.13015690356399645,-92.07356801794845,-92.0617126060678,-0.011855411880645761,89.87088608670675,89.77446508782899,0.09642099887776112,55.006362673627905,55.008302811816804,-0.0019401381888997093,0.007683834663916791,0.0,0.007683834663916791
0.008,move_to_zero,-4.172476384793199,-4.3871149190002,0.21463853420700119,-91.96173934954476,-91.9694664010517,0.007727051506947191,89.81628060330556,89.68451071399349,0.1317698893120678,54.93382588523267,54.953184271925196,-0.019358386692523766,0.01068412597459954,0.0,0.01068412597459954
0.01,move_to_zero,-4.064461939713832,-4.382714603133599,0.3182526634197673,-91.82460488140616,-91.8772201960356,0.052615314629434806,89.74888149313716,89.594556340158,0.15432515297916893,54.84486890390486,54.8980657320336,-0.05319682812874049,0.013120109933620758,0.0,0.013120109933620758
0.012,move_to_zero,-3.9387338226172615,-4.378314287266999,0.43958046464973766,-91.66333743200065,-91.7849739910195,0.12163655901885306,89.66907688450866,89.50460196632248,0.16447491818617266,54.74021554227829,54.842947192142,-0.10273164986370631,0.015068407962898359,0.0,0.015068407962898359
0.014,move_to_zero,-3.796761079655216,-4.373913971400399,0.5771528917451834,-91.47915359221219,-91.69272778600339,0.21357419379120302,89.57728793989531,89.41464759248699,0.16264034740832756,54.62057671682818,54.787828652250404,-0.16725193542222172,0.01659805153918579,0.0,0.01659805153918579
0.016,move_to_zero,-3.640082012484985,-4.369513655533799,0.7294316430488141,-91.27328330399455,-91.6004815809873,0.3271982769927604,89.47393668299414,89.32469321865149,0.14924346434264635,54.48667641973554,54.7327101123588,-0.24603369262326424,0.017745964246111953,0.0,0.017745964246111953
0.018000000000000002,move_to_zero,-3.4702515813193866,-4.3651133396672,0.8948617583478136,-91.04700271801725,-91.5082353759712,0.46123265795394275,89.35947079131286,89.234738844816,0.12473194649686548,54.33922596102363,54.6775915724672,-0.3383656114435709,0.018409211644272158,0.0,0.018409211644272158
0.020000000000000004,move_to_zero,-3.2888760939251878,-4.3607130238006,1.0718369298754125,-90.80163272256874,-91.4159891709551,0.6143564483863599,89.23437882505314,89.1447844709805,0.08959435407264493,54.17895445627893,54.6224730325756,-0.44351857629666824,0.018555435552669756,0.0,0.018555435552669756
0.022000000000000006,move_to_zero,-3.0975973388855467,-4.356312707934,1.2587153690484536,-90.53851230810936,-91.323742965939,0.7852306578296435,89.09914195641755,89.05483009714499,0.0443118592725682,54.00655789823534,54.567354492684,-0.5607965944486537,0.018238356447342015,0.0,0.018238356447342015
0.024000000000000007,move_to_zero,-2.898040099146883,-4.351912392067399,1.4538722929205163,-90.25901972576263,-91.2314967609229,0.9724770351602672,88.95426009517038,88.96487572330949,-0.010615628139106548,53.82274714452132,54.5122359527924,-0.6894888082710793,0.017535405691898688,0.0,0.017535405691898688
0.02600000000000001,move_to_zero,-2.6918423755655785,-4.3475120762007995,1.655669700635221,-89.96450689075336,-91.1392505559068,1.1747436651534429,88.80026130936677,88.874921349474,-0.0746600401072186,53.62821017204729,54.4571174129008,-0.8289072408535105,0.016584992039219818,0.0,0.016584992039219818
0.02800000000000001,move_to_zero,-2.480602271038306,-4.3431117603341995,1.8625094892958933,-89.65635559945294,-91.0470043508907,1.390648751437766,88.63767061850835,88.78496697563848,-0.14729635713013067,53.4236401918889,54.401998873009205,-0.9783586811203051,0.01553202381649771,0.0,0.01553202381649771
0.030000000000000013,move_to_zero,-2.265929514509347,-4.3387114444676,2.0727819299582526,-89.33594096367858,-90.9547581458746,1.6188171821960253,88.46701715158486,88.695012601803,-0.22799545021814538,53.209734460168455,54.3468803331176,-1.137145872949148,0.01451449023765194,0.0,0.01451449023765194
0.032000000000000015,move_to_zero,-2.0493701579512558,-4.334311128601,2.284940970649744,-89.00463792616142,-90.8625119408585,1.8578740146970745,88.28885523196737,88.60505822796749,-0.3162029960001149,52.98716160943112,54.291761793225994,-1.304600183794875,0.013632941429041706,0.0,0.013632941429041706
0.034000000000000016,move_to_zero,-1.8324286609525264,-4.3299108127344,2.497482151781873,-88.66382659233395,-90.7702657358424,2.106439143508453,88.10370422992213,88.51510385413198,-0.41139962420984943,52.75657867851127,54.2366432533344,-1.4800645748231318,0.012887955329067965,0.0,0.012887955329067965
0.03600000000000002,move_to_zero,-1.6165269637092055,-4.3255104968678,2.7089835331585945,-88.31485893321634,-90.67801953082629,2.363160597609948,87.91210223300611,88.4251494802965,-0.5130472472903875,52.51863813684667,54.1815247134428,-1.6628865765961294,0.012258684068874386,0.0,0.012258684068874386
0.03800000000000002,move_to_zero,-1.4030601517019006,-4.3211101810012,2.918050029299299,-87.95904388793876,-90.5857733258102,2.6267294378714325,87.71460095470994,88.33519510646099,-0.6205941517510496,52.27396019084928,54.1264061735512,-1.8524459827019228,0.011726047254165406,0.0,0.011726047254165406
0.04000000000000002,move_to_zero,-1.1933645011948704,-4.316709865134599,3.1233453639397286,-87.5976714621492,-90.4935271207941,2.895855658644905,87.51173108153296,88.24524073262549,-0.7335096510925325,52.02318474287733,54.0712876336596,-2.0481028907822676,0.011273957779238182,0.0,0.011273957779238182
0.04200000000000002,move_to_zero,-0.9886916027370465,-4.312309549267999,3.3236179465309528,-87.2320062415927,-90.401280915778,3.169274674185303,87.30400771351417,88.15528635879,-0.8512786452758263,51.76690668748907,54.016169093768006,-2.2492624062789375,0.010888773391970205,0.0,0.010888773391970205
0.044000000000000025,move_to_zero,-0.7901889812569274,-4.307909233401399,3.5177202521444717,-86.86330603647568,-90.3090347107619,3.4457286742862294,87.09197749530821,88.06533198495448,-0.9733544896462689,51.50571017139734,53.9610505538764,-2.455340382479058,0.01055936808208493,0.0,0.01055936808208493
0.04600000000000003,move_to_zero,-0.5989509376099307,-4.3035089175348,3.7045579799248696,-86.49274798897062,-90.2167885057458,3.724040516775176,86.87618472220684,87.97537761111899,-1.0991928889121425,51.240175353953354,53.905932013984796,-2.665756660031441,0.010274474985904225,0.0,0.010274474985904225
0.04800000000000003,move_to_zero,-0.4159706601256316,-4.2991086016682,3.8831379415425684,-86.1214702746747,-90.1245423007297,4.003072026054994,86.65713991429857,87.88542323728349,-1.2282833229849217,50.97086901660997,53.8508134740932,-2.8799444574832336,0.010023719788583681,0.0,0.010023719788583681
0.05000000000000003,move_to_zero,-0.2454876384818192,-4.2947082858016,4.049220647319781,-85.7505665800998,-90.03229609571359,4.28172951561379,86.43534627217504,87.795468863448,-1.3601225912729547,50.698354312260875,53.7956949342016,-3.097340621940724,0.009799218120233131,0.0,0.009799218120233131
0.05200000000000003,move_to_zero,-0.1073681860241846,-4.290307969935,4.182939783910816,-85.38110813696292,-89.9400498906975,4.558941753734572,86.21129228711898,87.70551448961248,-1.4942222024935035,50.4231453503071,53.740576394310004,-3.317431044002902,0.009591822809043367,0.0,0.009591822809043367
0.054000000000000034,move_to_zero,-0.012281357482251936,-4.285907654068399,4.273626296586148,-85.01408604677445,-89.8478036856814,4.833717638906947,85.98545198941692,87.61556011577699,-1.6301081263600707,50.145740203038464,53.6854578544184,-3.539717651379938,0.00939618756684943,0.0,0.00939618756684943
0.056000000000000036,move_to_zero,0.036277660519447766,-4.281507338201799,4.3177849987212475,-84.65047109038287,-89.7555574806653,5.1050863902824375,85.7582939391731,87.52560574194149,-1.7673118027683898,49.86661645359826,53.6303393145268,-3.7637228609285387,0.009209427924832985,0.0,0.009209427924832985
0.05800000000000004,move_to_zero,0.04171796561330839,-4.2771070223351995,4.318824987948508,-84.29119358778274,-89.66331127564919,5.372117687866449,85.53028882274083,87.43565136810598,-1.9053625453651506,49.58625699505918,53.5752207746352,-3.988963779576018,0.009028639749440197,0.0,0.009028639749440197
0.06000000000000004,move_to_zero,0.012409330558002498,-4.2727067064685995,4.285116037026602,-83.93710074336859,-89.5710650706331,5.633964327264508,85.30187842725671,87.3456969942705,-2.043818567013787,49.30514151954215,53.5201022347436,-4.21496071520145,0.008852242477210765,0.0,0.008852242477210765
0.06200000000000004,move_to_zero,-0.040438104744391835,-4.268306390602,4.227868285857608,-83.58899743793108,-89.478818865617,5.889821427685916,85.07349304636425,87.25574262043499,-2.182249574070738,49.02372524370905,53.464983694852,-4.44125845114295,0.008679375146331719,0.0,0.008679375146331719
0.06400000000000004,move_to_zero,-0.10484412383976216,-4.2639060747354,4.159061950895637,-83.2476365542223,-89.38657266060089,6.138936106378594,84.84554440199814,87.16578824659948,-2.320243844601336,48.74242680694438,53.4098651549604,-4.66743834801602,0.008510848861747355,0.0,0.008510848861747355
0.06600000000000004,move_to_zero,-0.16991261242281666,-4.2595057588688,4.089593146445983,-82.91371418622076,-89.29432645558481,6.38061226936405,84.61844141464962,87.075833872764,-2.45739245811437,48.46167912480595,53.354746615068805,-4.893067490262858,0.008347056037397278,0.0,0.008347056037397278
0.06800000000000005,move_to_zero,-0.23508231803945823,-4.2551054430022,4.020023124962742,-82.5878921738326,-89.2020802505687,6.614188076736099,84.39257154538316,86.98587949892848,-2.5933079535453203,48.18188385094415,53.299628075177196,-5.117744224233043,0.008186817189621973,0.0,0.008186817189621973
0.07000000000000005,move_to_zero,-0.2998138210604,-4.250705127135599,3.950891306075199,-82.27077012026096,-89.1098340455526,6.83906392529164,84.16827098682548,86.89592512509299,-2.7276541382675106,47.9034310923465,53.2445095352856,-5.3410784429391,0.008026191433871906,0.0,0.008026191433871906
0.07200000000000005,move_to_zero,-0.36360111186730826,-4.246304811268999,3.8827036994016906,-81.96289612823003,-89.01758784053649,7.0546917123064645,83.94585362311506,86.80597075125749,-2.8601171281424342,47.62668416189341,53.189390995394,-5.562706833500592,0.007863702050723821,0.0,0.007863702050723821
0.07400000000000005,move_to_zero,-0.42597592384663063,-4.241904495402399,3.8159285715557685,-81.66474921750661,-88.9253416355204,7.260592418013786,83.72562218952618,86.71601637742198,-2.9903941878958022,47.35198075684708,53.1342724555024,-5.782291698655321,0.007696611652699903,0.0,0.007696611652699903
0.07600000000000005,move_to_zero,-0.4864913624760704,-4.2375041795358,3.7510128170597294,-81.37674128138647,-88.83309543050429,7.456354149117814,83.50788456761283,86.62606200358648,-3.1181774359736494,47.07962635368513,53.0791539156108,-5.9995275619256745,0.007523300411968143,0.0,0.007523300411968143
0.07800000000000006,move_to_zero,-0.5447505960258011,-4.2331038636692,3.6883532676433988,-81.09922358950271,-88.74084922548819,7.641625635985477,83.29291238598762,86.53610762975099,-3.243195243763367,46.8099306293387,53.0240353757192,-6.2141047463804995,0.0073441162866489645,0.0,0.0073441162866489645
0.08000000000000006,move_to_zero,-0.6003948984748582,-4.2287035478026,3.628308649327742,-80.83248296504277,-88.6486030204721,7.816120055429323,83.08096615690849,86.44615325591549,-3.3651870990070023,46.54317888888232,52.9689168358276,-6.425737946945276,0.007156622267049011,0.0,0.007156622267049011
0.08200000000000006,move_to_zero,-0.6530670623378078,-4.224303231936,3.5712361695981922,-80.5767668272921,-88.556356815456,7.9795899881638945,82.8722899628278,86.35619888207998,-3.483908919252187,46.279635008866684,52.913798295936,-6.634163287069313,0.006963059813509254,0.0,0.006963059813509254
0.08400000000000006,move_to_zero,-0.7024861177106219,-4.219902916069399,3.517416798358777,-80.33227532280675,-88.4641106104399,8.131835287633152,82.66708537854237,86.26624450824448,-3.599159129702116,46.0195029208873,52.858679756044396,-6.839176835157097,0.006759167612198344,0.0,0.006759167612198344
0.08600000000000006,move_to_zero,-0.7483722380168538,-4.215502600202799,3.4671303621859453,-80.09916617911007,-88.37186440542379,8.272698226313722,82.46554464796124,86.17629013440899,-3.710745486447749,45.763037431044424,52.8035612161528,-7.040523785108377,0.0065394495254050885,0.0,0.0065394495254050885
0.08800000000000006,move_to_zero,-0.7904821760493934,-4.211102284336199,3.4206201082868057,-79.8775304007562,-88.2796182004077,8.402087799651497,82.26786185538123,86.08633576057349,-3.8184739051922634,45.51046500449628,52.7484426762612,-7.2379776717649165,0.006302632471459405,0.0,0.006302632471459405
0.09000000000000007,move_to_zero,-0.828600086807167,-4.206701968469599,3.3781018816624324,-79.66742064475257,-88.18737199539159,8.519951350639019,82.07421705970081,85.996381386738,-3.92216432703718,45.26196764094476,52.693324136369604,-7.4313564954248434,0.0060444951093753755,0.0,0.0060444951093753755
0.09200000000000007,move_to_zero,-0.8625719060365632,-4.2023016526029995,3.3397297465664364,-79.46880831657849,-88.0951257903755,8.626317473797016,81.88477168135425,85.90642701290248,-4.0216553315482315,45.0177232402675,52.638205596477995,-7.620482356210495,0.005778733419169105,0.0,0.005778733419169105
0.09400000000000007,move_to_zero,-0.892296121110447,-4.1979013367363995,3.3056052156259526,-79.2816409800175,-88.0028795853594,8.721238605341895,81.69964952587631,85.81647263906699,-4.1168231131906765,44.77790430594212,52.5830870565864,-7.805182750644278,0.005488008139615456,0.0,0.005488008139615456
0.09600000000000007,move_to_zero,-0.9176694529651709,-4.1935010208698,3.275831567904629,-79.10581053000284,-87.9106333803433,8.804822850340457,81.51895987392422,85.72651826523149,-4.207558391307273,44.54266573780717,52.5279685166948,-7.985302778887629,0.0052030181811544545,0.0,0.0052030181811544545
0.09800000000000007,move_to_zero,-0.9386253873664129,-4.1891007050032,3.250475317636787,-78.94121388391854,-87.81838717532719,8.877173291408653,81.34281142007671,85.63656389139598,-4.293752471319266,44.31216183744675,52.4728499768032,-8.160688139356445,0.004930630544125444,0.0,0.004930630544125444
0.10000000000000007,move_to_zero,-0.9553462321231597,-4.184700389136599,3.229354157013439,-78.7876763055219,-87.72614097031109,8.938464664789194,81.17127015471404,85.5466095175605,-4.375339362846461,44.08651439643986,52.4177314369116,-8.331217040471742,0.0046681459967651065,0.0,0.0046681459967651065
0.10200000000000008,move_to_zero,-0.9683243551838756,-4.180300073269999,3.2119757180861233,-78.64499018462132,-87.633894765295,8.988904580673676,81.00438132712152,85.45665514372499,-4.452273816603466,43.86582445721236,52.36261289702,-8.496788439807638,0.00441564643784406,0.0,0.00441564643784406
0.10400000000000008,move_to_zero,-0.97754861553125,-4.1758997574034,3.1983511418721497,-78.51291785644472,-87.5416485602789,9.028730703834185,80.8421673082638,85.36670076988948,-4.52453346162568,43.650188912939356,52.3074943571284,-8.657305444189042,0.0041719707278406746,0.0,0.0041719707278406746
0.10600000000000008,move_to_zero,-0.9830381480545081,-4.1714994415368,3.188461293482292,-78.39118867969148,-87.4494023552628,9.058213675571324,80.68465127316034,85.276746396054,-4.592095122893653,43.439666701574474,52.252375817236796,-8.812709115662322,0.0039343334808050676,0.0,0.0039343334808050676
0.10800000000000008,move_to_zero,-0.9848211256840088,-4.1670991256702,3.182277999986191,-78.27951178707387,-87.3571561502467,9.077644363172823,80.5318444617304,85.18679202221848,-4.654947560488083,43.23435157441613,52.1972572773452,-8.96290570292907,0.0037003154200465696,0.0,0.0037003154200465696
0.11000000000000008,move_to_zero,-0.982959860052501,-4.1626988098036,3.179738949751099,-78.17755541899774,-87.2649099452306,9.087354526232858,80.3837234848383,85.09683764838299,-4.713114163544688,43.034308211081935,52.1421387374536,-9.107830526371664,0.003471563456858049,0.0,0.003471563456858049
0.11200000000000009,move_to_zero,-0.9775447450265962,-4.158298493937,3.180753748910404,-78.08497887785545,-87.17266374021449,9.08768486235904,80.24027025805925,85.00688327454749,-4.766613016488236,42.839561719428275,52.087020197562,-9.247458478133723,0.003244430755549698,0.0,0.003244430755549698
0.11400000000000009,move_to_zero,-0.968696832983624,-4.153898178070399,3.1852013450867753,-78.00138947544849,-87.0804175351984,9.079028059749902,80.10146426243648,84.91692890071198,-4.8154646382755,42.650147108255176,52.031901657670396,-9.38175454941522,0.003018585886971257,0.0,0.003018585886971257
0.11600000000000009,move_to_zero,-0.9565458992499039,-4.149497862203799,3.192951962953895,-77.92639586822106,-86.9881713301823,9.061775461961233,79.96723761184556,84.82697452687648,-4.859736915030922,42.4660873997331,51.976783117778794,-9.510695718045696,0.0027951796387001224,0.0,0.0027951796387001224
0.11800000000000009,move_to_zero,-0.9412497642319524,-4.145097546337199,3.203847782105247,-77.85959333638792,-86.8959251251662,9.036331788778284,79.8375216508014,84.73702015304099,-4.899498502239581,42.28739737596996,51.9216645778872,-9.63426720191724,0.0025724530439174003,0.0,0.0025724530439174003
0.12000000000000009,move_to_zero,-0.9229641383660805,-4.140697230470599,3.2177330921045186,-77.80055355148453,-86.80367892015009,9.003125368665565,79.7122418555789,84.64706577920549,-4.934823923626595,42.11407888141293,51.8665460379956,-9.752467156582668,0.0023491899355584543,0.0,0.0023491899355584543
0.1220000000000001,move_to_zero,-0.9018371011415683,-4.136296914603999,3.234459813462431,-77.74882142506165,-86.711432715134,8.962611290072346,79.59131498034417,84.55711140536998,-4.965796425025815,41.946094248821964,51.811427498104,-9.865333249282038,0.0021221837723435708,0.0,0.0021221837723435708
0.1240000000000001,move_to_zero,-0.8780768719055607,-4.1318965987373995,3.2538197268318387,-77.70392869986736,-86.6191865101179,8.915257810250537,79.47465426618653,84.46715703153448,-4.99250276534795,41.78341975747822,51.7563089582124,-9.97288920073418,0.0018565907512242486,0.0,0.0018565907512242486
0.12600000000000008,move_to_zero,-0.8518912210352579,-4.1274962828707995,3.2756050618355417,-77.66540378229098,-86.52694030510179,8.861536522810809,79.36218273738206,84.37720265769899,-5.015019920316931,41.62602669218202,51.70119041832079,-10.075163726138769,0.0015455284465239329,0.0,0.0015455284465239329
0.12800000000000009,move_to_zero,-0.8234877714573963,-4.1230959670042,3.2996081955468033,-77.6327765388166,-86.4346941000857,8.801917561269093,79.25377242923747,84.28724828386348,-5.033475854626005,41.473879035699305,51.6460718784292,-10.172192842729892,0.0011842878654146497,0.0,0.0011842878654146497
0.1300000000000001,move_to_zero,-0.7930656404246446,-4.118695651137599,3.3256300107129544,-77.60555500176999,-86.3424478950696,8.736892893299611,79.14929503119781,84.197293910028,-5.047998878830185,41.32693704428941,51.590953338537595,-10.264016294248187,0.0007921732180404934,0.0,0.0007921732180404934
0.1320000000000001,move_to_zero,-0.7608499998726548,-4.114295335270999,3.353445335398344,-77.58327856406355,-86.2502016900535,8.666923125989953,79.04860600417835,84.10733953619248,-5.058733532014131,41.185158266831266,51.535834798646,-10.350676531814734,0.0003874108202375907,0.0,0.0003874108202375907
0.1340000000000001,move_to_zero,-0.7270508863588815,-4.1098950194044,3.382844133045518,-77.56547011061882,-86.15795548503739,8.592485374418573,78.95156290573725,84.01738516235697,-5.065822256619725,41.048481517549284,51.4807162587544,-10.432234741205114,-5.0372714343947575e-06,0.0,-5.0372714343947575e-06
0.1360000000000001,move_to_zero,-0.6918812424291716,-4.1054947035378,3.4136134611086284,-77.55125718171863,-86.0657092800213,8.51445209830267,78.85798330178726,83.92743078852149,-5.069447486734234,40.9168127963513,51.425597718862804,-10.508784922511502,-0.00036339887856121376,0.0,-0.00036339887856121376
0.1380000000000001,move_to_zero,-0.6555965305056588,-4.1010943876712,3.445497857165541,-77.53993099610743,-85.97346307500518,8.433532078897755,78.76771419354245,83.83747641468598,-5.0697622211435345,40.79008857919514,51.370479178971195,-10.580390599776052,-0.0006942843650887876,0.0,-0.0006942843650887876
0.1400000000000001,move_to_zero,-0.6184391089474501,-4.0966940718046,3.4782549628571497,-77.53091533310548,-85.88121686998909,8.350301536883606,78.68059901251522,83.74752204085048,-5.0669230283352675,40.66824544365148,51.31536063907959,-10.647115195428114,-0.0010038607375048442,0.0,-0.0010038607375048442
0.1420000000000001,move_to_zero,-0.5806556790718892,-4.092293755938,3.511638076866111,-77.52377758033862,-85.788970664973,8.265193084634376,78.59650582448673,83.65756766701499,-5.061061842528261,40.55117197073193,51.260242099188,-10.70907012845607,-0.0012943868724609757,0.0,-0.0012943868724609757
0.1440000000000001,move_to_zero,-0.5424790157297432,-4.087893440071399,3.545414424341656,-77.51810436010466,-85.6967244599569,8.178620099852239,78.51528129695681,83.56761329317948,-5.052331996222662,40.438771901949444,51.205123559296396,-10.766351657346952,-0.0015705608842146942,0.0,-0.0015705608842146942
0.1460000000000001,move_to_zero,-0.5041253627476449,-4.083493124204799,3.579367761457154,-77.51359131693549,-85.6044782549408,8.090886938005312,78.43676766019831,83.47765891934398,-5.040891259145667,40.33094681939935,51.1500050194048,-10.81905820000545,-0.0018340996720915873,0.0,-0.0018340996720915873
0.1480000000000001,move_to_zero,-0.4657997595302437,-4.079092808338199,3.6132930488079555,-77.50999181170535,-85.51223204992469,8.002240238219343,78.36081269398947,83.38770454550848,-5.026891851519011,40.22760778622823,51.0948864795132,-10.867278693284966,-0.0020887285746256598,0.0,-0.0020887285746256598
0.1500000000000001,move_to_zero,-0.4277104485377127,-4.074692492471599,3.6469820439338867,-77.50710469790097,-85.4199858449086,7.912881147007624,78.28727667422255,83.29775017167299,-5.010473497450434,40.12863638620993,51.0397679396216,-10.911131553411671,-0.0023358050822498335,0.0,-0.0023358050822498335
0.1520000000000001,move_to_zero,-0.3900368768434063,-4.070292176604999,3.680255299761593,-77.50476729187797,-85.32773963989249,7.822972348014517,78.21600978204546,83.20779579783748,-4.991786015792016,40.03392182270822,50.984649399729996,-10.950727577021773,-0.0025773465747248796,0.0,-0.0025773465747248796
0.1540000000000001,move_to_zero,-0.3529704433561077,-4.065891860738399,3.7129214173822915,-77.50266748319672,-85.23549343487639,7.732825951679672,78.14684082505515,83.11784142400198,-4.97100059894683,39.943357712347876,50.929530859838394,-10.986173147490518,-0.0028297002606921333,0.0,-0.0028297002606921333
0.1560000000000001,move_to_zero,-0.3166794939751687,-4.061491544871799,3.7448120508966305,-77.50041048196032,-85.1432472298603,7.6428367478999775,78.07959620061656,83.02788705016648,-4.94829084954992,39.85680503562083,50.8744123199468,-11.017607284325969,-0.003106672596419012,0.0,-0.003106672596419012
0.1580000000000001,move_to_zero,-0.28131474172826043,-4.0570912290051995,3.7757764872769393,-77.49764619664647,-85.0510010248442,7.553354828197726,78.01411470605593,82.93793267633099,-4.923817970275053,39.77414783937925,50.8192937800552,-11.045145940675944,-0.0034155556820276594,0.0,-0.0034155556820276594
0.16000000000000011,move_to_zero,-0.24703406565296618,-4.052690913138599,3.8056568474856323,-77.49404474682623,-84.95875481982809,7.464710073001854,77.95022232426115,82.84797830249549,-4.897755978234343,39.69528755298597,50.7641752401636,-11.068887687177636,-0.003750692687477073,0.0,-0.003750692687477073
0.16200000000000012,move_to_zero,-0.21396895973177765,-4.048290597272,3.834321637540222,-77.4892745808237,-84.86650861481199,7.377234033988287,77.88776966193095,82.75802392865998,-4.8702542667290345,39.62012045145715,50.709056700271994,-11.088936248814846,-0.004115141237643051,0.0,-0.004115141237643051
0.16400000000000012,move_to_zero,-0.1851488810744929,-4.0438902814054,3.858741400330907,-77.48304093783095,-84.7742624097959,7.2912214719649455,77.8266194523557,82.66806955482448,-4.841450102468784,39.5485209298671,50.6539381603804,-11.105417230513297,-0.0045115160148428675,0.0,-0.0045115160148428675
0.16600000000000012,move_to_zero,-0.1626523330682757,-4.0394899655388,3.876837632470524,-77.47502345731338,-84.68201620477979,7.206992747466401,77.76658995634428,82.57811518098899,-4.811525224644711,39.48035989576119,50.5988196204888,-11.118459724727607,-0.004937181204037763,0.0,-0.004937181204037763
0.16800000000000012,move_to_zero,-0.14805419461724362,-4.0350896496722,3.887035455054956,-77.46494649313281,-84.5897699997637,7.124823506630889,77.70752382643451,82.48816080715348,-4.780636980718967,39.415483551590995,50.543701080597195,-11.1282175290062,-0.005346616346916459,0.0,-0.005346616346916459
0.17000000000000012,move_to_zero,-0.1415711408973416,-4.0306893338056,3.889118192908258,-77.452562056585,-84.4975237947476,7.044961738162598,77.64926364421417,82.398206433318,-4.748942789103822,39.35374815358446,50.4885825407056,-11.134834387121138,-0.005726415666763403,0.0,-0.005726415666763403
0.17200000000000013,move_to_zero,-0.14231806154187499,-4.026289017939,3.8839709563971248,-77.43764715527844,-84.4052775897315,6.967630434453056,77.59167955377899,82.30825205948248,-4.716572505703496,39.29501403994693,50.433464000814,-11.13844996086707,-0.0060716095132905615,0.0,-0.0060716095132905615
0.17400000000000013,move_to_zero,-0.14865444079124304,-4.021888702072399,3.873234261281156,-77.41999230078113,-84.31303138471539,6.893039083934255,77.53464577784052,82.21829768564697,-4.68365190780645,39.239132939286264,50.3783454609224,-11.139212521636132,-0.006389311971450052,0.0,-0.006389311971450052
0.17600000000000013,move_to_zero,-0.1585645321471829,-4.017488386205799,3.858923854058616,-77.39938749125635,-84.22078517969929,6.821397688442943,77.4780377249744,82.12834331181149,-4.650305586837092,39.185969726498946,50.323226921030795,-11.137257194531848,-0.006684630133517918,0.0,-0.006684630133517918
0.17800000000000013,move_to_zero,-0.16998181623684155,-4.013088070339199,3.8431062541023575,-77.37565381825556,-84.12853897468318,6.752885156427624,77.42173050106251,82.03838893797598,-4.616658436913468,39.13538973739053,50.2681083811392,-11.132718643748667,-0.006961644760735972,0.0,-0.006961644760735972
0.18000000000000013,move_to_zero,-0.18105460017346273,-4.008687754472599,3.8276331542991366,-77.34864669877616,-84.0362927696671,6.687646070890935,77.36560457051922,81.94843456414048,-4.58282999362126,39.08725082401813,50.2129898412476,-11.12573901722947,-0.007227097775888283,0.0,-0.007227097775888283
0.18200000000000013,move_to_zero,-0.1908368525359135,-4.004287438605999,3.813450586070086,-77.31822225264962,-83.944046564651,6.625824312001384,77.3095457087106,81.85848019030499,-4.548934481594387,39.04140932423821,50.157871301355996,-11.116461977117787,-0.007489821563461743,0.0,-0.007489821563461743
0.18400000000000014,move_to_zero,-0.19925794085114445,-3.9998871227393993,3.800629181888255,-77.28425043531904,-83.8518003596349,6.5675499243158555,77.25343354761466,81.76852581646948,-4.515092268854815,38.997732024150515,50.1027527614644,-11.105020737313886,-0.00774964790218291,0.0,-0.00774964790218291
0.18600000000000014,move_to_zero,-0.2062575381141518,-3.995486806872799,3.789229268758647,-77.24661298137306,-83.7595541546188,6.512941173245736,77.19714666859464,81.67857144263398,-4.48142477403934,38.956090302727645,50.04763422157279,-11.091543918845147,-0.008005279653301117,0.0,-0.008005279653301117
0.18800000000000014,move_to_zero,-0.2118605400669392,-3.991086491006199,3.7792259509392596,-77.20522930760505,-83.66730794960269,6.4620786419976355,77.14058809036855,81.58861706879848,-4.448028978429932,38.916358267065974,49.9925156816812,-11.076157414615224,-0.00825457426594954,0.0,-0.00825457426594954
0.19000000000000014,move_to_zero,-0.21632720647313544,-3.986686175139599,3.7703589686664634,-77.1600209905427,-83.57506174458659,6.415040754043886,77.08368179928284,81.49866269496299,-4.414980895680145,38.87841495227276,49.937397141789596,-11.058982189516833,-0.008498833684217116,0.0,-0.008498833684217116
0.19200000000000014,move_to_zero,-0.21986624915645905,-3.9822858592729995,3.7624196101165404,-77.11093283950261,-83.48281553957048,6.3718827000678715,77.02631161453368,81.40870832112748,-4.382396706593795,38.84213451565293,49.882278601897994,-11.040144086245064,-0.008766169123873277,0.0,-0.008766169123873277
0.19400000000000014,move_to_zero,-0.22253137511775936,-3.9778855434063995,3.75535416828864,-77.0579093012418,-83.3905693345544,6.332660033312592,76.96839308440467,81.31875394729198,-4.350360862887314,38.807388757838496,49.8271600620064,-11.019771304167904,-0.009024879705477124,0.0,-0.009024879705477124
0.19600000000000015,move_to_zero,-0.2242788952113013,-3.9734852275397996,3.749206332328498,-77.00093274997477,-83.29832312953829,6.297390379563524,76.90983867263779,81.22879957345648,-4.318960900818695,38.774038192235615,49.7720415221148,-10.998003329879182,-0.009276257110105945,0.0,-0.009276257110105945
0.19800000000000015,move_to_zero,-0.2250700816233845,-3.9690849116731997,3.744014830049815,-76.9399848349367,-83.2060769245222,6.266092089585499,76.85057051578414,81.13884519962097,-4.288274683836832,38.7419549089765,49.716922982223196,-10.974968073246693,-0.009520953972630865,0.0,-0.009520953972630865
0.20000000000000015,move_to_zero,-0.2248608187830253,-3.9646845958065993,3.739823777023574,-76.87507273679095,-83.1138307195061,6.238757982715143,76.79052228960859,81.04889082578549,-4.258368536176903,38.7110196092566,49.661804442331594,-10.95078483307499,-0.00976831397509669,0.0,-0.00976831397509669
0.20200000000000015,move_to_zero,-0.22362251345824002,-3.9602842799399993,3.736661766481759,-76.80622535572932,-83.02158451448999,6.215359158760663,76.72964283602032,80.95893645194998,-4.229293615929663,38.681083741589795,49.60668590244,-10.925602160850204,-0.010026693724868757,0.0,-0.010026693724868757
0.20400000000000015,move_to_zero,-0.22135492598471723,-3.9558839640733994,3.734529038088682,-76.7335172808576,-82.92933830947389,6.195821028616294,76.66787779243505,80.86898207811447,-4.2011042856794205,38.6520433516952,49.5515673625484,-10.899524010853199,-0.010289365708996365,0.0,-0.010289365708996365
0.20600000000000016,move_to_zero,-0.21805300615618248,-3.9514836482067994,3.733430642050617,-76.65698909303524,-82.8370921044578,6.18010301142256,76.60514494924408,80.77902770427899,-4.17388275503491,38.623782284850485,49.496448822656795,-10.87266653780631,-0.010547989327445186,0.0,-0.010547989327445186
0.20800000000000016,move_to_zero,-0.21369502087579334,-3.947083332340199,3.7333883114644055,-76.57669330196657,-82.7448458994417,6.168152597475128,76.54140570661698,80.68907333044348,-4.147667623826493,38.59619088449639,49.4413302827652,-10.845139398268813,-0.010799073579865572,0.0,-0.010799073579865572
0.21000000000000016,move_to_zero,-0.20829185336452596,-3.942683016473599,3.734391163109073,-76.49270026253606,-82.65259969442559,6.159899431889528,76.47664713665885,80.59911895660798,-4.122471819949126,38.56915400035935,49.38621174287359,-10.817057742514244,-0.011044508357335628,0.0,-0.011044508357335628
0.21200000000000016,move_to_zero,-0.20184185021554837,-3.938282700606999,3.7364408503914506,-76.40510467152137,-82.5603534894095,6.155248817888122,76.41085557772311,80.50916458277248,-4.098309005049373,38.54254845720234,49.331093202982,-10.78854474577966,-0.011288984501255123,0.0,-0.011288984501255123
0.21400000000000016,move_to_zero,-0.19435859015350435,-3.933882384740399,3.7395237945868947,-76.31399294991546,-82.46810728439338,6.154114334477924,76.34398258658334,80.41921020893697,-4.075227622353637,38.51625821406842,49.275974663090395,-10.759716449021973,-0.011530954324255136,0.0,-0.011530954324255136
0.21600000000000016,move_to_zero,-0.1868961903499231,-3.929482068873799,3.742585878523876,-76.2194642371321,-82.37586107937729,6.1563968422451865,76.27600792725487,80.32925583510148,-4.053247907846611,38.49018997743812,49.2208561231988,-10.73066614576068,-0.01178419457569437,0.0,-0.01178419457569437
0.21800000000000017,move_to_zero,-0.18036220905303255,-3.925081753007199,3.7447195439541665,-76.12162464906281,-82.28361487436119,6.161990225298382,76.20689911014487,80.23930146126598,-4.032402351121107,38.46423447511171,49.1657375833072,-10.701503108195489,-0.012046791154504476,0.0,-0.012046791154504476
0.22000000000000017,move_to_zero,-0.17514000307154584,-3.9206814371406,3.745541434069054,-76.02060209406389,-82.1913686693451,6.170766575281206,76.13662842286023,80.14934708743048,-4.012718664570258,38.43830114695286,49.110619043415596,-10.672317896462737,-0.012323546486700905,0.0,-0.012323546486700905
0.22200000000000017,move_to_zero,-0.17104923132729402,-3.9162811212739994,3.745231889946705,-75.91652353813473,-82.099122464329,6.182598926194274,76.06517610000368,80.05939271359497,-3.9942166135912913,38.41229493102354,49.055500503523994,-10.643205572500456,-0.012590692947299907,0.0,-0.012590692947299907
0.22400000000000017,move_to_zero,-0.16830238374215145,-3.9118808054073995,3.743578421665248,-75.80953673595225,-82.00687625931289,6.19733952336064,75.99253607793345,79.96943833975948,-3.9769022618260266,38.386153657266824,49.00038196363239,-10.614228306365568,-0.012852808672560643,0.0,-0.012852808672560643
0.22600000000000017,move_to_zero,-0.16692119323262805,-3.9074804895407995,3.7405592963081715,-75.69978767468866,-81.9146300542968,6.214842379608129,75.9186952957899,79.87948396592398,-3.960788670134079,38.35977032710644,48.9452634237408,-10.585493096634359,-0.013134057344337102,0.0,-0.013134057344337102
0.22800000000000017,move_to_zero,-0.16675851445976564,-3.9030801736741996,3.736321659214434,-75.58743835526502,-81.82238384928068,6.234945494015662,75.84365612693144,79.78952959208848,-3.9458734651570495,38.33307632389476,48.890144883849196,-10.557068559954438,-0.013432730120656518,0.0,-0.013432730120656518
0.23000000000000018,move_to_zero,-0.16754158674087657,-3.898679857807599,3.7311382710667225,-75.47265686760589,-81.73013764426459,6.257480776658696,75.76740858348693,79.69957521825299,-3.9321666347660624,38.30601510767219,48.8350263439576,-10.529011236285413,-0.013739942793176103,0.0,-0.013739942793176103
0.23200000000000018,move_to_zero,-0.1689237783108551,-3.8942795419409992,3.725355763630144,-75.35561376608308,-81.63789143924849,6.28227767316541,75.68997003613329,79.60962084441748,-3.9196508082841888,38.27848991083343,48.77990780406599,-10.501417893232563,-0.014063129457058125,0.0,-0.014063129457058125
0.23400000000000018,move_to_zero,-0.17051174382177026,-3.8898792260743993,3.719367482252629,-75.2364652216877,-81.5456452342324,6.309180012544701,75.61134673440219,79.51966647058198,-3.9083197361797914,38.25044403250531,48.72478926417439,-10.474345231669083,-0.014365444739212467,0.0,-0.014365444739212467
0.23600000000000018,move_to_zero,-0.17200708571783158,-3.8854789102077993,3.7134718244899676,-75.11536697103075,-81.45339902921629,6.338032058185533,75.53155503275666,79.42971209674648,-3.898157063989828,38.22182245465702,48.669670724282796,-10.447848269625773,-0.01465136332488507,0.0,-0.01465136332488507
0.23800000000000018,move_to_zero,-0.17322314627620233,-3.881078594341199,3.7078554480649966,-74.99248519318205,-81.36115282420019,6.368667631018141,75.45061915911,79.33975772291097,-3.8891385638009695,38.1925323370674,48.614552184391194,-10.422019847323796,-0.014922887604014648,0.0,-0.014922887604014648
0.24000000000000019,move_to_zero,-0.17420028513195857,-3.876678278474599,3.7024779933426406,-74.86798406377576,-81.2689066191841,6.400922555408329,75.36855193623254,79.24980334907549,-3.881251412842957,38.16249173393531,48.5594336444996,-10.396941910564287,-0.01518225623337582,0.0,-0.01518225623337582
0.2420000000000002,move_to_zero,-0.17497378477931683,-3.872277962607999,3.6973041778286824,-74.74204627845003,-81.17666041416798,6.4346141357179505,75.28537053432161,79.15984897523998,-3.8744784409183666,38.13161447582562,48.504315104608,-10.372700628782376,-0.015430091588911983,0.0,-0.015430091588911983
0.2440000000000002,move_to_zero,-0.17557224107503697,-3.867877646741399,3.692305405666362,-74.61481732948815,-81.08441420915189,6.46959687966374,75.20109514224195,79.06989460140447,-3.868799459162517,38.099826026576324,48.449196564716395,-10.349370538140072,-0.015670334848992162,0.0,-0.015670334848992162
0.2460000000000002,move_to_zero,-0.17602183280700429,-3.8634773308747987,3.6874554980677945,-74.48646804633808,-80.99216800413579,6.505699957797717,75.11572301637763,78.97994022756899,-3.8642172111913595,38.06709151566706,48.39407802482479,-10.326986509157734,-0.01590716325504513,0.0,-0.01590716325504513
0.2480000000000002,move_to_zero,-0.17626690162688322,-3.8590770150081988,3.6828101133813154,-74.35717514670112,-80.8999217991197,6.542746652418572,75.02927946041247,78.88998585373348,-3.86070639332101,38.03336409022693,48.33895948493319,-10.305595394706259,-0.016151787021681657,0.0,-0.016151787021681657
0.25000000000000017,move_to_zero,-0.17626332987755303,-3.8546766991415997,3.678413369264047,-74.2270849475475,-80.80767559410359,6.5805906465560895,74.94181259532424,78.80003147989798,-3.858218884573745,37.99862618157737,48.2838409450416,-10.285214763464225,-0.01639302511543362,0.0,-0.01639302511543362
0.25200000000000017,move_to_zero,-0.17598780576205206,-3.8502763832749993,3.6742885775129475,-74.09636576287507,-80.71542938908749,6.619063626212423,74.85334934271837,78.71007710606249,-3.856727763344111,37.96284062212803,48.228722405149995,-10.265881783021968,-0.016632281860509354,0.0,-0.016632281860509354
0.25400000000000017,move_to_zero,-0.1754784854181058,-3.8458760674083994,3.6703975819902936,-73.9651972963139,-80.62318318407138,6.6579858877574765,74.76391294770033,78.62012273222697,-3.8562097845266408,37.92601307615296,48.1736038652584,-10.247590789105438,-0.016873455507847763,0.0,-0.016873455507847763
0.25600000000000017,move_to_zero,-0.17478750397224982,-3.8414757515417994,3.6666882475695495,-73.83372725405722,-80.53093697905528,6.697209724998061,74.6735189011507,78.53016835839148,-3.8566494572407777,37.88811290809615,48.11848532536679,-10.230372417270644,-0.017110499634148107,0.0,-0.017110499634148107
0.2580000000000002,move_to_zero,-0.1739857451236316,-3.8370754356751995,3.6630896905515677,-73.70208798919123,-80.43869077403919,6.73660278484796,74.58218841383466,78.44021398455598,-3.858025570721324,37.8491162923986,48.063366785475196,-10.214250493076598,-0.017348411734847774,0.0,-0.017348411734847774
0.2600000000000002,move_to_zero,-0.17317290863548454,-3.832675119808599,3.6595022111731144,-73.57043992995992,-80.34644456902309,6.776004639063174,74.48994794069505,78.35025961072049,-3.860311670025439,37.80901162875945,48.008248245583594,-10.199236616824145,-0.017583217323331075,0.0,-0.017583217323331075
0.2620000000000002,move_to_zero,-0.17242444276584323,-3.828274803941999,3.6558503611761557,-73.43891748630496,-80.254198364007,6.815280877702037,74.39682732282166,78.26030523688497,-3.86347791406331,37.76776885364228,47.95312970569199,-10.185360852049712,-0.017814981010794744,0.0,-0.017814981010794744
0.2640000000000002,move_to_zero,-0.17179831045416866,-3.823874488075399,3.6520761776212307,-73.30766444644411,-80.16195215899089,6.854287712546778,74.30284348152045,78.17035086304948,-3.8675073815290233,37.72536290368033,47.8980111658004,-10.17264826212007,-0.018044050600367716,0.0,-0.018044050600367716
0.2660000000000002,move_to_zero,-0.1712700658388716,-3.8194741722087993,3.6482041063699278,-73.17681609933928,-80.06970595397479,6.892889854635513,74.20801397308894,78.08039648921398,-3.872382516125043,37.681770216146234,47.842892625908796,-10.161122409762562,-0.018277922363287992,0.0,-0.018277922363287992
0.2680000000000002,move_to_zero,-0.17082050262895812,-3.815073856342199,3.644253353713241,-73.04650773796978,-79.97745974895868,6.930952010988904,74.11235112890938,77.99044211537847,-3.87809098646909,37.63699285036553,47.787774086017194,-10.150781235651664,-0.018519569300993872,0.0,-0.018519569300993872
0.2700000000000002,move_to_zero,-0.17043391149815937,-3.810673540475599,3.6402396289774397,-72.91685232213443,-79.8852135439426,6.968361221808166,74.01589155771153,77.90048774154299,-3.884596183831462,37.591040681504026,47.73265554612559,-10.141614864621566,-0.018761750121440803,0.0,-0.018761750121440803
0.2720000000000002,move_to_zero,-0.17009686067589563,-3.806273224608999,3.6361763639331035,-72.78798530895239,-79.79296733892649,7.0049820299741015,73.91867339418643,77.81053336770748,-3.8918599735210506,37.54390337040444,47.677537006234,-10.133633635829554,-0.019002120018985703,0.0,-0.019002120018985703
0.2740000000000002,move_to_zero,-0.1697750312059692,-3.801872908742399,3.6320978775364297,-72.66001042953357,-79.70072113391039,7.040710704376821,73.82072114582371,77.72057899387197,-3.8998578480482564,37.4955516299388,47.622418466342396,-10.126866836403593,-0.019246584575451003,0.0,-0.019246584575451003
0.2760000000000002,move_to_zero,-0.1694644460396931,-3.7974725928757986,3.6280081468361054,-72.5330261017741,-79.60847492889428,7.075448827120184,73.72206478356577,77.63062462003649,-3.9085598364707153,37.44599338996533,47.567299926450794,-10.121306536485463,-0.019505936898235782,0.0,-0.019505936898235782
0.2780000000000002,move_to_zero,-0.1691370141296961,-3.7930722770091996,3.6239352628795034,-72.40708781290697,-79.51622872387819,7.10914091097122,73.62272787130891,77.54067024620097,-3.917942374892064,37.395222515195506,47.5121813865592,-10.116958871363693,-0.019787991262301498,0.0,-0.019787991262301498
0.2800000000000002,move_to_zero,-0.1688023714917508,-3.7886719611425996,3.6198695896508486,-72.28228988556205,-79.42398251886209,7.141692633300039,73.52275063803644,77.45071587236548,-3.9279652343290365,37.343227677941044,47.45706284666759,-10.113835168726546,-0.02009732595135257,0.0,-0.02009732595135257
0.2820000000000002,move_to_zero,-0.1684823549057721,-3.7842716452759992,3.6157892903702273,-72.15873253239265,-79.331736313846,7.173003781453346,73.42216819686126,77.36076149852998,-3.9385933016687176,37.290018048164484,47.401944306775995,-10.111926258611511,-0.02042149755380328,0.0,-0.02042149755380328
0.2840000000000002,move_to_zero,-0.16816969094798193,-3.7798713294093993,3.6117016384614176,-72.0364770389185,-79.2394901088299,7.203013069911393,73.32102483372772,77.27080712469449,-3.949782290966766,37.23559958773149,47.34682576688439,-10.1112261791529,-0.020759558266701013,0.0,-0.020759558266701013
0.2860000000000002,move_to_zero,-0.16785930964298595,-3.7754710135427993,3.6076117038998134,-71.91560452398794,-79.14724390381379,7.23163937982585,73.21934817235403,77.18085275085897,-3.961504578504943,37.1800052394701,47.29170722699279,-10.111701987522693,-0.02109140642096775,0.0,-0.02109140642096775
0.2880000000000002,move_to_zero,-0.16754565951153083,-3.7710706976761994,3.6035250381646686,-71.7961579472256,-79.05499769879769,7.258839751572097,73.11716701607888,77.09089837702348,-3.9737313609445977,37.123243400750496,47.2365886871012,-10.1133452863507,-0.02139809453154892,0.0,-0.02139809453154892
0.2900000000000002,move_to_zero,-0.16722518461818053,-3.766670381809599,3.5994451971914185,-71.67818972561068,-78.96275149378158,7.284561768170903,73.01452137154239,77.00094400318798,-3.9864226316455955,37.06534449701002,47.181470147209595,-10.116125650199578,-0.021684618117308523,0.0,-0.021684618117308523
0.2920000000000002,move_to_zero,-0.16689298343183684,-3.762270065942999,3.5953770825111624,-71.56174334088661,-78.87050528876549,7.308761947878878,72.91144747096001,76.91098962935247,-3.999542158392458,37.00634147006776,47.12635160731799,-10.120010137250233,-0.02195395686530215,0.0,-0.02195395686530215
0.2940000000000002,move_to_zero,-0.16655822912382148,-3.757869750076399,3.5913115209525777,-71.44684533944931,-78.77825908374939,7.331413744300079,72.808004844273,76.82103525551699,-4.013030411243989,36.94625753683854,47.07123306742639,-10.124975530587854,-0.022208808984271515,0.0,-0.022208808984271515
0.2960000000000002,move_to_zero,-0.1661885030943281,-3.753469434209799,3.587280931115471,-71.33353833521255,-78.6860128787333,7.352474543520742,72.7042262000049,76.73108088168148,-4.026854681676582,36.88511484349577,47.016114527534796,-10.130999684039026,-0.02245074236025294,0.0,-0.02245074236025294
0.2980000000000002,move_to_zero,-0.16578344764040343,-3.749069118343199,3.5832856707027956,-71.2218484058546,-78.59376667371718,7.371918267862583,72.60014587669149,76.64112650784598,-4.040980631154497,36.82292715150421,46.960995987643194,-10.138068836138984,-0.022684114694853166,0.0,-0.022684114694853166
0.3000000000000002,move_to_zero,-0.16533961772457406,-3.744668802476599,3.5793291847520248,-71.11180434808595,-78.50152046870109,7.389716120615134,72.49579272805103,76.55117213401049,-4.055379405959457,36.75972225937729,46.90587744775159,-10.146155188374301,-0.022912370966167935,0.0,-0.022912370966167935
0.3020000000000002,move_to_zero,-0.16488641958839148,-3.740268486609999,3.575382067021607,-71.00340170033301,-78.40927426368499,7.405872563351977,72.39122253993072,76.46121776017497,-4.069995220244252,36.69554621689726,46.85075890786,-10.155212690962735,-0.02313697680627146,0.0,-0.02313697680627146
0.3040000000000002,move_to_zero,-0.16443217097172352,-3.735868170743399,3.5714359997716754,-70.89664284250298,-78.31702805866888,7.420385216165897,72.28648378205561,76.37126338633948,-4.084779604283867,36.630395376797104,46.79564036796839,-10.165244991171285,-0.02335714729050061,0.0,-0.02335714729050061
0.3060000000000002,move_to_zero,-0.1639659762433023,-3.7314678548767994,3.567501878633497,-70.79152074057079,-78.22478185365279,7.433261113081997,72.18159378178764,76.28130901250398,-4.099715230716342,36.564294450024114,46.740521828076794,-10.17622737805268,-0.023572812409953778,0.0,-0.023572812409953778
0.3080000000000002,move_to_zero,-0.16349380314846393,-3.7270675390101995,3.5635737358617354,-70.68803118361289,-78.13253564863669,7.4445044650237975,72.07655126711087,76.19135463866847,-4.114803371557599,36.49727987541375,46.68540328818519,-10.18812341277144,-0.023784033047522357,0.0,-0.023784033047522357
0.3100000000000002,move_to_zero,-0.16302725930768672,-3.7226672231435995,3.5596399638359126,-70.5861438359072,-78.0402894436206,7.4541456077134,71.97137531668734,76.10140026483299,-4.130024948145646,36.42936185490001,46.6302847482936,-10.200922893393589,-0.02399229456617515,0.0,-0.02399229456617515
0.3120000000000002,move_to_zero,-0.16259524146587986,-3.718266907276999,3.5556716658111194,-70.48582134190006,-77.94804323860448,7.4622218967044205,71.86608205367492,76.01144589099748,-4.145363837322563,36.3605461363017,46.575166208401996,-10.214620072100296,-0.024196552097352917,0.0,-0.024196552097352917
0.3140000000000002,move_to_zero,-0.16221510963203595,-3.713866591410399,3.551651481778363,-70.38704683799598,-77.85579703358839,7.468750195592406,71.76070616319807,75.92149151716198,-4.160785353963917,36.29087390176098,46.520047668510394,-10.229173766749412,-0.024398652919702484,0.0,-0.024398652919702484
0.3160000000000002,move_to_zero,-0.16186617704417197,-3.7094662755437993,3.547600098499627,-70.28980139500496,-77.76355082857228,7.4737494335673205,71.6552750736928,75.83153714332649,-4.17626206963368,36.2203683411051,46.46492912861879,-10.244560787513691,-0.02460024061590271,0.0,-0.02460024061590271
0.3180000000000002,move_to_zero,-0.16153721709142094,-3.7050659596771993,3.5435287425857784,-70.19405044960816,-77.67130462355618,7.477254173948026,71.54980291510091,75.74158276949098,-4.191779854390063,36.149047988033736,46.40981058872719,-10.260762600693454,-0.02480004448564321,0.0,-0.02480004448564321
0.32000000000000023,move_to_zero,-0.1612055853432596,-3.700665643810599,3.5394600584673395,-70.0997412309162,-77.57905841854009,7.4793171876238915,71.44431340794277,75.65162839565548,-4.2073149877127065,36.076971670554954,46.354692048835595,-10.277720378280641,-0.025000090419695878,0.0,-0.025000090419695878
0.32200000000000023,move_to_zero,-0.16087058300658863,-3.696265327943999,3.5353947449374106,-70.00680865232964,-77.48681221352399,7.480003561194351,71.33884588348425,75.56167402181998,-4.2228281383357285,36.00413192944791,46.29957350894399,-10.295441579496085,-0.025202187444890563,0.0,-0.025202187444890563
0.32400000000000023,move_to_zero,-0.16051687470773823,-3.691865012077399,3.531348137369661,-69.91519967341205,-77.3945660085079,7.479366335095847,71.23341491104598,75.47171964798449,-4.2383047369385025,35.930561882577514,46.2444549690524,-10.313893086474884,-0.025405194986912984,0.0,-0.025405194986912984
0.32600000000000023,move_to_zero,-0.1601316038004559,-3.687464696210799,3.527333092410343,-69.82490111289113,-77.30231980349178,7.477418690600658,71.12804786706377,75.38176527414898,-4.253717407085205,35.856272530233824,46.1893364291608,-10.333063898926973,-0.02560771090158743,0.0,-0.02560771090158743
0.32800000000000024,move_to_zero,-0.15973545630131322,-3.6830643803441987,3.5233289240428856,-69.73585638457234,-77.21007359847569,7.474217213903344,71.02274784206635,75.29181090031348,-4.269063058247127,35.78127834524751,46.13421788926919,-10.35293954402168,-0.025812555510403196,0.0,-0.025812555510403196
0.33000000000000024,move_to_zero,-0.15932721185603488,-3.6786640644775987,3.519336852621564,-69.64799915242234,-77.11782739345958,7.469828241037234,70.91752428972195,75.20185652647798,-4.284332236756029,35.70562351084631,46.07909934937759,-10.373475838531284,-0.02601943716424498,0.0,-0.02601943716424498
0.33200000000000024,move_to_zero,-0.15890665186774547,-3.674263748610999,3.5153570967432533,-69.56126030017664,-77.02558118844348,7.46432088826684,70.81238451843728,75.11190215264247,-4.299517634205188,35.62933227902592,46.02398080948599,-10.394648530460074,-0.02622835849659939,0.0,-0.02622835849659939
0.33400000000000024,move_to_zero,-0.1584958178139006,-3.669863432744399,3.5113676149304984,-69.47557004740551,-76.93333498342739,7.457764936021874,70.70733375276491,75.02194777880699,-4.314614026042079,35.55243999999939,45.968862269594396,-10.416422269595003,-0.026440312247032385,0.0,-0.026440312247032385
0.33600000000000024,move_to_zero,-0.15809321272890386,-3.6654631168777994,3.5073699041488955,-69.39088101480225,-76.84108877841129,7.450207763609043,70.60240851977696,74.93199340497148,-4.329584885194521,35.47497870576227,45.913743729702794,-10.438765023940526,-0.026651970143573175,0.0,-0.026651970143573175
0.33800000000000024,move_to_zero,-0.15771142035559338,-3.6610628010111994,3.503351380655606,-69.30714128016669,-76.74884257339518,7.4417012932284905,70.49762386517205,74.84203903113597,-4.344415165963923,35.396977070878116,45.85862518981119,-10.461648118933077,-0.02686338284278496,0.0,-0.02686338284278496
0.34000000000000025,move_to_zero,-0.15737379052781783,-3.6566624851445995,3.499288694616782,-69.2242920286002,-76.65659636837908,7.432304339778881,70.39296023328835,74.75208465730049,-4.359124424012137,35.31847080098158,45.80350664991959,-10.485035848938011,-0.02707578583349439,0.0,-0.02707578583349439
0.34200000000000025,move_to_zero,-0.1570713411964585,-3.652262169277999,3.4951908280815407,-69.14226693635963,-76.56435016336299,7.422083227003355,70.28840943319501,74.66213028346498,-4.373720850269962,35.239462156403306,45.74838811002799,-10.508925953624683,-0.02729116011943168,0.0,-0.02729116011943168
0.34400000000000025,move_to_zero,-0.15680094957283944,-3.647861853411399,3.4910609038385596,-69.06098217713897,-76.47210395834688,7.41112178120791,70.18396393412176,74.57217590962948,-4.388211975507716,35.15999008912964,45.693269570136394,-10.533279481006751,-0.027529590857333835,0.0,-0.027529590857333835
0.34600000000000025,move_to_zero,-0.15655105824601664,-3.643461537544799,3.4869104792987824,-68.98038029392379,-76.3798577533308,7.399477459407009,70.07963742339355,74.48222153579398,-4.402584112400433,35.08010868491137,45.63815103024479,-10.55804234533342,-0.027778699051059366,0.0,-0.027778699051059366
0.34800000000000025,move_to_zero,-0.15631706896961517,-3.6390612216781992,3.482744152708584,-68.9003932249912,-76.28761154831469,7.387218323323481,69.9754325802129,74.39226716195847,-4.416834581745576,34.99985709213312,45.5830324903532,-10.583175398220078,-0.028031034997501703,0.0,-0.028031034997501703
0.35000000000000026,move_to_zero,-0.15610155612937943,-3.634660905811599,3.4785593496822194,-68.82096678191056,-76.19536534329859,7.374398561388034,69.87136776842569,74.30231278812298,-4.43094501969729,34.919254967040956,45.52791395046159,-10.608658983420632,-0.028291884685274094,0.0,-0.028291884685274094
0.35200000000000026,move_to_zero,-0.1559008352344475,-3.630260589944999,3.4743597547105516,-68.74204347543638,-76.10311913828248,7.361075662846105,69.76747757350185,74.21235841428748,-4.444880840785629,34.83834313195882,45.472795410569994,-10.634452278611171,-0.02856880692483103,0.0,-0.02856880692483103
0.35400000000000026,move_to_zero,-0.15570402496890742,-3.625860274078399,3.4701562491094915,-68.6635490396148,-76.01087293326638,7.347323893651591,69.66375478035398,74.12240404045198,-4.4586492600979994,34.75713632638489,45.41767687067839,-10.660540544293504,-0.028835006553255806,0.0,-0.028835006553255806
0.35600000000000026,move_to_zero,-0.15549519449147178,-3.621459958211799,3.465964763720327,-68.58543951896418,-75.91862672825027,7.333187209286095,69.56018566333357,74.03244966661647,-4.472264003282902,34.67565068368796,45.36255833078679,-10.686907647098828,-0.029117832930140752,0.0,-0.029117832930140752
0.35800000000000026,move_to_zero,-0.15526681875488382,-3.6170596423451986,3.4617928235903146,-68.50765385841707,-75.82638052323418,7.318726664817106,69.45679518422384,73.94249529278098,-4.48570010855714,34.59392706458094,45.307439790895195,-10.713512726314256,-0.02941980806830076,0.0,-0.02941980806830076
0.36000000000000026,move_to_zero,-0.1549909003114645,-3.6126593264785987,3.457668426167134,-68.43014539506044,-75.7341343182181,7.303988923157661,69.35357460094416,73.85254091894548,-4.498966318001322,34.511988768377975,45.25232125100359,-10.740332482625618,-0.029746889793229692,0.0,-0.029746889793229692
0.36200000000000027,move_to_zero,-0.1547005796655481,-3.6082590106119987,3.4535584309464507,-68.35287410519665,-75.64188811320199,7.2890140080053385,69.25052404147776,73.76258654510997,-4.512062503632208,34.4298563490685,45.19720271111199,-10.76734636204349,-0.03007248436430722,0.0,-0.03007248436430722
0.36400000000000027,move_to_zero,-0.154393940280706,-3.603858694745399,3.4494647544646933,-68.27576698895483,-75.54964190818589,7.273874919231062,69.14761689839705,73.67263217127449,-4.5250152728774395,34.34755445406808,45.14208417122039,-10.794529717152308,-0.030389741712803994,0.0,-0.030389741712803994
0.36600000000000027,move_to_zero,-0.15406567924226955,-3.5994583788787993,3.4453926996365296,-68.19878438453453,-75.45739570316978,7.258611318635246,69.04484781429402,73.58267779743898,-4.5378299831449596,34.26511844876497,45.086965631328795,-10.821847182563822,-0.030687184373285804,0.0,-0.030687184373285804
0.36800000000000027,move_to_zero,-0.15368958042010944,-3.5950580630121993,3.44136848259209,-68.12184153295424,-75.36514949815368,7.243307965199449,68.94219746443632,73.49272342360348,-4.55052595916716,34.1825747954528,45.03184709143719,-10.849272295984392,-0.03096347906968589,0.0,-0.03096347906968589
0.3700000000000003,move_to_zero,-0.1532956808471241,-3.5906577471455994,3.4373620662984754,-68.04488763258153,-75.27290329313757,7.228015660556039,68.8396661269535,73.40276904976798,-4.56310292281448,34.099935920481634,44.97672855154559,-10.876792631063957,-0.031222110434673576,0.0,-0.031222110434673576
0.3720000000000003,move_to_zero,-0.1528836921255817,-3.586257431278999,3.433373739153417,-67.96788218299167,-75.18065708812149,7.21277490512982,68.73725233955564,73.31281467593247,-4.575562336376834,34.017204553634166,44.921610011653996,-10.90440545801983,-0.03146581679599673,0.0,-0.03146581679599673
0.3740000000000003,move_to_zero,-0.1524687284603751,-3.581857115412399,3.429388386952024,-67.89076801672728,-75.08841088310538,7.197642866378104,68.63496099899646,73.22286030209698,-4.587899303100514,33.93440836272336,44.86649147176239,-10.932083109039027,-0.03169633544170462,0.0,-0.03169633544170462
0.3760000000000003,move_to_zero,-0.15206266665392162,-3.577456799545799,3.4253941328918773,-67.81350957285306,-74.99616467808929,7.182655105236222,68.53280468778713,73.13290592826148,-4.600101240474345,33.8515501628757,44.81137293187079,-10.959822768995096,-0.03191368543088079,0.0,-0.03191368543088079
0.3780000000000003,move_to_zero,-0.1516825962437789,-3.573056483679199,3.4213738874354203,-67.73607432157833,-74.90391847307319,7.167844151494862,68.43077645955908,73.04295155442597,-4.612175094866885,33.76865326856245,44.75625439197919,-10.987601123416738,-0.03212126435741528,0.0,-0.03212126435741528
0.3800000000000003,move_to_zero,-0.15133940710676494,-3.5686561678125988,3.417316760705834,-67.65845580015969,-74.81167226805708,7.153216467897394,68.32887301715047,72.95299718059049,-4.624124163440015,33.685708029308195,44.70113585208759,-11.015427822779394,-0.03232082781601286,0.0,-0.03232082781601286
0.3820000000000003,move_to_zero,-0.1510175339359905,-3.564255851945999,3.4132383180100083,-67.58063661338498,-74.71942606304098,7.138789449656002,68.22708576836644,72.86304280675498,-4.63595703838854,33.602762661070784,44.646017312195994,-11.04325465112521,-0.0325133036912218,0.0,-0.0325133036912218
0.3840000000000003,move_to_zero,-0.1507180746870619,-3.559855536079399,3.409137461392337,-67.50257138999062,-74.62717985802489,7.124608468034268,68.1254434399851,72.77308843291948,-4.647644992934374,33.51985227097078,44.59089877230439,-11.071046501333612,-0.032699794449655546,0.0,-0.032699794449655546
0.3860000000000003,move_to_zero,-0.15042371811896887,-3.5554552202127994,3.4050315020938307,-67.42423579184977,-74.53493365300879,7.110697861159025,68.02393319337476,72.68313405908398,-4.659200865709224,33.436995507340654,44.53578023241279,-11.098784725072136,-0.03288293049575329,0.0,-0.03288293049575329
0.3880000000000003,move_to_zero,-0.15012748905300147,-3.551054904346199,3.4009274152931974,-67.34556656589461,-74.44268744799268,7.097120882098068,67.92254133637292,72.59317968524847,-4.670638348875556,33.35420641928526,44.48066169252119,-11.126455273235926,-0.03306360439888611,0.0,-0.03306360439888611
0.3900000000000003,move_to_zero,-0.14981118509368946,-3.546654588479599,3.3968434033859096,-67.26654348009195,-74.35044124297659,7.083897762884632,67.82126009333415,72.50322531141298,-4.68196521807883,33.27147643580052,44.425543152629594,-11.154066716829071,-0.0332437231267381,0.0,-0.0332437231267381
0.3920000000000003,move_to_zero,-0.1494768861482054,-3.542254272612999,3.3927773864647937,-67.18715692613846,-74.25819503796048,7.07103811182202,67.72008647064787,72.41327093757748,-4.693184466929608,33.18882257624248,44.37042461273799,-11.181602036495512,-0.03342256045994576,0.0,-0.03342256045994576
0.3940000000000003,move_to_zero,-0.14913281355290042,-3.537853956746399,3.3887211431934987,-67.10740970546357,-74.16594883294438,7.058539127480813,67.61900735021979,72.32331656374198,-4.704309213522194,33.10628612111685,44.31530607284639,-11.209019951729537,-0.03360373100793553,0.0,-0.03360373100793553
0.3960000000000003,move_to_zero,-0.14878053857628026,-3.5334536408797987,3.3846731023035184,-67.02728560696856,-74.07370262792828,7.046417020959723,67.51801391049617,72.23336218990647,-4.715348279410307,33.02388011853837,44.260187532954795,-11.236307414416423,-0.03378663643028668,0.0,-0.03378663643028668
0.3980000000000003,move_to_zero,-0.1484513949466025,-3.529053325013199,3.380601930066596,-66.94676712893406,-73.98145642291219,7.034689293978133,67.41709712920265,72.14340781607098,-4.726310686868331,32.94160951652932,44.205068993063186,-11.263459476533868,-0.03397040139649876,0.0,-0.03397040139649876
0.4000000000000003,move_to_zero,-0.14812933985816393,-3.524653009146599,3.376523669288435,-66.8658468735681,-73.88921021789609,7.02336334432799,67.31626920416733,72.05345344223548,-4.737184238068153,32.859503537898114,44.14995045317159,-11.290446915273478,-0.03415288108589007,0.0,-0.03415288108589007
0.4020000000000003,move_to_zero,-0.14781531766011288,-3.520252693279999,3.372437375619886,-66.78451373000554,-73.79696401287998,7.01245028287444,67.21554241349098,71.96349906839997,-4.7479566549089895,32.777551432929364,44.09483191327999,-11.317280480350625,-0.03433382638021417,0.0,-0.03433382638021417
0.4040000000000003,move_to_zero,-0.1475122928275191,-3.515852377413399,3.36834008458588,-66.70277857271522,-73.70471780786389,7.001939235148669,67.11490791145535,71.87354469456449,-4.758636783109139,32.69576538157412,44.039713373388395,-11.343947991814275,-0.03451198813757967,0.0,-0.03451198813757967
0.4060000000000003,move_to_zero,-0.14721747964192353,-3.511452061546799,3.3642345819048756,-66.62063199332913,-73.61247160284778,6.9918396095186495,67.01435532097103,71.78359032072898,-4.769234999757941,32.6141626473294,43.98459483349679,-11.370432186167392,-0.034688168844308476,0.0,-0.034688168844308476
0.4080000000000003,move_to_zero,-0.14690271332975408,-3.507051745680199,3.360149032350445,-66.53806314101861,-73.52022539783168,6.982162256813069,66.91386730201094,71.69363594689347,-4.779768644882523,32.53274093022421,43.92947629360519,-11.396735363380984,-0.034864891149353414,0.0,-0.034864891149353414
0.4100000000000003,move_to_zero,-0.14655455176745086,-3.5026514298135987,3.3560968780461478,-66.4550602098061,-73.42797919281558,6.972918983009478,66.81342512110703,71.60368157305798,-4.7902564519509525,32.45152069082325,43.87435775371359,-11.422837062890338,-0.03503989131475968,0.0,-0.03503989131475968
0.4120000000000003,move_to_zero,-0.1461939987416544,-3.4982511139469987,3.352057115205344,-66.37162383536739,-73.33573298779949,6.964109152432101,66.71303394679573,71.51372719922247,-4.80069325242674,32.37051946743989,43.81923921382199,-11.448719746382096,-0.0352115145647495,0.0,-0.0352115145647495
0.4140000000000003,move_to_zero,-0.14581407984322944,-3.493850798080399,3.3480367182371693,-66.28773253020992,-73.24348678278338,6.955754252573456,66.61270314170673,71.42377282538698,-4.811069683680245,32.28971993607646,43.76412067393039,-11.474400737853934,-0.03538052465636464,0.0,-0.03538052465636464
0.4160000000000003,move_to_zero,-0.14543350779931663,-3.4894504822137993,3.3440169744144828,-66.20337262193107,-73.15124057776728,6.947867955836216,66.51242902240843,71.33381845155148,-4.8213894291430535,32.20911565627658,43.70900213403879,-11.49988647776221,-0.03554509744767808,0.0,-0.03554509744767808
0.4180000000000003,move_to_zero,-0.14505922135653015,-3.485050166347199,3.3399909449906686,-66.11853506857202,-73.05899437275119,6.940459304179171,66.41222446796598,71.24386407771597,-4.831639609749985,32.12871816624924,43.653883594147196,-11.525165427897953,-0.035709907576383655,0.0,-0.035709907576383655
0.4200000000000003,move_to_zero,-0.14470541709938378,-3.480649850480599,3.335944433381215,-66.03323870340411,-72.96674816773508,6.933509464330967,66.31209287140555,71.15390970388047,-4.841816832474919,32.04855259421331,43.598765054255594,-11.550212460042282,-0.03587555317601999,0.0,-0.03587555317601999
0.4220000000000003,move_to_zero,-0.14434700607224102,-3.476249534613999,3.331902528541758,-65.94749375707966,-72.87450196271898,6.927008205639325,66.21201984463623,71.06395533004498,-4.851935485408745,31.968629280105404,43.543646514363985,-11.575017234258581,-0.03604105142867687,0.0,-0.03604105142867687
0.4240000000000003,move_to_zero,-0.14398190732954153,-3.471849218747399,3.3278673114178576,-65.86131272043241,-72.78225575770288,6.920943037270476,66.11199544870269,70.97400095620948,-4.862005507506794,31.888956528994125,43.48852797447239,-11.599571445478265,-0.036205074173481115,0.0,-0.036205074173481115
0.4260000000000003,move_to_zero,-0.1436158887761461,-3.4674489028807987,3.3238330141046526,-65.77470860118731,-72.69000955268679,6.915300951499475,66.01205678890463,70.88404658237397,-4.871989793469339,31.809524852959985,43.43340943458079,-11.623884581620803,-0.03636562178168388,0.0,-0.03636562178168388
0.4280000000000003,move_to_zero,-0.14326019819501457,-3.4630485870141987,3.319788388819184,-65.68768225348431,-72.59776334767068,6.910081094186367,65.91221243871813,70.79409220853847,-4.881879769820344,31.73035638381758,43.378290894689194,-11.647934510871615,-0.036522790448441825,0.0,-0.036522790448441825
0.4300000000000003,move_to_zero,-0.14292833055653129,-3.458648271147599,3.315719940591068,-65.60023875125934,-72.50551714265458,6.9052783913952425,65.81246679048863,70.70413783470298,-4.891671044214348,31.651474197605665,43.32317235479759,-11.671698157191926,-0.03667654755877521,0.0,-0.03667654755877521
0.43200000000000033,move_to_zero,-0.14260014176530206,-3.454247955280999,3.311647813515697,-65.51238578351446,-72.41327093763847,6.900885154124012,65.71280118245188,70.61418346086747,-4.901382278415582,31.572862873983247,43.268053814906,-11.69519094092275,-0.03682978105126617,0.0,-0.03682978105126617
0.43400000000000033,move_to_zero,-0.14229174989896237,-3.449847639414399,3.3075558895154367,-65.42412148386089,-72.32102473262238,6.89690324876149,65.61321904233198,70.52422908703198,-4.9110100447000065,31.49454881402238,43.21293527501439,-11.718386460992008,-0.03698096596128869,0.0,-0.03698096596128869
0.43600000000000033,move_to_zero,-0.14200480249892325,-3.445447323547799,3.3034425210488756,-65.33546031583516,-72.22877852760628,6.893318211771117,65.51372213667348,70.43427471319647,-4.920552576522994,31.41652349157431,43.157816735122786,-11.741293243548476,-0.037130517904824585,0.0,-0.037130517904824585
0.43800000000000033,move_to_zero,-0.14174750232296807,-3.441047007681199,3.299299505358231,-65.2464141654191,-72.13653232259018,6.890118157171088,65.41429765135761,70.34432033936098,-4.930022688003362,31.33879014268583,43.10269819523119,-11.76390805254536,-0.03727741280283174,0.0,-0.03727741280283174
0.44000000000000034,move_to_zero,-0.14151106278341744,-3.4366466918145986,3.295135629031181,-65.15702409070519,-72.04428611757409,6.887262026868896,65.31496133426371,70.25436596552548,-4.939404631261766,31.261338184323392,43.04757965533959,-11.786241471016197,-0.03742119804743132,0.0,-0.03742119804743132
0.44200000000000034,move_to_zero,-0.14129522348568496,-3.4322463759479986,3.2909511524623136,-65.06731878916528,-71.95203991255798,6.884721123392694,65.2157138694492,70.16441159168997,-4.948697722240766,31.184190297433272,42.992461115447995,-11.808270818014723,-0.037562065365522285,0.0,-0.037562065365522285
0.44400000000000034,move_to_zero,-0.1410966406755159,-3.427846060081399,3.2867494194058833,-64.9772985072335,-71.85979370754188,6.882495200308384,65.1165737689079,70.07445721785447,-4.957883448946575,31.10734225526727,42.937342575556386,-11.830000320289116,-0.03770097796113695,0.0,-0.03770097796113695
0.44600000000000034,move_to_zero,-0.14091010138392207,-3.423445744214799,3.282535642830877,-64.88694624663113,-71.76754750252577,6.880601255894646,65.01754217527721,69.98450284401898,-4.966960668741763,31.030808869887608,42.88222403566479,-11.851415165777183,-0.03783751997490857,0.0,-0.03783751997490857
0.44800000000000034,move_to_zero,-0.14071827800894302,-3.419045428348199,3.2783271503392557,-64.79629994124005,-71.67530129750969,6.87900135626964,64.91861484280851,69.89454847018347,-4.975933627374957,30.95459107616026,42.82710549577319,-11.87251441961293,-0.03797084694040512,0.0,-0.03797084694040512
0.45000000000000034,move_to_zero,-0.14050629561998207,-3.414645112481599,3.274138816861617,-64.70538909677877,-71.58305509249358,6.877665995714807,64.8197735453465,69.80459409634798,-4.984820551001491,30.87868674184225,42.77198695588159,-11.893300214039336,-0.038102798578561185,0.0,-0.038102798578561185
0.45200000000000035,move_to_zero,-0.14028764376874156,-3.410244796614999,3.269957152846257,-64.61423815067627,-71.49080888747748,6.876570736801213,64.72099445016838,69.71463972251247,-4.9936452723440965,30.80307231844163,42.71686841598999,-11.913796097548364,-0.03823626902723957,0.0,-0.03823626902723957
0.45400000000000035,move_to_zero,-0.14005122883312363,-3.405844480748399,3.2657932519152753,-64.52283804744704,-71.39856268246137,6.875724635014336,64.62225478522338,69.62468534867698,-5.002430563453601,30.72773374914699,42.66174987609839,-11.934016126951402,-0.03836953254269289,0.0,-0.03836953254269289
0.45600000000000035,move_to_zero,-0.13980070842634137,-3.4014441648817986,3.2616434564554573,-64.43118694783811,-71.30631647744528,6.875129529607165,64.52354782245122,69.53473097484148,-5.0111831523902595,30.65264895413932,42.60663133620679,-11.953982382067469,-0.03850467796826139,0.0,-0.03850467796826139
0.45800000000000035,move_to_zero,-0.13953227874026106,-3.397043849015199,3.257511570274938,-64.3393264918721,-71.21407027242918,6.874743780557083,64.4248616860577,69.44477660100597,-5.019914914948274,30.577823772289946,42.55151279631519,-11.97368902402524,-0.03864035631558449,0.0,-0.03864035631558449
0.46000000000000035,move_to_zero,-0.13924114288103737,-3.392643533148599,3.2534023902675617,-64.24726941703526,-71.12182406741309,6.874554650377831,64.32617306984827,69.35482222717047,-5.0286491573222065,30.503250509725806,42.49639425642359,-11.993143746697786,-0.038775724513838386,0.0,-0.038775724513838386
0.46200000000000035,move_to_zero,-0.13896420488259986,-3.3882432172819987,3.249279012399399,-64.15504488325497,-71.02957786239699,6.8745329791420176,64.22749038799846,69.26486785333498,-5.037377465336519,30.428947944076043,42.44127571653199,-12.012327772455947,-0.03891415746799205,0.0,-0.03891415746799205
0.46400000000000036,move_to_zero,-0.1387140886484926,-3.383842901415399,3.245128812766906,-64.06266507205214,-70.93733165738088,6.87466658532874,64.1288264923159,69.17491347949948,-5.046086987183585,30.35492357816881,42.38615717664039,-12.03123359847158,-0.03905460592966358,0.0,-0.03905460592966358
0.46600000000000036,move_to_zero,-0.1384763320327147,-3.379442585548799,3.240966253516084,-63.97016093064466,-70.84508545236478,6.874924521720125,64.03014777440235,69.08495910566397,-5.054811331261618,30.281216134969252,42.331038636748794,-12.049822501779541,-0.03919531533616488,0.0,-0.03919531533616488
0.46800000000000036,move_to_zero,-0.13825737116009362,-3.375042269682199,3.2367848985221053,-63.877538105960475,-70.75283924734867,6.875301141388199,63.93147109320726,68.99500473182847,-5.063533638621216,30.207837917630368,42.275920096857185,-12.068082179226817,-0.03933601011421944,0.0,-0.03933601011421944
0.47000000000000036,move_to_zero,-0.13805084693908087,-3.3706419538155985,3.2325911068765176,-63.78484803789501,-70.66059304233258,6.875745004437569,63.83277836377271,68.90505035799298,-5.072271994220266,30.13478227321438,42.22080155696559,-12.08601928375121,-0.03947795597470221,0.0,-0.03947795597470221
0.47200000000000036,move_to_zero,-0.137849049883942,-3.3662416379489986,3.2283925880650566,-63.69208784449807,-70.56834683731647,6.8762589928184,63.73408361001823,68.81509598415747,-5.081012374139235,30.062035859352715,42.16568301707399,-12.103647157721273,-0.03961868635748128,0.0,-0.03961868635748128
0.47400000000000037,move_to_zero,-0.13764853480839023,-3.361841322082399,3.224192787274009,-63.59926569809732,-70.47610063230039,6.8768349342030675,63.6353704780314,68.72514161032198,-5.089771132290586,29.989584597387303,42.11056447718239,-12.12097987979509,-0.03976018327498661,0.0,-0.03976018327498661
0.47600000000000037,move_to_zero,-0.13741974179637412,-3.357441006215799,3.220021264419425,-63.50641470278826,-70.38385442728428,6.877439724496014,63.53664434199061,68.63518723648647,-5.098542894495864,29.91740436151901,42.05544593729079,-12.13804157577178,-0.03990370454677142,0.0,-0.03990370454677142
0.47800000000000037,move_to_zero,-0.13714545576444145,-3.3530406903491987,3.215895234584757,-63.41352457989304,-70.29160822226818,6.878083642375138,63.437908873668356,68.54523286265096,-5.107323988982607,29.845473051337283,42.00032739739919,-12.154854346061907,-0.040047304208469095,0.0,-0.040047304208469095
0.48000000000000037,move_to_zero,-0.13682685120332336,-3.3486403744825988,3.2118135232792753,-63.32061455564604,-70.19936201725208,6.878747461606046,63.33916673745805,68.45527848881548,-5.11611175135743,29.773790147123737,41.94520885750759,-12.17141871038385,-0.040191419460339314,0.0,-0.040191419460339314
0.4820000000000004,move_to_zero,-0.13650505213527592,-3.344240058615999,3.207735006480723,-63.2277107141474,-70.10711581223597,6.879405098088576,63.2404010681044,68.36532411497997,-5.124923046875573,29.702345125421907,41.890090317615986,-12.187745192194079,-0.040336954776258094,0.0,-0.040336954776258094
0.4840000000000004,move_to_zero,-0.1361838282932185,-3.339839742749399,3.2036559144561805,-63.13485236162545,-70.01486960721988,6.880017245594431,63.141605287480466,68.27536974114447,-5.133764453664007,29.631115177682517,41.83497177772439,-12.203856600041874,-0.04048192098154695,0.0,-0.04048192098154695
0.4860000000000004,move_to_zero,-0.1358609940906542,-3.3354394268827985,3.199578432792144,-63.042065571388854,-69.92262340220378,6.880557830814929,63.04280017502462,68.18541536730898,-5.14261519228436,29.56006700602539,41.77985323783279,-12.2197862318074,-0.04062355891069756,0.0,-0.04062355891069756
0.4880000000000004,move_to_zero,-0.13557500431687866,-3.331039111016199,3.1954641066993204,-62.949334431270444,-69.83037719718769,6.881042765917243,62.944002179197895,68.09546099347347,-5.151458814275571,29.489174719860955,41.72473469794119,-12.235559978080232,-0.040761789787301425,0.0,-0.040761789787301425
0.4900000000000004,move_to_zero,-0.13531868986339135,-3.326638795149599,3.1913201052862075,-62.85669782333299,-69.73813099217158,6.8814331688385835,62.845203489096704,68.00550661963797,-5.160303130541266,29.41843978827744,41.66961615804959,-12.251176369772153,-0.04089648792633589,0.0,-0.04089648792633589
0.4920000000000004,move_to_zero,-0.13508609381574113,-3.3222384792829986,3.1871523854672574,-62.764140280808064,-69.64588478715548,6.881744506347417,62.74639077081987,67.91555224580247,-5.169161474982602,29.34785880475099,41.61449761815798,-12.266638813406992,-0.041030908750141606,0.0,-0.041030908750141606
0.4940000000000004,move_to_zero,-0.1348677110528753,-3.3178381634163987,3.1829704523635236,-62.67169378559713,-69.55363858213937,6.881944796542243,62.64757163497411,67.82559787196698,-5.178026236992864,29.277423420750214,41.55937907826639,-12.281955657516175,-0.041166243240116876,0.0,-0.041166243240116876
0.4960000000000004,move_to_zero,-0.13466425810087213,-3.3134378475497988,3.1787735894489266,-62.57938308205141,-69.46139237712327,6.882009295071867,62.54875464928708,67.73564349813147,-5.186888848844383,29.207135885352905,41.50426053837479,-12.297124653021882,-0.04130266561334331,0.0,-0.04130266561334331
0.4980000000000004,move_to_zero,-0.13446586970880203,-3.309037531683199,3.174571661974397,-62.48722739039826,-69.36914617210718,6.881918781708919,62.44994885929175,67.64568912429597,-5.195740265004218,29.13702805070412,41.44914199848319,-12.312113947779071,-0.041438059539837785,0.0,-0.041438059539837785
0.5000000000000003,move_to_zero,-0.13426941360954514,-3.3046372158165984,3.1703678022070534,-62.39525098007597,-69.27689996709108,6.881648987015112,62.3511433638569,67.55573475046047,-5.204591386603575,29.067076608200356,41.39402345859159,-12.326946850391234,-0.041572669902712474,0.0,-0.041572669902712474
0.5020000000000003,move_to_zero,-0.13405992665840843,-3.300236899949999,3.1661769732915905,-62.30347139149956,-69.18465376207499,6.881182370575424,62.252335798495054,67.46578037662498,-5.2134445781299235,28.99725497830433,41.33890491869999,-12.341649940395659,-0.04170350083616429,0.0,-0.04170350083616429
0.5040000000000003,move_to_zero,-0.13381320952736353,-3.2958365840833994,3.162023374556036,-62.21189138412268,-69.09240755705889,6.880516172936211,62.15354194467646,67.37582600278948,-5.2222840581130185,28.927550314656017,41.283786378808394,-12.356236064152377,-0.041829659828756076,0.0,-0.041829659828756076
0.5060000000000003,move_to_zero,-0.13355580396000344,-3.291436268216799,3.1578804642567957,-62.12050835679605,-69.00016135204278,6.87965299524673,62.05477813961152,67.28587162895397,-5.231093489342449,28.857960032216404,41.228667838916785,-12.37070780670038,-0.04195041907992907,0.0,-0.04195041907992907
0.5080000000000003,move_to_zero,-0.13330291006774517,-3.287035952350199,3.153733042282454,-62.02932556074924,-68.90791514702669,6.878589586277442,61.956029978879755,67.19591725511847,-5.2398872762387185,28.788467394895903,41.1735492990252,-12.385081904129294,-0.042067431066605106,0.0,-0.042067431066605106
0.5100000000000003,move_to_zero,-0.13305515189220823,-3.2826356364835987,3.1495804845913904,-61.93834524384082,-68.81566894201057,6.877323698169754,61.857273866977856,67.10596288128298,-5.248689014305121,28.71909798460698,41.11843075913359,-12.39933277452661,-0.042179206424024104,0.0,-0.042179206424024104
0.5120000000000003,move_to_zero,-0.13281961194899483,-3.278235320616999,3.145415708668004,-61.84757896614824,-68.7234227369945,6.875843770846252,61.758514313880774,67.01600850744748,-5.257494193566707,28.649849930563605,41.06331221924199,-12.413462288678389,-0.04228914184510724,0.0,-0.04228914184510724
0.5140000000000003,move_to_zero,-0.13255514618639433,-3.273835004750399,3.1412798585640043,-61.75706248890736,-68.63117653197838,6.874114043071025,61.65976382299426,66.92605413361197,-5.266290310617713,28.580720873756945,41.00819367935039,-12.427472805593446,-0.04239741537520302,0.0,-0.04239741537520302
0.5160000000000003,move_to_zero,-0.1322898933832783,-3.2694346888837993,3.137144795500521,-61.66680153445346,-68.53893032696229,6.872128792508825,61.56103762242039,66.83609975977649,-5.275062137356095,28.511698357781206,40.95307513945879,-12.441376781677583,-0.04250466557680036,0.0,-0.04250466557680036
0.5180000000000003,move_to_zero,-0.13203637536511423,-3.265034373017199,3.1329979976520845,-61.57677833467699,-68.44668412194618,6.8699057872691895,61.46231687418239,66.74614538594096,-5.283828511758571,28.442788810215518,40.89795659956719,-12.45516778935167,-0.04261271729051098,0.0,-0.04261271729051098
0.5200000000000004,move_to_zero,-0.1317985199704823,-3.2606340571505994,3.128835537180117,-61.48703373387094,-68.35443791693008,6.8674041830591435,61.36360287752663,66.65619101210548,-5.29258813457885,28.373968655537617,40.84283805967559,-12.468869404137976,-0.042721680229583954,0.0,-0.042721680229583954
0.5220000000000004,move_to_zero,-0.13158041893519465,-3.2562337412839986,3.124653322348804,-61.397587222880475,-68.26219171191397,6.864604489033496,61.26491152624016,66.56623663826997,-5.301325112029808,28.305231753621115,40.78771951978399,-12.482487766162876,-0.04282842547869223,0.0,-0.04282842547869223
0.5240000000000004,move_to_zero,-0.13137906554656043,-3.251833425417399,3.1204543598708385,-61.308442560498754,-68.16994550689789,6.861502946399135,61.16625281530453,66.47628226443447,-5.310029449129942,28.236584863667996,40.732600979892396,-12.4960161162244,-0.04293295297254741,0.0,-0.04293295297254741
0.5260000000000004,move_to_zero,-0.1311910882173677,-3.2474331095507987,3.1162420213334308,-61.2196102176156,-68.07769930188178,6.858089084266176,61.06764667361357,66.38632789059898,-5.318681216985411,28.168019314325683,40.677482440000794,-12.509463125675111,-0.0430370796789327,0.0,-0.0430370796789327
0.5280000000000004,move_to_zero,-0.1310127913144943,-3.2430327936841996,3.112020002369705,-61.131078739992894,-67.9854530968657,6.854374356872803,60.96908434903389,66.29637351676348,-5.327289167729589,28.099517805807732,40.62236390010919,-12.52284609430146,-0.04314037193895671,0.0,-0.04314037193895671
0.5300000000000004,move_to_zero,-0.1308433246741433,-3.2386324778175983,3.107789153143455,-61.04283394833683,-67.89320689184957,6.850372943512745,60.87055155001066,66.20641914292797,-5.33586759291731,28.03108032244917,40.56724536021758,-12.536165037768413,-0.043240563826995475,0.0,-0.043240563826995475
0.5320000000000004,move_to_zero,-0.13068051973116412,-3.2342321619509993,3.103551642219835,-60.954844311736835,-67.80096068683349,6.846116375096656,60.772047661552094,66.11646476909249,-5.344417107540394,27.962693820504573,40.512126820325996,-12.549432999821423,-0.0433366647802177,0.0,-0.0433366647802177
0.5340000000000004,move_to_zero,-0.13052353570095468,-3.229831846084399,3.099308310383444,-60.86710577038672,-67.70871448181737,6.841608711430645,60.673565964053225,66.02651039525698,-5.352944431203753,27.894322372805046,40.45700828043439,-12.56268590762934,-0.04342937521468427,0.0,-0.04342937521468427
0.5360000000000004,move_to_zero,-0.130371207661137,-3.2254315302177994,3.0950603225566624,-60.77963814926469,-67.61646827680129,6.836830127536594,60.575098035158234,65.93655602142148,-5.361457986263247,27.82596265897549,40.4018897405428,-12.575927081567308,-0.04351883450658971,0.0,-0.04351883450658971
0.5380000000000004,move_to_zero,-0.13022143149244683,-3.2210312143511985,3.0908097828587517,-60.692454279905476,-67.52422207178519,6.831767791879713,60.47663524381452,65.84660164758597,-5.36996640377145,27.757632209289046,40.34677120065119,-12.589138991362145,-0.043606445651511436,0.0,-0.043606445651511436
0.5400000000000004,move_to_zero,-0.13006580486845942,-3.216630898484599,3.0865650936161395,-60.60555341016064,-67.4319758667691,6.826422456608455,60.37816798450536,65.75664727375049,-5.378479289245128,27.689330604215993,40.29165266075959,-12.602322056543596,-0.04369053287177203,0.0,-0.04369053287177203
0.5420000000000004,move_to_zero,-0.12991173326777225,-3.2122305826179987,3.0823188493502265,-60.51894100283478,-67.33972966175298,6.820788658918204,60.27967884063298,65.66669289991496,-5.387014059281981,27.621041705880316,40.23653412086799,-12.61549241498767,-0.0437728201446383,0.0,-0.0437728201446383
0.5440000000000004,move_to_zero,-0.12975995421794248,-3.207830266751399,3.0780703125334568,-60.43260797958426,-67.24748345673689,6.814875477152626,60.18116799530869,65.57673852607948,-5.39557053077079,27.55275028053213,40.18141558097639,-12.628665300444261,-0.04385312035246856,0.0,-0.04385312035246856
0.5460000000000004,move_to_zero,-0.1296060603729342,-3.2034299508847988,3.0738238905118647,-60.3465545595384,-67.15523725172078,6.80868269218238,60.082630925426905,65.48678415224397,-5.404153226817066,27.484439801869232,40.12629704108479,-12.641857239215557,-0.04393106636271772,0.0,-0.04393106636271772
0.5480000000000004,move_to_zero,-0.12945414770891733,-3.1990296350181993,3.0695754873092818,-60.26077604277058,-67.06299104670468,6.802215003934101,59.98407700302761,65.39682977840847,-5.412752775380866,27.416099879789883,40.071178501193195,-12.655078621403312,-0.04400651146891589,0.0,-0.04400651146891589
0.5500000000000004,move_to_zero,-0.12930429319773934,-3.194629319151599,3.0653250259538596,-60.17527278468647,-66.97074484168859,6.795472057002115,59.88552831731416,65.30687540457298,-5.421347087258816,27.347721476414804,40.01605996130159,-12.668338484886789,-0.04408047425112407,0.0,-0.04408047425112407
0.5520000000000004,move_to_zero,-0.1291558518290408,-3.190229003284999,3.061073151455958,-60.090026153486484,-66.87849863667249,6.7884724831860055,59.786977213146784,65.21692103073748,-5.429943817590697,27.279335029799597,39.96094142140999,-12.681606391610394,-0.04415259814340842,0.0,-0.04415259814340842
0.5540000000000004,move_to_zero,-0.12900537958269065,-3.1858286874183985,3.0568233078357077,-60.00501494354526,-66.78625243165638,6.781237488111117,59.68839823609093,65.12696665690197,-5.438568420811038,27.21093812141571,39.90582288151839,-12.694884760102681,-0.04422304278329253,0.0,-0.04422304278329253
0.5560000000000004,move_to_zero,-0.12885763955059068,-3.1814283715517995,3.0525707320012088,-59.920215927552576,-66.69400622664028,6.7737902990877075,59.589779910738436,65.03701228306649,-5.4472323723280525,27.142522741450698,39.850704341626795,-12.708181600176097,-0.04429222411460859,0.0,-0.04429222411460859
0.5580000000000004,move_to_zero,-0.1287112677300066,-3.1770280556851986,3.048316787955192,-59.83563485188245,-66.60176002162417,6.76612516974172,59.49110704728348,64.94705790923096,-5.4559508619474855,27.07409377725212,39.795585801735186,-12.721492024483066,-0.0443598391876208,0.0,-0.0443598391876208
0.5600000000000004,move_to_zero,-0.12856620303735197,-3.172627739818599,3.044061536781247,-59.75127227870821,-66.50951381660808,6.75824153789987,59.392374399209416,64.85710353539548,-5.464729136186065,27.00566849382517,39.7404672618436,-12.734798768018429,-0.04442751832420842,0.0,-0.04442751832420842
0.5620000000000004,move_to_zero,-0.1284188293617972,-3.1682274239519987,3.0398085945902014,-59.66712314667517,-66.41726761159198,6.750144464916808,59.29358933641815,64.76714916155997,-5.47355982514182,26.937222413429954,39.68534872195198,-12.748126308522028,-0.04449756736884655,0.0,-0.04449756736884655
0.5640000000000004,move_to_zero,-0.12827080823456827,-3.1638271080853992,3.035556299850831,-59.583178835900284,-66.3250214065759,6.741842570675615,59.19474118238139,64.67719478772447,-5.482453605343082,26.868757295572006,39.630230182060394,-12.761472886488388,-0.044572370855739125,0.0,-0.044572370855739125
0.5660000000000004,move_to_zero,-0.1281244252336071,-3.159426792218799,3.0313023669851917,-59.4994346852576,-66.23277520155978,6.733340516302178,59.09582272437154,64.58724041388896,-5.4914176895174265,26.8002559783252,39.575111642168785,-12.774855663843585,-0.04465252161120732,0.0,-0.04465252161120732
0.5680000000000004,move_to_zero,-0.12797903738371708,-3.155026476352199,3.0270474389684816,-59.415870270093784,-66.1405289965437,6.72465872644991,58.99683716243732,64.49728604005348,-5.500448877616158,26.731703376320628,39.51999310227719,-12.788289725956563,-0.04473747541234223,0.0,-0.04473747541234223
0.5700000000000004,move_to_zero,-0.12783344513655126,-3.1506261604855985,3.0227927153490475,-59.332502160599326,-66.04828279152757,6.7157806309282435,58.89779948334884,64.40733166621797,-5.50953218286913,26.663093484694823,39.46487456238559,-12.801781077690766,-0.04482668710247254,0.0,-0.04482668710247254
0.5720000000000004,move_to_zero,-0.1276700072840478,-3.1462258446189995,3.0185558373349517,-59.24931337019844,-65.95603658651149,6.706723216313044,58.798717578763664,64.31737729238247,-5.51865971361881,26.59442953409806,39.409756022493994,-12.815326488395932,-0.044916498168767895,0.0,-0.044916498168767895
0.5740000000000004,move_to_zero,-0.127492368376095,-3.141825528752399,3.014333160376304,-59.166270868169285,-65.86379038149538,6.6975195133260925,58.69958649342763,64.22742291854698,-5.527836425119347,26.52571459083548,39.354637482602385,-12.828922891766904,-0.045007329622354215,0.0,-0.045007329622354215
0.5760000000000004,move_to_zero,-0.12729357467386743,-3.137425212885799,3.0101316382119316,-59.083380578673584,-65.7715441764793,6.688163597805712,58.60041153940746,64.13746854471148,-5.537057005304021,26.4569564233448,39.29951894271079,-12.842562519365991,-0.045097601236036476,0.0,-0.045097601236036476
0.5780000000000004,move_to_zero,-0.12708286962855778,-3.1330248970191987,3.005942027390641,-59.000618960183566,-65.67929797146319,6.67867901127962,58.501177633606055,64.04751417087597,-5.546336537269916,26.388159346330117,39.24440040281919,-12.856241056489072,-0.045190175420418324,0.0,-0.045190175420418324
0.5800000000000004,move_to_zero,-0.1268768652274766,-3.1286245811525992,3.0017477159251227,-58.91795873676281,-65.58705176644709,6.6690930296842765,58.40185620625946,63.95755979704048,-5.555703590781022,26.31933774097363,39.189281862927594,-12.869944121953964,-0.04528391571879248,0.0,-0.04528391571879248
0.5820000000000004,move_to_zero,-0.12668386750030508,-3.1242242652859984,2.997540397785693,-58.835399306616594,-65.49480556143098,6.659406254814385,58.30247439865562,63.867605423204964,-5.565131024549345,26.250479150088086,39.134163323035985,-12.883684172947898,-0.04537860408549864,0.0,-0.04537860408549864
0.5840000000000004,move_to_zero,-0.12650256708614,-3.119823949419399,2.9933213823332587,-58.75291463881935,-65.40255935641488,6.649644717595535,58.20304907194509,63.777651049369474,-5.574601977424386,26.181573727190468,39.0790447831444,-12.897471055953929,-0.045475606821931726,0.0,-0.045475606821931726
0.5860000000000004,move_to_zero,-0.12632960163138157,-3.1154236335527985,2.9890940319214168,-58.670483633433335,-65.31031315139877,6.639829517965438,58.1035902146659,63.68769667553397,-5.584106460868071,26.112610639223824,39.02392624325278,-12.911315604028957,-0.04557351177381452,0.0,-0.04557351177381452
0.5880000000000004,move_to_zero,-0.1261648597576112,-3.1110233176861994,2.9848584579285884,-58.58808224213477,-65.21806694638268,6.62998470424791,58.00408167498374,63.597742301698474,-5.593660626714737,26.043629252974736,38.96880770336119,-12.925178450386458,-0.045670780792912175,0.0,-0.045670780792912175
0.5900000000000004,move_to_zero,-0.12600587795057852,-3.1066230018195986,2.98061712386902,-58.50567685667514,-65.12582074136658,6.620143884691444,57.904524607562635,63.50778792786297,-5.603263320300336,25.97461289292067,38.913689163469584,-12.939076270548913,-0.04576571478583189,0.0,-0.04576571478583189
0.5920000000000004,move_to_zero,-0.12585199798019298,-3.102222685952999,2.976370687972806,-58.423271385397186,-65.03357453635049,6.6103031509533,57.80492953141325,63.41783355402748,-5.612904022614231,25.90556703093644,38.858570623578,-12.953003592641558,-0.04585926739567595,0.0,-0.04585926739567595
0.5940000000000004,move_to_zero,-0.12570293170326305,-3.0978223700863987,2.9721194383831357,-58.34085421942576,-64.94132833133438,6.600474111908618,57.70529282563124,63.32787918019197,-5.622586354560731,25.836512906097486,38.80345208368639,-12.966939177588902,-0.04594936118693364,0.0,-0.04594936118693364
0.5960000000000004,move_to_zero,-0.125557206392662,-3.093422054219799,2.967864847827137,-58.258406787771676,-64.84908212631828,6.590675338546603,57.605614697265025,63.23792480635648,-5.632310109091456,25.767468580755132,38.74833354379479,-12.98086496303966,-0.04603633487708975,0.0,-0.04603633487708975
0.5980000000000004,move_to_zero,-0.12541309075803733,-3.0890217383531984,2.963608647595161,-58.17593384085043,-64.75683592130217,6.580902080451736,57.50586621703801,63.147970432520964,-5.642104215482952,25.698454597169675,38.693215003903184,-12.994760406733509,-0.046120742281277764,0.0,-0.046120742281277764
0.6000000000000004,move_to_zero,-0.12527163086929644,-3.0846214224865993,2.959349791617303,-58.09344465815903,-64.66458971628607,6.571145058127044,57.4060339845412,63.05801605868548,-5.651982074144279,25.629468728296604,38.63809646401159,-13.008627735714985,-0.04620132589275775,0.0,-0.04620132589275775
0.6020000000000004,move_to_zero,-0.1251314068115842,-3.0802211066199985,2.9550896998084144,-58.01094691894253,-64.57234351126998,6.561396592327448,57.306105277605276,62.968061684849964,-5.661956407244688,25.56052453107642,38.58297792411999,-13.022453393043566,-0.04627781054927342,0.0,-0.04627781054927342
0.6040000000000004,move_to_zero,-0.12499016252219233,-3.075820790753399,2.9508306282312065,-57.92844564042126,-64.4800973062539,6.551651665832637,57.20608439959229,62.878107311014475,-5.672022911422182,25.491626370801708,38.52785938422839,-13.036233013426685,-0.04634769871070506,0.0,-0.04634769871070506
0.6060000000000004,move_to_zero,-0.12483414095261523,-3.0714204748867986,2.9465863339341833,-57.84594509741553,-64.38785110123777,6.541906003822241,57.10598730874318,62.78815293717897,-5.68216562843579,25.42276304475109,38.47274084433679,-13.049977799585701,-0.04641184522486234,0.0,-0.04641184522486234
0.6080000000000004,move_to_zero,-0.1246635394716791,-3.067020159020199,2.94235661954852,-57.7634401405252,-64.29560489622169,6.532164755696492,57.00584099399998,62.698198563343475,-5.692357569343493,25.353939673816075,38.417622304445196,-13.06368263062912,-0.04647168916202825,0.0,-0.04647168916202825
0.6100000000000004,move_to_zero,-0.12449827294194711,-3.0626198431535987,2.9381215702116514,-57.68091019551552,-64.20335869120557,6.522448495690043,56.90565801555374,62.60824418950797,-5.702586173954231,25.285147728354115,38.36250376455359,-13.077356036199472,-0.04652811097285604,0.0,-0.04652811097285604
0.6120000000000004,move_to_zero,-0.1243374788732783,-3.0582195272869988,2.9338820484137202,-57.5983623861957,-64.11111248618948,6.512750099993781,56.80544736361018,62.51828981567248,-5.712842452062304,25.21635845381206,38.30738522466199,-13.091026770849933,-0.046581521098620335,0.0,-0.046581521098620335
0.6140000000000004,move_to_zero,-0.12418074203988691,-3.0538192114203984,2.9296384693805115,-57.515784697189154,-64.01886628117337,6.503081583984219,56.705190973371934,62.42833544183697,-5.723144468465037,25.147585722505593,38.25226668477038,-13.10468096226479,-0.04663186598509834,0.0,-0.04663186598509834
0.6160000000000004,move_to_zero,-0.12402884046859387,-3.0494188955537993,2.9253900550852054,-57.433187668338846,-63.926620076157285,6.493432407818439,56.60489518123294,62.33838106800148,-5.733485886768541,25.078818460191236,38.197148144878796,-13.11832968468756,-0.04667873996182262,0.0,-0.04667873996182262
0.6180000000000004,move_to_zero,-0.12387986351129252,-3.045018579687199,2.9211387161759066,-57.35054375395357,-63.83437387114118,6.483830117187608,56.50455386599007,62.248426694165964,-5.7438728281758955,25.01004402831238,38.14202960498719,-13.131985576674808,-0.04672035812854774,0.0,-0.04672035812854774
0.6200000000000004,move_to_zero,-0.12373218690985212,-3.040618263820599,2.916886076910747,-57.26785070124935,-63.742127666125086,6.474276964875735,56.40418045081596,62.15847232033048,-5.754291869514525,24.94127910648846,38.08691106509559,-13.145631958607133,-0.04675583534680261,0.0,-0.04675583534680261
0.6220000000000004,move_to_zero,-0.12358528290031812,-3.0362179479539986,2.9126326650536805,-57.185102128058,-63.649881461108976,6.464779333050977,56.303775515762325,62.068517946494964,-5.764742430732639,24.87254282150201,38.03179252520398,-13.159249703701974,-0.046786448062432304,0.0,-0.046786448062432304
0.6240000000000004,move_to_zero,-0.12343926651247362,-3.031817632087399,2.9083783655749254,-57.10228116227311,-63.55763525609289,6.455354093819778,56.203335903626574,61.978563572659475,-5.775227669032901,24.803834818436428,37.97667398531239,-13.17283916687596,-0.046809292477106045,0.0,-0.046809292477106045
0.6260000000000004,move_to_zero,-0.12329544987115039,-3.0274173162207987,2.9041218663496484,-57.01939531657791,-63.46538905107678,6.445993734498863,56.102856390971944,61.888609198823964,-5.78575280785202,24.735192209261495,37.921555445420786,-13.186363236159291,-0.04682500638958725,0.0,-0.04682500638958725
0.6280000000000004,move_to_zero,-0.12315457822819333,-3.0230170003541987,2.8998624221260054,-56.93643925330221,-63.37314284606068,6.4367035927584695,56.00234310930407,61.798654824988475,-5.7963117156844035,24.666643686851522,37.86643690552919,-13.19979321867767,-0.04683557871695148,0.0,-0.04683557871695148
0.6300000000000004,move_to_zero,-0.12301587006589207,-3.0186166844875983,2.8956008144217065,-56.8534245915652,-63.28089664104458,6.427472049479377,55.901797751971515,61.70870045115297,-5.806902699181457,24.598186524192425,37.81131836563759,-13.213131841445165,-0.04684516357431211,0.0,-0.04684516357431211
0.6320000000000005,move_to_zero,-0.12287845290275749,-3.0142163686209993,2.8913379157182417,-56.7703535787418,-63.18865043602848,6.418296857286684,55.80120317425966,61.618746077317475,-5.817542903057813,24.52984556263758,37.756199825745995,-13.226354263108416,-0.04685299703025089,0.0,-0.04685299703025089
0.6340000000000005,move_to_zero,-0.12274073522794504,-3.009816052754399,2.887075317526454,-56.68723248573132,-63.09640423101237,6.40917174528105,55.700571568702244,61.52879170348197,-5.828220134779727,24.46161630861686,37.701081285854386,-13.239464977237525,-0.04685898631597302,0.0,-0.04685898631597302
0.6360000000000005,move_to_zero,-0.12260294577413343,-3.005415736887799,2.8828127911136656,-56.604044696979585,-63.00415802599628,6.400113329016698,55.5999036050709,61.43883732964648,-5.838933724575583,24.393495797919464,37.64596274596279,-13.252466948043327,-0.04686339192466271,0.0,-0.04686339192466271
0.6380000000000005,move_to_zero,-0.12246620948807674,-3.0010154210211986,2.8785492115331217,-56.52079574381942,-62.91191182098017,6.391116077160753,55.4992009277699,61.348882955810964,-5.849682028041066,24.325475776627552,37.59084420607118,-13.26536842944363,-0.04686617043428124,0.0,-0.04686617043428124
0.6400000000000005,move_to_zero,-0.12232841253955143,-2.996615105154599,2.8742866926150477,-56.437467843146905,-62.81966561596408,6.382197772817172,55.39846809930603,61.25892858197548,-5.860460482669453,24.257554938326138,37.535725666179594,-13.278170727853457,-0.046863693357970325,0.0,-0.046863693357970325
0.6420000000000005,move_to_zero,-0.12219008146668542,-2.9922147892879987,2.8700247078213135,-56.35405836503926,-62.727419410947974,6.373361045908716,55.297708198891506,61.168974208139964,-5.871266009248458,24.189754803441748,37.480607126287985,-13.290852322846238,-0.04685658712793044,0.0,-0.04685658712793044
0.6440000000000005,move_to_zero,-0.12205248213662333,-2.987814473421399,2.865761991284776,-56.27055804097615,-62.63517320593189,6.364615164955744,55.19690722813969,61.079019834304475,-5.882112606164782,24.12210307747957,37.42548858639639,-13.303385508916822,-0.04684587480992955,0.0,-0.04684587480992955
0.6460000000000005,move_to_zero,-0.1219147505067154,-2.9834141575547983,2.861499407048083,-56.186949955455184,-62.54292700091577,6.355977045460584,55.09605187098512,60.989065460468964,-5.893013589483843,24.054593117533724,37.37037004650478,-13.315776928971058,-0.046834047324942306,0.0,-0.046834047324942306
0.6480000000000005,move_to_zero,-0.12177728481614442,-2.9790138416881993,2.857236556872055,-56.103240471625284,-62.450680795899686,6.347440324274402,54.995137552201705,60.899111086633475,-5.9039735344317705,23.987218131276105,37.31525150661319,-13.328033375337082,-0.04682205253650636,0.0,-0.04682205253650636
0.6500000000000005,move_to_zero,-0.12163873314521494,-2.9746135258215984,2.8529747926763833,-56.0194580836013,-62.35843459088357,6.338976507282268,54.89416972325168,60.80915671279797,-5.914986989546293,23.919971171313225,37.260132966721585,-13.34016179540836,-0.04680868756933867,0.0,-0.04680868756933867
0.6520000000000005,move_to_zero,-0.12149978240476413,-2.970213209954999,2.848713427550235,-55.93562005715394,-62.26618838586749,6.330568328713547,54.793161913872396,60.719202338962475,-5.926040425090079,23.852852255786594,37.20501442682999,-13.352162171043396,-0.04679401432460298,0.0,-0.04679401432460298
