GerardoFJ/TE3001B_TEAM_3/src/s0s1_gazebo/scripts/results/PID1/state.csv
t,phase,shoulder_pan_actual_deg,shoulder_pan_desired_deg,shoulder_pan_error_deg,shoulder_lift_actual_deg,shoulder_lift_desired_deg,shoulder_lift_error_deg,elbow_flex_actual_deg,elbow_flex_desired_deg,elbow_flex_error_deg,wrist_flex_actual_deg,wrist_flex_desired_deg,wrist_flex_error_deg,wrist_roll_actual_deg,wrist_roll_desired_deg,wrist_roll_error_deg
0.002,move_to_zero,-4.376474382407018,-4.4003158666,0.02384148419298171,-92.21682027023317,-92.2462050161,0.02938474586683526,89.9402674989065,89.9543738355,-0.014106336593499691,55.09939055982472,55.1185398916,-0.019149331775281553,0.0017248340730163765,0.0,0.0017248340730163765
0.004,move_to_zero,-4.330909250178946,-4.3959155507334,0.06500630055445367,-92.15703036296084,-92.15395881108391,-0.0030715518769284245,89.91133914230059,89.86441946166448,0.046919680636108296,55.06123915321848,55.0634213517084,-0.002182198489919074,0.00446245051676059,0.0,0.00446245051676059
0.006,move_to_zero,-4.265879805689268,-4.3915152348668,0.12563542917753168,-92.06898218823984,-92.0617126060678,-0.007269582172042988,89.86832525625111,89.77446508782899,0.09386016842212541,55.0051171967539,55.008302811816804,-0.003185615062903935,0.007530722294308214,0.0,0.007530722294308214
0.008,move_to_zero,-4.183463503120373,-4.3871149190002,0.20365141587982727,-91.95472703514105,-91.9694664010517,0.014739365910656943,89.81192361768521,89.68451071399349,0.1274129036917202,54.93201027131523,54.953184271925196,-0.021174000609967436,0.010387987886506399,0.0,0.010387987886506399
0.01,move_to_zero,-4.085548525916658,-4.382714603133599,0.2971660772169411,-91.81620919376077,-91.8772201960356,0.06101100227482448,89.74280095229007,89.594556340158,0.14824461213207485,54.842876397431084,54.8980657320336,-0.05518933460251674,0.012706991371328843,0.0,0.012706991371328843
0.012,move_to_zero,-3.9738685428124003,-4.378314287266999,0.4044457444545988,-91.65523896411759,-91.7849739910195,0.12973502690191197,89.66159276639723,89.50460196632248,0.15699080007475175,54.73864442658528,54.842947192142,-0.10430276555671725,0.014562295558256394,0.0,0.014562295558256394
0.014,move_to_zero,-3.849991536611706,-4.373913971400399,0.5239224347886933,-91.47351703262288,-91.69272778600339,0.21921075338050855,89.56891963850926,89.41464759248699,0.15427204602227107,54.620183603858486,54.787828652250404,-0.1676450483919183,0.01602074220588199,0.0,0.01602074220588199
0.016,move_to_zero,-3.71536442699139,-4.369513655533799,0.6541492285424093,-91.27261643796709,-91.6004815809873,0.32786514302021885,89.46535803249924,89.32469321865149,0.14066481384774931,54.48833337408385,54.7327101123588,-0.24437673827495132,0.01714085140064132,0.0,0.01714085140064132
0.018000000000000002,move_to_zero,-3.5712831139708907,-4.3651133396672,0.7938302256963095,-91.05402813737227,-91.5082353759712,0.45420723859892576,89.35146845337462,89.234738844816,0.11672960855862868,54.34388084540315,54.6775915724672,-0.3337107270640516,0.017844512246226785,0.0,0.017844512246226785
0.020000000000000004,move_to_zero,-3.418951314652123,-4.3607130238006,0.9417617091484773,-90.8191705521714,-91.4159891709551,0.5968186187837006,89.22781349144336,89.1447844709805,0.08302902046285965,54.18759474125696,54.6224730325756,-0.43487829131863975,0.01809109315398899,0.0,0.01809109315398899
0.022000000000000006,move_to_zero,-3.2594846617909057,-4.356312707934,1.0968280461430946,-90.5693734508346,-91.323742965939,0.7543695151044005,89.09491212957589,89.05483009714499,0.04008203243090236,54.02017729213582,54.567354492684,-0.5471772005481768,0.017920576413382183,0.0,0.017920576413382183
0.024000000000000007,move_to_zero,-3.093877648452474,-4.351912392067399,1.2580347436149255,-90.30590996764712,-91.2314967609229,0.9255867932757695,88.953268988083,88.96487572330949,-0.01160673522649347,53.842315682878876,54.5122359527924,-0.6699202699135256,0.017392125845053473,0.0,0.017392125845053473
0.02600000000000001,move_to_zero,-2.9230547636475257,-4.3475120762007995,1.4244573125532738,-90.02994058826893,-91.1392505559068,1.10930996763787,88.80338638907892,88.874921349474,-0.0715349603950699,53.65464681801492,54.4571174129008,-0.8024705948858823,0.01662439649951564,0.0,0.01662439649951564
0.02800000000000001,move_to_zero,-2.747834506671725,-4.3431117603341995,1.5952772536624744,-89.74258040044994,-91.0470043508907,1.3044239504407642,88.64573568623193,88.78496697563848,-0.1392312894065526,53.45778847046929,54.401998873009205,-0.9442104025399161,0.015742573170565363,0.0,0.015742573170565363
0.030000000000000013,move_to_zero,-2.5689995943542896,-4.3387114444676,1.76971185011331,-89.4448711620894,-90.9547581458746,1.5098869837852078,88.48076717162054,88.695012601803,-0.21424543018245856,53.252340438811984,54.3468803331176,-1.094539894305619,0.01486757053491279,0.0,0.01486757053491279
0.032000000000000015,move_to_zero,-2.3872353533961523,-4.334311128601,1.9470757752048473,-89.13779705324437,-90.8625119408585,1.7247148876141267,88.30893375822379,88.60505822796749,-0.29612446974370243,53.03885416608066,54.291761793225994,-1.2529076271453334,0.014087471059533362,0.0,0.014087471059533362
0.034000000000000016,move_to_zero,-2.2031685666013607,-4.3299108127344,2.126742246133039,-88.8222984341629,-90.7702657358424,1.9479673016794976,88.13063301613843,88.51510385413198,-0.38447083799354687,52.81785244807046,54.2366432533344,-1.4187908052639386,0.013420634686673576,0.0,0.013420634686673576
0.03600000000000002,move_to_zero,-2.017340167207286,-4.3255104968678,2.3081703296605136,-88.4992463124712,-90.67801953082629,2.17877321835509,87.94626369755953,88.4251494802965,-0.4788857827369668,52.58983864505209,54.1815247134428,-1.5916860683907075,0.012849639337435326,0.0,0.012849639337435326
0.03800000000000002,move_to_zero,-1.8302752138074418,-4.3211101810012,2.490834967193758,-88.16943563087645,-90.5857733258102,2.4163376949337447,87.75622272366587,88.33519510646099,-0.578972382795115,52.35527100339549,54.1264061735512,-1.7711351701557163,0.01235846010535008,0.0,0.01235846010535008
0.04000000000000002,move_to_zero,-1.6424601471438676,-4.316709865134599,2.6742497179907314,-87.8336173808261,-90.4935271207941,2.6599097399680005,87.56087260378126,88.24524073262549,-0.6843681288442269,52.114616936401504,54.0712876336596,-1.9566706972580974,0.011933722143668475,0.0,0.011933722143668475
0.04200000000000002,move_to_zero,-1.454326861314997,-4.312309549267999,2.857982687953002,-87.49249877114164,-90.401280915778,2.908782144636362,87.36054926984225,88.15528635879,-0.7947370889477412,51.86828962941574,54.016169093768006,-2.1478794643522647,0.011564175214326141,0.0,0.011564175214326141
0.044000000000000025,move_to_zero,-1.266243400218591,-4.307909233401399,3.041665833182808,-87.14676821579894,-90.3090347107619,3.1622664949629637,87.15561134168323,88.06533198495448,-0.9097206432712568,51.616684561911555,53.9610505538764,-2.3443659919648425,0.011240789381145618,0.0,0.011240789381145618
0.04600000000000003,move_to_zero,-1.0785744739461929,-4.3035089175348,3.224934443588607,-86.79702666616257,-90.2167885057458,3.4197618395832308,86.94640766405493,87.97537761111899,-1.0289699470640556,51.360187836553436,53.905932013984796,-2.5457441774313594,0.010954121323164284,0.0,0.010954121323164284
0.04800000000000003,move_to_zero,-0.8916386818536658,-4.2991086016682,3.407469919814534,-86.44383634968614,-90.1245423007297,3.6807059510435636,86.7332478411325,87.88542323728349,-1.1521753961509944,51.09916816980985,53.8508134740932,-2.7516453042833504,0.010695377839904974,0.0,0.010695377839904974
0.05000000000000003,move_to_zero,-0.7057249094947814,-4.2947082858016,3.588983376306819,-86.08772108086451,-90.03229609571359,3.944575014849079,86.51643279478155,87.795468863448,-1.2790360686664428,50.83399075234649,53.7956949342016,-2.9617041818551115,0.010458468076352033,0.0,0.010458468076352033
0.05200000000000003,move_to_zero,-0.5210768322124489,-4.290307969935,3.769231137722551,-85.72919606743622,-89.9400498906975,4.210853823261274,86.29625595449201,87.70551448961248,-1.4092585351204718,50.56498234260873,53.740576394310004,-3.1755940517012746,0.01023777759399356,0.0,0.01023777759399356
0.054000000000000034,move_to_zero,-0.3379175525420119,-4.285907654068399,3.9479901015263876,-85.36870868941772,-89.8478036856814,4.479094996263683,86.07298827719481,87.61556011577699,-1.5425718385821767,50.29244272989316,53.6854578544184,-3.393015124525242,0.01002962554513374,0.0,0.01002962554513374
0.056000000000000036,move_to_zero,-0.16959697000951654,-4.281507338201799,4.111910368192283,-85.00669967354509,-89.7555574806653,4.748857807120217,85.84688447573029,87.52560574194149,-1.6787212662111983,50.01663588607528,53.6303393145268,-3.6137034284515224,0.00982983573181694,0.0,0.00982983573181694
0.05800000000000004,move_to_zero,-0.03345461791051689,-4.2771070223351995,4.243652404424682,-84.64358684782137,-89.66331127564919,5.019724427827825,85.61820082259808,87.43565136810598,-1.8174505455078958,49.737829674729475,53.5752207746352,-3.837391099905723,0.009633080443954486,0.0,0.009633080443954486
0.06000000000000004,move_to_zero,0.0627235813926477,-4.2727067064685995,4.335430287861247,-84.27972950980995,-89.5710650706331,5.291335560823143,85.3871750915127,87.3456969942705,-1.958521902757795,49.45630120965479,53.5201022347436,-4.063801025088807,0.009436487354801161,0.0,0.009436487354801161
0.06200000000000004,move_to_zero,0.11787320224461105,-4.268306390602,4.38617959284661,-83.9154737497737,-89.478818865617,5.563345115843305,85.15404242272918,87.25574262043499,-2.10170019770581,49.17231180986365,53.464983694852,-4.292671884988351,0.009238725951079912,0.0,0.009238725951079912
0.06400000000000004,move_to_zero,0.1360815241744307,-4.2639060747354,4.3999875989098305,-83.55114559421845,-89.38657266060089,5.835427066382437,84.91902768211145,87.16578824659948,-2.246760564488028,48.886093474479054,53.4098651549604,-4.523771680481346,0.009040861947386231,0.0,0.009040861947386231
0.06600000000000004,move_to_zero,0.1249988813150859,-4.2595057588688,4.384504640183885,-83.18704860185827,-89.29432645558481,6.1072778537265435,84.68236156147714,87.075833872764,-2.393472311286857,48.597899661118234,53.354746615068805,-4.756846953950571,0.008844146612849605,0.0,0.008844146612849605
0.06800000000000005,move_to_zero,0.09406559875901961,-4.2551054430022,4.3491710417612195,-82.82349059171689,-89.2020802505687,6.3785896588518085,84.4442676118879,86.98587949892848,-2.541611887040588,48.30796590858917,53.299628075177196,-4.9916621665880285,0.008649703814654566,0.0,0.008649703814654566
0.07000000000000005,move_to_zero,0.05267167844213892,-4.250705127135599,4.303376805577738,-82.46075235065108,-89.1098340455526,6.6490816949015255,84.20492641366222,86.89592512509299,-2.6909987114307654,48.0165215479632,53.2445095352856,-5.2279879873224,0.00845544139226842,0.0,0.00845544139226842
0.07200000000000005,move_to_zero,0.008969633592876508,-4.246304811268999,4.255274444861875,-82.09909937961454,-89.01758784053649,6.9184884609219495,83.96450545629553,86.80597075125749,-2.8414652949619637,47.7237745869182,53.189390995394,-5.465616408475796,0.008261200005515813,0.0,0.008261200005515813
0.07400000000000005,move_to_zero,-0.03082496234285875,-4.241904495402399,4.21107953305954,-81.73876487488343,-88.9253416355204,7.186576760636967,83.7231707132567,86.71601637742198,-2.992845664165273,47.42991329951871,53.1342724555024,-5.704359155983688,0.008065022200987874,0.0,0.008065022200987874
0.07600000000000005,move_to_zero,-0.06267603067331946,-4.2375041795358,4.17482814886248,-81.37995269736436,-88.83309543050429,7.453142733139927,83.48110322979285,86.62606200358648,-3.1449587737936326,47.13510004674851,53.0791539156108,-5.944053868862291,0.007865599433331514,0.0,0.007865599433331514
0.07800000000000006,move_to_zero,-0.08541574025308775,-4.2331038636692,4.1476881234161125,-81.0228443657732,-88.74084922548819,7.718004859714995,83.23845738035264,86.53610762975099,-3.2976502493983446,46.83950772056433,53.0240353757192,-6.184527655154874,0.007663124287731364,0.0,0.007663124287731364
0.08000000000000006,move_to_zero,-0.098611281086382,-4.2287035478026,4.130092266716218,-80.66759635061254,-88.6486030204721,7.981006669859553,82.99538798492709,86.44615325591549,-3.4507652709883985,46.54329273500843,52.9689168358276,-6.425624100819171,0.007449613378822511,0.0,0.007449613378822511
0.08200000000000006,move_to_zero,-0.10312552257187384,-4.224303231936,4.121177709364126,-80.31436501661562,-88.556356815456,8.241991798840374,82.75204480210782,86.35619888207998,-3.6041540799721616,46.24659787338015,52.913798295936,-6.667200422555844,0.007233370684633416,0.0,0.007233370684633416
0.08400000000000006,move_to_zero,-0.10072771646152504,-4.219902916069399,4.1191751996078745,-79.96329812133092,-88.4641106104399,8.50081248910898,82.5085469596776,86.26624450824448,-3.757697548566881,45.94951443864369,52.858679756044396,-6.909165317400706,0.006995061783733024,0.0,0.006995061783733024
0.08600000000000006,move_to_zero,-0.09354911794451062,-4.215502600202799,4.121953482258289,-79.61453921395074,-88.37186440542379,8.757325191473058,82.26501690864104,86.17629013440899,-3.9112732257679426,45.65219429375208,52.8035612161528,-7.151366922400719,0.00673215629698611,0.0,0.00673215629698611
0.08800000000000006,move_to_zero,-0.08374868917919748,-4.211102284336199,4.127353595157002,-79.268202508464,-88.2796182004077,9.011415691943697,82.02159188108284,86.08633576057349,-4.064743879490649,45.35476997710864,52.7484426762612,-7.39367269915256,0.006446931264656166,0.0,0.006446931264656166
0.09000000000000007,move_to_zero,-0.07322331950091986,-4.206701968469599,4.13347864896868,-78.9244010245817,-88.18737199539159,9.262970970809889,81.7784080485275,85.996381386738,-4.2179733382104985,45.05733916385152,52.693324136369604,-7.635984972518081,0.00613911340601027,0.0,0.00613911340601027
0.09200000000000007,move_to_zero,-0.06347336492753454,-4.2023016526029995,4.138828287675465,-78.58320243039374,-88.0951257903755,9.511923359981765,81.5355959220237,85.90642701290248,-4.370831090878781,44.760005648869985,52.638205596477995,-7.87819994760801,0.005826521485886703,0.0,0.005826521485886703
0.09400000000000007,move_to_zero,-0.055513022544498525,-4.1979013367363995,4.142388314191901,-78.24468630300466,-88.0028795853594,9.758193282354739,81.29326148085204,85.81647263906699,-4.523211158214949,44.46287789034092,52.5830870565864,-8.12020916624548,0.0054951929670327216,0.0,0.0054951929670327216
0.09600000000000007,move_to_zero,-0.04918710289713572,-4.1935010208698,4.144313917972664,-77.9089105846942,-87.9106333803433,10.001722795649101,81.05150975185326,85.72651826523149,-4.675008513378231,44.16605702062403,52.5279685166948,-8.361911496070768,0.005180290848799522,0.0,0.005180290848799522
0.09800000000000007,move_to_zero,-0.044706857099183976,-4.1891007050032,4.144393847904015,-77.5759703834616,-87.81838717532719,10.242416791865594,80.81045745579475,85.63656389139598,-4.826106435601233,43.869652626643216,52.4728499768032,-8.60319735015998,0.004884969175930101,0.0,0.004884969175930101
0.10000000000000007,move_to_zero,-0.04209322096699711,-4.184700389136599,4.142607168169602,-77.24591872822303,-87.72614097031109,10.480222242088061,80.57019087720354,85.5466095175605,-4.976418640356954,43.57375114314241,52.4177314369116,-8.843980293769192,0.004605355653603796,0.0,0.004605355653603796
0.10200000000000008,move_to_zero,-0.04112017860872591,-4.180300073269999,4.139179894661273,-76.91880487906846,-87.633894765295,10.715089886226536,80.33078800711868,85.45665514372499,-5.125867136606303,43.2784278851748,52.36261289702,-9.0841850118452,0.004340604284817734,0.0,0.004340604284817734
0.10400000000000008,move_to_zero,-0.04142330804222375,-4.1758997574034,4.134476449361176,-76.59467479809882,-87.5416485602789,10.946973762180079,80.09231544962806,85.36670076988948,-5.274385320261416,42.98376288453897,52.3074943571284,-9.32373147258943,0.0040887050256633905,0.0,0.0040887050256633905
0.10600000000000008,move_to_zero,-0.042580326711230514,-4.1714994415368,4.128919114825569,-76.27356657352777,-87.4494023552628,11.175835781735032,79.85485205933806,85.276746396054,-5.421894336715937,42.689807101343305,52.252375817236796,-9.562568715893491,0.0038461603190533137,0.0,0.0038461603190533137
0.10800000000000008,move_to_zero,-0.04415995110567796,-4.1670991256702,4.122939174564522,-75.95552127803647,-87.3571561502467,11.401634872210224,79.61847545990115,85.18679202221848,-5.568316562317335,42.396655362076416,52.1972572773452,-9.800601915268786,0.0036099518531189424,0.0,0.0036099518531189424
0.11000000000000008,move_to_zero,-0.04580414010029547,-4.1626988098036,4.116894669703305,-75.6405600850907,-87.2649099452306,11.624349860139901,79.38323885846901,85.09683764838299,-5.7135987899139735,42.10438146354235,52.1421387374536,-10.037757273911247,0.0033812165735404285,0.0,0.0033812165735404285
0.11200000000000009,move_to_zero,-0.04724896932843304,-4.158298493937,4.111049524608567,-75.32871474942287,-87.17266374021449,11.843948990791617,79.14921074218167,85.00688327454749,-5.857672532365825,41.813027732621585,52.087020197562,-10.273992464940413,0.003155860690597877,0.0,0.003155860690597877
0.11400000000000009,move_to_zero,-0.048423553786066754,-4.153898178070399,4.105474624284333,-75.01998213192876,-87.0804175351984,12.060435403269636,78.91646615184476,84.91692890071198,-6.000462748867221,41.522654650560256,52.031901657670396,-10.50924700711014,0.002933163197632221,0.0,0.002933163197632221
0.11600000000000009,move_to_zero,-0.04937012157102285,-4.149497862203799,4.100127740632776,-74.71437629706985,-86.9881713301823,12.27379503311245,78.68504134267278,84.82697452687648,-6.141933184203708,41.23331845026461,51.976783117778794,-10.743464667514182,0.002713934600224157,0.0,0.002713934600224157
0.11800000000000009,move_to_zero,-0.050125032119093235,-4.145097546337199,4.094972514218106,-74.41191135361666,-86.8959251251662,12.484013771549542,78.45498026126428,84.73702015304099,-6.282039891776705,40.94507466676814,51.9216645778872,-10.976589911119056,0.0024961336340841404,0.0,0.0024961336340841404
0.12000000000000009,move_to_zero,-0.050717586280607824,-4.140697230470599,4.089979644189992,-74.11258913016553,-86.80367892015009,12.69108978998456,78.22632865304361,84.64706577920549,-6.420737126161882,40.65797312686703,51.8665460379956,-11.20857291112857,0.0022783156709545002,0.0,0.0022783156709545002
0.1220000000000001,move_to_zero,-0.05117088204621936,-4.136296914603999,4.08512603255778,-73.81639433951885,-86.711432715134,12.895038375615144,77.99913055964092,84.55711140536998,-6.5579808457290625,40.372031153748175,51.811427498104,-11.439396344355828,0.0020600726213847098,0.0,0.0020600726213847098
0.1240000000000001,move_to_zero,-0.051507952290339123,-4.1318965987373995,4.0803886464470605,-73.52330666086714,-86.6191865101179,13.095879849250764,77.77343291520029,84.46715703153448,-6.693724116334195,40.08728724887963,51.7563089582124,-11.669021709332768,0.0018128444463991556,0.0,0.0018128444463991556
0.12600000000000008,move_to_zero,-0.05174713965211184,-4.1274962828707995,4.075749143218688,-73.23330861656889,-86.52694030510179,13.293631688532898,77.54929816539456,84.37720265769899,-6.827904492304427,39.80378138376157,51.70119041832079,-11.897409034559224,0.0015259714844287988,0.0,0.0015259714844287988
0.12800000000000009,move_to_zero,-0.051843355370401994,-4.1230959670042,4.071252611633797,-72.94638808710455,-86.4346941000857,13.488306012981141,77.32674281582784,84.28724828386348,-6.960505468035635,39.52155242803894,51.6460718784292,-12.12451945039026,0.0011914062090385882,0.0,0.0011914062090385882
0.1300000000000001,move_to_zero,-0.051765863046287386,-4.118695651137599,4.066929788091311,-72.66251316670727,-86.3424478950696,13.679934728362326,77.10578782038478,84.197293910028,-7.091506089643218,39.240641252768974,51.590953338537595,-12.350312085768621,0.0008256598713440885,0.0,0.0008256598713440885
0.1320000000000001,move_to_zero,-0.051533671797690486,-4.114295335270999,4.062761663473308,-72.38168376991213,-86.2502016900535,13.868517920141372,76.88644216056277,84.10733953619248,-7.220897375629718,38.96109142373414,51.535834798646,-12.574743374911861,0.0004443127109200732,0.0,0.0004443127109200732
0.1340000000000001,move_to_zero,-0.05116129872422256,-4.1098950194044,4.058733720680177,-72.10390294776525,-86.15795548503739,14.054052537272142,76.66872220482529,84.01738516235697,-7.348662957531687,38.682933254554605,51.4807162587544,-12.797783004199793,7.022750404404462e-05,0.0,7.022750404404462e-05
0.1360000000000001,move_to_zero,-0.050676718972943895,-4.1054947035378,4.054817984564856,-71.82914132914352,-86.0657092800213,14.23656795087777,76.45263538768849,83.92743078852149,-7.474795400833003,38.40617743714925,51.425597718862804,-13.01942028171355,-0.0002741901613739937,0.0,-0.0002741901613739937
0.1380000000000001,move_to_zero,-0.05015552804986755,-4.1010943876712,4.050938859621333,-71.55735487998778,-85.97346307500518,14.4161081950174,76.23820647081378,83.83747641468598,-7.599269943872201,38.13086571175119,51.370479178971195,-13.239613467220003,-0.0005949850269475519,0.0,-0.0005949850269475519
0.1400000000000001,move_to_zero,-0.049646791135420594,-4.0966940718046,4.0470472806691795,-71.28848168058994,-85.88121686998909,14.59273518939915,76.02544641538793,83.74752204085048,-7.722075625462551,37.85704051572982,51.31536063907959,-13.458320123349772,-0.0009038694715209951,0.0,-0.0009038694715209951
0.1420000000000001,move_to_zero,-0.04919243275351355,-4.092293755938,4.043101323184486,-71.02250308687826,-85.788970664973,14.766467578094733,75.81438469431953,83.65756766701499,-7.843182972695459,37.58469782341297,51.260242099188,-13.675544275775032,-0.001194541271503808,0.0,-0.001194541271503808
0.1440000000000001,move_to_zero,-0.04880141693222106,-4.087893440071399,4.039092023139178,-70.75939883571216,-85.6967244599569,14.937325624244735,75.60502878783055,83.56761329317948,-7.962584505348929,37.31385269660543,51.205123559296396,-13.891270862690966,-0.0014715739923553814,0.0,-0.0014715739923553814
0.1460000000000001,move_to_zero,-0.0484614539569526,-4.083493124204799,4.035031670247847,-70.49915331986044,-85.6044782549408,15.105324935080361,75.39737456715714,83.47765891934398,-8.080284352186837,37.04451938208169,51.1500050194048,-14.105485637323113,-0.0017365612575924237,0.0,-0.0017365612575924237
0.1480000000000001,move_to_zero,-0.048162015485523076,-4.079092808338199,4.0309307928526765,-70.24174408608714,-85.51223204992469,15.270487963837553,75.19141919114337,83.38770454550848,-8.196285354365116,36.77672358926181,51.0948864795132,-14.318162890251386,-0.0019931184995950818,0.0,-0.0019931184995950818
0.1500000000000001,move_to_zero,-0.04789520557273203,-4.074692492471599,4.0267972868988675,-69.98713270582077,-85.4199858449086,15.432853139087825,74.9871679831803,83.29775017167299,-8.310582188492688,36.51046314668356,51.0397679396216,-14.529304792938035,-0.002242498519567699,0.0,-0.002242498519567699
0.1520000000000001,move_to_zero,-0.047650754682012034,-4.070292176604999,4.022641421922987,-69.73528575245243,-85.32773963989249,15.592453887440058,74.78461373233996,83.20779579783748,-8.423182065497514,36.245745967695754,50.984649399729996,-14.738903432034242,-0.0024866296184764716,0.0,-0.0024866296184764716
0.1540000000000001,move_to_zero,-0.047424758280567636,-4.065891860738399,4.018467102457832,-69.48616850806823,-85.23549343487639,15.749324926808157,74.58373952010164,83.11784142400198,-8.534101903900336,35.98259052996007,50.929530859838394,-14.946940329878323,-0.0027479152086765826,0.0,-0.0027479152086765826
0.1560000000000001,move_to_zero,-0.0472003178259324,-4.061491544871799,4.014291227045867,-69.2397292061589,-85.1432472298603,15.903518023701395,74.38453052921784,83.02788705016648,-8.643356520948643,35.720986288952346,50.8744123199468,-15.153426030994453,-0.0030369059786720404,0.0,-0.0030369059786720404
0.1580000000000001,move_to_zero,-0.046958799875219885,-4.0570912290051995,4.01013242912998,-68.99594558382749,-85.0510010248442,16.055055441016705,74.18698201840697,82.93793267633099,-8.750950657924022,35.46094767193421,50.8192937800552,-15.35834610812099,-0.0033577243445089945,0.0,-0.0033577243445089945
0.16000000000000011,move_to_zero,-0.0467075159738214,-4.052690913138599,4.005983397164777,-68.75479874079689,-84.95875481982809,16.2039560790312,73.99107347830957,82.84797830249549,-8.856904824185918,35.20250769596774,50.7641752401636,-15.561667544195863,-0.003702234752636065,0.0,-0.003702234752636065
0.16200000000000012,move_to_zero,-0.04644002898120542,-4.048290597272,4.001850568290794,-68.51625106074933,-84.86650861481199,16.350257554062665,73.79680569723483,82.75802392865998,-8.96121823142515,34.945694762620164,50.709056700271994,-15.76336193765183,-0.0040722040439992,0.0,-0.0040722040439992
0.16400000000000012,move_to_zero,-0.0461673024500368,-4.0438902814054,3.997722978955363,-68.2802862961487,-84.7742624097959,16.493976113647193,73.60418943085438,82.66806955482448,-9.063880123970108,34.69051785158348,50.6539381603804,-15.96342030879692,-0.004464122143272605,0.0,-0.004464122143272605
0.16600000000000012,move_to_zero,-0.04588901707774604,-4.0394899655388,3.9936009484610535,-68.0468433945493,-84.68201620477979,16.635172810230486,73.41318602557233,82.57811518098899,-9.164929155416658,34.436982233052674,50.5988196204888,-16.161837387436123,-0.00487396604763388,0.0,-0.00487396604763388
0.16800000000000012,move_to_zero,-0.04561562290635783,-4.0350896496722,3.989474026765842,-67.81588790411311,-84.5897699997637,16.773882095650592,73.22377724734885,82.48816080715348,-9.264383559804628,34.185068326514994,50.543701080597195,-16.3586327540822,-0.005257852109901598,0.0,-0.005257852109901598
0.17000000000000012,move_to_zero,-0.04534490139115792,-4.0306893338056,3.985344432414442,-67.58739313566906,-84.4975237947476,16.910130659078533,73.03593970739304,82.398206433318,-9.362266725924954,33.93476612411741,50.4885825407056,-16.55381641658819,-0.005609447934110637,0.0,-0.005609447934110637
0.17200000000000013,move_to_zero,-0.04507070784047759,-4.026289017939,3.981218310098522,-67.36133754736645,-84.4052775897315,17.04394004236505,72.84967237082336,82.30825205948248,-9.458579688659128,33.686068951654434,50.433464000814,-16.747395049159564,-0.005932464982920056,0.0,-0.005932464982920056
0.17400000000000013,move_to_zero,-0.044789681685013814,-4.021888702072399,3.977099020387385,-67.13769315105564,-84.31303138471539,17.175338233659744,72.66497279369666,82.21829768564697,-9.55332489195031,33.43896078348273,50.3783454609224,-16.93938467743967,-0.00623341040750774,0.0,-0.00623341040750774
0.17600000000000013,move_to_zero,-0.044512829352857636,-4.017488386205799,3.9729755568529415,-66.91641216888465,-84.22078517969929,17.304373010814643,72.48183411775223,82.12834331181149,-9.646509194059263,33.19343813526002,50.323226921030795,-17.129788785770778,-0.006516863138127068,0.0,-0.006516863138127068
0.17800000000000013,move_to_zero,-0.04424642010030252,-4.013088070339199,3.968841650238897,-66.6974590231824,-84.12853897468318,17.431079951500777,72.30024399158746,82.03838893797598,-9.738144946388516,32.9494971910869,50.2681083811392,-17.3186111900523,-0.0067864074550533,0.0,-0.0067864074550533
0.18000000000000013,move_to_zero,-0.04397982239429298,-4.008687754472599,3.9647079320783063,-66.48081344001065,-84.0362927696671,17.55547932965645,72.12019029625274,81.94843456414048,-9.82824426788774,32.70712578546992,50.2129898412476,-17.50586405577768,-0.007061511672554735,0.0,-0.007061511672554735
0.18200000000000013,move_to_zero,-0.043704225144686804,-4.004287438605999,3.9605832134613124,-66.26643756121665,-83.944046564651,17.677609003434355,71.94166095481232,81.85848019030499,-9.916819235492667,32.466309676616184,50.157871301355996,-17.691561624739812,-0.007356227601234173,0.0,-0.007356227601234173
0.18400000000000014,move_to_zero,-0.04342405793699951,-3.9998871227393993,3.9564630648023997,-66.05428949507119,-83.8518003596349,17.797510864563705,71.76463252044202,81.76852581646948,-10.003893296027456,32.2270443472679,50.1027527614644,-17.875708414196502,-0.0076607763100600725,0.0,-0.0076607763100600725
0.18600000000000014,move_to_zero,-0.04314166091120081,-3.995486806872799,3.952345145961598,-65.84432103755522,-83.7595541546188,17.91523311706358,71.58907491326799,81.67857144263398,-10.089496529365988,31.9893281729673,50.04763422157279,-18.05830604860549,-0.007964936802487043,0.0,-0.007964936802487043
0.18800000000000014,move_to_zero,-0.042847762081076206,-3.991086491006199,3.948238728925123,-65.63650398726017,-83.66730794960269,18.030803962342517,71.41497709253318,81.58861706879848,-10.173639976265306,31.75316035751035,49.9925156816812,-18.239355324170848,-0.008258185201018226,0.0,-0.008258185201018226
0.19000000000000014,move_to_zero,-0.04256323974046073,-3.986686175139599,3.9441229353991383,-65.4307950055951,-83.57506174458659,18.14426673899149,71.24234296425014,81.49866269496299,-10.256319730712846,31.51854298344106,49.937397141789596,-18.418854158348537,-0.008537493047354098,0.0,-0.008537493047354098
0.19200000000000014,move_to_zero,-0.04226860055025935,-3.9822858592729995,3.9400172587227402,-65.22715624563746,-83.48281553957048,18.25565929393302,71.07113056455981,81.40870832112748,-10.337577756567669,31.285471112375408,49.882278601897994,-18.596807489522586,-0.008828853105111441,0.0,-0.008828853105111441
0.19400000000000014,move_to_zero,-0.041972545793204245,-3.9778855434063995,3.9359129976131952,-65.0255332990605,-83.3905693345544,18.3650360354939,70.90132381841802,81.31875394729198,-10.41743012887396,31.053934840776023,49.8271600620064,-18.773225221230376,-0.009105968438314961,0.0,-0.009105968438314961
0.19600000000000015,move_to_zero,-0.04167447528692272,-3.9734852275397996,3.931810752252877,-64.82589333823566,-83.29832312953829,18.47242979130263,70.732898076317,81.22879957345648,-10.495901497139485,30.823910601957703,49.7720415221148,-18.948130920157094,-0.009371097169476587,0.0,-0.009371097169476587
0.19800000000000015,move_to_zero,-0.04137139434474083,-3.9690849116731997,3.927713517328459,-64.62818739704262,-83.2060769245222,18.57788952747957,70.56583245992746,81.13884519962097,-10.57301273969351,30.595384029378735,49.716922982223196,-19.12153895284446,-0.009625716683588116,0.0,-0.009625716683588116
0.20000000000000015,move_to_zero,-0.04104866932891295,-3.9646845958065993,3.923635926477686,-64.43237720459288,-83.1138307195061,18.681453514913215,70.40011205140587,81.04889082578549,-10.648778774379622,30.368346759896056,49.661804442331594,-19.293457682435537,-0.009873839543517659,0.0,-0.009873839543517659
0.20200000000000015,move_to_zero,-0.0407049067489284,-3.9602842799399993,3.919579373191071,-64.23843163841518,-83.02158451448999,18.78315287607481,70.23573155536157,80.95893645194998,-10.723204896588413,30.142758315435962,49.60668590244,-19.463927587004036,-0.010122865957662444,0.0,-0.010122865957662444
0.20400000000000015,move_to_zero,-0.04036158977494434,-3.9558839640733994,3.915522374298455,-64.04635061699273,-82.92933830947389,18.882987692481166,70.07267699857773,80.86898207811447,-10.796305079536737,29.91862050104105,49.5515673625484,-19.632946861507346,-0.010369924034121545,0.0,-0.010369924034121545
0.20600000000000016,move_to_zero,-0.04002300235810757,-3.9514836482067994,3.911460645848692,-63.856086366986425,-82.8370921044578,18.98100573747137,69.91090074550608,80.77902770427899,-10.868126958772905,29.695919651390124,49.496448822656795,-19.80052917126667,-0.010612206578351295,0.0,-0.010612206578351295
0.20800000000000016,move_to_zero,-0.039668357119028184,-3.947083332340199,3.9074149752211706,-63.667591781131485,-82.7448458994417,19.077254118310215,69.75039361691127,80.68907333044348,-10.93867971353221,29.47464535823149,49.4413302827652,-19.96668492453371,-0.010849890525077743,0.0,-0.010849890525077743
0.21000000000000016,move_to_zero,-0.03930840933724333,-3.942683016473599,3.9033746071363558,-63.48082649479906,-82.65259969442559,19.17177319962653,69.59116675247336,80.59911895660798,-11.007952204134625,29.25477846023534,49.38621174287359,-20.131433282638252,-0.011084484966529886,0.0,-0.011084484966529886
0.21200000000000016,move_to_zero,-0.03893297149188487,-3.938282700606999,3.8993497291151145,-63.29576332589736,-82.5603534894095,19.264590163512132,69.43322537362823,80.50916458277248,-11.075939209144252,29.036288711878733,49.331093202982,-20.294804491103264,-0.011321281427372236,0.0,-0.011321281427372236
0.21400000000000016,move_to_zero,-0.03854434738503147,-3.933882384740399,3.895338037355368,-63.112356284731,-82.46810728439338,19.355750999662384,69.27653473039585,80.41921020893697,-11.142675478541122,28.819150064048433,49.275974663090395,-20.456824599041962,-0.011559220130743668,0.0,-0.011559220130743668
0.21600000000000016,move_to_zero,-0.038177599342440825,-3.929482068873799,3.891304469531358,-62.930564379497625,-82.37586107937729,19.445296699879663,69.12108411014724,80.32925583510148,-11.20817172495424,28.603356589302994,49.2208561231988,-20.617499533895806,-0.011810019091869005,0.0,-0.011810019091869005
0.21800000000000017,move_to_zero,-0.03783842071868667,-3.925081753007199,3.887243332288512,-62.75034480037546,-82.28361487436119,19.533270073985733,68.96684601103364,80.23930146126598,-11.272455450232343,28.388882731708467,49.1657375833072,-20.77685485159873,-0.01206987019694835,0.0,-0.01206987019694835
0.22000000000000017,move_to_zero,-0.03751528144599604,-3.9206814371406,3.8831661556946035,-62.571668313516604,-82.1913686693451,19.619700355828492,68.81379330482194,80.14934708743048,-11.335553782608542,28.17571799528752,49.110619043415596,-20.934901048128076,-0.012343253189657604,0.0,-0.012343253189657604
0.22200000000000017,move_to_zero,-0.0372041903549035,-3.9162811212739994,3.879076930919096,-62.394497360151775,-82.099122464329,19.704625104177225,68.66190227886759,80.05939271359497,-11.397490434727388,27.963843320683797,49.055500503523994,-21.091657182840198,-0.012607242415656738,0.0,-0.012607242415656738
0.22400000000000017,move_to_zero,-0.036876581791336724,-3.9118808054073995,3.8750042236160627,-62.21880939360048,-82.00687625931289,19.78806686571241,68.51115913803812,79.96943833975948,-11.458279201721354,27.75326935614399,49.00038196363239,-21.247112607488404,-0.012866837797155762,0.0,-0.012866837797155762
0.22600000000000017,move_to_zero,-0.036539439635779866,-3.9074804895407995,3.87094104990502,-62.044573933415194,-81.9146300542968,19.8700561208816,68.36153916052405,79.87948396592398,-11.517944805399935,27.543957793692275,48.9452634237408,-21.401305630048522,-0.013146743652034118,0.0,-0.013146743652034118
0.22800000000000017,move_to_zero,-0.03621107415348066,-3.9030801736741996,3.866869099520719,-61.87177178314968,-81.82238384928068,19.950612066131,68.21302922758909,79.78952959208848,-11.576500364499395,27.335905407684923,48.890144883849196,-21.554239476164273,-0.013445202516248327,0.0,-0.013445202516248327
0.23000000000000018,move_to_zero,-0.0359058064926647,-3.898679857807599,3.8627740513149345,-61.70038522354339,-81.73013764426459,20.029752420721195,68.06560027979279,79.69957521825299,-11.633974938460199,27.129117289383558,48.8350263439576,-21.705909054574043,-0.013753440708568192,0.0,-0.013753440708568192
0.23200000000000018,move_to_zero,-0.035624196531461615,-3.8942795419409992,3.8586553454095376,-61.5303958028858,-81.63789143924849,20.107495636362692,67.91924736142663,79.60962084441748,-11.69037348299085,26.923554253557434,48.77990780406599,-21.856353550508558,-0.014079173762403087,0.0,-0.014079173762403087
0.23400000000000018,move_to_zero,-0.0353246104105176,-3.8898792260743993,3.854554615663882,-61.361768466865,-81.5456452342324,20.183876767367394,67.7739507234333,79.51966647058198,-11.74571574714868,26.719214075563468,48.72478926417439,-22.005575188610923,-0.014383721186778454,0.0,-0.014383721186778454
0.23600000000000018,move_to_zero,-0.03501832168254195,-3.8854789102077993,3.8504605885252574,-61.194466593536994,-81.45339902921629,20.25893243567929,67.62969774802433,79.42971209674648,-11.800014348722158,26.5160924817624,48.669670724282796,-22.153578242520396,-0.014671718110471747,0.0,-0.014671718110471747
0.23800000000000018,move_to_zero,-0.03468640464427357,-3.881078594341199,3.8463921896969255,-61.028463136255866,-81.36115282420019,20.332689687944324,67.48648125318702,79.33975772291097,-11.853276469723951,26.31414382572054,48.614552184391194,-22.300408358670655,-0.014945264085233476,0.0,-0.014945264085233476
0.24000000000000019,move_to_zero,-0.0343356224841054,-3.876678278474599,3.8423426559904934,-60.86372881928615,-81.2689066191841,20.405177799897942,67.34428005703298,79.24980334907549,-11.905523292042517,26.11333059217236,48.5594336444996,-22.44610305232724,-0.015206643030282385,0.0,-0.015206643030282385
0.2420000000000002,move_to_zero,-0.033983809242778856,-3.872277962607999,3.8382941533652204,-60.70025284948481,-81.17666041416798,20.47640756468317,67.20307529367327,79.15984897523998,-11.956773681566716,25.913607963170758,48.504315104608,-22.59070714143724,-0.015456508198459772,0.0,-0.015456508198459772
0.2440000000000002,move_to_zero,-0.03362489667766056,-3.867877646741399,3.8342527500637384,-60.537989033011165,-81.08441420915189,20.546425176140723,67.06284829206926,79.06989460140447,-12.007046309335209,25.7149395622008,48.449196564716395,-22.734257002515594,-0.015698819800932406,0.0,-0.015698819800932406
0.2460000000000002,move_to_zero,-0.03327736513238398,-3.8634773308747987,3.830199965742415,-60.37691769043628,-80.99216800413579,20.615250313699512,66.92355594520745,78.97994022756899,-12.056384282361535,25.517325765500633,48.39407802482479,-22.87675225932416,-0.015940151857155097,0.0,-0.015940151857155097
0.2480000000000002,move_to_zero,-0.03294829542799739,-3.8590770150081988,3.8261287195802014,-60.217027305253694,-80.8999217991197,20.682894493866,66.78518164518536,78.88998585373348,-12.104804208548117,25.32075105735557,48.33895948493319,-23.018208427577623,-0.016192813569189765,0.0,-0.016192813569189765
0.25000000000000017,move_to_zero,-0.03263971643488196,-3.8546766991415997,3.8220369827067175,-60.05827986324892,-80.80767559410359,20.749395730854665,66.64772914470107,78.80003147989798,-12.152302335196907,25.125225595999687,48.2838409450416,-23.15861534904191,-0.01644373402165559,0.0,-0.01644373402165559
0.25200000000000017,move_to_zero,-0.03233090851808337,-3.8502763832749993,3.817945474756916,-59.90066171887496,-80.71542938908749,20.814767670212532,66.51118003045063,78.71007710606249,-12.198897075611853,24.930736495908775,48.228722405149995,-23.29798590924122,-0.01669290050368347,0.0,-0.01669290050368347
0.25400000000000017,move_to_zero,-0.03202748033727346,-3.8458760674083994,3.813848587071126,-59.74417384598742,-80.62318318407138,20.87900933808396,66.37551102650328,78.62012273222697,-12.244611705723699,24.737310579524742,48.1736038652584,-23.436293285733658,-0.016943016493316577,0.0,-0.016943016493316577
0.25600000000000017,move_to_zero,-0.03172479655744281,-3.8414757515417994,3.8097509549843567,-59.588789332620415,-80.53093697905528,20.94214764643487,66.24068982838948,78.53016835839148,-12.289478530002,24.544934441217293,48.11848532536679,-23.573550884149498,-0.017187176973766673,0.0,-0.017187176973766673
0.2580000000000002,move_to_zero,-0.031425117842295625,-3.8370754356751995,3.805650317832904,-59.43447136261097,-80.43869077403919,21.004219411428217,66.10668883749312,78.44021398455598,-12.333525147062858,24.353598373365305,48.063366785475196,-23.70976841210989,-0.017430024076200347,0.0,-0.017430024076200347
0.2600000000000002,move_to_zero,-0.03115694955521254,-3.832675119808599,3.8015181702533867,-59.28121589340983,-80.34644456902309,21.065228675613263,65.97348549751963,78.35025961072049,-12.376774113200852,24.16330204018141,48.008248245583594,-23.844946205402184,-0.017668640541509323,0.0,-0.017668640541509323
0.2620000000000002,move_to_zero,-0.030915397493949066,-3.828274803941999,3.79735940644805,-59.12899849686687,-80.254198364007,21.125199867140125,65.84105967751132,78.26030523688497,-12.41924555937365,23.97402341484257,47.95312970569199,-23.979106290849423,-0.01790329226075926,0.0,-0.01790329226075926
0.2640000000000002,move_to_zero,-0.030696856629053425,-3.823874488075399,3.793177631446346,-58.97780930315221,-80.16195215899089,21.184142855838672,65.70937813124134,78.17035086304948,-12.460972731808141,23.785742974508384,47.8980111658004,-24.112268191292014,-0.018134501184436026,0.0,-0.018134501184436026
0.2660000000000002,move_to_zero,-0.030494444894039987,-3.8194741722087993,3.7889797273147594,-58.82763585126839,-80.06970595397479,21.2420701027064,65.57840787108749,78.08039648921398,-12.50198861812649,23.59843998846011,47.842892625908796,-24.244452637448685,-0.018368440551510268,0.0,-0.018368440551510268
0.2680000000000002,move_to_zero,-0.03030377846730033,-3.815073856342199,3.7847700778748985,-58.67847178705871,-79.97745974895868,21.298987961899968,65.44811054784743,77.99044211537847,-12.542331567531036,23.41211688632981,47.787774086017194,-24.375657199687385,-0.018608723917759567,0.0,-0.018608723917759567
0.2700000000000002,move_to_zero,-0.030112361790577736,-3.810673540475599,3.780561178685021,-58.53029595070898,-79.8852135439426,21.354917593233615,65.31847157499743,77.90048774154299,-12.582016166545557,23.226780867902907,47.73265554612559,-24.505874678222686,-0.018848686063241384,0.0,-0.018848686063241384
0.2720000000000002,move_to_zero,-0.029906283293405854,-3.806273224608999,3.776366941315593,-58.38311554565125,-79.79296733892649,21.409851793275237,65.189478357076,77.81053336770748,-12.62105501063148,23.042416316174332,47.677537006234,-24.635120690059665,-0.01908671961852652,0.0,-0.01908671961852652
0.2740000000000002,move_to_zero,-0.029660773569455245,-3.801872908742399,3.7722121351729436,-58.23691281874606,-79.70072113391039,21.46380831516433,65.06110427283863,77.72057899387197,-12.659474721033334,22.8589862734967,47.622418466342396,-24.763432192845695,-0.01932937752292625,0.0,-0.01932937752292625
0.2760000000000002,move_to_zero,-0.02939415555575891,-3.7974725928757986,3.7680784373200398,-58.09167234659354,-79.60847492889428,21.51680258230074,64.93332814940189,77.63062462003649,-12.697296470634598,22.676489114900843,47.567299926450794,-24.89081081154995,-0.01958773158190568,0.0,-0.01958773158190568
0.2780000000000002,move_to_zero,-0.029099879267147178,-3.7930722770091996,3.7639723977420525,-57.94734414058926,-79.51622872387819,21.568884583288927,64.80612213271652,77.54067024620097,-12.73454811348445,22.494906568554164,47.5121813865592,-25.017274818005035,-0.019869409688978084,0.0,-0.019869409688978084
0.2800000000000002,move_to_zero,-0.0288051904212167,-3.7886719611425996,3.759866770721383,-57.80392415793647,-79.42398251886209,21.62005836092562,64.67947627842551,77.45071587236548,-12.771239593939967,22.31421336725056,47.45706284666759,-25.14284947941703,-0.02017856722868426,0.0,-0.02017856722868426
0.2820000000000002,move_to_zero,-0.028541083883764952,-3.7842716452759992,3.7557305613922343,-57.66142085509896,-79.331736313846,21.670315458747034,64.55337593777543,77.36076149852998,-12.807385560754554,22.134403037405942,47.401944306775995,-25.267541269370053,-0.020502302597729012,0.0,-0.020502302597729012
0.2840000000000002,move_to_zero,-0.02830178673854937,-3.7798713294093993,3.75156954267085,-57.519811905468536,-79.2394901088299,21.71967820336136,64.42781536053751,77.27080712469449,-12.842991764156977,21.955463565735606,47.34682576688439,-25.391362201148787,-0.02083970070322858,0.0,-0.02083970070322858
0.2860000000000002,move_to_zero,-0.028082618789595587,-3.7754710135427993,3.747388394753204,-57.37910131407638,-79.14724390381379,21.76814258973741,64.30277311027041,77.18085275085897,-12.878079640588567,21.77740835437236,47.29170722699279,-25.514298872620433,-0.02117075220760393,0.0,-0.02117075220760393
0.2880000000000002,move_to_zero,-0.027879590087767327,-3.7710706976761994,3.743191107588432,-57.23926283447015,-79.05499769879769,21.81573486432754,64.1782291372633,77.09089837702348,-12.912669239760177,21.600223837581364,47.2365886871012,-25.636364849519833,-0.02147683614299573,0.0,-0.02147683614299573
0.2900000000000002,move_to_zero,-0.027689419930023634,-3.766670381809599,3.7389809618795753,-57.10028729845654,-78.96275149378158,21.86246419532504,64.05417550553578,77.00094400318798,-12.9467684976522,21.423916931397716,47.181470147209595,-25.75755321581188,-0.02176301461386017,0.0,-0.02176301461386017
0.2920000000000002,move_to_zero,-0.02750916747049227,-3.762270065942999,3.7347608984725067,-56.96216375424044,-78.87050528876549,21.908341534525043,63.93060116947675,76.91098962935247,-12.98038845987572,21.248495236117535,47.12635160731799,-25.87785637120046,-0.022032301170742254,0.0,-0.022032301170742254
0.2940000000000002,move_to_zero,-0.027337273725552433,-3.757869750076399,3.7305324763508465,-56.82487234085537,-78.77825908374939,21.95338674289402,63.807518846568755,76.82103525551699,-13.013516408948234,21.073954699709944,47.07123306742639,-25.997278367716447,-0.022287405411444482,0.0,-0.022287405411444482
0.2960000000000002,move_to_zero,-0.027152534053374637,-3.753469434209799,3.7263169001564247,-56.68841490124302,-78.6860128787333,21.997597977490273,63.68491572088422,76.73108088168148,-13.046165160797258,20.9002890975219,47.016114527534796,-26.115825430012897,-0.022529894102676484,0.0,-0.022529894102676484
0.2980000000000002,move_to_zero,-0.026946755834086646,-3.749069118343199,3.722122362509112,-56.55278361791621,-78.59376667371718,22.04098305580097,63.56278139864661,76.64112650784598,-13.078345109199375,20.727482438161616,46.960995987643194,-26.23351354948158,-0.02276411194339235,0.0,-0.02276411194339235
0.3000000000000002,move_to_zero,-0.026708928277161512,-3.744668802476599,3.7179598741994373,-56.41797968168011,-78.50152046870109,22.08354078702098,63.441101156666335,76.55117213401049,-13.11007097734415,20.55553181715687,46.90587744775159,-26.350345630594724,-0.022993476909774654,0.0,-0.022993476909774654
0.3020000000000002,move_to_zero,-0.02646086254134188,-3.740268486609999,3.713807624068657,-56.28397917402646,-78.40927426368499,22.12529508965853,63.31988741952774,76.46121776017497,-13.141330340647237,20.384451055691333,46.85075890786,-26.466307852168665,-0.023219419826327335,0.0,-0.023219419826327335
0.3040000000000002,move_to_zero,-0.026204294019518858,-3.735868170743399,3.70966387672388,-56.15077061082409,-78.31702805866888,22.166257447844792,63.199146780705476,76.37126338633948,-13.172116605634002,20.21420306901151,46.79564036796839,-26.581437298956878,-0.02344112074202973,0.0,-0.02344112074202973
0.3060000000000002,move_to_zero,-0.02592453221748765,-3.7314678548767994,3.7055433226593117,-56.01833883179856,-78.22478185365279,22.206443021854227,63.078855711254235,76.28130901250398,-13.202453301249747,20.044778882691464,46.740521828076794,-26.69574294538533,-0.023658481258911172,0.0,-0.023658481258911172
0.3080000000000002,move_to_zero,-0.025626026376565355,-3.7270675390101995,3.701441512633634,-55.886676853467144,-78.13253564863669,22.245858795169546,62.95897377684829,76.19135463866847,-13.232380861820182,19.87618057483512,46.68540328818519,-26.80922271335007,-0.023871537613560322,0.0,-0.023871537613560322
0.3100000000000002,move_to_zero,-0.025320176781254457,-3.7226672231435995,3.6973470463623452,-55.755758326537446,-78.0402894436206,22.284531117083148,62.83948202562507,76.10140026483299,-13.261918239207922,19.70838272577661,46.6302847482936,-26.92190202251699,-0.02408175331763824,0.0,-0.02408175331763824
0.3120000000000002,move_to_zero,-0.02503595169659114,-3.718266907276999,3.693230955580408,-55.62555570391007,-77.94804323860448,22.322487534694417,62.72035988989601,76.01144589099748,-13.291086001101469,19.54135506587896,46.575166208401996,-27.033811142523035,-0.024288060300250804,0.0,-0.024288060300250804
0.3140000000000002,move_to_zero,-0.02478087203487378,-3.713866591410399,3.6890857193755253,-55.496067343097174,-77.85579703358839,22.359729690491214,62.601606894227125,75.92149151716198,-13.319884622934858,19.375102600595973,46.520047668510394,-27.14494506791442,-0.024492287244687664,0.0,-0.024492287244687664
0.3160000000000002,move_to_zero,-0.024548358933556003,-3.7094662755437993,3.6849179166102433,-55.36729355154073,-77.76355082857228,22.396257277031545,62.48321655478191,75.83153714332649,-13.348320588544574,19.209611583137175,46.46492912861879,-27.255317545481617,-0.024696059775168703,0.0,-0.024696059775168703
0.3180000000000002,move_to_zero,-0.024333680073688656,-3.7050659596771993,3.6807322796035105,-55.239223294737116,-77.67130462355618,22.432081328819066,62.36517012673402,75.74158276949098,-13.376412642756954,19.04486319264858,46.40981058872719,-27.36494739607861,-0.02489808661575116,0.0,-0.02489808661575116
0.32000000000000023,move_to_zero,-0.02411947902666431,-3.700665643810599,3.6765461647839346,-55.1118328779962,-77.57905841854009,22.467225540543886,62.247459194532,75.65162839565548,-13.40416920112348,18.880878496340333,46.354692048835595,-27.473813552495262,-0.025100379940046852,0.0,-0.025100379940046852
0.32200000000000023,move_to_zero,-0.023908347725148306,-3.696265327943999,3.6723569802188507,-54.98509074119378,-77.48681221352399,22.50172147233021,62.13009223865674,75.56167402181998,-13.431581783163246,18.717611260947013,46.29957350894399,-27.58196224799698,-0.02530473185260914,0.0,-0.02530473185260914
0.32400000000000023,move_to_zero,-0.0236872337711902,-3.691865012077399,3.668177778306209,-54.8589806232418,-77.3945660085079,22.535585385266096,62.01305432887312,75.47171964798449,-13.458665319111368,18.555056510598263,46.2444549690524,-27.689398458454136,-0.025509983323688527,0.0,-0.025509983323688527
0.32600000000000023,move_to_zero,-0.023444648971729123,-3.687464696210799,3.66402004723907,-54.73352790262787,-77.30231980349178,22.568791900863914,61.89634555879784,75.38176527414898,-13.485419715351135,18.393187109759108,46.1893364291608,-27.79614931940169,-0.025714720817986543,0.0,-0.025714720817986543
0.32800000000000024,move_to_zero,-0.023200416529647747,-3.6830643803441987,3.659863963814551,-54.60871759191501,-77.21007359847569,22.60135600656068,61.77994202070826,75.29181090031348,-13.511868879605217,18.23197929270253,46.13421788926919,-27.902238596566658,-0.025921759523436567,0.0,-0.025921759523436567
0.33000000000000024,move_to_zero,-0.02295117346712729,-3.6786640644775987,3.6557128910104715,-54.48452869013161,-77.11782739345958,22.633298703327966,61.663827210419534,75.20185652647798,-13.538029316058449,18.071439001846993,46.07909934937759,-28.0076603475306,-0.02613079637313557,0.0,-0.02613079637313557
0.33200000000000024,move_to_zero,-0.02269423472151865,-3.674263748610999,3.65156951388948,-54.36093993427497,-77.02558118844348,22.664641254168515,61.54798389887905,75.11190215264247,-13.563918253763418,17.911551906973102,46.02398080948599,-28.11242890251289,-0.026341826435828684,0.0,-0.026341826435828684
0.33400000000000024,move_to_zero,-0.02244832482418195,-3.669863432744399,3.647415107920217,-54.23793183028539,-76.93333498342739,22.695403153141996,61.432394016903714,75.02194777880699,-13.589553761903275,17.75231488230817,45.968862269594396,-28.216547387286226,-0.02655853923170245,0.0,-0.02655853923170245
0.33600000000000024,move_to_zero,-0.022208978474772482,-3.6654631168777994,3.643254138403027,-54.11550917677529,-76.84108877841129,22.725579601636,61.31707229741307,74.93199340497148,-13.61492110755841,17.59372144858557,45.913743729702794,-28.320022281117225,-0.02677430169734864,0.0,-0.02677430169734864
0.33800000000000024,move_to_zero,-0.021986326839180167,-3.6610628010111994,3.639076474172019,-53.99367274170617,-76.74884257339518,22.75516983168901,61.20201284869579,74.84203903113597,-13.640026182440181,17.43576194129834,45.85862518981119,-28.422863248512854,-0.026989264659875195,0.0,-0.026989264659875195
0.34000000000000025,move_to_zero,-0.021781146905507556,-3.6566624851445995,3.634881338239092,-53.87241672775901,-76.65659636837908,22.784179640620074,61.087176339799335,74.75208465730049,-13.664908317501151,17.27843405478532,45.80350664991959,-28.525072595134272,-0.027204747783896224,0.0,-0.027204747783896224
0.34200000000000025,move_to_zero,-0.021589978050962733,-3.652262169277999,3.6306721912270365,-53.75172904577512,-76.56435016336299,22.812621117587867,60.972536126526755,74.66213028346498,-13.68959415693822,17.121701936068604,45.74838811002799,-28.626686173959385,-0.027424820538219805,0.0,-0.027424820538219805
0.34400000000000025,move_to_zero,-0.021410736865120784,-3.647861853411399,3.6264511165462783,-53.631582130721824,-76.47210395834688,22.840521827625054,60.85806682405568,74.57217590962948,-13.714109085573796,16.96556697790822,45.693269570136394,-28.727702592228173,-0.027668638281471973,0.0,-0.027668638281471973
0.34600000000000025,move_to_zero,-0.02124099151460072,-3.643461537544799,3.6222205460301984,-53.51197536806525,-76.3798577533308,22.867882385265546,60.74376575762323,74.48222153579398,-13.738455778170753,16.810045951674628,45.63815103024479,-28.828105078570164,-0.0279225238182969,0.0,-0.0279225238182969
0.34800000000000025,move_to_zero,-0.021079418278164733,-3.6390612216781992,3.6179818034000344,-53.39289742710075,-76.28761154831469,22.894714121213937,60.62961994806529,74.39226716195847,-13.762647213893182,16.655140596857564,45.5830324903532,-28.927891893495634,-0.028178481342123807,0.0,-0.028178481342123807
0.35000000000000026,move_to_zero,-0.0209259469298065,-3.634660905811599,3.613734958881792,-53.27435050462804,-76.19536534329859,22.92101483867055,60.515633256854265,74.30231278812298,-13.78667953126871,16.500833457784257,45.52791395046159,-29.02708049267733,-0.028441743555857265,0.0,-0.028441743555857265
0.35200000000000026,move_to_zero,-0.02077981917423347,-3.630260589944999,3.6094807707707655,-53.15633375034939,-76.10311913828248,22.94678538793309,60.401826030048035,74.21235841428748,-13.810532384239444,16.34712876737273,45.472795410569994,-29.125666643197263,-0.02871986984341912,0.0,-0.02871986984341912
0.35400000000000026,move_to_zero,-0.02063935777814156,-3.625860274078399,3.6052209163002575,-53.03882803828134,-76.01087293326638,22.972044894985046,60.28817735233091,74.12240404045198,-13.83422668812107,16.19400506376396,45.41767687067839,-29.22367180691443,-0.02898693243309982,0.0,-0.02898693243309982
0.35600000000000026,move_to_zero,-0.02050316235446043,-3.621459958211799,3.6009567958573387,-52.92184271231956,-75.91862672825027,22.996784015930714,60.17466148852314,74.03244966661647,-13.85778817809333,16.041443357932874,45.36255833078679,-29.321114972853916,-0.029269945962862837,0.0,-0.029269945962862837
0.35800000000000026,move_to_zero,-0.020370359307526203,-3.6170596423451986,3.5966892830376724,-52.80537095444374,-75.82638052323418,23.02100956879044,60.06129143813741,73.94249529278098,-13.881203854643566,15.889449725787046,45.307439790895195,-29.41799006510815,-0.029571408268624654,0.0,-0.029571408268624654
0.36000000000000026,move_to_zero,-0.020238379824391858,-3.6126593264785987,3.5924209466542067,-52.68941740591613,-75.7341343182181,23.044716912301965,59.94804762392071,73.85254091894548,-13.904493295024771,15.73801336349375,45.25232125100359,-29.514307887509844,-0.029897341550958356,0.0,-0.029897341550958356
0.36200000000000027,move_to_zero,-0.02010890054080129,-3.6082590106119987,3.588150110071197,-52.57399191410757,-75.64188811320199,23.067896199094413,59.834920234666384,73.76258654510997,-13.927666310443584,15.587121418076404,45.19720271111199,-29.610081293035588,-0.030221035240956772,0.0,-0.030221035240956772
0.36400000000000027,move_to_zero,-0.01998095264901584,-3.603858694745399,3.583877742096383,-52.45907037176073,-75.54964190818589,23.09057153642516,59.72187276201229,73.67263217127449,-13.950759409262197,15.436765647716486,45.14208417122039,-29.705318523503905,-0.030536445882908905,0.0,-0.030536445882908905
0.36600000000000027,move_to_zero,-0.019853314048899583,-3.5994583788787993,3.5796050648298996,-52.34466040218539,-75.45739570316978,23.11273530098439,59.60889146465231,73.58267779743898,-13.973786332786666,15.2869494040248,45.086965631328795,-29.800016227303995,-0.030832459292858244,0.0,-0.030832459292858244
0.36800000000000027,move_to_zero,-0.019723146275159104,-3.5950580630121993,3.5753349167370403,-52.23072414291207,-75.36514949815368,23.134425355241618,59.495948299154804,73.49272342360348,-13.996775124448675,15.137667246099705,45.03184709143719,-29.89417984533749,-0.031107761031990408,0.0,-0.031107761031990408
0.3700000000000003,move_to_zero,-0.01959160117402802,-3.5906577471455994,3.5710661459715713,-52.117255831671926,-75.27290329313757,23.155647461465648,59.38303633810759,73.40276904976798,-14.019732711660396,14.988900660531614,44.97672855154559,-29.98782789101398,-0.03136583948174333,0.0,-0.03136583948174333
0.3720000000000003,move_to_zero,-0.019457606387417156,-3.586257431278999,3.5667998248915818,-52.00425745711103,-75.18065708812149,23.17639963101046,59.2701475466164,73.31281467593247,-14.042667129316072,14.840622448810413,44.921610011653996,-30.080987562843582,-0.03160942236198037,0.0,-0.03160942236198037
0.3740000000000003,move_to_zero,-0.019320984640289737,-3.581857115412399,3.5625361307721093,-51.89171346293593,-75.08841088310538,23.19669742016945,59.157280015275546,73.22286030209698,-14.06558028682143,14.69283122274618,44.86649147176239,-30.17366024901621,-0.03184022186000007,0.0,-0.03184022186000007
0.3760000000000003,move_to_zero,-0.01917771627498815,-3.577456799545799,3.558279083270811,-51.77962703564095,-74.99616467808929,23.216537642448337,59.04444038354645,73.13290592826148,-14.088465544715028,14.545501544777432,44.81137293187079,-30.265871387093362,-0.0320582254934168,0.0,-0.0320582254934168
0.3780000000000003,move_to_zero,-0.019033944788244432,-3.573056483679199,3.5540225388909548,-51.668001501844856,-74.90391847307319,23.235916971228335,58.93161599549148,73.04295155442597,-14.111335558934492,14.39862966671439,44.75625439197919,-30.3576247252648,-0.03226680010031899,0.0,-0.03226680010031899
0.3800000000000003,move_to_zero,-0.018890286512898265,-3.5686561678125988,3.5497658812997006,-51.556862361691714,-74.81167226805708,23.254809906365367,58.818798940608524,72.95299718059049,-14.134198239981963,14.252179745328764,44.70113585208759,-30.448956106758825,-0.03246766204978546,0.0,-0.03246766204978546
0.3820000000000003,move_to_zero,-0.018737669222262374,-3.564255851945999,3.5455181827237365,-51.446222264218676,-74.71942606304098,23.27320379882231,58.70597569866677,72.86304280675498,-14.157067108088206,14.10617490961969,44.646017312195994,-30.539842402576305,-0.032661700584882526,0.0,-0.032661700584882526
0.3840000000000003,move_to_zero,-0.01858128933914009,-3.559855536079399,3.541274246740259,-51.33606562359433,-74.62717985802489,23.29111423443056,58.5931695330252,72.77308843291948,-14.179918899894282,13.960624880826634,44.59089877230439,-30.630273891477756,-0.03284998043687422,0.0,-0.03284998043687422
0.3860000000000003,move_to_zero,-0.018410838731751943,-3.5554552202127994,3.5370443814810475,-51.22639348929929,-74.53493365300879,23.3085401637095,58.480363022211314,72.68313405908398,-14.202771036872669,13.815523911017893,44.53578023241279,-30.7202563213949,-0.033035095738722396,0.0,-0.033035095738722396
0.3880000000000003,move_to_zero,-0.01822741015112456,-3.551054904346199,3.5328274941950744,-51.11716750428289,-74.44268744799268,23.325519943709793,58.367537431373634,72.59317968524847,-14.225642253874838,13.670862009152406,44.48066169252119,-30.80979968336878,-0.03321790035802325,0.0,-0.03321790035802325
0.3900000000000003,move_to_zero,-0.018021034954447773,-3.546654588479599,3.528633553525151,-51.008388915524634,-74.35044124297659,23.342052327451952,58.25468153310146,72.50322531141298,-14.248543778311515,13.526607853336179,44.425543152629594,-30.898935299293413,-0.03340026581935117,0.0,-0.03340026581935117
0.3920000000000003,move_to_zero,-0.017800344874204947,-3.542254272612999,3.524453927738794,-50.900067143940475,-74.25819503796048,23.35812789402,58.14178919079958,72.41327093757748,-14.271481746777901,13.382757003127459,44.37042461273799,-30.987667609610533,-0.03358143076422024,0.0,-0.03358143076422024
0.3940000000000003,move_to_zero,-0.017577561909470442,-3.537853956746399,3.520276394836929,-50.792220791280215,-74.16594883294438,23.373728041664165,58.0288445478655,72.32331656374198,-14.29447201587648,13.239330205977458,44.31530607284639,-31.07597586686893,-0.03376498237056297,0.0,-0.03376498237056297
0.3960000000000003,move_to_zero,-0.017356144221767657,-3.5334536408797987,3.516097496658031,-50.684847384764964,-74.07370262792828,23.38885524316332,57.915835943158434,72.23336218990647,-14.317526246748038,13.09632003074649,44.260187532954795,-31.163867502208305,-0.03395028986660078,0.0,-0.03395028986660078
0.3980000000000003,move_to_zero,-0.017151492851233352,-3.529053325013199,3.5119018321619655,-50.57794100934428,-73.98145642291219,23.40351541356791,57.80275174476149,72.14340781607098,-14.340656071309489,12.953711773186333,44.205068993063186,-31.25135721987685,-0.034136451425687914,0.0,-0.034136451425687914
0.4000000000000003,move_to_zero,-0.01695951656209294,-3.524653009146599,3.507693492584506,-50.47150431404439,-73.88921021789609,23.417705903851704,57.68960169383082,72.05345344223548,-14.363851748404663,12.811515950287562,44.14995045317159,-31.338434502884027,-0.03432130737682975,0.0,-0.03432130737682975
0.4020000000000003,move_to_zero,-0.016777960098056082,-3.520252693279999,3.503474733181943,-50.36553366534912,-73.79696401287998,23.431430347530863,57.57639564066537,71.96349906839997,-14.387103427734601,12.669703590895413,44.09483191327999,-31.425128322384577,-0.034504600882464466,0.0,-0.034504600882464466
0.4040000000000003,move_to_zero,-0.01660518409348604,-3.515852377413399,3.499247193319913,-50.260043948516085,-73.70471780786389,23.4446738593478,57.4631228281917,71.87354469456449,-14.410421866372786,12.52827023234076,44.039713373388395,-31.511443141047636,-0.03468507741008805,0.0,-0.03468507741008805
0.4060000000000003,move_to_zero,-0.016439522792943147,-3.511452061546799,3.4950125387538558,-50.15502840008692,-73.61247160284778,23.457443202760857,57.34977063819405,71.78359032072898,-14.433819682534924,12.387216997234376,43.98459483349679,-31.597377836262417,-0.034863539535778566,0.0,-0.034863539535778566
0.4080000000000003,move_to_zero,-0.016273970928358958,-3.507051745680199,3.49077777475184,-50.05047667046533,-73.52022539783168,23.46974872736635,57.23631984761138,71.69363594689347,-14.457316099282089,12.246526091474573,43.92947629360519,-31.68295020213062,-0.035042510657265186,0.0,-0.035042510657265186
0.4100000000000003,move_to_zero,-0.016092067940280844,-3.5026514298135987,3.4865593618733177,-49.94637624105679,-73.42797919281558,23.481602951758795,57.12275004688356,71.60368157305798,-14.480931526174423,12.106203469009683,43.87435775371359,-31.768154284703904,-0.03521971806109079,0.0,-0.03521971806109079
0.4120000000000003,move_to_zero,-0.015909559502517524,-3.4982511139469987,3.4823415544444813,-49.842725653129115,-73.33573298779949,23.493007334670374,57.00906516940975,71.51372719922247,-14.504662029812721,11.966252745814936,43.81923921382199,-31.852986468007053,-0.0353935062201185,0.0,-0.0353935062201185
0.4140000000000003,move_to_zero,-0.015714214734802768,-3.493850798080399,3.478136583345596,-49.739500338982246,-73.24348678278338,23.503986443801132,56.895272886605404,71.42377282538698,-14.528499938781572,11.826642985556282,43.76412067393039,-31.93747768837411,-0.035564643042460264,0.0,-0.035564643042460264
0.4160000000000003,move_to_zero,-0.015519138724001362,-3.4894504822137993,3.473931343489798,-49.63668175640801,-73.15124057776728,23.514558821359273,56.781368025567,71.33381845155148,-14.552450425984482,11.687355508802234,43.70900213403879,-32.021646625236556,-0.03573130585241074,0.0,-0.03573130585241074
0.4180000000000003,move_to_zero,-0.01532643290921943,-3.485050166347199,3.4697237334379794,-49.53425530436833,-73.05899437275119,23.524739068382857,56.66736202099799,71.24386407771597,-14.576502056717977,11.548390517149178,43.653883594147196,-32.105493076998016,-0.03589817560375233,0.0,-0.03589817560375233
0.4200000000000003,move_to_zero,-0.015143626524427635,-3.480649850480599,3.4655062239561714,-49.432231333562086,-72.96674816773508,23.53451683417299,56.55325744590149,71.15390970388047,-14.600652257978986,11.409762800211096,43.598765054255594,-32.189002254044496,-0.03606584284734762,0.0,-0.03606584284734762
0.4220000000000003,move_to_zero,-0.014948563941718816,-3.476249534613999,3.4613009706722804,-49.330609306208416,-72.87450196271898,23.543892656510565,56.43903907240689,71.06395533004498,-14.624916257638084,11.27147265984058,43.543646514363985,-32.2721738545234,-0.036233318928598664,0.0,-0.036233318928598664
0.4240000000000003,move_to_zero,-0.01473980700793812,-3.471849218747399,3.4571094117394607,-49.22938946700927,-72.78225575770288,23.552866290693615,56.324696391511964,70.97400095620948,-14.649304564697516,11.133518955268777,43.48852797447239,-32.355009019203614,-0.036399274069808446,0.0,-0.036399274069808446
0.4260000000000003,move_to_zero,-0.014524119982728833,-3.4674489028807987,3.45292478289807,-49.128572440645854,-72.69000955268679,23.561437112040934,56.21026584372908,70.88404658237397,-14.673780738644886,10.995883112235258,43.43340943458079,-32.43752632234553,-0.03656171154183793,0.0,-0.03656171154183793
0.4280000000000003,move_to_zero,-0.014313610630445691,-3.4630485870141987,3.448734976383753,-49.02814539266208,-72.59776334767068,23.569617955008596,56.09575469787496,70.79409220853847,-14.698337510663514,10.858579136632976,43.378290894689194,-32.51971175805622,-0.03672073554523907,0.0,-0.03672073554523907
0.4300000000000003,move_to_zero,-0.014116853630128958,-3.458648271147599,3.4445314175174704,-48.92809844504774,-72.50551714265458,23.577418697606845,55.981166281059316,70.70413783470298,-14.72297155364366,10.721622415290623,43.32317235479759,-32.60154993950697,-0.03687631893738066,0.0,-0.03687631893738066
0.43200000000000033,move_to_zero,-0.013923052944862511,-3.454247955280999,3.4403249023361364,-48.82842195192713,-72.41327093763847,23.58484898571134,55.866481407775005,70.61418346086747,-14.74770205309246,10.584990287116897,43.268053814906,-32.6830635277891,-0.03703135598975614,0.0,-0.03703135598975614
0.43400000000000033,move_to_zero,-0.013739951694482447,-3.449847639414399,3.4361076877199164,-48.72909776841065,-72.32102473262238,23.59192696421173,55.751702807505524,70.52422908703198,-14.77252627952646,10.448702677303485,43.21293527501439,-32.7642325977109,-0.037184316838215284,0.0,-0.037184316838215284
0.43600000000000033,move_to_zero,-0.013566003407226671,-3.445447323547799,3.4318813201405725,-48.63012207002854,-72.22877852760628,23.59865645757774,55.636832277242824,70.43427471319647,-14.797442435953648,10.31274501666921,43.157816735122786,-32.845071718453575,-0.03733561823008007,0.0,-0.03733561823008007
0.43800000000000033,move_to_zero,-0.013401470014448223,-3.441047007681199,3.4276455376667507,-48.53148738648425,-72.13653232259018,23.605044936105934,55.521857117313054,70.34432033936098,-14.822463222047922,10.177115361663999,43.10269819523119,-32.92558283356719,-0.037484235435694686,0.0,-0.037484235435694686
0.44000000000000034,move_to_zero,-0.01324390495240619,-3.4366466918145986,3.4234027868621926,-48.4332139361899,-72.04428611757409,23.611072181384188,55.40679406332421,70.25436596552548,-14.847571902201267,10.04179870831101,43.04757965533959,-33.00578094702858,-0.03762972010597481,0.0,-0.03762972010597481
0.44200000000000034,move_to_zero,-0.01309481067626731,-3.4322463759479986,3.4191515652717315,-48.335308843129795,-71.95203991255798,23.616731069428184,55.29164426738785,70.16441159168997,-14.872767324302117,9.906814025737669,42.992461115447995,-33.08564708971033,-0.037772268007192765,0.0,-0.037772268007192765
0.44400000000000034,move_to_zero,-0.012954081169970988,-3.427846060081399,3.4148919789114283,-48.23775167471051,-71.85979370754188,23.622042032831374,55.17642612965376,70.07445721785447,-14.89803108820071,9.772153085867604,42.937342575556386,-33.165189489688785,-0.037912845204100036,0.0,-0.037912845204100036
0.44600000000000034,move_to_zero,-0.012819180010486835,-3.423445744214799,3.4106265642043123,-48.140505318392115,-71.76754750252577,23.627042184133657,55.06114032210026,69.98450284401898,-14.923362521918719,9.637827274947481,42.88222403566479,-33.24439676071731,-0.0380510354306128,0.0,-0.0380510354306128
0.44800000000000034,move_to_zero,-0.01268759202510655,-3.419045428348199,3.4063578363230924,-48.04358465600787,-71.67530129750969,23.631716641501818,54.9457839410601,69.89454847018347,-14.948764529123366,9.503835160385085,42.82710549577319,-33.3232703353881,-0.03818599659803238,0.0,-0.03818599659803238
0.45000000000000034,move_to_zero,-0.012558305763106306,-3.414645112481599,3.4020868067184926,-47.94699518668027,-71.58305509249358,23.636059905813312,54.830340163447005,69.80459409634798,-14.974253932900979,9.370172690354163,42.77198695588159,-33.40181426552742,-0.038319572386949614,0.0,-0.038319572386949614
0.45200000000000035,move_to_zero,-0.012432232536947944,-3.410244796614999,3.397812564078051,-47.85073667818024,-71.49080888747748,23.640072209297244,54.71478692845647,69.71463972251247,-14.999852794056004,9.236814866640094,42.71686841598999,-33.4800535493499,-0.038454651607636704,0.0,-0.038454651607636704
0.45400000000000035,move_to_zero,-0.01230833757486162,-3.405844480748399,3.393536143173537,-47.75477719334966,-71.39856268246137,23.643785489111714,54.5991027279242,69.62468534867698,-15.025582620752779,9.103746561099841,42.66174987609839,-33.55800331499855,-0.038589499689394416,0.0,-0.038589499689394416
0.45600000000000035,move_to_zero,-0.012186561874629773,-3.4014441648817986,3.389257603007169,-47.65909274467759,-71.30631647744528,23.647223732767692,54.483282684637345,69.53473097484148,-15.051448290204135,8.97094529064798,42.60663133620679,-33.635686045558806,-0.03872620171979953,0.0,-0.03872620171979953
0.45800000000000035,move_to_zero,-0.012066193984571582,-3.397043849015199,3.3849776550306276,-47.56370107004732,-71.21407027242918,23.65036920238186,54.36731797748331,69.44477660100597,-15.07745862352266,8.838417840622073,42.55151279631519,-33.713094955693116,-0.038863401453576724,0.0,-0.038863401453576724
0.46000000000000035,move_to_zero,-0.011946349720715795,-3.392643533148599,3.380697183427883,-47.468591351652144,-71.12182406741309,23.653232715760943,54.25118782725953,69.35482222717047,-15.103634399910945,8.706157287009681,42.49639425642359,-33.79023696941391,-0.03900025440687087,0.0,-0.03900025440687087
0.46200000000000035,move_to_zero,-0.011829206364746452,-3.3882432172819987,3.3764140109172525,-47.37377008516119,-71.02957786239699,23.6558077772358,54.13490361390687,69.26486785333498,-15.129964239428105,8.57418370166775,42.44127571653199,-33.86709201486424,-0.0391401321110424,0.0,-0.0391401321110424
0.46400000000000036,move_to_zero,-0.011715416805825838,-3.383842901415399,3.372127484609573,-47.27922743391929,-70.93733165738088,23.658104223461592,54.01848057434384,69.17491347949948,-15.15643290515564,8.442505590547622,42.38615717664039,-33.94365158609277,-0.03928197721929623,0.0,-0.03928197721929623
0.46600000000000036,move_to_zero,-0.011603656228293903,-3.379442585548799,3.367838929320505,-47.18497036178185,-70.84508545236478,23.660115090582934,53.9018880141687,69.08495910566397,-15.183071091495272,8.31116338270285,42.331038636748794,-34.01987525404594,-0.03942403572736583,0.0,-0.03942403572736583
0.46800000000000036,move_to_zero,-0.011494473447207037,-3.375042269682199,3.363547796234992,-47.090983320330594,-70.75283924734867,23.66185592701808,53.785145266850044,68.99500473182847,-15.209859464978429,8.180170145936634,42.275920096857185,-34.09574995092055,-0.03956603552171699,0.0,-0.03956603552171699
0.47000000000000036,move_to_zero,-0.011387525687328022,-3.3706419538155985,3.3592544281282706,-46.99729297462254,-70.66059304233258,23.66330006771004,53.668238000733865,68.90505035799298,-15.236812357259112,8.049520979495911,42.22080155696559,-34.17128057746968,-0.039709247942699366,0.0,-0.039709247942699366
0.47200000000000036,move_to_zero,-0.011282468258555485,-3.3662416379489986,3.354959169690443,-46.90387535766979,-70.56834683731647,23.66447147964668,53.55118248930531,68.81509598415747,-15.263913494852154,7.919203821913652,42.16568301707399,-34.24647919516033,-0.03985120827704302,0.0,-0.03985120827704302
0.47400000000000037,move_to_zero,-0.01117926281503992,-3.361841322082399,3.3506620592673593,-46.81071679293105,-70.47610063230039,23.665383839369333,53.43396499085708,68.72514161032198,-15.291176619464906,7.789206782777644,42.11056447718239,-34.32135769440475,-0.039993906611049006,0.0,-0.039993906611049006
0.47600000000000037,move_to_zero,-0.011075831861211902,-3.357441006215799,3.3463651743545872,-46.7178284442201,-70.38385442728428,23.666025983064173,53.316594250842805,68.63518723648647,-15.318592985643669,7.659508657103677,42.05544593729079,-34.39593728018711,-0.040138605341496936,0.0,-0.040138605341496936
0.47800000000000037,move_to_zero,-0.010970747484950851,-3.3530406903491987,3.342069942864248,-46.6251806347542,-70.29160822226818,23.66642758751398,53.19907601898409,68.54523286265096,-15.346156843666876,7.530090298818663,42.00032739739919,-34.470237098580526,-0.040283357706450196,0.0,-0.040283357706450196
0.48000000000000037,move_to_zero,-0.010863596527826366,-3.3486403744825988,3.3377767779547725,-46.53277302590281,-70.19936201725208,23.666588991349272,53.081415791265925,68.45527848881548,-15.373862697549555,7.400955164480634,41.94520885750759,-34.54425369302695,-0.04042860367089969,0.0,-0.04042860367089969
0.4820000000000004,move_to_zero,-0.010756709392918685,-3.344240058615999,3.33348334922308,-46.44061133481272,-70.10711581223597,23.666504477423253,52.963599841495075,68.36532411497997,-15.401724273484895,7.2720970308983945,41.890090317615986,-34.61799328671759,-0.0405752441983524,0.0,-0.0405752441983524
0.4840000000000004,move_to_zero,-0.010649679017353529,-3.339839742749399,3.3291900637320455,-46.34871422166805,-70.01486960721988,23.666155385551832,52.84562519978526,68.27536974114447,-15.429744541359213,7.143497733661059,41.83497177772439,-34.691474044063334,-0.040721289850481075,0.0,-0.040721289850481075
0.4860000000000004,move_to_zero,-0.010541792112499851,-3.3354394268827985,3.3248976347702985,-46.25708876839307,-69.92262340220378,23.665534633810715,52.72751572556057,68.18541536730898,-15.457899641748405,7.015128692461198,41.77985323783279,-34.76472454537159,-0.040863987739291806,0.0,-0.040863987739291806
0.4880000000000004,move_to_zero,-0.010436283391290017,-3.331039111016199,3.320602827624909,-46.16570293059048,-69.83037719718769,23.66467426659721,52.609289539914364,68.09546099347347,-15.486171453559102,6.886968748762893,41.72473469794119,-34.83776594917829,-0.04100326678755525,0.0,-0.04100326678755525
0.4900000000000004,move_to_zero,-0.010332698238710119,-3.326638795149599,3.316306096910889,-46.07457722454731,-69.73813099217158,23.663553767624265,52.49094193465776,68.00550661963797,-15.514564684980208,6.759025409327692,41.66961615804959,-34.9105907487219,-0.041139012908924424,0.0,-0.041139012908924424
0.4920000000000004,move_to_zero,-0.010230703895026222,-3.3222384792829986,3.3120077753879724,-45.98368083248386,-69.64588478715548,23.662203954671618,52.37246137516628,67.91555224580247,-15.543090870636192,6.631300368610296,41.61449761815798,-34.983197249547686,-0.0412744906060169,0.0,-0.0412744906060169
0.4940000000000004,move_to_zero,-0.01012874069715776,-3.3178381634163987,3.307709422719241,-45.893029785805915,-69.55363858213937,23.660608796333456,52.253858770072,67.82559787196698,-15.571739101894977,6.503790940724526,41.55937907826639,-35.05558813754186,-0.04141088929644357,0.0,-0.04141088929644357
0.4960000000000004,move_to_zero,-0.010027509904377844,-3.3134378475497988,3.303410337645421,-45.8026337317553,-69.46139237712327,23.658758645367975,52.13514560795077,67.73564349813147,-15.600497890180698,6.376504949453898,41.50426053837479,-35.12775558892089,-0.041548377647576545,0.0,-0.041548377647576545
0.4980000000000004,move_to_zero,-0.009926747931899401,-3.309037531683199,3.2991107837512996,-45.712498047000736,-69.36914617210718,23.656648125106443,52.0163335172344,67.64568912429597,-15.62935560706157,6.249479606200308,41.44914199848319,-35.19966239228288,-0.04168483578978614,0.0,-0.04168483578978614
0.5000000000000003,move_to_zero,-0.009826732316168756,-3.3046372158165984,3.2948104835004295,-45.62263180920593,-69.27689996709108,23.654268157885156,51.8974145861714,67.55573475046047,-15.658320164289073,6.122696461350826,41.39402345859159,-35.27132699724076,-0.041820510704286565,0.0,-0.041820510704286565
0.5020000000000003,move_to_zero,-0.009726742674166717,-3.300236899949999,3.290510157275832,-45.53303864254773,-69.18465376207499,23.651615119527257,51.77838937024992,67.46578037662498,-15.687391006375059,5.996133945028304,41.33890491869999,-35.34277097367168,-0.04195240885792895,0.0,-0.04195240885792895
0.5040000000000003,move_to_zero,-0.009625147833614196,-3.2958365840833994,3.2862114362497854,-45.443709941357234,-69.09240755705889,23.648697615701657,51.65927608760792,67.37582600278948,-15.71654991518156,5.869784254873902,41.283786378808394,-35.414002123934495,-0.042079648483763915,0.0,-0.042079648483763915
0.5060000000000003,move_to_zero,-0.009523823292028477,-3.291436268216799,3.2819124449247705,-45.35463336065656,-69.00016135204278,23.645527991386224,51.540093271668866,67.28587162895397,-15.745778357285104,5.7436498999541685,41.228667838916785,-35.48501793896261,-0.04220150594502179,0.0,-0.04220150594502179
0.5080000000000003,move_to_zero,-0.009423687812142662,-3.287035952350199,3.2776122645380563,-45.26580176935062,-68.90791514702669,23.64211337767607,51.420829037947456,67.19591725511847,-15.775088217171017,5.617719341359185,41.1735492990252,-35.55582995766601,-0.0423196396002993,0.0,-0.0423196396002993
0.5100000000000003,move_to_zero,-0.009324620098067378,-3.2826356364835987,3.2733110163855312,-45.17720847536848,-68.81566894201057,23.638460466642094,51.30146250429185,67.10596288128298,-15.804500376991129,5.492023503162942,41.11843075913359,-35.62640725597065,-0.04243256131147036,0.0,-0.04243256131147036
0.5120000000000003,move_to_zero,-0.009227066691078659,-3.278235320616999,3.2690082539259206,-45.088857104417215,-68.7234227369945,23.634565632577278,51.18200150509392,67.01600850744748,-15.834007002353559,5.366565239211599,41.06331221924199,-35.6967469800304,-0.04254367121094139,0.0,-0.04254367121094139
0.5140000000000003,move_to_zero,-0.009127902173982233,-3.273835004750399,3.2647071025764167,-45.000774883388736,-68.63117653197838,23.630401648589647,51.062462406312335,66.92605413361197,-15.863591727299635,5.241347117402634,41.00819367935039,-35.76684656194776,-0.04265314604323885,0.0,-0.04265314604323885
0.5160000000000003,move_to_zero,-0.009029061314884911,-3.2694346888837993,3.260405627568914,-44.91296090578327,-68.53893032696229,23.625969421179015,50.94286329601734,66.83609975977649,-15.893236463759145,5.116361050358088,40.95307513945879,-35.8367140891007,-0.04276161394800865,0.0,-0.04276161394800865
0.5180000000000003,move_to_zero,-0.008931300434933894,-3.265034373017199,3.256103072582265,-44.82539206917831,-68.44668412194618,23.62129205276787,50.82318755366076,66.74614538594096,-15.922957832280204,4.9916177174415575,40.89795659956719,-35.90633888212563,-0.04287089132051527,0.0,-0.04287089132051527
0.5200000000000004,move_to_zero,-0.008834855932580859,-3.2606340571505994,3.2517992012180184,-44.738101967157114,-68.35443791693008,23.616335949772967,50.70344070126683,66.65619101210548,-15.952750310838653,4.867098327489497,40.84283805967559,-35.9757397321861,-0.04298107718951706,0.0,-0.04298107718951706
0.5220000000000004,move_to_zero,-0.008740998898204885,-3.2562337412839986,3.2474927423857936,-44.65110493467389,-68.26219171191397,23.611086777240082,50.58364199840752,66.56623663826997,-15.982594639862448,4.742801337819824,40.78771951978399,-36.044918181964164,-0.043089034112857444,0.0,-0.043089034112857444
0.5240000000000004,move_to_zero,-0.00865047218484574,-3.251833425417399,3.2431829532325533,-44.56440098579231,-68.16994550689789,23.60554452110558,50.463804173020065,66.47628226443447,-16.01247809141441,4.618737815176111,40.732600979892396,-36.113863164716285,-0.04319476463037766,0.0,-0.04319476463037766
0.5260000000000004,move_to_zero,-0.008563023033516156,-3.2474331095507987,3.2388700865172826,-44.47799738217691,-68.07769930188178,23.59970191970487,50.34395006358394,66.38632789059898,-16.042377827015038,4.494903168039606,40.677482440000794,-36.18257927196119,-0.04330008760185841,0.0,-0.04330008760185841
0.5280000000000004,move_to_zero,-0.008477546611066297,-3.2430327936841996,3.2345552470731334,-44.39188021628263,-67.9854530968657,23.593572880583068,50.224073232503116,66.29637351676348,-16.072300284260365,4.371283925426935,40.62236390010919,-36.251079974682256,-0.04340456589004617,0.0,-0.04340456589004617
0.5300000000000004,move_to_zero,-0.008395332336483412,-3.2386324778175983,3.230237145481115,-44.306034358088155,-67.89320689184957,23.587172533761418,50.10416191249395,66.20641914292797,-16.10225723043402,4.247884006440162,40.56724536021758,-36.319361353777424,-0.043505931990230944,0.0,-0.043505931990230944
0.5320000000000004,move_to_zero,-0.008315971050225692,-3.2342321619509993,3.2259161909007736,-44.220429894969946,-67.80096068683349,23.580530791863545,49.984217867054355,66.11646476909249,-16.132246902038133,4.124693764005558,40.512126820325996,-36.38743305632044,-0.043603200118124415,0.0,-0.043603200118124415
0.5340000000000004,move_to_zero,-0.008240060826586558,-3.229831846084399,3.221591785257812,-44.135063460323366,-67.70871448181737,23.573651021494,49.864237795417566,66.02651039525698,-16.16227259983941,4.001681146856565,40.45700828043439,-36.455327133577825,-0.0436970768357081,0.0,-0.0436970768357081
0.5360000000000004,move_to_zero,-0.008167606649830858,-3.2254315302177994,3.2172639235679683,-44.04995527571403,-67.61646827680129,23.56651300108726,49.74421736650993,65.93655602142148,-16.192338654911552,3.878847458967922,40.4018897405428,-36.523042281574874,-0.043787704119726774,0.0,-0.043787704119726774
0.5380000000000004,move_to_zero,-0.008097453432304917,-3.2210312143511985,3.2129337609188937,-43.96511942571625,-67.52422207178519,23.559102646068936,49.62415181705882,65.84660164758597,-16.222449830527154,3.75621448243011,40.34677120065119,-36.59055671822108,-0.043876486290186326,0.0,-0.043876486290186326
0.5400000000000004,move_to_zero,-0.008028217373543303,-3.216630898484599,3.208602681111056,-43.88055712691281,-67.4319758667691,23.55141873985628,49.50403514372814,65.75664727375049,-16.25261213002235,3.6337852257125807,40.29165266075959,-36.65786743504701,-0.04396174536146643,0.0,-0.04396174536146643
0.5420000000000004,move_to_zero,-0.007960843431187975,-3.2122305826179987,3.2042697391868105,-43.79627542390144,-67.33972966175298,23.54345423785154,49.383853873253045,65.66669289991496,-16.282839026661918,3.5115468653122295,40.23653412086799,-36.72498725555576,-0.04404520602412783,0.0,-0.04404520602412783
0.5440000000000004,move_to_zero,-0.00789613782584527,-3.207830266751399,3.199934128925554,-43.712268874906485,-67.24748345673689,23.535214581830402,49.26361175494214,65.57673852607948,-16.31312677113734,3.3894871846795063,40.18141558097639,-36.79192839629688,-0.04412667767587248,0.0,-0.04412667767587248
0.5460000000000004,move_to_zero,-0.007833436883219731,-3.2034299508847988,3.195596514001579,-43.62854120535088,-67.15523725172078,23.5266960463699,49.143308033677926,65.48678415224397,-16.343476118566045,3.2675928471466302,40.12629704108479,-36.85870419393816,-0.04420579125170806,0.0,-0.04420579125170806
0.5480000000000004,move_to_zero,-0.007773425640608066,-3.1990296350181993,3.1912562093775914,-43.54509261616885,-67.06299104670468,23.51789843053583,49.02295557322213,65.39682977840847,-16.373874205186347,3.145856517074908,40.071178501193195,-36.925321984118284,-0.04428239840872668,0.0,-0.04428239840872668
0.5500000000000004,move_to_zero,-0.007716630921759119,-3.194629319151599,3.1869126882298398,-43.4619289867919,-66.97074484168859,23.50881585489669,48.90257982335622,65.30687540457298,-16.404295581216758,3.0242721321432544,40.01605996130159,-36.99178782915834,-0.044357517170461394,0.0,-0.044357517170461394
0.5520000000000004,move_to_zero,-0.0076627571016676796,-3.190229003284999,3.182566246183331,-43.379038216104625,-66.87849863667249,23.499460420567864,48.78217561533066,65.21692103073748,-16.434745415406823,2.902872812494141,39.96094142140999,-37.05806860891585,-0.04443078767723625,0.0,-0.04443078767723625
0.5540000000000004,move_to_zero,-0.007611100539157169,-3.1858286874183985,3.1782175868792413,-43.29640518893653,-66.78625243165638,23.489847242719847,48.66172021382732,65.12696665690197,-16.465246443074648,2.781658037770918,39.90582288151839,-37.12416484374747,-0.04450236819657828,0.0,-0.04450236819657828
0.5560000000000004,move_to_zero,-0.0075636190711888245,-3.1814283715517995,3.1738647524806107,-43.21401413043683,-66.69400622664028,23.479992096203453,48.54120507001469,65.03701228306649,-16.495807213051798,2.6606214223454283,39.850704341626795,-37.190082919281366,-0.044572672400251125,0.0,-0.044572672400251125
0.5580000000000004,move_to_zero,-0.007519171455050909,-3.1770280556851986,3.1695088842301478,-43.13187710021667,-66.60176002162417,23.469882921407503,48.42061878189615,64.94705790923096,-16.52643912733481,2.539769903824742,39.795585801735186,-37.255815897910445,-0.04464139485575671,0.0,-0.04464139485575671
0.5600000000000004,move_to_zero,-0.007477861392080871,-3.172627739818599,3.165149878426518,-43.050001832056694,-66.50951381660808,23.459511984551384,48.29995963176859,64.85710353539548,-16.557143903626894,2.4191223552407886,39.7404672618436,-37.32134490660281,-0.04471016479650369,0.0,-0.04471016479650369
0.5620000000000004,move_to_zero,-0.007438285977636478,-3.1682274239519987,3.1607891379743625,-42.96839049530648,-66.41726761159198,23.4488771162855,48.17923824678159,64.76714916155997,-16.587910914778384,2.298655232001102,39.68534872195198,-37.38669348995088,-0.04478128325812977,0.0,-0.04478128325812977
0.5640000000000004,move_to_zero,-0.007400639347339029,-3.1638271080853992,3.15642646873806,-42.88704181508702,-66.3250214065759,23.437979591488883,48.05844678132,64.67719478772447,-16.618748006404473,2.178371501316558,39.630230182060394,-37.45185868074384,-0.04485712468229122,0.0,-0.04485712468229122
0.5660000000000004,move_to_zero,-0.007366116718040552,-3.159426792218799,3.152060675500758,-42.80595818751754,-66.23277520155978,23.426817014042236,47.93758094026494,64.58724041388896,-16.649659473624027,2.058255004696055,39.575111642168785,-37.51685663747273,-0.04493826829834309,0.0,-0.04493826829834309
0.5680000000000004,move_to_zero,-0.007334185754936603,-3.155026476352199,3.1476922905972624,-42.725127816129444,-66.1405289965437,23.41540118041425,47.816646194357624,64.49728604005348,-16.680639845695858,1.9382914318583604,39.51999310227719,-37.58170167041883,-0.04502415878654217,0.0,-0.04502415878654217
0.5700000000000004,move_to_zero,-0.007303935236257441,-3.1506261604855985,3.143322225249341,-42.644574446334204,-66.04828279152757,23.403708345193365,47.69566057703225,64.40733166621797,-16.71167108918572,1.8184761931885312,39.46487456238559,-37.64639836919706,-0.04511424492268469,0.0,-0.04511424492268469
0.5720000000000004,move_to_zero,-0.007274046371128991,-3.1462258446189995,3.1389517982478705,-42.56428976023012,-65.95603658651149,23.39174682628137,47.57463356080293,64.31737729238247,-16.742743731579544,1.698813221264991,39.409756022493994,-37.710942801229,-0.045204868242142926,0.0,-0.045204868242142926
0.5740000000000004,move_to_zero,-0.007244669498500639,-3.141825528752399,3.1345808592538984,-42.48425020939286,-65.86379038149538,23.379540172102516,47.45356115804884,64.22742291854698,-16.773861760498136,1.5793058002655247,39.354637482602385,-37.77533168233686,-0.045296458124416995,0.0,-0.045296458124416995
0.5760000000000004,move_to_zero,-0.0072150228053343285,-3.137425212885799,3.1302101900804646,-42.404469662736496,-65.7715441764793,23.3670745137428,47.33245074590872,64.13746854471148,-16.80501779880276,1.4599623112547842,39.29951894271079,-37.839556631456006,-0.04538744191105273,0.0,-0.04538744191105273
0.5780000000000004,move_to_zero,-0.007185427250255434,-3.1330248970191987,3.1258394697689433,-42.324933176771864,-65.67929797146319,23.35436479469132,47.21128824884368,64.04751417087597,-16.83622592203229,1.3407868982408018,39.24440040281919,-37.90361350457839,-0.045480690950900585,0.0,-0.045480690950900585
0.5800000000000004,move_to_zero,-0.007156732208312241,-3.1286245811525992,3.121467848944287,-42.24562230100345,-65.58705176644709,23.34142946544364,47.0900461233266,63.95755979704048,-16.86751367371388,1.2217935310032513,39.189281862927594,-37.96748833192434,-0.04557506787742357,0.0,-0.04557506787742357
0.5820000000000004,move_to_zero,-0.0071298844892958855,-3.1242242652859984,3.1170943807967024,-42.16654554386455,-65.49480556143098,23.32826001756643,46.968753422822104,63.867605423204964,-16.89885200038286,1.1029692012927714,39.134163323035985,-38.03119412174321,-0.04567035875942377,0.0,-0.04567035875942377
0.5840000000000004,move_to_zero,-0.00710573008180713,-3.119823949419399,3.1127182193375917,-42.087686804406104,-65.40255935641488,23.31487255200878,46.84742756372106,63.777651049369474,-16.930223485648412,0.9843031894601563,39.0790447831444,-38.09474159368424,-0.04576793556441274,0.0,-0.04576793556441274
0.5860000000000004,move_to_zero,-0.00708271564766724,-3.1154236335527985,3.108340917905131,-42.00903439416306,-65.31031315139877,23.301278757235714,46.72607893075739,63.68769667553397,-16.961617744776582,0.8657839466639788,39.02392624325278,-38.1581422965888,-0.04586638747310409,0.0,-0.04586638747310409
0.5880000000000004,move_to_zero,-0.007062241453840213,-3.1110233176861994,3.103961076232359,-41.930573743739366,-65.21806694638268,23.28749320264331,46.60469143875874,63.597742301698474,-16.993050862939732,0.7474502507175268,38.96880770336119,-38.221357452643666,-0.04596418165221947,0.0,-0.04596418165221947
0.5900000000000004,move_to_zero,-0.007043105486127315,-3.1066230018195986,3.0995798963334713,-41.85228099355282,-65.12582074136658,23.273539747813764,46.48326624562521,63.50778792786297,-17.02452168223776,0.6292837537050909,38.913689163469584,-38.284405409764496,-0.046059627663846366,0.0,-0.046059627663846366
0.5920000000000004,move_to_zero,-0.0070256988871564155,-3.102222685952999,3.095196987065843,-41.774168212989224,-65.03357453635049,23.25940632336126,46.36181479344629,63.41783355402748,-17.05601876058119,0.5112891253120408,38.858570623578,-38.34728149826596,-0.04615369056243716,0.0,-0.04615369056243716
0.5940000000000004,move_to_zero,-0.007010601684034344,-3.0978223700863987,3.0908117684023644,-41.69623191329997,-64.94132833133438,23.245096418034407,46.24033357554769,63.32787918019197,-17.087545604644284,0.39348636713329765,38.80345208368639,-38.40996571655309,-0.04624429922092116,0.0,-0.04624429922092116
0.5960000000000004,move_to_zero,-0.006997059673053545,-3.093422054219799,3.0864249945467455,-41.61846181773081,-64.84908212631828,23.23062030858747,46.11882263185928,63.23792480635648,-17.1191021744972,0.2758917297448651,38.74833354379479,-38.47244181404993,-0.046331802643518404,0.0,-0.046331802643518404
0.5980000000000004,move_to_zero,-0.0069838801061932925,-3.0890217383531984,3.082037858247005,-41.54128909478424,-64.75683592130217,23.21554682651793,45.996609138488765,63.147970432520964,-17.1513612940322,0.16882123327759763,38.693215003903184,-38.524393770625586,-0.04641676504110697,0.0,-0.04641676504110697
0.6000000000000004,move_to_zero,-0.006972550651350852,-3.0846214224865993,3.0776488718352484,-41.465165124187195,-64.66458971628607,23.19942459209888,45.87301050195183,63.05801605868548,-17.18500555673365,0.08340823898075707,38.63809646401159,-38.55468822503083,-0.046497935490620874,0.0,-0.046497935490620874
0.6020000000000004,move_to_zero,-0.006962046213749932,-3.0802211066199985,3.0732590604062486,-41.39030976149098,-64.57234351126998,23.182033749778995,45.74769313623003,62.968061684849964,-17.22036854861993,0.0256832140834812,38.58297792411999,-38.55729471003651,-0.046575045040341816,0.0,-0.046575045040341816
0.6040000000000004,move_to_zero,-0.0069504650397765174,-3.075820790753399,3.0688703257136223,-41.316725213344895,-64.4800973062539,23.163372092909,45.620665546278694,62.878107311014475,-17.25744176473578,-0.0033084985189545607,38.52785938422839,-38.53116788274735,-0.04664559919024012,0.0,-0.04664559919024012
0.6060000000000004,move_to_zero,-0.006937226115239473,-3.0714204748867986,3.064483248771559,-41.24424260995082,-64.38785110123777,23.143608491286955,45.49220445940633,62.78815293717897,-17.29594847777264,-0.00663434131780599,38.47274084433679,-38.4793751856546,-0.0467104609891586,0.0,-0.0467104609891586
0.6080000000000004,move_to_zero,-0.006922635735675903,-3.067020159020199,3.060097523284523,-41.1725799587188,-64.29560489622169,23.12302493750289,45.36275596755429,62.698198563343475,-17.335442595789182,0.009952043009708828,38.417622304445196,-38.407670261435484,-0.046771069683127775,0.0,-0.046771069683127775
0.6100000000000004,move_to_zero,-0.006908525214844076,-3.0626198431535987,3.0557113179387545,-41.1013988935739,-64.20335869120557,23.101959797631665,45.232814895765216,62.60824418950797,-17.375429293742755,0.039395000475885,38.36250376455359,-38.3231087640777,-0.04682829789707547,0.0,-0.04682829789707547
0.6120000000000004,move_to_zero,-0.006895106011804726,-3.0582195272869988,3.051324421275194,-41.03039992684674,-64.11111248618948,23.080712559342743,45.10285590483056,62.51828981567248,-17.41543391084192,0.07458689114184211,38.30738522466199,-38.23279833352015,-0.046882548956828855,0.0,-0.046882548956828855
0.6140000000000004,move_to_zero,-0.006882848528413451,-3.0538192114203984,3.046936362891985,-40.95931821158183,-64.01886628117337,23.059548069591543,44.973248809263396,62.42833544183697,-17.455086632573575,0.10939346707500718,38.25226668477038,-38.142873217695374,-0.04693376202436286,0.0,-0.04693376202436286
0.6160000000000004,move_to_zero,-0.006873250228875386,-3.0494188955537993,3.0425456453249238,-40.887985702927665,-63.926620076157285,23.03863437322962,44.84427771533877,62.33838106800148,-17.494103352662712,0.13917679415736095,38.197148144878796,-38.05797135072144,-0.04698152559029325,0.0,-0.04698152559029325
0.6180000000000004,move_to_zero,-0.006864983982630283,-3.045018579687199,3.0381535957045687,-40.816313195355505,-63.83437387114118,23.018060675785676,44.71604028137981,62.248426694165964,-17.532386412786153,0.16187504339758538,38.14202960498719,-37.9801545615896,-0.047024051517537836,0.0,-0.047024051517537836
0.6200000000000004,move_to_zero,-0.00685690767488444,-3.040618263820599,3.0337613561457144,-40.74427022687258,-63.742127666125086,22.997857439252506,44.58860397290097,62.15847232033048,-17.569868347429512,0.1761877302457621,38.08691106509559,-37.91072333484983,-0.047060456451241434,0.0,-0.047060456451241434
0.6220000000000004,move_to_zero,-0.00684888199405616,-3.0362179479539986,3.0293690659599424,-40.671894655315086,-63.649881461108976,22.97798680579389,44.46191237447226,62.068517946494964,-17.6066055720227,0.1825448466989131,38.03179252520398,-37.84924767850507,-0.04709202039533938,0.0,-0.04709202039533938
0.6240000000000004,move_to_zero,-0.00684133716789889,-3.031817632087399,3.0249762949195,-40.5992168286655,-63.55763525609289,22.95841842742739,44.335899155940595,61.978563572659475,-17.64266441671888,0.18147655644560554,37.97667398531239,-37.795197428866786,-0.0471158381267896,0.0,-0.0471158381267896
0.6260000000000004,move_to_zero,-0.006835828741482004,-3.0274173162207987,3.020581487479317,-40.52634351659657,-63.46538905107678,22.939045534480208,44.21041555416961,61.888609198823964,-17.678193644654357,0.17488256918489237,37.921555445420786,-37.74667287623589,-0.047132553661888336,0.0,-0.047132553661888336
0.6280000000000004,move_to_zero,-0.006833292499714362,-3.0230170003541987,3.016183707854484,-40.45337658347908,-63.37314284606068,22.919766262581604,44.08531117794754,61.798654824988475,-17.713343647040936,0.16494044333809643,37.86643690552919,-37.701496462191095,-0.04714415815834589,0.0,-0.04714415815834589
0.6300000000000004,move_to_zero,-0.0068331002559215565,-3.0186166844875983,3.0117835842316767,-40.38042467530714,-63.28089664104458,22.900471965737438,43.960442038610644,61.70870045115297,-17.748258412542327,0.15372477706531212,37.81131836563759,-37.657593588572276,-0.047154801153892124,0.0,-0.047154801153892124
0.6320000000000005,move_to_zero,-0.00683450711722238,-3.0142163686209993,3.007381861503777,-40.30756880800404,-63.18865043602848,22.88108162802444,43.83567086189407,61.618746077317475,-17.783075215423402,0.14301143691669405,37.756199825745995,-37.6131883888293,-0.047163703178509896,0.0,-0.047163703178509896
0.6340000000000005,move_to_zero,-0.006836029269987307,-3.009816052754399,3.0029800234844117,-40.234869974852174,-63.09640423101237,22.861534256160198,43.71092525490411,61.52879170348197,-17.81786644857786,0.13405560793944638,37.701081285854386,-37.56702567791494,-0.04717076077514987,0.0,-0.04717076077514987
0.6360000000000005,move_to_zero,-0.006837985831338023,-3.005415736887799,2.998577751056461,-40.1623154199822,-63.00415802599628,22.841842606014083,43.58619698992392,61.43883732964648,-17.852640339722562,0.1269365610548975,37.64596274596279,-37.519026184907894,-0.0471762256292002,0.0,-0.0471762256292002
0.6380000000000005,move_to_zero,-0.006841563501793478,-3.0010154210211986,2.9941738575194052,-40.089922066185274,-62.91191182098017,22.8219897547949,43.461465935786286,61.348882955810964,-17.887417020024678,0.12195050402419261,37.59084420607118,-37.46889370204699,-0.047180046654996255,0.0,-0.047180046654996255
0.6400000000000005,move_to_zero,-0.0068446986608788896,-2.996615105154599,2.98977040649372,-40.017675997799394,-62.81966561596408,22.801989618164683,43.33672747076869,61.25892858197548,-17.92220111120679,0.11919801334528386,37.535725666179594,-37.41652765283431,-0.047178589449930516,0.0,-0.047178589449930516
0.6420000000000005,move_to_zero,-0.006847955099295103,-2.9922147892879987,2.9853668341887034,-39.94556420535773,-62.727419410947974,22.781855205590247,43.211996275191886,61.168974208139964,-17.956977932948078,0.11847977553878997,37.480607126287985,-37.3621273507492,-0.04717248534447749,0.0,-0.04717248534447749
0.6440000000000005,move_to_zero,-0.006852618684115986,-2.987814473421399,2.9809618547372834,-39.87355775244465,-62.63517320593189,22.761615453487245,43.08728305190242,61.079019834304475,-17.991736782402057,0.11937901613968198,37.42548858639639,-37.30610957025671,-0.04716275928383745,0.0,-0.04716275928383745
0.6460000000000005,move_to_zero,-0.006857835882937985,-2.9834141575547983,2.9765563216718602,-39.80161594813466,-62.54292700091577,22.741311052781107,42.96260523267773,60.989065460468964,-18.026460227791233,0.12132902702485628,37.37037004650478,-37.249041019479925,-0.04715190072738751,0.0,-0.04715190072738751
0.6480000000000005,move_to_zero,-0.00686400648522271,-2.9790138416881993,2.9721498352029765,-39.72972107284934,-62.450680795899686,22.72095972305035,42.83798877450319,60.899111086633475,-18.061122312130287,0.12375833331923738,37.31525150661319,-37.19149317329395,-0.04714084966684892,0.0,-0.04714084966684892
