GerardoFJ/TE3001B_TEAM_3/src/s0s1_gazebo/scripts/results/PD3/state.csv
t,phase,shoulder_pan_actual_deg,shoulder_pan_desired_deg,shoulder_pan_error_deg,shoulder_lift_actual_deg,shoulder_lift_desired_deg,shoulder_lift_error_deg,elbow_flex_actual_deg,elbow_flex_desired_deg,elbow_flex_error_deg,wrist_flex_actual_deg,wrist_flex_desired_deg,wrist_flex_error_deg,wrist_roll_actual_deg,wrist_roll_desired_deg,wrist_roll_error_deg
0.002,move_to_zero,-4.376474382407018,-4.4003158666,0.02384148419298171,-92.21682027023317,-92.2462050161,0.02938474586683526,89.9402674989065,89.9543738355,-0.014106336593499691,55.09939055982472,55.1185398916,-0.019149331775281553,0.0017248340730163765,0.0,0.0017248340730163765
0.004,move_to_zero,-4.332232391089435,-4.3959155507334,0.06368315964396487,-92.15474841803666,-92.15395881108391,-0.0007896069527504324,89.91003826326889,89.86441946166448,0.045618801604405235,55.06061111947324,55.0634213517084,-0.002810232235155752,0.004411016661376291,0.0,0.004411016661376291
0.006,move_to_zero,-4.271193835960829,-4.3915152348668,0.12032139890597104,-92.06328464113379,-92.0617126060678,-0.0015720350659904625,89.86464478986832,89.77446508782899,0.09017970203933601,55.00358791061504,55.008302811816804,-0.004714901201765542,0.0073650681910087164,0.0,0.0073650681910087164
0.008,move_to_zero,-4.196493248208368,-4.3871149190002,0.190621670791832,-91.94552251220965,-91.9694664010517,0.023943888842055117,89.80500815470015,89.68451071399349,0.12049744070665724,54.92964138827193,54.953184271925196,-0.023542883653263402,0.010064751207051557,0.0,0.010064751207051557
0.01,move_to_zero,-4.110829463186575,-4.382714603133599,0.2718851399470239,-91.80434683875576,-91.8772201960356,0.07287335727983191,89.73201835445546,89.594556340158,0.13746201429746918,54.84004480470683,54.8980657320336,-0.058020927326772664,0.012254326455585416,0.0,0.012254326455585416
0.012,move_to_zero,-4.016538148204372,-4.378314287266999,0.36177613906262707,-91.64241154008872,-91.7849739910195,0.14256245093078235,89.64653301432827,89.50460196632248,0.14193104800578737,54.73602265120473,54.842947192142,-0.10692454093727122,0.014005403705909008,0.0,0.014005403705909008
0.014,move_to_zero,-3.9156118783334364,-4.373913971400399,0.4583020930669628,-91.46217002095659,-91.69272778600339,0.2305577650467967,89.54939272022007,89.41464759248699,0.13474512773308334,54.61872039133717,54.787828652250404,-0.16910826091323372,0.015382006641038929,0.0,0.015382006641038929
0.016,move_to_zero,-3.809773778795143,-4.369513655533799,0.5597398767386563,-91.26586240043125,-91.6004815809873,0.33461918055606077,89.44139064097654,89.32469321865149,0.11669742232504632,54.48923504888275,54.7327101123588,-0.24347506347605474,0.016439993823529658,0.0,0.016439993823529658
0.018000000000000002,move_to_zero,-3.7004705764176054,-4.3651133396672,0.6646427632495948,-91.05556709140991,-91.5082353759712,0.45266828456128394,89.32330011880087,89.234738844816,0.08856127398487956,54.348592971399405,54.6775915724672,-0.328998601067795,0.017136824496184946,0.0,0.017136824496184946
0.020000000000000004,move_to_zero,-3.5889543828665103,-4.3607130238006,0.77175864093409,-90.83321480414384,-91.4159891709551,0.5827743668112646,89.19589170559951,89.1447844709805,0.051107234619010455,54.19778453789874,54.6224730325756,-0.42468849467685743,0.017427783766017356,0.0,0.017427783766017356
0.022000000000000006,move_to_zero,-3.476303224099348,-4.356312707934,0.8800094838346522,-90.60057658999008,-91.323742965939,0.7231663759489209,89.0598862874843,89.05483009714499,0.005056190339317368,54.037716266241006,54.567354492684,-0.5296382264429909,0.01734457792653411,0.0,0.01734457792653411
0.024000000000000007,move_to_zero,-3.363402551008629,-4.351912392067399,0.9885098410587703,-90.35930070132014,-91.2314967609229,0.8721960596027571,88.91598394122242,88.96487572330949,-0.048891782087068236,53.86926336208908,54.5122359527924,-0.642972590703323,0.01693395632063459,0.0,0.01693395632063459
0.02600000000000001,move_to_zero,-3.251011717891608,-4.3475120762007995,1.0965003583091915,-90.11086026312252,-91.1392505559068,1.0283902927842803,88.76487524824427,88.874921349474,-0.11004610122972736,53.69323471085732,54.4571174129008,-0.7638827020434817,0.01630029156029247,0.0,0.01630029156029247
0.02800000000000001,move_to_zero,-3.139738329403429,-4.3431117603341995,1.2033734309307706,-89.85662617521425,-91.0470043508907,1.1903781756764573,88.60721186709641,88.78496697563848,-0.17775510854207255,53.51040498515573,54.401998873009205,-0.8915938878534746,0.015553354617616548,0.0,0.015553354617616548
0.030000000000000013,move_to_zero,-3.030120177479791,-4.3387114444676,1.3085912669878086,-89.597842468551,-90.9547581458746,1.356915677323613,88.44361608661207,88.695012601803,-0.2513965151909332,53.321516150583975,54.3468803331176,-1.0253641825336288,0.014799639471260312,0.0,0.014799639471260312
0.032000000000000015,move_to_zero,-2.922569425860781,-4.334311128601,1.4117417027402186,-89.33564630364754,-90.8625119408585,1.5268656372109604,88.27470416439301,88.60505822796749,-0.3303540635744753,53.12724747627748,54.291761793225994,-1.1645143169485124,0.0141154993870311,0.0,0.0141154993870311
0.034000000000000016,move_to_zero,-2.8174208198627944,-4.3299108127344,1.5124899928716053,-89.07108537317303,-90.7702657358424,1.6991803626693667,88.10102766353408,88.51510385413198,-0.41407619059789624,52.92823621479041,54.2366432533344,-1.30840703854399,0.013523066193526017,0.0,0.013523066193526017
0.03600000000000002,move_to_zero,-2.7149102195387385,-4.3255104968678,1.6106002773290613,-88.80509555212765,-90.67801953082629,1.872923978698637,87.92313025112291,88.4251494802965,-0.5020192291735839,52.72508738843479,54.1815247134428,-1.456437325008011,0.013009386016731439,0.0,0.013009386016731439
0.03800000000000002,move_to_zero,-2.6152516583485133,-4.3211101810012,1.7058585226526866,-88.53849814955338,-90.5857733258102,2.047275176256818,87.74154424597913,88.33519510646099,-0.5936508604818584,52.5183486163748,54.1264061735512,-1.6080575571764015,0.012561060231445131,0.0,0.012561060231445131
0.04000000000000002,move_to_zero,-2.518616220887065,-4.316709865134599,1.7980936442475342,-88.27203616862124,-90.4935271207941,2.221490952172857,87.55675768313563,88.24524073262549,-0.6884830494898608,52.30856537178722,54.0712876336596,-1.7627222618723835,0.01216702523922864,0.0,0.01216702523922864
0.04200000000000002,move_to_zero,-2.425119118610849,-4.312309549267999,1.8871904306571499,-88.00637744097357,-90.401280915778,2.394903474804437,87.36922232936799,88.15528635879,-0.7860640294220076,52.0962175389206,54.016169093768006,-1.9199515548474082,0.011818054950862657,0.0,0.011818054950862657
0.044000000000000025,move_to_zero,-2.33481416244093,-4.307909233401399,1.9730950709604689,-87.74214251887787,-90.3090347107619,2.566892191884037,87.17940304586288,88.06533198495448,-0.885928939091599,51.88175704976366,53.9610505538764,-2.0792935041127407,0.01150688363672543,0.0,0.01150688363672543
0.04600000000000003,move_to_zero,-2.2477583192799147,-4.3035089175348,2.0557505982548854,-87.4798379123884,-90.2167885057458,2.736950593357392,86.98774469594201,87.97537761111899,-0.9876329151769738,51.66561670732801,53.905932013984796,-2.2403153066567825,0.011225596788173092,0.0,0.011225596788173092
0.04800000000000003,move_to_zero,-2.16396846796017,-4.2991086016682,2.1351401337080302,-87.21990912054056,-90.1245423007297,2.904633180189137,86.79464272036789,87.88542323728349,-1.0907805169156006,51.44820253693038,53.8508134740932,-2.4026109371628195,0.010966725051058872,0.0,0.010966725051058872
0.05000000000000003,move_to_zero,-2.0834402724955683,-4.2947082858016,2.211268013306032,-86.96274344543713,-90.03229609571359,3.0695526502764636,86.60047415236095,87.795468863448,-1.1949947110870482,51.22990809168947,53.7956949342016,-2.565786842512132,0.01072531998288076,0.0,0.01072531998288076
0.05200000000000003,move_to_zero,-2.006133805530853,-4.290307969935,2.2841741644041473,-86.70870219445172,-89.9400498906975,3.231347696245777,86.40559884097706,87.70551448961248,-1.2999156486354195,51.01107977054409,53.740576394310004,-2.729496623765911,0.010496743502503217,0.0,0.010496743502503217
0.054000000000000034,move_to_zero,-1.932000244602891,-4.285907654068399,2.353907409465508,-86.45806274450594,-89.8478036856814,3.389740941175461,86.21034445488998,87.61556011577699,-1.4052156608870092,50.79202911300927,53.6854578544184,-2.8934287414091315,0.010278145444888446,0.0,0.010278145444888446
0.056000000000000036,move_to_zero,-1.8609859963738458,-4.281507338201799,2.4205213418279534,-86.21108630373888,-89.7555574806653,3.5444711769264217,86.01502091115282,87.52560574194149,-1.5105848307886731,50.57303529170383,53.6303393145268,-3.0573040228229686,0.010067746558267284,0.0,0.010067746558267284
0.05800000000000004,move_to_zero,-1.7930027721884434,-4.2771070223351995,2.484104250146756,-85.9680009417519,-89.66331127564919,3.6953103338972966,85.81993086749333,87.43565136810598,-1.6157205006126532,50.354374931433284,53.5752207746352,-3.2208458432019142,0.009862653836639033,0.0,0.009862653836639033
0.06000000000000004,move_to_zero,-1.7279742342702387,-4.2727067064685995,2.544732472198361,-85.728963750052,-89.5710650706331,3.8421013205810937,85.62534144300919,87.3456969942705,-1.7203555512613065,50.13631653830834,53.5201022347436,-3.383785696435254,0.009660674188293372,0.0,0.009660674188293372
0.06200000000000004,move_to_zero,-1.6658059654999204,-4.268306390602,2.602500425102079,-85.49410909862534,-89.478818865617,3.9847097669916565,85.43150453594946,87.25574262043499,-1.824238084485529,49.919101285410676,53.464983694852,-3.545882409441326,0.009460117820593365,0.0,0.009460117820593365
0.06400000000000004,move_to_zero,-1.6063823498495706,-4.2639060747354,2.657523724885829,-85.26354308181968,-89.38657266060089,4.123029578781214,85.23865140837236,87.16578824659948,-1.9271368382271135,49.702932948058034,53.4098651549604,-3.7069322069023656,0.009261070740440391,0.0,0.009261070740440391
0.06600000000000004,move_to_zero,-1.5495995826768625,-4.2595057588688,2.709906176191937,-85.03734288073251,-89.29432645558481,4.256983574852299,85.04701028664837,87.075833872764,-2.028823586115621,49.48803102515016,53.354746615068805,-3.8667155899186483,0.009063519289358994,0.0,0.009063519289358994
0.06800000000000005,move_to_zero,-1.4953291148810897,-4.2551054430022,2.7597763281211103,-84.815585539435,-89.2020802505687,4.386494711133693,84.8567941840026,86.98587949892848,-2.129085314925888,49.27459211708869,53.299628075177196,-4.025035958088509,0.008867346101491917,0.0,0.008867346101491917
0.07000000000000005,move_to_zero,-1.4434468311454869,-4.250705127135599,2.807258295990112,-84.59831778582833,-89.1098340455526,4.511516259724274,84.6681657990972,86.89592512509299,-2.227759325995791,49.06280271198705,53.2445095352856,-4.181706823298555,0.008669487811666904,0.0,0.008669487811666904
0.07200000000000005,move_to_zero,-1.3938419017880506,-4.246304811268999,2.8524629094809484,-84.38556968066733,-89.01758784053649,4.632018159869162,84.48126852805515,86.80597075125749,-2.324702223202337,48.8528245609041,53.189390995394,-4.336566434489903,0.008469202787428142,0.0,0.008469202787428142
0.07400000000000005,move_to_zero,-1.34641752741108,-4.241904495402399,2.895486967991319,-84.17733874888434,-88.9253416355204,4.748002886636058,84.2962386764288,86.71601637742198,-2.41977770099318,48.64479697033993,53.1342724555024,-4.489475485162465,0.008264353089464703,0.0,0.008264353089464703
0.07600000000000005,move_to_zero,-1.3010711995257747,-4.2375041795358,2.936432980010025,-83.9735944233501,-88.83309543050429,4.8595010071541935,84.11322247685476,86.62606200358648,-2.5128395267317245,48.43883123381616,53.0791539156108,-4.640322681794643,0.008036478708107081,0.0,0.008036478708107081
0.07800000000000006,move_to_zero,-1.2577227626246599,-4.2331038636692,2.9753811010445403,-83.77428654576502,-88.74084922548819,4.966562679723168,83.93233481718816,86.53610762975099,-2.6037728125628234,48.23504819622555,53.0240353757192,-4.7889871794936525,0.0077899907644250425,0.0,0.0077899907644250425
0.08000000000000006,move_to_zero,-1.2162986499526824,-4.2287035478026,3.0124048978499176,-83.57934272871985,-88.6486030204721,5.069260291752244,83.75368569360552,86.44615325591549,-2.6924675623099716,48.033549488303294,52.9689168358276,-4.935367347524306,0.007502708663900106,0.0,0.007502708663900106
0.08200000000000006,move_to_zero,-1.176693566651269,-4.224303231936,3.047609665284731,-83.3886945803883,-88.556356815456,5.167662235067695,83.57737530791111,86.35619888207998,-2.778823574168868,47.83442125154933,52.913798295936,-5.079377044386668,0.00720506506412093,0.0,0.00720506506412093
0.08400000000000006,move_to_zero,-1.1388490084571627,-4.219902916069399,3.0810539076122367,-83.20226914541284,-88.4641106104399,5.261841465027061,83.40346835981221,86.26624450824448,-2.8627761484322747,47.637696168587844,52.858679756044396,-5.220983587456551,0.0068938647248346285,0.0,0.0068938647248346285
0.08600000000000006,move_to_zero,-1.1026717730047562,-4.215502600202799,3.112830827198043,-83.01999344460269,-88.37186440542379,5.351870960821103,83.23202842375329,86.17629013440899,-2.944261710655695,47.44346607966495,52.8035612161528,-5.36009513648785,0.0065794920953903095,0.0,0.0065794920953903095
0.08800000000000006,move_to_zero,-1.068073953763108,-4.211102284336199,3.1430283305730913,-82.84176927363696,-88.2796182004077,5.437848926770741,83.06312934811271,86.08633576057349,-3.0232064124607803,47.25180077442083,52.7484426762612,-5.49664190184037,0.006270687021088071,0.0,0.006270687021088071
0.09000000000000007,move_to_zero,-1.034963255213902,-4.206701968469599,3.1717387132556976,-82.66750232229796,-88.18737199539159,5.519869673093623,82.89683914644348,85.996381386738,-3.099542240294511,47.06273266826944,52.693324136369604,-5.630591468100164,0.005967420513120951,0.0,0.005967420513120951
0.09200000000000007,move_to_zero,-1.0032784102592194,-4.2023016526029995,3.19902324234378,-82.49705785585863,-88.0951257903755,5.598067934516877,82.73321558830042,85.90642701290248,-3.1732114246020586,46.87629837690579,52.638205596477995,-5.761907219572208,0.0056804835406277406,0.0,0.0056804835406277406
0.09400000000000007,move_to_zero,-0.9729766336603914,-4.1979013367363995,3.224924703076008,-82.3303196389908,-88.0028795853594,5.672559946368594,82.57228754760585,85.81647263906699,-3.2441850914611337,46.69253720831539,52.5830870565864,-5.890549848271007,0.005391477443420978,0.0,0.005391477443420978
0.09600000000000007,move_to_zero,-0.9439778515478903,-4.1935010208698,3.2495231693219093,-82.16715544803003,-87.9106333803433,5.743477932313269,82.41407881839393,85.72651826523149,-3.3124394468375584,46.511478729701736,52.5279685166948,-6.016489786993063,0.005116640952418183,0.0,0.005116640952418183
0.09800000000000007,move_to_zero,-0.916209171911192,-4.1891007050032,3.2728915330920074,-82.0074774000515,-87.81838717532719,5.8109097752756895,82.25862204590962,85.63656389139598,-3.3779418454863617,46.33316000747559,52.4728499768032,-6.1396899693276055,0.004854296518450643,0.0,0.004854296518450643
0.10000000000000007,move_to_zero,-0.8895941709218442,-4.184700389136599,3.2951062182147544,-81.851160865292,-87.72614097031109,5.874980105019091,82.105916185915,85.5466095175605,-3.440693331645491,46.157593424557945,52.4177314369116,-6.260138012353657,0.004601593293761313,0.0,0.004601593293761313
0.10200000000000008,move_to_zero,-0.8640547700066257,-4.180300073269999,3.316245303263373,-81.6980841622208,-87.633894765295,5.935810603074202,81.95594934833723,85.45665514372499,-3.500705795387759,45.98477919062267,52.36261289702,-6.3778337063973325,0.0043585527563087595,0.0,0.0043585527563087595
0.10400000000000008,move_to_zero,-0.8395253069297184,-4.1758997574034,3.3363744504736816,-81.54812905768448,-87.5416485602789,5.993519502594424,81.8086961351104,85.36670076988948,-3.5580046347790812,45.81472152121012,52.3074943571284,-6.492772835918281,0.004123902849614384,0.0,0.004123902849614384
0.10600000000000008,move_to_zero,-0.8159481809575033,-4.1714994415368,3.3555512605792965,-81.4011760860972,-87.4494023552628,6.04822626916561,81.66414177216647,85.276746396054,-3.6126046238875205,45.647394933741644,52.252375817236796,-6.604980883495152,0.0038947859964471904,0.0,0.0038947859964471904
0.10800000000000008,move_to_zero,-0.7932529425308289,-4.1670991256702,3.373846183139371,-81.25711557116088,-87.3571561502467,6.100040579085814,81.52226873393955,85.18679202221848,-3.6645232882789287,45.48281781399155,52.1972572773452,-6.714439463353649,0.0036687511250372393,0.0,0.0036687511250372393
0.11000000000000008,move_to_zero,-0.7713845919769241,-4.1626988098036,3.3913142178266757,-81.11582446377439,-87.2649099452306,6.149085481456211,81.38303375564308,85.09683764838299,-3.7138038927399037,45.32098679901532,52.1421387374536,-6.821151938438277,0.0034474433186196165,0.0,0.0034474433186196165
0.11200000000000009,move_to_zero,-0.7502971206335195,-4.158298493937,3.4080013733034806,-80.97719732445026,-87.17266374021449,6.19546641576423,81.24640813688639,85.00688327454749,-3.7604751376611034,45.161866834279714,52.087020197562,-6.925153363282284,0.0032272153910889233,0.0,0.0032272153910889233
0.11400000000000009,move_to_zero,-0.7299566495765559,-4.153898178070399,3.4239415284938435,-80.84110007512585,-87.0804175351984,6.239317460072542,81.1123692034491,84.91692890071198,-3.8045596972628744,45.00544148892174,52.031901657670396,-7.026460168748656,0.003007765611985848,0.0,0.003007765611985848
0.11600000000000009,move_to_zero,-0.710319685407172,-4.149497862203799,3.439178176796627,-80.707423495386,-86.9881713301823,6.280747834796301,80.98085472696397,84.82697452687648,-3.8461197999125147,44.851690155864084,51.976783117778794,-7.12509296191471,0.0027902795796207946,0.0,0.0027902795796207946
0.11800000000000009,move_to_zero,-0.6913555929306913,-4.145097546337199,3.453741953406508,-80.57606485927158,-86.8959251251662,6.319860265894619,80.8518102174765,84.73702015304099,-3.8852099355644896,44.700591648231104,51.9216645778872,-7.221072929656096,0.002573028181147595,0.0,0.002573028181147595
0.12000000000000009,move_to_zero,-0.6730166079669735,-4.140697230470599,3.467680622503626,-80.44691532700762,-86.80367892015009,6.356763593142475,80.7251831327522,84.64706577920549,-3.921882646453284,44.55211927378798,51.8665460379956,-7.314426764207617,0.0023548366126799982,0.0,0.0023548366126799982
0.1220000000000001,move_to_zero,-0.6552363759507879,-4.136296914603999,3.4810605386532116,-80.31985528692776,-86.711432715134,6.391577428206233,80.60091950069685,84.55711140536998,-3.9561919046731333,44.40621419782168,51.811427498104,-7.40521330028232,0.0021355282510181583,0.0,0.0021355282510181583
0.1240000000000001,move_to_zero,-0.6380021525352747,-4.1318965987373995,3.4938944462021246,-80.19476674863803,-86.6191865101179,6.424419761479868,80.47896874534516,84.46715703153448,-3.9881882861893274,44.2628397067255,51.7563089582124,-7.4934692514869,0.0018797816095493481,0.0,0.0018797816095493481
0.12600000000000008,move_to_zero,-0.6212890949468677,-4.1274962828707995,3.506207187923932,-80.0715411383462,-86.52694030510179,6.4553991667555835,80.35929644154008,84.37720265769899,-4.017906216158906,44.1219612388573,51.70119041832079,-7.579229179463489,0.0015813346523541882,0.0,0.0015813346523541882
0.12800000000000009,move_to_zero,-0.6050640856578925,-4.1230959670042,3.518031881346307,-79.95008177538692,-86.4346941000857,6.484612324698773,80.24182243697344,84.28724828386348,-4.045425846890041,43.9835436449982,51.6460718784292,-7.662528233430997,0.0012359336955973122,0.0,0.0012359336955973122
0.1300000000000001,move_to_zero,-0.5892803144264274,-4.118695651137599,3.529415336711171,-79.83027788995848,-86.3424478950696,6.512170005111116,80.12647243015611,84.197293910028,-4.070821479871881,43.84755447979572,51.590953338537595,-7.743398858741877,0.0008630320124146778,0.0,0.0008630320124146778
0.1320000000000001,move_to_zero,-0.573915525947585,-4.114295335270999,3.540379809323414,-79.7120571533381,-86.2502016900535,6.538144536715407,80.01316134304427,84.10733953619248,-4.09417819314821,43.713964627206686,51.535834798646,-7.821870171439315,0.0004794434750563534,0.0,0.0004794434750563534
0.1340000000000001,move_to_zero,-0.5589293552733229,-4.1098950194044,3.550965664131077,-79.59535529564951,-86.15795548503739,6.562600189387879,79.90181306537377,84.01738516235697,-4.1155720969832,43.58273235095466,51.4807162587544,-7.897983907799741,0.00010785369936901618,0.0,0.00010785369936901618
0.1360000000000001,move_to_zero,-0.544285258922805,-4.1054947035378,3.561209444614995,-79.48008000984258,-86.0657092800213,6.585629270178714,79.79234423960155,83.92743078852149,-4.1350865489199435,43.45379717741794,51.425597718862804,-7.971800541444864,-0.0002336501268686934,0.0,-0.0002336501268686934
0.1380000000000001,move_to_zero,-0.5299917801011953,-4.1010943876712,3.5711026075700047,-79.36612950145927,-85.97346307500518,6.607333573545915,79.68469098750947,83.83747641468598,-4.152785427176511,43.32713099688321,51.370479178971195,-8.043348182087982,-0.0005512248934100706,0.0,-0.0005512248934100706
0.1400000000000001,move_to_zero,-0.5160427121371735,-4.0966940718046,3.5806513596674265,-79.2533896910994,-85.88121686998909,6.627827178889689,79.5787774738915,83.74752204085048,-4.168744566958978,43.202707122053084,51.31536063907959,-8.112653517026509,-0.0008551660610528612,0.0,-0.0008551660610528612
0.1420000000000001,move_to_zero,-0.5024381278172277,-4.092293755938,3.5898556281207723,-79.14179615131374,-85.788970664973,6.647174513659252,79.47454819280568,83.65756766701499,-4.183019474209303,43.080453169014866,51.260242099188,-8.179788930173132,-0.0011417113266649374,0.0,-0.0011417113266649374
0.1440000000000001,move_to_zero,-0.48916683405839495,-4.087893440071399,3.5987266060130043,-79.03128724689141,-85.6967244599569,6.665437213065488,79.37192731897154,83.56761329317948,-4.195685974207933,42.96031734970492,51.205123559296396,-8.244806209591474,-0.0014153389379837344,0.0,-0.0014153389379837344
0.1460000000000001,move_to_zero,-0.4762067524367338,-4.083493124204799,3.6072863717680654,-78.92181027546495,-85.6044782549408,6.682667979475852,79.27082947005994,83.47765891934398,-4.206829449284044,42.842248252376734,51.1500050194048,-8.307756767028067,-0.0016775474877273404,0.0,-0.0016775474877273404
0.1480000000000001,move_to_zero,-0.46353298685248595,-4.079092808338199,3.6155598214857134,-78.81330935764217,-85.51223204992469,6.6989226922825225,79.17117302047721,83.38770454550848,-4.216531525031272,42.72620718483438,51.0948864795132,-8.36867929467882,-0.001931864890623424,0.0,-0.001931864890623424
0.1500000000000001,move_to_zero,-0.45113386814805084,-4.074692492471599,3.6235586243235485,-78.70571620791655,-85.4199858449086,6.714269636992043,79.07288703939585,83.29775017167299,-4.224863132277136,42.61212866971669,51.0397679396216,-8.427639269904908,-0.002179459647098483,0.0,-0.002179459647098483
0.1520000000000001,move_to_zero,-0.4389782987122627,-4.070292176604999,3.6313138778927367,-78.59897183782974,-85.32773963989249,6.728767802062748,78.97589039938198,83.20779579783748,-4.2319053984554955,42.499958863703675,50.984649399729996,-8.48469053602632,-0.0024221822618666934,0.0,-0.0024221822618666934
0.1540000000000001,move_to_zero,-0.4270599971929369,-4.065891860738399,3.6388318635454624,-78.49301975795773,-85.23549343487639,6.742473676918664,78.88009487011496,83.11784142400198,-4.237746553887021,42.38965582937259,50.929530859838394,-8.5398750304658,-0.002682728997049929,0.0,-0.002682728997049929
0.1560000000000001,move_to_zero,-0.41536018100804645,-4.061491544871799,3.646131363863753,-78.38778983350096,-85.1432472298603,6.755457396359333,78.78541720288358,83.02788705016648,-4.242469847282905,42.28114983401503,50.8744123199468,-8.593262485931767,-0.002970839629543092,0.0,-0.002970839629543092
0.1580000000000001,move_to_zero,-0.4038554961559454,-4.0570912290051995,3.653235732849254,-78.283245651491,-85.0510010248442,6.7677553733531965,78.69178696870578,82.93793267633099,-4.246145707625203,42.17439783112056,50.8192937800552,-8.64489594893464,-0.003289753668033959,0.0,-0.003289753668033959
0.16000000000000011,move_to_zero,-0.392544152085942,-4.052690913138599,3.6601467610526566,-78.17935707716495,-84.95875481982809,6.779397742663136,78.59912057241662,82.84797830249549,-4.248857730078868,42.069376563341194,50.7641752401636,-8.694798676822408,-0.00363069003019747,0.0,-0.00363069003019747
0.16200000000000012,move_to_zero,-0.3814101384913056,-4.048290597272,3.666880458780694,-78.07607723563376,-84.86650861481199,6.79043137917823,78.50735889246968,82.75802392865998,-4.2506650361902985,41.96605916158447,50.709056700271994,-8.742997538687526,-0.003995382486346916,0.0,-0.003995382486346916
0.16400000000000012,move_to_zero,-0.37045270588333074,-4.0438902814054,3.673437575522069,-77.97338377745348,-84.7742624097959,6.8008786323424175,78.41645523894115,82.66806955482448,-4.25161431588333,41.86440035749097,50.6539381603804,-8.789537802889427,-0.004380454143148245,0.0,-0.004380454143148245
0.16600000000000012,move_to_zero,-0.3596608525940458,-4.0394899655388,3.679829112944754,-77.87121145043137,-84.68201620477979,6.8108047543484105,78.3263160047526,82.57811518098899,-4.251799176236389,41.764352424890205,50.5988196204888,-8.834467195598592,-0.004782271805797886,0.0,-0.004782271805797886
0.16800000000000012,move_to_zero,-0.3490343810411368,-4.0350896496722,3.686055268631063,-77.76952527394401,-84.5897699997637,6.820244725819691,78.23687106986036,82.48816080715348,-4.251289737293121,41.66584421835546,50.543701080597195,-8.877856862241735,-0.005157486574834397,0.0,-0.005157486574834397
0.17000000000000012,move_to_zero,-0.3385625627638308,-4.0306893338056,3.692126771041769,-77.6683005203169,-84.4975237947476,6.829223274430689,78.14804793700807,82.398206433318,-4.250158496309922,41.568815961086806,50.4885825407056,-8.919766579618795,-0.005502082187017203,0.0,-0.005502082187017203
0.17200000000000013,move_to_zero,-0.3282310949253828,-4.026289017939,3.698057923013617,-77.56751933052321,-84.4052775897315,6.837758259208286,78.05979946661681,82.30825205948248,-4.248452592865675,41.47321291991879,50.433464000814,-8.960251080895212,-0.0058195693978307554,0.0,-0.0058195693978307554
0.17400000000000013,move_to_zero,-0.3180277612025566,-4.021888702072399,3.703860940869842,-77.46715891655785,-84.31303138471539,6.845872468157538,77.9720796651287,82.21829768564697,-4.2462180205182705,41.3789726057833,50.3783454609224,-8.9993728551391,-0.0061162689936133515,0.0,-0.0061162689936133515
0.17600000000000013,move_to_zero,-0.3079542789878089,-4.017488386205799,3.70953410721799,-77.36717807366034,-84.22078517969929,6.85360710603895,77.88484086733148,82.12834331181149,-4.243502444480015,41.286046833280906,50.323226921030795,-9.037180087749888,-0.00639657914338635,0.0,-0.00639657914338635
0.17800000000000013,move_to_zero,-0.29800987124452966,-4.013088070339199,3.7150781990946693,-77.2675503113474,-84.12853897468318,6.860988663335775,77.79803237310298,82.03838893797598,-4.240356564872997,41.194388553426265,50.2681083811392,-9.073719827712935,-0.006663915564395049,0.0,-0.006663915564395049
0.18000000000000013,move_to_zero,-0.28817881473375306,-4.008687754472599,3.720508939738846,-77.1682664092029,-84.0362927696671,6.868026360464199,77.7116061428894,81.94843456414048,-4.23682842125109,41.1039438249576,50.2129898412476,-9.109046016290002,-0.006940680007136737,0.0,-0.006940680007136737
0.18200000000000013,move_to_zero,-0.2784461030299989,-4.004287438605999,3.7258413355760003,-77.06930028553975,-83.944046564651,6.87474627911125,77.62551688011933,81.85848019030499,-4.232963310185653,41.01465827616235,50.157871301355996,-9.143213025193646,-0.007239174405076819,0.0,-0.007239174405076819
0.18400000000000014,move_to_zero,-0.2688084549568997,-3.9998871227393993,3.7310786677824996,-76.97062342253491,-83.8518003596349,6.88117693709998,77.53971045322015,81.76852581646948,-4.228815363249325,40.92648885913184,50.1027527614644,-9.176263902332565,-0.007547665297416772,0.0,-0.007547665297416772
0.18600000000000014,move_to_zero,-0.2592609576115173,-3.995486806872799,3.7362258492612814,-76.87220252787907,-83.7595541546188,6.887351626739729,77.45412880648037,81.67857144263398,-4.224442636153611,40.83939684027867,50.04763422157279,-9.208237381294126,-0.007854766041568513,0.0,-0.007854766041568513
0.18800000000000014,move_to_zero,-0.24978740122808393,-3.991086491006199,3.741299089778115,-76.77402611083446,-83.66730794960269,6.893281838768232,77.36873558008196,81.58861706879848,-4.219881488716524,40.75334570188151,49.9925156816812,-9.23916997979969,-0.008149536010020175,0.0,-0.008149536010020175
0.19000000000000014,move_to_zero,-0.24040048143937867,-3.986686175139599,3.7462856937002202,-76.67606789775789,-83.57506174458659,6.898993846828702,77.28351200813906,81.49866269496299,-4.215150686823932,40.668303223603175,49.937397141789596,-9.269093918186421,-0.008429961290785083,0.0,-0.008429961290785083
0.19200000000000014,move_to_zero,-0.2310758644060434,-3.9822858592729995,3.751209994866956,-76.57830920750641,-83.48281553957048,6.904506332064074,77.19839513577784,81.40870832112748,-4.210313185349634,40.58423123164434,49.882278601897994,-9.298047370253656,-0.008721276097188785,0.0,-0.008721276097188785
0.19400000000000014,move_to_zero,-0.2218149691776655,-3.9778855434063995,3.756070574228734,-76.48071513901627,-83.3905693345544,6.909854195538131,77.11335097857248,81.31875394729198,-4.205402968719497,40.50108806807191,49.8271600620064,-9.326071993934491,-0.00899820518085156,0.0,-0.00899820518085156
0.19600000000000015,move_to_zero,-0.2126112194778006,-3.9734852275397996,3.760874008061999,-76.38327452830444,-83.29832312953829,6.915048601233849,77.02833891265364,81.22879957345648,-4.200460660802847,40.41881974746323,49.7720415221148,-9.353221774651566,-0.009263050486026913,0.0,-0.009263050486026913
0.19800000000000015,move_to_zero,-0.2034558449175636,-3.9690849116731997,3.7656290667556362,-76.28596031833908,-83.2060769245222,6.9201166061831145,76.94332464986111,81.13884519962097,-4.195520549759863,40.337383163990275,49.716922982223196,-9.37953981823292,-0.009517320369869608,0.0,-0.009517320369869608
0.20000000000000015,move_to_zero,-0.19449405187595412,-3.9646845958065993,3.7701905439306453,-76.18875730511152,-83.1138307195061,6.925073414394575,76.85828194738751,81.04889082578549,-4.190608878397981,40.25674253916544,49.661804442331594,-9.405061903166157,-0.00976507122964342,0.0,-0.00976507122964342
0.20200000000000015,move_to_zero,-0.18675696385967808,-3.9602842799399993,3.773527316080321,-76.09165761318897,-83.02158451448999,6.929926901301016,76.77319563291309,80.95893645194998,-4.185740819036894,40.176830719465926,49.60668590244,-9.429855182974073,-0.01001504609602329,0.0,-0.01001504609602329
0.20400000000000015,move_to_zero,-0.18057686024899403,-3.9558839640733994,3.7753071038244053,-75.99468613656148,-82.92933830947389,6.934652172912408,76.68804378127409,80.86898207811447,-4.180938296840381,40.097625109648604,49.5515673625484,-9.453942252899793,-0.010264220053855593,0.0,-0.010264220053855593
0.20600000000000016,move_to_zero,-0.17567866214916386,-3.9514836482067994,3.7758049860576355,-75.8978193198044,-82.8370921044578,6.939272784653397,76.6027732217332,80.77902770427899,-4.176254482545787,40.01908911723911,49.496448822656795,-9.477359705417683,-0.01050812856346321,0.0,-0.01050812856346321
0.20800000000000016,move_to_zero,-0.172185831971838,-3.947083332340199,3.774897500368361,-75.80103416674044,-82.7448458994417,6.943811732701263,76.51737166161493,80.68907333044348,-4.171701668828547,39.94119056194724,49.4413302827652,-9.500139720817963,-0.010747037768204081,0.0,-0.010747037768204081
0.21000000000000016,move_to_zero,-0.17003089105599867,-3.942683016473599,3.7726521254176006,-75.70431527846507,-82.65259969442559,6.948284415960515,76.43184900829904,80.59911895660798,-4.167269948308942,39.86388998715979,49.38621174287359,-9.522321755713804,-0.01098250377635051,0.0,-0.01098250377635051
0.21200000000000016,move_to_zero,-0.16897587187860397,-3.938282700606999,3.769306828728395,-75.60766152476718,-82.5603534894095,6.952691964642312,76.34621034159453,80.50916458277248,-4.162954241177957,39.78713826556956,49.331093202982,-9.543954937412437,-0.011219163457658216,0.0,-0.011219163457658216
0.21400000000000016,move_to_zero,-0.16872652938343485,-3.933882384740399,3.7651558553569644,-75.51105322720825,-82.46810728439338,6.9570540571851325,76.26042200975405,80.41921020893697,-4.158788199182922,39.71089191056836,49.275974663090395,-9.565082752522038,-0.011455388506308298,0.0,-0.011455388506308298
0.21600000000000016,move_to_zero,-0.16901339268703433,-3.929482068873799,3.7604686761867643,-75.41447593579234,-82.37586107937729,6.961385143584948,76.17447644036412,80.32925583510148,-4.154779394737361,39.635129041237626,49.2208561231988,-9.585727081961174,-0.011702716598760734,0.0,-0.011702716598760734
0.21800000000000017,move_to_zero,-0.16956805869421346,-3.925081753007199,3.7555136943129854,-75.31791407975935,-82.28361487436119,6.965700794601844,76.08835045496241,80.23930146126598,-4.150951006303572,39.55980908463264,49.1657375833072,-9.605928498674558,-0.011957181167011072,0.0,-0.011957181167011072
0.22000000000000017,move_to_zero,-0.17016289035565826,-3.9206814371406,3.7505185467849413,-75.22136630093203,-82.1913686693451,6.970002368413063,76.00202266332305,80.14934708743048,-4.147324424107438,39.484907762098935,49.110619043415596,-9.625711281316661,-0.012223623332039829,0.0,-0.012223623332039829
0.22200000000000017,move_to_zero,-0.17066508477586906,-3.9162811212739994,3.7456160364981304,-75.12482250475892,-82.099122464329,6.974299959570075,75.91547664574315,80.05939271359497,-4.143916067851819,39.410393244708054,49.055500503523994,-9.64510725881594,-0.01248137305286313,0.0,-0.01248137305286313
0.22400000000000017,move_to_zero,-0.17108304705331892,-3.9118808054073995,3.7407977583540806,-75.02828770849152,-82.00687625931289,6.978588550821371,75.82870719514942,79.96943833975948,-4.140731144610058,39.3362644326513,49.00038196363239,-9.664117530981095,-0.012734426057695808,0.0,-0.012734426057695808
0.22600000000000017,move_to_zero,-0.1714262007748556,-3.9074804895407995,3.736054288765944,-74.93175890703091,-81.9146300542968,6.982871147265882,75.74169918231573,79.87948396592398,-4.137784783608254,39.26247189157704,48.9452634237408,-9.682791532163755,-0.01300835083365649,0.0,-0.01300835083365649
0.22800000000000017,move_to_zero,-0.17170361172195486,-3.9030801736741996,3.7313765619522448,-74.83524419621342,-81.82238384928068,6.98713965306726,75.65445042341831,79.78952959208848,-4.135079168670174,39.18900271397941,48.890144883849196,-9.701142169869783,-0.013301213528833811,0.0,-0.013301213528833811
0.23000000000000018,move_to_zero,-0.17192319839531794,-3.898679857807599,3.726756659412281,-74.73875293057623,-81.73013764426459,6.991384713688362,75.56694368744414,79.69957521825299,-4.132631530808851,39.115853001707094,48.8350263439576,-9.719173342250507,-0.013604097028643528,0.0,-0.013604097028643528
0.23200000000000018,move_to_zero,-0.17209120341906511,-3.8942795419409992,3.722188338521934,-74.6422928780428,-81.63789143924849,6.995598561205696,75.47918703921142,79.60962084441748,-4.130433805206053,39.04297531095837,48.77990780406599,-9.736932493107624,-0.013924835900350346,0.0,-0.013924835900350346
0.23400000000000018,move_to_zero,-0.17221004686729902,-3.8898792260743993,3.7176691792071,-74.54585422687092,-81.5456452342324,6.99979100736148,75.39117476363566,79.51966647058198,-4.1284917069463205,38.97036049554765,48.72478926417439,-9.754428768626738,-0.014225323902530049,0.0,-0.014225323902530049
0.23600000000000018,move_to_zero,-0.1722851605980158,-3.8854789102077993,3.7131937496097835,-74.44942552150559,-81.45339902921629,7.003973507710697,75.30290936523913,79.42971209674648,-4.126802731507354,38.89799812382082,48.669670724282796,-9.771672600461976,-0.014510083910811291,0.0,-0.014510083910811291
0.23800000000000018,move_to_zero,-0.17231909491533431,-3.881078594341199,3.708759499425865,-74.3530053411638,-81.36115282420019,7.008147483036396,75.21439925998112,79.33975772291097,-4.125358462929853,38.82583708257957,48.614552184391194,-9.788715101811626,-0.014781108047603384,0.0,-0.014781108047603384
0.24000000000000019,move_to_zero,-0.17230227197101639,-3.876678278474599,3.7043760065035825,-74.25658999121211,-81.2689066191841,7.012316627971984,75.12563943555861,79.24980334907549,-4.124163913516881,38.753835760726616,48.5594336444996,-9.805597883772982,-0.015040576105000375,0.0,-0.015040576105000375
0.2420000000000002,move_to_zero,-0.17220204240939843,-3.872277962607999,3.7000759201986004,-74.16019465408756,-81.17666041416798,7.016465760080422,75.03662765465543,79.15984897523998,-4.123221320584548,38.681946422907004,48.504315104608,-9.822368681700993,-0.015289041076114842,0.0,-0.015289041076114842
0.2440000000000002,move_to_zero,-0.17198727118528478,-3.867877646741399,3.6958903755561145,-74.06379708091805,-81.08441420915189,7.020617128233837,74.94736309803709,79.06989460140447,-4.122531503367384,38.61013124930745,48.449196564716395,-9.839065315408945,-0.015530379644204726,0.0,-0.015530379644204726
0.2460000000000002,move_to_zero,-0.17167459130742704,-3.8634773308747987,3.691802739567372,-73.96740307141242,-80.99216800413579,7.024764932723372,74.85782069805025,78.97994022756899,-4.122119529518741,38.538390041463856,48.39407802482479,-9.855687983360937,-0.015772371557476884,0.0,-0.015772371557476884
0.2480000000000002,move_to_zero,-0.17128246300752098,-3.8590770150081988,3.687794552000678,-73.8710258036784,-80.8999217991197,7.028895995441289,74.76800285208358,78.88998585373348,-4.121983001649895,38.46670724726946,48.33895948493319,-9.87225223766373,-0.016026591986011154,0.0,-0.016026591986011154
0.25000000000000017,move_to_zero,-0.17083254594170594,-3.8546766991415997,3.683844153199894,-73.77464967204713,-80.80767559410359,7.033025922056453,74.67793355162097,78.80003147989798,-4.1220979282770145,38.39509392680507,48.2838409450416,-9.88874701823653,-0.01627898830353666,0.0,-0.01627898830353666
0.25200000000000017,move_to_zero,-0.17032653007602802,-3.8502763832749993,3.679949853198971,-73.67828500581606,-80.71542938908749,7.037144383271425,74.5876141006307,78.71007710606249,-4.122463005431783,38.323538121957405,48.228722405149995,-9.90518428319259,-0.016529220733778768,0.0,-0.016529220733778768
0.25400000000000017,move_to_zero,-0.1697943688890464,-3.8458760674083994,3.676081698519353,-73.58195634618399,-80.62318318407138,7.041226837887393,74.49704124757042,78.62012273222697,-4.123081484656552,38.25206805760165,48.1736038652584,-9.921535807656753,-0.0167798194670604,0.0,-0.0167798194670604
0.25600000000000017,move_to_zero,-0.16925118793884458,-3.8414757515417994,3.672224563602955,-73.48565866206512,-80.53093697905528,7.045278316990164,74.40620335754816,78.53016835839148,-4.123965000843313,38.18067171303617,48.11848532536679,-9.937813612330622,-0.017024305224676198,0.0,-0.017024305224676198
0.2580000000000002,move_to_zero,-0.16871454600432936,-3.8370754356751995,3.66836088967087,-73.38937635562513,-80.43869077403919,7.049314418414056,74.31509432125665,78.44021398455598,-4.12511966329933,38.10934140934904,48.063366785475196,-9.954025376126154,-0.017266726510917943,0.0,-0.017266726510917943
0.2600000000000002,move_to_zero,-0.16822443330725456,-3.832675119808599,3.6644506865013446,-73.29312769110993,-80.34644456902309,7.053316877913161,74.22371309303935,78.35025961072049,-4.126546517681135,38.038079159665514,48.008248245583594,-9.97016908591808,-0.017504928525793342,0.0,-0.017504928525793342
0.2620000000000002,move_to_zero,-0.16779646862392397,-3.828274803941999,3.660478335318075,-73.19690890589891,-80.254198364007,7.057289458108087,74.13206163332917,78.26030523688497,-4.128243603555802,37.96686569848947,47.95312970569199,-9.986264007202521,-0.017739171960656747,0.0,-0.017739171960656747
0.2640000000000002,move_to_zero,-0.16742688881425954,-3.823874488075399,3.65644759926114,-73.10073134693206,-80.16195215899089,7.061220812058821,74.04012870930751,78.17035086304948,-4.130222153741968,37.89568477620535,47.8980111658004,-10.002326389595048,-0.01796997153908559,0.0,-0.01796997153908559
0.2660000000000002,move_to_zero,-0.16708103898888216,-3.8194741722087993,3.652393133219917,-73.0046029270508,-80.06970595397479,7.0651030269239925,73.94790381699323,78.08039648921398,-4.132492672220749,37.82451954031895,47.842892625908796,-10.018373085589843,-0.018202644196706332,0.0,-0.018202644196706332
0.2680000000000002,move_to_zero,-0.16673565631519216,-3.815073856342199,3.648338200027007,-72.90853716647239,-79.97745974895868,7.0689225824862945,73.85537143742476,77.99044211537847,-4.135070677953706,37.753376783009365,47.787774086017194,-10.034397303007829,-0.018440885256937947,0.0,-0.018440885256937947
0.2700000000000002,move_to_zero,-0.16637980831171437,-3.810673540475599,3.6442937321638844,-72.8125307658745,-79.8852135439426,7.072682778068099,73.76254077702028,77.90048774154299,-4.137946964522712,37.682268402041885,47.73265554612559,-10.050387144083707,-0.018678130872031372,0.0,-0.018678130872031372
0.2720000000000002,move_to_zero,-0.16600343289058292,-3.806273224608999,3.640269791718416,-72.71660963947825,-79.79296733892649,7.076357699448238,73.66942251882172,77.81053336770748,-4.141110848885759,37.61118337909166,47.677537006234,-10.066353627142334,-0.01891312666238344,0.0,-0.01891312666238344
0.2740000000000002,move_to_zero,-0.16558564228171402,-3.801872908742399,3.636287266460685,-72.6207730550534,-79.70072113391039,7.079948078856987,73.57601350416915,77.72057899387197,-4.1445654897028135,37.54008987269215,47.622418466342396,-10.082328593650246,-0.019152769333392602,0.0,-0.019152769333392602
0.2760000000000002,move_to_zero,-0.16515076904230291,-3.7974725928757986,3.6323218238334958,-72.52502194349114,-79.60847492889428,7.083452985403142,73.48231640285526,77.63062462003649,-4.148308217181224,37.468992159892,47.567299926450794,-10.098307766558797,-0.019408193283151843,0.0,-0.019408193283151843
0.2780000000000002,move_to_zero,-0.1646939222397071,-3.7930722770091996,3.6283783547694926,-72.42932128012394,-79.51622872387819,7.086907443754242,73.38832781685974,77.54067024620097,-4.152342429341232,37.397878225088014,47.5121813865592,-10.114303161471184,-0.01968673377957554,0.0,-0.01968673377957554
0.2800000000000002,move_to_zero,-0.16424444390386747,-3.7886719611425996,3.624427517238732,-72.33368415619833,-79.42398251886209,7.090298362663759,73.29406175833601,77.45071587236548,-4.156654114029465,37.32672930637528,47.45706284666759,-10.130333540292312,-0.019992133726000887,0.0,-0.019992133726000887
0.2820000000000002,move_to_zero,-0.16383438053547966,-3.7842716452759992,3.6204372647405196,-72.23813577040222,-79.331736313846,7.09360054344377,73.19952716601814,77.36076149852998,-4.161234332511839,37.25554585342897,47.401944306775995,-10.146398453347025,-0.02031113901502818,0.0,-0.02031113901502818
0.2840000000000002,move_to_zero,-0.1634574800209473,-3.7798713294093993,3.616413849388452,-72.1426679352734,-79.2394901088299,7.096822173556504,73.10474236912215,77.27080712469449,-4.166064755572336,37.18432322043043,47.34682576688439,-10.162502546453965,-0.02064305282756521,0.0,-0.02064305282756521
0.2860000000000002,move_to_zero,-0.16310692249849904,-3.7754710135427993,3.6123640910443005,-72.04729990388228,-79.14724390381379,7.0999439999315115,73.00970923731083,77.18085275085897,-4.171143513548145,37.11308217827034,47.29170722699279,-10.178625048722452,-0.02096813516137854,0.0,-0.02096813516137854
0.2880000000000002,move_to_zero,-0.16277350218456832,-3.7710706976761994,3.608297195491631,-71.95201867648605,-79.05499769879769,7.102979022311644,72.91443142231556,77.09089837702348,-4.176466954707919,37.04181655103209,47.2365886871012,-10.194772136069105,-0.02126936701289371,0.0,-0.02126936701289371
0.2900000000000002,move_to_zero,-0.16244924547375303,-3.766670381809599,3.604221136335846,-71.8568286019948,-78.96275149378158,7.105922891786776,72.81892450478261,77.00094400318798,-4.182019498405367,36.97054085515978,47.181470147209595,-10.210929292049812,-0.021551681336033232,0.0,-0.021551681336033232
0.2920000000000002,move_to_zero,-0.16212464934083737,-3.762270065942999,3.6001454166021616,-71.7617317488457,-78.87050528876549,7.108773539919781,72.72320066833609,76.91098962935247,-4.1877889610163805,36.8992701771874,47.12635160731799,-10.227081430130596,-0.021817963831233907,0.0,-0.021817963831233907
0.2940000000000002,move_to_zero,-0.16180491554111354,-3.757869750076399,3.5960648345352855,-71.66671997130848,-78.77825908374939,7.111539112440909,72.62729591790483,76.82103525551699,-4.193739337612158,36.828008015257325,47.07123306742639,-10.243225052169066,-0.02207080632157681,0.0,-0.02207080632157681
0.2960000000000002,move_to_zero,-0.16145287842023373,-3.753469434209799,3.5920165557895656,-71.57180833994241,-78.6860128787333,7.1142045387908865,72.53121938760547,76.73108088168148,-4.1998614940760035,36.75675549166796,47.016114527534796,-10.259359035866837,-0.022311663361313377,0.0,-0.022311663361313377
0.2980000000000002,move_to_zero,-0.16106858765837798,-3.749069118343199,3.5880005306848206,-71.47700102220357,-78.59376667371718,7.116765651513617,72.43498243767898,76.64112650784598,-4.206144070166999,36.685504111489365,46.960995987643194,-10.27549187615383,-0.022544782321259903,0.0,-0.022544782321259903
0.3000000000000002,move_to_zero,-0.16064851762344695,-3.744668802476599,3.584020284853152,-71.38231108134819,-78.50152046870109,7.119209387352896,72.33859155563314,76.55117213401049,-4.212580578377342,36.61425861650929,46.90587744775159,-10.291618831242303,-0.022773485755846225,0.0,-0.022773485755846225
0.3020000000000002,move_to_zero,-0.16022204892842168,-3.740268486609999,3.580046437681577,-71.28772380405874,-78.40927426368499,7.121550459626249,72.24208089887246,76.46121776017497,-4.219136861302516,36.54304080428388,46.85075890786,-10.307718103576114,-0.022999114052430818,0.0,-0.022999114052430818
0.3040000000000002,move_to_zero,-0.15979351116388424,-3.735868170743399,3.5760746595795148,-71.1932382403894,-78.31702805866888,7.1237898182794765,72.14547751161231,76.37126338633948,-4.2257858747271655,36.47182120182651,46.79564036796839,-10.323819166141881,-0.023220766874976317,0.0,-0.023220766874976317
0.3060000000000002,move_to_zero,-0.15934843403453233,-3.7314678548767994,3.572119420842267,-71.09884990342401,-78.22478185365279,7.125931950228775,72.04877753893771,76.28130901250398,-4.232531473566269,36.40059889744947,46.740521828076794,-10.339922930627324,-0.023438281051269088,0.0,-0.023438281051269088
0.3080000000000002,move_to_zero,-0.1588922865965039,-3.7270675390101995,3.5681752524136954,-71.00456305240688,-78.13253564863669,7.12797259622981,71.9519597224602,76.19135463866847,-4.239394916208269,36.329383936159815,46.68540328818519,-10.356019352025378,-0.023651639577498093,0.0,-0.023651639577498093
0.3100000000000002,move_to_zero,-0.1584362628367508,-3.7226672231435995,3.564230960306849,-70.91036101156566,-78.0402894436206,7.129928432054939,71.85502478523429,76.10140026483299,-4.246375479598697,36.25815901738225,46.6302847482936,-10.37212573091135,-0.023862261974214014,0.0,-0.023862261974214014
0.3120000000000002,move_to_zero,-0.15800826521352385,-3.718266907276999,3.5602586420634754,-70.8162262700456,-77.94804323860448,7.13181696855888,71.75797156523959,76.01144589099748,-4.253474325757892,36.18690235873597,46.575166208401996,-10.388263849666025,-0.0240690400641194,0.0,-0.0240690400641194
0.3140000000000002,move_to_zero,-0.1576222919714237,-3.713866591410399,3.5562442994389754,-70.72216774556031,-77.85579703358839,7.133629288028075,71.66081856749057,75.92149151716198,-4.260672949671417,36.11562778075719,46.520047668510394,-10.404419887753207,-0.024273774323045515,0.0,-0.024273774323045515
0.3160000000000002,move_to_zero,-0.15725453964672637,-3.7094662755437993,3.552211735897073,-70.62819618669016,-77.76355082857228,7.135354641882117,71.56357751811439,75.83153714332649,-4.2679596252121,36.04433013522901,46.46492912861879,-10.420598993389781,-0.02447805974986058,0.0,-0.02447805974986058
0.3180000000000002,move_to_zero,-0.15689586091892674,-3.7050659596771993,3.5481700987582725,-70.53431026585497,-77.67130462355618,7.136994357701212,71.466247458443,75.74158276949098,-4.275335311047982,35.972999341760854,46.40981058872719,-10.436811246966336,-0.024680578053330047,0.0,-0.024680578053330047
0.32000000000000023,move_to_zero,-0.15652777754710945,-3.700665643810599,3.5441378662634895,-70.4404945477727,-77.57905841854009,7.138563870767385,71.36883802812591,75.65162839565548,-4.2827903675295715,35.9016655559898,46.354692048835595,-10.453026492845794,-0.0248833245296536,0.0,-0.0248833245296536
0.32200000000000023,move_to_zero,-0.156156017809602,-3.696265327943999,3.540109310134397,-70.34672589128718,-77.48681221352399,7.140086322236812,71.2713753421651,75.56167402181998,-4.290298679654882,35.83029134181372,46.29957350894399,-10.469282167130274,-0.025088073421416404,0.0,-0.025088073421416404
0.32400000000000023,move_to_zero,-0.15576970192213946,-3.691865012077399,3.5360953101552597,-70.2529979567778,-77.3945660085079,7.14156805173009,71.17386105631437,75.47171964798449,-4.297858591670121,35.758880941765945,46.2444549690524,-10.485574027286454,-0.025293647198947496,0.0,-0.025293647198947496
0.32600000000000023,move_to_zero,-0.1553603102515678,-3.687464696210799,3.532104385959231,-70.1593476598605,-77.30231980349178,7.142972143631283,71.07631059602842,75.38176527414898,-4.3054546781205545,35.687416124278016,46.1893364291608,-10.50192030488278,-0.025498621927340457,0.0,-0.025498621927340457
0.32800000000000024,move_to_zero,-0.15495193070233032,-3.6830643803441987,3.5281124496418683,-70.06576891792155,-77.21007359847569,7.144304680554143,70.97871536809645,75.29181090031348,-4.313095532217034,35.61588255165404,46.13421788926919,-10.518335337615149,-0.025705809723644762,0.0,-0.025705809723644762
0.33000000000000024,move_to_zero,-0.15454159515258495,-3.6786640644775987,3.5241224693250137,-69.97224882831071,-77.11782739345958,7.145578565148867,70.88107431281911,75.20185652647798,-4.320782213658873,35.54429593974467,46.07909934937759,-10.534803409632922,-0.025914897963410854,0.0,-0.025914897963410854
0.33200000000000024,move_to_zero,-0.1541267503217041,-3.674263748610999,3.5201369982892947,-69.87877469363303,-77.02558118844348,7.146806494810448,70.78338525482238,75.11190215264247,-4.328516897820094,35.472651475797456,46.02398080948599,-10.551329333688535,-0.026125876111658803,0.0,-0.026125876111658803
0.33400000000000024,move_to_zero,-0.15372688729424688,-3.669863432744399,3.516136545450152,-69.78533582249253,-76.93333498342739,7.147999160934859,70.68564491287331,75.02194777880699,-4.336302865933675,35.40095560481019,45.968862269594396,-10.567906664784203,-0.02634137974502809,0.0,-0.02634137974502809
0.33600000000000024,move_to_zero,-0.1533354240949562,-3.6654631168777994,3.512127692782843,-69.69194614869619,-76.84108877841129,7.149142629715101,70.58788229059859,74.93199340497148,-4.344111114372893,35.329211278911956,45.913743729702794,-10.584532450790839,-0.026556049709528646,0.0,-0.026556049709528646
0.33800000000000024,move_to_zero,-0.15296167353391554,-3.6610628010111994,3.5081011274772838,-69.59861536040468,-76.74884257339518,7.150227212990501,70.4901048303733,74.84203903113597,-4.3519342007626705,35.25741812181859,45.85862518981119,-10.601207067992604,-0.026770009258268338,0.0,-0.026770009258268338
0.34000000000000025,move_to_zero,-0.15262564226150616,-3.6566624851445995,3.5040368428830933,-69.50534664077037,-76.65659636837908,7.151249727608715,70.39228589888559,74.75208465730049,-4.359798758414897,35.18558294393426,45.80350664991959,-10.617923705985334,-0.026984557360639594,0.0,-0.026984557360639594
0.34200000000000025,move_to_zero,-0.15231407559248508,-3.652262169277999,3.499948093685514,-69.41213630619463,-76.56435016336299,7.152213857168363,70.29441170746784,74.66213028346498,-4.367718575997131,35.11367901234247,45.74838811002799,-10.634709097685516,-0.027202439378349194,0.0,-0.027202439378349194
0.34400000000000025,move_to_zero,-0.15202541404482545,-3.647861853411399,3.4958364393665735,-69.318963963236,-76.47210395834688,7.153139995110877,70.19647016280084,74.57217590962948,-4.375705746828643,35.04171739515605,45.693269570136394,-10.651552174980345,-0.02744313294144029,0.0,-0.02744313294144029
0.34600000000000025,move_to_zero,-0.15174672115601762,-3.643461537544799,3.4917148163887815,-69.22583711707053,-76.3798577533308,7.15402063626027,70.09847150993339,74.48222153579398,-4.383750025860593,34.969724186870714,45.63815103024479,-10.668426843374078,-0.027692752179122725,0.0,-0.027692752179122725
0.34800000000000025,move_to_zero,-0.15147721059835925,-3.6390612216781992,3.48758401107984,-69.13275209470619,-76.28761154831469,7.154859453608495,70.00041531483092,74.39226716195847,-4.391851847127555,34.89770999162649,45.5830324903532,-10.685322498726705,-0.027943695479820806,0.0,-0.027943695479820806
0.35000000000000026,move_to_zero,-0.15122922141740924,-3.634660905811599,3.4834316843941897,-69.039719038591,-76.19536534329859,7.155646304707588,69.90231745185929,74.30231278812298,-4.399995336263686,34.8256659535763,45.52791395046159,-10.70224799688529,-0.02820182179773067,0.0,-0.02820182179773067
0.35200000000000026,move_to_zero,-0.15099998863021755,-3.630260589944999,3.4792606013147815,-68.94674363414146,-76.10311913828248,7.156375504141025,69.80421004776169,74.21235841428748,-4.4081483665257934,34.75360513616628,45.472795410569994,-10.719190274403715,-0.028474977851076156,0.0,-0.028474977851076156
0.35400000000000026,move_to_zero,-0.15077183981406622,-3.625860274078399,3.475088434264333,-68.85381365163008,-76.01087293326638,7.1570592816363074,69.7060830776814,74.12240404045198,-4.416320962770584,34.68151460424176,45.41767687067839,-10.73616226643663,-0.02873798364353763,0.0,-0.02873798364353763
0.35600000000000026,move_to_zero,-0.15053248910988956,-3.621459958211799,3.4709274691019094,-68.76094707681573,-75.91862672825027,7.157679651434549,69.60792083814448,74.03244966661647,-4.424528828471992,34.609383744732376,45.36255833078679,-10.753174586054413,-0.02901736802430309,0.0,-0.02901736802430309
0.35800000000000026,move_to_zero,-0.15027870647798122,-3.6170596423451986,3.4667809358672175,-68.66814264205173,-75.82638052323418,7.158237881182444,69.50974709416239,73.94249529278098,-4.432748198618583,34.537227484580875,45.307439790895195,-10.77021230631432,-0.029315296935351075,0.0,-0.029315296935351075
0.36000000000000026,move_to_zero,-0.1499856554313791,-3.6126593264785987,3.4626736710472197,-68.57541223224766,-75.7341343182181,7.158722085970439,69.41155174072482,73.85254091894548,-4.440989178220661,34.46504328026539,45.25232125100359,-10.787277970738202,-0.02963741589712966,0.0,-0.02963741589712966
0.36200000000000027,move_to_zero,-0.14969095938048255,-3.6082590106119987,3.458568051231516,-68.48277226509511,-75.64188811320199,7.159115848106879,69.3133341776992,73.76258654510997,-4.4492523674107645,34.39282647076716,45.19720271111199,-10.80437624034483,-0.029956709923209233,0.0,-0.029956709923209233
0.36400000000000027,move_to_zero,-0.14939008609916013,-3.603858694745399,3.454468608646239,-68.39020365010488,-75.54964190818589,7.1594382580810105,69.21506738856722,73.67263217127449,-4.457564782707266,34.320577228291114,45.14208417122039,-10.821506942929275,-0.030267652524102177,0.0,-0.030267652524102177
0.36600000000000027,move_to_zero,-0.14907490005759236,-3.5994583788787993,3.450383478821207,-68.29772025284502,-75.45739570316978,7.159675450324755,69.1167468259086,73.58267779743898,-4.465930971530369,34.24830703546165,45.086965631328795,-10.838658595867145,-0.03056005857880432,0.0,-0.03056005857880432
0.36800000000000027,move_to_zero,-0.14871697624462907,-3.5950580630121993,3.4463410867675703,-68.20528816671951,-75.36514949815368,7.159861331434172,69.01835436382927,73.49272342360348,-4.4743690597742045,34.17601870648652,45.03184709143719,-10.85582838495067,-0.030832504124487844,0.0,-0.030832504124487844
0.3700000000000003,move_to_zero,-0.148347388766075,-3.5906577471455994,3.4423103583795243,-68.11290766814732,-75.27290329313757,7.159995624990259,68.91989245526668,73.40276904976798,-4.482876594501306,34.10370162206054,44.97672855154559,-10.87302692948505,-0.031088393483049346,0.0,-0.031088393483049346
0.3720000000000003,move_to_zero,-0.14796212640063489,-3.586257431278999,3.438295304878364,-68.02058722176496,-75.18065708812149,7.160069866356537,68.82136195697247,73.31281467593247,-4.491452718960005,34.0313365328766,44.921610011653996,-10.890273478777395,-0.03133036658044569,0.0,-0.03133036658044569
0.3740000000000003,move_to_zero,-0.1475735155173559,-3.581857115412399,3.434283599895043,-67.92831590774017,-75.08841088310538,7.160094975365212,68.72277018653999,73.22286030209698,-4.500090115556986,33.9589304631172,44.86649147176239,-10.907561008645189,-0.03156005419009795,0.0,-0.03156005419009795
0.3760000000000003,move_to_zero,-0.14718976504921316,-3.577456799545799,3.4302670344965858,-67.83610278929503,-74.99616467808929,7.16006188879426,68.62413221604952,73.13290592826148,-4.508773712211962,33.88646607473736,44.81137293187079,-10.92490685713343,-0.0317773691573893,0.0,-0.0317773691573893
0.3780000000000003,move_to_zero,-0.14682456341721167,-3.573056483679199,3.4262319202619875,-67.74395700387366,-74.90391847307319,7.15996146919953,68.52544326422787,73.04295155442597,-4.517508290198094,33.81394783537958,44.75625439197919,-10.942306556599611,-0.031985614117383966,0.0,-0.031985614117383966
0.3800000000000003,move_to_zero,-0.14648538142560688,-3.5686561678125988,3.422170786386992,-67.65191080051383,-74.81167226805708,7.159761467543248,68.42670245572855,72.95299718059049,-4.526294724861941,33.74134777328511,44.70113585208759,-10.959788078802475,-0.03218644138359844,0.0,-0.03218644138359844
0.3820000000000003,move_to_zero,-0.14615440687710907,-3.564255851945999,3.41810144506889,-67.55998109444,-74.71942606304098,7.15944496860098,68.32790355816088,72.86304280675498,-4.535139248594092,33.668697378554754,44.646017312195994,-10.97731993364124,-0.03238067954620224,0.0,-0.03238067954620224
0.3840000000000003,move_to_zero,-0.14583477611193024,-3.559855536079399,3.414020759967469,-67.46815335849313,-74.62717985802489,7.1590264995317625,68.22907794890072,72.77308843291948,-4.544010484018756,33.59601463057407,44.59089877230439,-10.994884141730324,-0.03256934123476525,0.0,-0.03256934123476525
0.3860000000000003,move_to_zero,-0.1455118352973051,-3.5554552202127994,3.4099433849154943,-67.37643251282557,-74.53493365300879,7.158501140183219,68.13021482928951,72.68313405908398,-4.552919229794469,33.52330127012049,44.53578023241279,-11.012478962292299,-0.03275497428686435,0.0,-0.03275497428686435
0.3880000000000003,move_to_zero,-0.14518357692654932,-3.551054904346199,3.4058713274196495,-67.28478184611993,-74.44268744799268,7.157905601872756,68.03130295923282,72.59317968524847,-4.5618767260156545,33.4505551119392,44.48066169252119,-11.030106580581986,-0.032938387454190456,0.0,-0.032938387454190456
0.3900000000000003,move_to_zero,-0.1448364425453666,-3.546654588479599,3.4018181459342323,-67.19320754088196,-74.35044124297659,7.157233702094629,67.93233763447031,72.50322531141298,-4.570887676942661,33.37775222138385,44.425543152629594,-11.047790931245743,-0.03312141321475382,0.0,-0.03312141321475382
0.3920000000000003,move_to_zero,-0.14447770946282473,-3.542254272612999,3.3977765631501744,-67.1017235400509,-74.25819503796048,7.156471497909578,67.83331905376541,72.41327093757748,-4.579951883812072,33.30489579552963,44.37042461273799,-11.06552881720836,-0.033303253828931165,0.0,-0.033303253828931165
0.3940000000000003,move_to_zero,-0.14411805809089043,-3.537853956746399,3.3937358986555086,-67.01035285272846,-74.16594883294438,7.155595980215921,67.73423727906768,72.32331656374198,-4.589079284674298,33.23201389779787,44.31530607284639,-11.08329217504852,-0.033487469694100325,0.0,-0.033487469694100325
0.3960000000000003,move_to_zero,-0.14375860878250837,-3.5334536408797987,3.3896950320972903,-66.91909562760827,-74.07370262792828,7.154607000320013,67.6350869302305,72.23336218990647,-4.598275259675972,33.15910610955589,44.260187532954795,-11.101081423398902,-0.03367339890113337,0.0,-0.03367339890113337
0.3980000000000003,move_to_zero,-0.14342913743022953,-3.529053325013199,3.385624187582969,-66.82794837226496,-73.98145642291219,7.153508050647233,67.53586261768464,72.14340781607098,-4.607545198386333,33.08616469130694,44.205068993063186,-11.118904301756245,-0.033860119336721124,0.0,-0.033860119336721124
0.4000000000000003,move_to_zero,-0.14310788680406175,-3.524653009146599,3.381545122342537,-66.73691561181779,-73.88921021789609,7.1522946060783,67.43658035912348,72.05345344223548,-4.616873083111997,33.01320720556812,44.14995045317159,-11.13674324760347,-0.03404545439311855,0.0,-0.03404545439311855
0.4020000000000003,move_to_zero,-0.14279372893214085,-3.520252693279999,3.377458964347858,-66.64599552987957,-73.79696401287998,7.150968483000412,67.337255840921,71.96349906839997,-4.626243227478966,32.94021143748024,44.09483191327999,-11.154620475799753,-0.03422914343805691,0.0,-0.03422914343805691
0.4040000000000003,move_to_zero,-0.1424882330587417,-3.515852377413399,3.373364144354657,-66.55520616990418,-73.70471780786389,7.149511637959705,67.23788318317057,71.87354469456449,-4.63566151139392,32.86717964483823,44.039713373388395,-11.172533728550164,-0.03440993122626148,0.0,-0.03440993122626148
0.4060000000000003,move_to_zero,-0.1421876102853135,-3.511452061546799,3.3692644512614853,-66.46454202874241,-73.61247160284778,7.147929574105362,67.13845507788541,71.78359032072898,-4.6451352428435655,32.79411978801035,43.98459483349679,-11.190475045486444,-0.03458862393141433,0.0,-0.03458862393141433
0.4080000000000003,move_to_zero,-0.14186377581001,-3.507051745680199,3.365187969870189,-66.37399445527917,-73.52022539783168,7.146230942552506,67.03895753383777,71.69363594689347,-4.6546784130556915,32.721020720363015,43.92947629360519,-11.208455573242176,-0.03476774442716869,0.0,-0.03476774442716869
0.4100000000000003,move_to_zero,-0.14150715663953456,-3.5026514298135987,3.361144273174064,-66.28355241079014,-73.42797919281558,7.144426782025448,66.93937559440892,71.60368157305798,-4.664305978649068,32.64789513993283,43.87435775371359,-11.226462613780761,-0.034945017422461214,0.0,-0.034945017422461214
0.4120000000000003,move_to_zero,-0.14114292887361773,-3.4982511139469987,3.357108185073381,-66.19321605020662,-73.33573298779949,7.142516937592873,66.8397187016204,71.51372719922247,-4.674008497602074,32.57475309243398,43.81923921382199,-11.244486121388007,-0.0351187931895266,0.0,-0.0351187931895266
0.4140000000000003,move_to_zero,-0.140763806151444,-3.493850798080399,3.3530869919289548,-66.10296144824818,-73.24348678278338,7.140525334535198,66.74000023698721,71.42377282538698,-4.683772588399762,32.50157016438098,43.76412067393039,-11.262550509549413,-0.035289849587293774,0.0,-0.035289849587293774
0.4160000000000003,move_to_zero,-0.14038856698487595,-3.4894504822137993,3.349061915228923,-66.01277211603076,-73.15124057776728,7.138468461736522,66.64022023766181,71.33381845155148,-4.693598213889672,32.428334412429685,43.70900213403879,-11.280667721609106,-0.03545637096574787,0.0,-0.03545637096574787
0.4180000000000003,move_to_zero,-0.1400213631165308,-3.485050166347199,3.345028803230668,-65.92263540653505,-73.05899437275119,7.136358966216136,66.54039536264708,71.24386407771597,-4.703468715068894,32.35505295846398,43.653883594147196,-11.298830635683217,-0.03562304962272286,0.0,-0.03562304962272286
0.4200000000000003,move_to_zero,-0.13967344665373463,-3.480649850480599,3.3409764038268643,-65.83256552346805,-72.96674816773508,7.134182644267028,66.44053238831408,71.15390970388047,-4.71337731556639,32.28174695460284,43.598765054255594,-11.317018099652756,-0.035790473153919256,0.0,-0.035790473153919256
0.4220000000000003,move_to_zero,-0.13931617298204654,-3.476249534613999,3.3369333616319525,-65.7425654681234,-72.87450196271898,7.131936494595578,66.34062007053522,71.06395533004498,-4.723335259509753,32.208422672747254,43.543646514363985,-11.335223841616731,-0.03595764828875476,0.0,-0.03595764828875476
0.4240000000000003,move_to_zero,-0.13894867906429745,-3.471849218747399,3.3329005396831017,-65.65263876438112,-72.78225575770288,7.129616993321761,66.24065190648646,70.97400095620948,-4.733349049723017,32.13508474562337,43.48852797447239,-11.353443228849024,-0.03612324601994607,0.0,-0.03612324601994607
0.4260000000000003,move_to_zero,-0.13857826024920522,-3.4674489028807987,3.3288706426315935,-65.56278775636177,-72.69000955268679,7.127221796325017,66.14066859196744,70.88404658237397,-4.743377990406529,32.06172047447077,43.43340943458079,-11.37168896011002,-0.03628527477016145,0.0,-0.03628527477016145
0.4280000000000003,move_to_zero,-0.13821676450952652,-3.4630485870141987,3.324831822504672,-65.47300100244395,-72.59776334767068,7.124762345226728,66.04068112357153,70.79409220853847,-4.753411084966942,31.98834990153164,43.378290894689194,-11.389940993157552,-0.03644384921413589,0.0,-0.03644384921413589
0.4300000000000003,move_to_zero,-0.13787692098914867,-3.458648271147599,3.3207713501584504,-65.38327066420021,-72.50551714265458,7.122246478454372,65.94069614482206,70.70413783470298,-4.763441689880921,31.914993965594395,43.32317235479759,-11.408178389203197,-0.036598951673230996,0.0,-0.036598951673230996
0.43200000000000033,move_to_zero,-0.13753671641248655,-3.454247955280999,3.3167112388685123,-65.29359077732188,-72.41327093763847,7.119680160316591,65.84069717176473,70.61418346086747,-4.773486289102735,31.84163502378259,43.268053814906,-11.426418791123407,-0.03675348273084952,0.0,-0.03675348273084952
0.43400000000000033,move_to_zero,-0.13721393973822607,-3.449847639414399,3.312633699676173,-65.20394509933202,-72.32102473262238,7.117079633290359,65.74069029488305,70.52422908703198,-4.783538792148931,31.76829841637732,43.21293527501439,-11.444636858637068,-0.03690591275972136,0.0,-0.03690591275972136
0.43600000000000033,move_to_zero,-0.136909734714487,-3.445447323547799,3.3085375888333117,-65.11433364089956,-72.22877852760628,7.114444886706721,65.64067993234353,70.43427471319647,-4.793594780852942,31.69497430600542,43.157816735122786,-11.462842429117366,-0.037056662465375645,0.0,-0.037056662465375645
0.43800000000000033,move_to_zero,-0.13663819302995617,-3.441047007681199,3.304408814651243,-65.02475283328351,-72.13653232259018,7.11177948930667,65.54065578947106,70.34432033936098,-4.803664549889916,31.62166551999241,43.10269819523119,-11.481032675238783,-0.03720471101180304,0.0,-0.03720471101180304
0.44000000000000034,move_to_zero,-0.13638103642075605,-3.4366466918145986,3.3002656553938428,-64.93522765623462,-72.04428611757409,7.1090584613394725,65.44063646194834,70.25436596552548,-4.813729503577136,31.548361503801615,43.04757965533959,-11.499218151537974,-0.037349612540032176,0.0,-0.037349612540032176
0.44200000000000034,move_to_zero,-0.13614799611898382,-3.4322463759479986,3.2960983798290147,-64.84576831472648,-71.95203991255798,7.106271597831494,65.34062480937939,70.16441159168997,-4.823786782310577,31.47508582985968,42.992461115447995,-11.517375285588315,-0.03749156965908872,0.0,-0.03749156965908872
0.44400000000000034,move_to_zero,-0.13593490694521385,-3.427846060081399,3.2919111531361853,-64.75635525000423,-71.85979370754188,7.103438457537649,65.24064148520382,70.07445721785447,-4.833815732650649,31.4018348710966,42.937342575556386,-11.535507704459786,-0.03763155206892348,0.0,-0.03763155206892348
0.44600000000000034,move_to_zero,-0.13573591324115455,-3.423445744214799,3.2877098309736446,-64.66695224234215,-71.76754750252577,7.100595260183624,65.14068937219945,69.98450284401898,-4.84381347181953,31.32862473537605,42.88222403566479,-11.553599300288742,-0.03776914406906642,0.0,-0.03776914406906642
0.44800000000000034,move_to_zero,-0.1355215198685429,-3.419045428348199,3.2835239084796557,-64.5775797476111,-71.67530129750969,7.097721549898594,65.04076618152665,69.89454847018347,-4.8537822886568165,31.255457649720647,42.82710549577319,-11.571647846052542,-0.03790350234890426,0.0,-0.03790350234890426
0.45000000000000034,move_to_zero,-0.13528289054358664,-3.414645112481599,3.2793622219380123,-64.48824804252318,-71.58305509249358,7.094807049970399,64.94085562889356,69.80459409634798,-4.863738467454425,31.182333124549263,42.77198695588159,-11.589653831332324,-0.03803647480795613,0.0,-0.03803647480795613
0.45200000000000035,move_to_zero,-0.13503992389778538,-3.410244796614999,3.2752048727172136,-64.39896140656705,-71.49080888747748,7.091847480910431,64.8409362596165,69.71463972251247,-4.873703462895975,31.109229679234293,42.71686841598999,-11.6076387367557,-0.038170952195659365,0.0,-0.038170952195659365
0.45400000000000035,move_to_zero,-0.13478396435367307,-3.405844480748399,3.271060516394726,-64.30969017597505,-71.39856268246137,7.088872506486325,64.74098825835972,69.62468534867698,-4.883697090317256,31.03613643826355,42.66174987609839,-11.62561343783484,-0.03830518990988766,0.0,-0.03830518990988766
0.45600000000000035,move_to_zero,-0.1345210545133012,-3.4014441648817986,3.2669231103684973,-64.22041360318616,-71.30631647744528,7.085902874259119,64.64100858233088,69.53473097484148,-4.893722392510597,30.963035265060462,42.60663133620679,-11.643596071146327,-0.03844127179526622,0.0,-0.03844127179526622
0.45800000000000035,move_to_zero,-0.13424766772090796,-3.397043849015199,3.262796181294291,-64.13115556466998,-71.21407027242918,7.082914707759201,64.54098920246996,69.44477660100597,-4.903787398536011,30.889936922601983,42.55151279631519,-11.661575873713204,-0.03857783372418697,0.0,-0.03857783372418697
0.46000000000000035,move_to_zero,-0.1339587160045948,-3.392643533148599,3.258684817144004,-64.04190944850052,-71.12182406741309,7.079914618912568,64.44091075465462,69.35482222717047,-4.913911472515849,30.816838543803716,42.49639425642359,-11.679555712619877,-0.0387140287019366,0.0,-0.0387140287019366
0.46200000000000035,move_to_zero,-0.13369058402439754,-3.3882432172819987,3.2545526332576014,-63.95268550088162,-71.02957786239699,7.07689236151537,64.34078614930986,69.26486785333498,-4.924081704025113,30.743764108498205,42.44127571653199,-11.697511608033786,-0.03885323393298204,0.0,-0.03885323393298204
0.46400000000000036,move_to_zero,-0.1334477023413686,-3.383842901415399,3.2503951990740303,-63.86347634199245,-70.93733165738088,7.073855315388428,64.24063234632295,69.17491347949948,-4.934281133176526,30.670725828313007,42.38615717664039,-11.715431348327382,-0.038994383246183824,0.0,-0.038994383246183824
0.46600000000000036,move_to_zero,-0.13321388185191163,-3.379442585548799,3.2462287036968873,-63.77429388831597,-70.84508545236478,7.070791564048818,64.14041941507202,69.08495910566397,-4.944539690591952,30.59776706031875,42.331038636748794,-11.733271576430045,-0.03913571626153799,0.0,-0.03913571626153799
0.46800000000000036,move_to_zero,-0.1329943437229812,-3.375042269682199,3.2420479259592176,-63.685124232236255,-70.75283924734867,7.0677150151124195,64.04016872425706,68.99500473182847,-4.954836007571416,30.524903522106282,42.275920096857185,-11.751016574750903,-0.039276963559702276,0.0,-0.039276963559702276
0.47000000000000036,move_to_zero,-0.13278092968601096,-3.3706419538155985,3.2378610241295878,-63.59600033495606,-70.66059304233258,7.064592707376519,63.939866161867215,68.90505035799298,-4.965184196125762,30.452131845792216,42.22080155696559,-11.768669711173374,-0.039419398115087066,0.0,-0.039419398115087066
0.47200000000000036,move_to_zero,-0.1325666512840709,-3.3662416379489986,3.2336749866649277,-63.50689912536488,-70.56834683731647,7.061447711951587,63.839529887386604,68.81509598415747,-4.975566096770862,30.379442356851158,42.16568301707399,-11.78624066022283,-0.03956055339113246,0.0,-0.03956055339113246
0.47400000000000037,move_to_zero,-0.13235018204693885,-3.361841322082399,3.22949114003546,-63.417810375303816,-70.47610063230039,7.058290256996571,63.739147259281964,68.72514161032198,-4.98599435104002,30.30682535373912,42.11056447718239,-11.803739123443272,-0.0397024259815328,0.0,-0.0397024259815328
0.47600000000000037,move_to_zero,-0.13210424913643648,-3.357441006215799,3.2253367570793627,-63.32874988137607,-70.38385442728428,7.055104545908208,63.63872771336567,68.63518723648647,-4.996459523120805,30.234261682833576,42.05544593729079,-11.821184254457215,-0.03984627506375797,0.0,-0.03984627506375797
0.47800000000000037,move_to_zero,-0.13181688235803787,-3.3530406903491987,3.221223807991161,-63.2396894987054,-70.29160822226818,7.051918723562778,63.53827855346604,68.54523286265096,-5.00695430918492,30.161735105388225,42.00032739739919,-11.838592292010965,-0.039990149921358714,0.0,-0.039990149921358714
0.48000000000000037,move_to_zero,-0.13149437366188227,-3.3486403744825988,3.2171460008207164,-63.15063281685259,-70.19936201725208,7.048729200399492,63.43780597363675,68.45527848881548,-5.017472515178731,30.08925176347421,41.94520885750759,-11.855957094033378,-0.040134495370983334,0.0,-0.040134495370983334
0.4820000000000004,move_to_zero,-0.13118004037573275,-3.344240058615999,3.213060018240266,-63.06159055856558,-70.10711581223597,7.045525253670398,63.3372964136593,68.36532411497997,-5.028027701320667,30.01680775648367,41.890090317615986,-11.873282561132317,-0.040280219777209005,0.0,-0.040280219777209005
0.4840000000000004,move_to_zero,-0.13087279216479467,-3.339839742749399,3.208966950584604,-62.97258662201206,-70.01486960721988,7.0422829852078195,63.23674685965871,68.27536974114447,-5.0386228814857645,29.94438713761516,41.83497177772439,-11.890584640109232,-0.04042533170723982,0.0,-0.04042533170723982
0.4860000000000004,move_to_zero,-0.13056586580996798,-3.3354394268827985,3.2048735610728305,-62.88363082897343,-69.92262340220378,7.038992573230352,63.136181518835784,68.18541536730898,-5.049233848473193,29.87196409318859,41.77985323783279,-11.907889144644198,-0.04056708172764047,0.0,-0.04056708172764047
0.4880000000000004,move_to_zero,-0.1302927076176467,-3.331039111016199,3.2007464033985524,-62.794691028685754,-69.83037719718769,7.0356861685019325,63.03561946782381,68.09546099347347,-5.059841525649659,29.799521209086695,41.72473469794119,-11.925213488854492,-0.04070541428275974,0.0,-0.04070541428275974
0.4900000000000004,move_to_zero,-0.13004628781710104,-3.326638795149599,3.196592507332498,-62.705792529253124,-69.73813099217158,7.032338462918453,62.93505513391496,68.00550661963797,-5.070451485723012,29.727069120504545,41.66961615804959,-11.942547037545047,-0.040840223249816836,0.0,-0.040840223249816836
0.4920000000000004,move_to_zero,-0.12982085324576814,-3.3222384792829986,3.1924176260372303,-62.61690543518783,-69.64588478715548,7.028979351967649,62.834477447819204,67.91555224580247,-5.08107479798327,29.654613178065958,41.61449761815798,-11.959884440092026,-0.04097478007773472,0.0,-0.04097478007773472
0.4940000000000004,move_to_zero,-0.12959470690416527,-3.3178381634163987,3.1882434565122333,-62.528049941084106,-69.55363858213937,7.025588641055265,62.73389677090432,67.82559787196698,-5.091701101062654,29.582153627214716,41.55937907826639,-11.977225451051673,-0.041110268623464785,0.0,-0.041110268623464785
0.4960000000000004,move_to_zero,-0.12937297639715067,-3.3134378475497988,3.184064871152648,-62.439238439775245,-69.46139237712327,7.02215393734803,62.63332397802323,67.73564349813147,-5.102319520108239,29.50970126277412,41.50426053837479,-11.994559275600668,-0.041246852890980436,0.0,-0.041246852890980436
0.4980000000000004,move_to_zero,-0.1291479471863038,-3.309037531683199,3.179889584496895,-62.35047778604799,-69.36914617210718,7.01866838605919,62.53277006000712,67.64568912429597,-5.112919064288853,29.4372960923752,41.44914199848319,-12.011845906107993,-0.04138240711726535,0.0,-0.04138240711726535
0.5000000000000003,move_to_zero,-0.12892122817548118,-3.3046372158165984,3.175715987641117,-62.26178024829566,-69.27689996709108,7.015119718795425,62.432225783571724,67.55573475046047,-5.12350896688875,29.36492160280786,41.39402345859159,-12.029101855783729,-0.04151718067844938,0.0,-0.04151718067844938
0.5020000000000003,move_to_zero,-0.12868191370549736,-3.300236899949999,3.1715549862445016,-62.17315151853923,-69.18465376207499,7.011502243535759,62.331690597388885,67.46578037662498,-5.134089779236092,29.292558529776326,41.33890491869999,-12.046346388923663,-0.04164817978290969,0.0,-0.04164817978290969
0.5040000000000003,move_to_zero,-0.1284102971742556,-3.2958365840833994,3.167426286909144,-62.084583053310155,-69.09240755705889,7.007824503748736,62.231182042091284,67.37582600278948,-5.144643960698197,29.220201949510813,41.283786378808394,-12.063584429297581,-0.04177452993486247,0.0,-0.04177452993486247
0.5060000000000003,move_to_zero,-0.1281382545263931,-3.291436268216799,3.163298013690406,-61.996062314151274,-69.00016135204278,7.004099037891507,62.13071778041367,67.28587162895397,-5.1551538485403015,29.14785734545846,41.228667838916785,-12.080810493458326,-0.04189552227424124,0.0,-0.04189552227424124
0.5080000000000003,move_to_zero,-0.12788016710265113,-3.287035952350199,3.159155785247548,-61.907584229057164,-68.90791514702669,7.000330917969521,62.030284347423795,67.19591725511847,-5.165632907694679,29.07551583224087,41.1735492990252,-12.098033466784326,-0.042012826831759074,0.0,-0.042012826831759074
0.5100000000000003,move_to_zero,-0.12763310098551597,-3.2826356364835987,3.155002535498083,-61.81914393957008,-68.81566894201057,6.996525002440492,61.92985949036874,67.10596288128298,-5.1761033909142355,29.00321102001288,41.11843075913359,-12.115219739120707,-0.04212495788132745,0.0,-0.04212495788132745
0.5120000000000003,move_to_zero,-0.1274009009054598,-3.278235320616999,3.1508344197115394,-61.73074707444021,-68.7234227369945,6.992675662554284,61.82944976842226,67.01600850744748,-5.186558739025223,28.93094778912188,41.06331221924199,-12.132364430120113,-0.04223532231540571,0.0,-0.04223532231540571
0.5140000000000003,move_to_zero,-0.12713903410989297,-3.273835004750399,3.146695970640506,-61.642423927480046,-68.63117653197838,6.9887526044983375,61.72906949489041,66.92605413361197,-5.19698463872156,28.85873028865458,41.00819367935039,-12.14946339069581,-0.042344086592602276,0.0,-0.042344086592602276
0.5160000000000003,move_to_zero,-0.1268783330016579,-3.2694346888837993,3.1425563558821414,-61.55417368371671,-68.53893032696229,6.984756643245575,61.62873511348286,66.83609975977649,-5.207364646293627,28.786552328722973,40.95307513945879,-12.166522810735817,-0.042451879131644506,0.0,-0.042451879131644506
0.5180000000000003,move_to_zero,-0.12662955919645918,-3.265034373017199,3.1384048138207397,-61.46597292658506,-68.44668412194618,6.980711195361117,61.528428547921074,66.74614538594096,-5.217716838019889,28.714426758849573,40.89795659956719,-12.183529840717615,-0.04256051196010373,0.0,-0.04256051196010373
0.5200000000000004,move_to_zero,-0.12639392266738175,-3.2606340571505994,3.1342401344832176,-61.37785920153818,-68.35443791693008,6.976578715391902,61.42815252005892,66.65619101210548,-5.228038492046558,28.642335883160104,40.84283805967559,-12.200502176515489,-0.042670074018025944,0.0,-0.042670074018025944
0.5220000000000004,move_to_zero,-0.12617726606976404,-3.2562337412839986,3.1300564752142344,-61.28984722326542,-68.26219171191397,6.972344488648552,61.327923982641614,66.56623663826997,-5.238312655628356,28.570279879502156,40.78771951978399,-12.217439640281835,-0.04277741971552118,0.0,-0.04277741971552118
0.5240000000000004,move_to_zero,-0.12597650124401705,-3.251833425417399,3.125856924173382,-61.20193589859223,-68.16994550689789,6.968009608305657,61.227753435048896,66.47628226443447,-5.248528829385577,28.49827170540573,40.732600979892396,-12.234329274486665,-0.04288255267201041,0.0,-0.04288255267201041
0.5260000000000004,move_to_zero,-0.12578822816662502,-3.2474331095507987,3.1216448813841735,-61.11413175621091,-68.07769930188178,6.96356754567087,61.12766107082849,66.38632789059898,-5.2586668197704896,28.42630834369731,40.677482440000794,-12.251174096303483,-0.042987292703790696,0.0,-0.042987292703790696
0.5280000000000004,move_to_zero,-0.12560876819082673,-3.2430327936841996,3.117424025493373,-61.02641981441224,-67.9854530968657,6.959033282453454,61.027637825297596,66.29637351676348,-5.268735691465885,28.354378154337,40.62236390010919,-12.267985745772194,-0.04309119835696832,0.0,-0.04309119835696832
0.5300000000000004,move_to_zero,-0.1254373266397706,-3.2386324778175983,3.1131951511778277,-60.938784163884534,-67.89320689184957,6.954422727965039,60.92766945422165,66.20641914292797,-5.27874968870632,28.282487034729204,40.56724536021758,-12.28475832548838,-0.04319199992635519,0.0,-0.04319199992635519
0.5320000000000004,move_to_zero,-0.12527179421372972,-3.2342321619509993,3.1089603677372697,-60.85119332830581,-67.80096068683349,6.94976735852768,60.82775592133575,66.11646476909249,-5.288708847756737,28.210627496098738,40.512126820325996,-12.301499324227258,-0.04328871631308708,0.0,-0.04328871631308708
0.5340000000000004,move_to_zero,-0.12511140384712713,-3.229831846084399,3.1047204422372716,-60.76364594279233,-67.70871448181737,6.945068539025037,60.7278912629817,66.02651039525698,-5.298619132275277,28.1387693031271,40.45700828043439,-12.318238977307288,-0.04338206075330884,0.0,-0.04338206075330884
0.5360000000000004,move_to_zero,-0.12495506295227024,-3.2254315302177994,3.100476467265529,-60.676165283750365,-67.61646827680129,6.940302993050921,60.62806790150303,65.93655602142148,-5.308488119918451,28.06691564253088,40.4018897405428,-12.33497409801192,-0.043472178663266504,0.0,-0.043472178663266504
0.5380000000000004,move_to_zero,-0.12479802551573546,-3.2210312143511985,3.096233188835463,-60.58876684669314,-67.52422207178519,6.935455225092049,60.5282780954909,65.84660164758597,-5.318323552095073,27.995090170492052,40.34677120065119,-12.351681030159138,-0.04356047635297818,0.0,-0.04356047635297818
0.5400000000000004,move_to_zero,-0.1246195509163833,-3.216630898484599,3.092011347568216,-60.50145223836429,-67.4319758667691,6.930523628404806,60.42851326964775,65.75664727375049,-5.328134004102736,27.923297551453516,40.29165266075959,-12.368355109306073,-0.04364527132821017,0.0,-0.04364527132821017
0.5420000000000004,move_to_zero,-0.12443487300672582,-3.2122305826179987,3.0877957096112727,-60.414229789651294,-67.33972966175298,6.925499872101689,60.32875722325295,65.66669289991496,-5.337935676662013,27.851526355421587,40.23653412086799,-12.3850077654464,-0.04372829378566915,0.0,-0.04372829378566915
0.5440000000000004,move_to_zero,-0.12425613276452466,-3.207830266751399,3.0835741339868745,-60.32709341222701,-67.24748345673689,6.92039004450988,60.22901167679254,65.57673852607948,-5.347726849286943,27.77976620943906,40.18141558097639,-12.401649371537331,-0.04380935217552548,0.0,-0.04380935217552548
0.5460000000000004,move_to_zero,-0.12407423760266963,-3.2034299508847988,3.079355713282129,-60.240047269136504,-67.15523725172078,6.915189982584273,60.12927355830698,65.48678415224397,-5.357510593936993,27.708005616390853,40.12629704108479,-12.418291424693937,-0.04388807446105513,0.0,-0.04388807446105513
0.5480000000000004,move_to_zero,-0.12389937337937895,-3.1990296350181993,3.0751302616388205,-60.15309085952668,-67.06299104670468,6.909900187178003,60.02955365599628,65.39682977840847,-5.367276122412193,27.636239365527164,40.071178501193195,-12.434939135666031,-0.043964313235785826,0.0,-0.043964313235785826
0.5500000000000004,move_to_zero,-0.12373107138177726,-3.194629319151599,3.0708982477698217,-60.06622922805219,-66.97074484168859,6.9045156136363985,59.92987510700511,65.30687540457298,-5.377000297567868,27.564463566453515,40.01605996130159,-12.451596394848078,-0.044039086218351,0.0,-0.044039086218351
0.5520000000000004,move_to_zero,-0.1235678409378406,-3.190229003284999,3.0666611623471582,-59.97944850401376,-66.87849863667249,6.899050132658729,59.8302305725494,65.21692103073748,-5.386690458188085,27.492713730625063,39.96094142140999,-12.468227690784929,-0.04411203032011117,0.0,-0.04411203032011117
0.5540000000000004,move_to_zero,-0.12340516307891711,-3.1858286874183985,3.0624235243394815,-59.89273350321182,-66.78625243165638,6.893518928444557,59.730595231257,65.12696665690197,-5.396371425644972,27.4209910848162,39.90582288151839,-12.484831796702188,-0.04418330180641166,0.0,-0.04418330180641166
0.5560000000000004,move_to_zero,-0.12324771836643586,-3.1814283715517995,3.0581806531853637,-59.80606836054915,-66.69400622664028,6.887937866091136,59.630958954933924,65.03701228306649,-5.406053328132565,27.349290995030138,39.850704341626795,-12.501413346596657,-0.044253313126222674,0.0,-0.044253313126222674
0.5580000000000004,move_to_zero,-0.12309363104455734,-3.1770280556851986,3.0539344246406412,-59.719467459953286,-66.60176002162417,6.882292561670887,59.53130816669092,64.94705790923096,-5.415749742540044,27.27762168117592,39.795585801735186,-12.517964120559267,-0.04432175619033811,0.0,-0.04432175619033811
0.5600000000000004,move_to_zero,-0.12294243007251457,-3.172627739818599,3.0496853097460845,-59.63293938107003,-66.50951381660808,6.876574435538046,59.431639409562095,64.85710353539548,-5.425464125833386,27.206003211634698,39.7404672618436,-12.5344640502089,-0.04439025895986814,0.0,-0.04439025895986814
0.5620000000000004,move_to_zero,-0.12279018632126802,-3.1682274239519987,3.045437237630731,-59.546486762288055,-66.41726761159198,6.870780849303927,59.33196179097463,64.76714916155997,-5.435187370585339,27.13441303541723,39.68534872195198,-12.550935686534753,-0.04446111656410979,0.0,-0.04446111656410979
0.5640000000000004,move_to_zero,-0.12263838398992397,-3.1638271080853992,3.041188724095475,-59.46010869750287,-66.3250214065759,6.864912709073032,59.23226592233456,64.67719478772447,-5.444928865389912,27.06285544537067,39.630230182060394,-12.567374736689725,-0.04453669268249626,0.0,-0.04453669268249626
0.5660000000000004,move_to_zero,-0.12248897232256557,-3.159426792218799,3.036937819896233,-59.37380847845542,-66.23277520155978,6.858966723104352,59.132546019657916,64.58724041388896,-5.454694394231048,26.991315463449954,39.575111642168785,-12.583796178718831,-0.04461755109240067,0.0,-0.04461755109240067
0.5680000000000004,move_to_zero,-0.12234111295420234,-3.155026476352199,3.0326853633979964,-59.28757357796644,-66.1405289965437,6.8529554185772525,59.03280667981114,64.49728604005348,-5.464479360242343,26.919780492825442,39.51999310227719,-12.600212609451749,-0.04470312229051174,0.0,-0.04470312229051174
0.5700000000000004,move_to_zero,-0.12219233270459326,-3.1506261604855985,3.0284338277810052,-59.20142930345248,-66.04828279152757,6.846853488075091,58.93306406731797,64.40733166621797,-5.474267598899999,26.848247267023616,39.46487456238559,-12.616627295361972,-0.044792845228498517,0.0,-0.044792845228498517
0.5720000000000004,move_to_zero,-0.12202498534422698,-3.1462258446189995,3.0242008592747727,-59.11536586866735,-65.95603658651149,6.840670717844141,58.8333264967317,64.31737729238247,-5.484050795650774,26.77672164350017,39.409756022493994,-12.633034378993823,-0.04488305344297447,0.0,-0.04488305344297447
0.5740000000000004,move_to_zero,-0.12184488652462398,-3.141825528752399,3.0199806422277753,-59.02935804807795,-65.86379038149538,6.834432333417425,58.733589165352306,64.22742291854698,-5.4938337531946715,26.705208937198147,39.354637482602385,-12.649428545404238,-0.044974183550759904,0.0,-0.044974183550759904
0.5760000000000004,move_to_zero,-0.12164595620273419,-3.137425212885799,3.015779256683065,-58.94342110333831,-65.7715441764793,6.828123073140986,58.63385772288497,64.13746854471148,-5.503610821826513,26.633718809834917,39.29951894271079,-12.665800132875873,-0.045064666533245874,0.0,-0.045064666533245874
0.5780000000000004,move_to_zero,-0.12143856989204792,-3.1330248970191987,3.011586327127151,-58.85753981725728,-65.67929797146319,6.821758154205902,58.53411705711196,64.04751417087597,-5.513397113764007,26.562256936743925,39.24440040281919,-12.682143466075264,-0.045157383548644126,0.0,-0.045157383548644126
0.5800000000000004,move_to_zero,-0.1212385914089975,-3.1286245811525992,3.007385989743602,-58.77169612193515,-65.58705176644709,6.815355644511939,58.43433897014481,63.95755979704048,-5.523220826895674,26.490838684488747,39.189281862927594,-12.698443178438847,-0.04525119799235744,0.0,-0.04525119799235744
0.5820000000000004,move_to_zero,-0.1210504815578835,-3.1242242652859984,3.0031737837281147,-58.68589964532559,-65.49480556143098,6.808905916105388,58.33455175001599,63.867605423204964,-5.533053673188974,26.419451875283766,39.134163323035985,-12.714711447752219,-0.04534589845906801,0.0,-0.04534589845906801
0.5840000000000004,move_to_zero,-0.12087295625303401,-3.119823949419399,2.998950993166365,-58.60013371014483,-65.40255935641488,6.802425646270052,58.23477236468971,63.777651049369474,-5.5428786846797635,26.348087249290458,39.0790447831444,-12.730957533853939,-0.045442859045924405,0.0,-0.045442859045924405
0.5860000000000004,move_to_zero,-0.12070269576451659,-3.1154236335527985,2.9947209377882817,-58.514387304122636,-65.31031315139877,6.795925847276138,58.135010389223,63.68769667553397,-5.552686286310973,26.276734773911997,39.02392624325278,-12.747191469340784,-0.04554066702999766,0.0,-0.04554066702999766
0.5880000000000004,move_to_zero,-0.12053966335977619,-3.1110233176861994,2.990483654326423,-58.42864682572288,-65.21806694638268,6.789420120659798,58.03524891423702,63.597742301698474,-5.562493387461451,26.205434817467783,38.96880770336119,-12.76337288589341,-0.045637792302430244,0.0,-0.045637792302430244
0.5900000000000004,move_to_zero,-0.12038146501505001,-3.1066230018195986,2.9862415368045485,-58.3428896232163,-65.12582074136658,6.78293111815028,57.93548884380718,63.50778792786297,-5.572299084055793,26.134170169374613,38.913689163469584,-12.779518994094971,-0.04573255118098457,0.0,-0.04573255118098457
0.5920000000000004,move_to_zero,-0.12022752867895052,-3.102222685952999,2.9819951572740484,-58.25713154427923,-65.03357453635049,6.776442992071253,57.83574037974609,63.41783355402748,-5.58209317428139,26.062946256450456,38.858570623578,-12.795624367127541,-0.04582591921715898,0.0,-0.04582591921715898
0.5940000000000004,move_to_zero,-0.12007764839322117,-3.0978223700863987,2.9777447216931776,-58.17137148788314,-64.94132833133438,6.769956843451233,57.735999055629584,63.32787918019197,-5.591880124562387,25.99178394512092,38.80345208368639,-12.81166813856547,-0.04591583119588863,0.0,-0.04591583119588863
0.5960000000000004,move_to_zero,-0.11993042623625264,-3.093422054219799,2.9734916279835466,-58.085601016147365,-64.84908212631828,6.763481110170915,57.63626426811378,63.23792480635648,-5.6016605382427045,25.92070009445834,38.74833354379479,-12.827633449336453,-0.04600264681707235,0.0,-0.04600264681707235
0.5980000000000004,move_to_zero,-0.11978421001434131,-3.0890217383531984,2.9692375283388572,-57.9998350549141,-64.75683592130217,6.7570008663880685,57.53650623767434,63.147970432520964,-5.611464194846626,25.84971339697924,38.693215003903184,-12.843501606923944,-0.04608693429222082,0.0,-0.04608693429222082
0.6000000000000004,move_to_zero,-0.11964012990464601,-3.0846214224865993,2.964981292581953,-57.914091771178185,-64.66458971628607,6.750497945107888,57.43671131769904,63.05801605868548,-5.621304740986439,25.778819001076645,38.63809646401159,-12.859277462934944,-0.046167443935481764,0.0,-0.046167443935481764
0.6020000000000004,move_to_zero,-0.11949682790896575,-3.0802211066199985,2.960724278711033,-57.82838623073793,-64.57234351126998,6.743957280532051,57.33686661498707,62.968061684849964,-5.6311950698628905,25.708027914004518,38.58297792411999,-12.87495001011547,-0.046243913007257186,0.0,-0.046243913007257186
0.6040000000000004,move_to_zero,-0.11934012802107868,-3.075820790753399,2.95648066273232,-57.74272955182667,-64.4800973062539,6.7373677544272255,57.236976375360285,62.878107311014475,-5.641130935654189,25.63734151474726,38.52785938422839,-12.890517869481133,-0.04631385291559128,0.0,-0.04631385291559128
0.6060000000000004,move_to_zero,-0.1191614159021153,-3.0714204748867986,2.952259058984683,-57.65713098750539,-64.38785110123777,6.7307201137323815,57.13705613715227,62.78815293717897,-5.6510968000267,25.566745549676266,38.47274084433679,-12.905995294660524,-0.046378140539807,0.0,-0.046378140539807
0.6080000000000004,move_to_zero,-0.11896708408346528,-3.067020159020199,2.948053074936734,-57.57158937599256,-64.29560489622169,6.7240155202291305,57.037131802808766,62.698198563343475,-5.661066760534709,25.49624258829071,38.417622304445196,-12.921379716154487,-0.046438226591323434,0.0,-0.046438226591323434
0.6100000000000004,move_to_zero,-0.11878279477981675,-3.0626198431535987,2.943837048373782,-57.486087737452,-64.20335869120557,6.717270953753562,56.93721402844104,62.60824418950797,-5.6710301610669305,25.425821511888287,38.36250376455359,-12.9366822526653,-0.04649499140257056,0.0,-0.04649499140257056
0.6120000000000004,move_to_zero,-0.11860677466181734,-3.0582195272869988,2.9396127526251816,-57.40063741790083,-64.11111248618948,6.710475068288652,56.83730960563229,62.51828981567248,-5.68098021004019,25.355451395177273,38.30738522466199,-12.95193382948472,-0.046548838229416384,0.0,-0.046548838229416384
0.6140000000000004,move_to_zero,-0.11843786197288059,-3.0538192114203984,2.9353813494475176,-57.31522955271744,-64.01886628117337,6.703636728455933,56.73739786493636,62.42833544183697,-5.690937576900609,25.285144946027444,38.25226668477038,-12.96712173874294,-0.0465997043248418,0.0,-0.0465997043248418
0.6160000000000004,move_to_zero,-0.11827622074211305,-3.0494188955537993,2.9311426748116864,-57.229878044753896,-63.926620076157285,6.696742031403389,56.63748312760931,62.33838106800148,-5.700897940392174,25.21488941669785,38.197148144878796,-12.982258728180945,-0.04664717590184548,0.0,-0.04664717590184548
0.6180000000000004,move_to_zero,-0.1181194259306298,-3.045018579687199,2.926899153756569,-57.14455748865403,-63.83437387114118,6.689816382487152,56.53755694825848,62.248426694165964,-5.7108697459074875,25.144670874372718,38.14202960498719,-12.997358730614469,-0.04668946282562573,0.0,-0.04668946282562573
0.6200000000000004,move_to_zero,-0.11796544671457139,-3.040618263820599,2.9226528171060275,-57.059268953122135,-63.742127666125086,6.68285871300295,56.43763074498553,62.15847232033048,-5.720841575344949,25.074505147365567,38.08691106509559,-13.012405917730025,-0.04672568462194624,0.0,-0.04672568462194624
0.6220000000000004,move_to_zero,-0.11781343520621128,-3.0362179479539986,2.918404512747787,-56.97400885307495,-63.649881461108976,6.675872608034027,56.3377027434164,62.068517946494964,-5.7308152030785635,25.004409942155156,38.03179252520398,-13.027382583048826,-0.04675712523065106,0.0,-0.04675712523065106
0.6240000000000004,move_to_zero,-0.1176632474861123,-3.031817632087399,2.9141543846012867,-56.88876291687988,-63.55763525609289,6.66887233921301,56.237767495198256,61.978563572659475,-5.740796077461219,24.93438285828543,37.97667398531239,-13.042291127026957,-0.04678087864865171,0.0,-0.04678087864865171
0.6260000000000004,move_to_zero,-0.11751598151250589,-3.0274173162207987,2.9099013347082927,-56.80354172223439,-63.46538905107678,6.661847328842384,56.13781767989398,61.888609198823964,-5.7507915189299865,24.864459043293845,37.921555445420786,-13.057096402126941,-0.04679759571015154,0.0,-0.04679759571015154
0.6280000000000004,move_to_zero,-0.11737219492380538,-3.0230170003541987,2.905644805430393,-56.71834193971959,-63.37314284606068,6.654800906341087,56.03785748510128,61.798654824988475,-5.760797339887198,24.794664012662643,37.86643690552919,-13.071772892866548,-0.04680927084567091,0.0,-0.04680927084567091
0.6300000000000004,move_to_zero,-0.1172309464938902,-3.0186166844875983,2.9013857379937082,-56.63317697090518,-63.28089664104458,6.647719670139395,55.93788656972809,61.70870045115297,-5.770813881424878,24.724991070540135,37.81131836563759,-13.086327295097455,-0.04682005027082193,0.0,-0.04682005027082193
0.6320000000000005,move_to_zero,-0.11709124152779025,-3.0142163686209993,2.8971251270932092,-56.548049676404155,-63.18865043602848,6.640600759624327,55.83788561610832,61.618746077317475,-5.780860461209151,24.655461372928425,37.756199825745995,-13.10073845281757,-0.046829139822219444,0.0,-0.046829139822219444
0.6340000000000005,move_to_zero,-0.1169513978169648,-3.009816052754399,2.892864654937434,-56.462966472564965,-63.09640423101237,6.633437758447407,55.737865165939,61.52879170348197,-5.790926537542973,24.58606607296098,37.701081285854386,-13.115015212893407,-0.04683642618224464,0.0,-0.04683642618224464
0.6360000000000005,move_to_zero,-0.11681158566757809,-3.005415736887799,2.8886041512202207,-56.377910149492514,-63.00415802599628,6.6262478765037685,55.63782384966109,61.43883732964648,-5.801013479985393,24.51679827760418,37.64596274596279,-13.12916446835861,-0.046842153557299884,0.0,-0.046842153557299884
0.6380000000000005,move_to_zero,-0.11667288089429527,-3.0010154210211986,2.8843425401269034,-56.2928863702594,-62.91191182098017,6.61902545072077,55.5377613916789,61.348882955810964,-5.8111215641320655,24.44764616741442,37.59084420607118,-13.143198038656763,-0.04684626389389729,0.0,-0.04684626389389729
0.6400000000000005,move_to_zero,-0.11653312027404242,-2.996615105154599,2.880081984880557,-56.20787682947977,-62.81966561596408,6.611788786484304,55.437680361249235,61.25892858197548,-5.821248220726247,24.378605355564268,37.535725666179594,-13.157120310615326,-0.046845117242681,0.0,-0.046845117242681
0.6420000000000005,move_to_zero,-0.11639281064575832,-2.9922147892879987,2.8758219786422403,-56.122879144376334,-62.727419410947974,6.6045402665716395,55.33758188138402,61.168974208139964,-5.831392326755946,24.30969455105263,37.480607126287985,-13.170912575235356,-0.04683935085927189,0.0,-0.04683935085927189
0.6440000000000005,move_to_zero,-0.11625319777048974,-2.987814473421399,2.8715612756509095,-56.03788408542689,-62.63517320593189,6.597289120505003,55.23745001446199,61.079019834304475,-5.8415698198424835,24.24093811150345,37.42548858639639,-13.18455047489294,-0.046829992802996524,0.0,-0.046829992802996524
0.6460000000000005,move_to_zero,-0.11611339062380083,-2.9834141575547983,2.8673007669309976,-55.95287503170421,-62.54292700091577,6.590051969211558,55.137270049786316,60.989065460468964,-5.851795410682648,24.172325327200426,37.37037004650478,-13.198044719304356,-0.04681953214096298,0.0,-0.04681953214096298
0.6480000000000005,move_to_zero,-0.11597377465370493,-2.9790138416881993,2.863040067034494,-55.867859348831644,-62.450680795899686,6.582821447068042,55.0370364873618,60.899111086633475,-5.862074599271672,24.103845839445093,37.31525150661319,-13.211405667168094,-0.04680890147212013,0.0,-0.04680890147212013
0.6500000000000005,move_to_zero,-0.11583275106422998,-2.9746135258215984,2.8587807747573684,-55.78286577566854,-62.35843459088357,6.5755688152150285,54.93675389142149,60.80915671279797,-5.8724028213764825,24.03548958741495,37.260132966721585,-13.224643379306634,-0.04679688068103806,0.0,-0.04679688068103806
0.6520000000000005,move_to_zero,-0.11569129579937736,-2.970213209954999,2.8545219141556215,-55.69790979664986,-62.26618838586749,6.568278589217627,54.83643452763731,60.719202338962475,-5.8827678113251665,23.96725389255034,37.20501442682999,-13.237760534279651,-0.04678352497743355,0.0,-0.04678352497743355
