GerardoFJ/TE3001B_TEAM_3/src/s0s1_gazebo/scripts/results/P4/state.csv
t,phase,shoulder_pan_actual_deg,shoulder_pan_desired_deg,shoulder_pan_error_deg,shoulder_lift_actual_deg,shoulder_lift_desired_deg,shoulder_lift_error_deg,elbow_flex_actual_deg,elbow_flex_desired_deg,elbow_flex_error_deg,wrist_flex_actual_deg,wrist_flex_desired_deg,wrist_flex_error_deg,wrist_roll_actual_deg,wrist_roll_desired_deg,wrist_roll_error_deg
0.002,move_to_zero,-4.376474382407018,-4.4003158666,0.02384148419298171,-92.21682027023317,-92.2462050161,0.02938474586683526,89.9402674989065,89.9543738355,-0.014106336593499691,55.09939055982472,55.1185398916,-0.019149331775281553,0.0017248340730163765,0.0,0.0017248340730163765
0.004,move_to_zero,-4.329775367125902,-4.3959155507334,0.06614018360749796,-92.15895085766005,-92.15395881108391,-0.004992046576134612,89.91232989018296,89.86441946166448,0.04791042851847749,55.06177646479076,55.0634213517084,-0.0016448869176386438,0.004510212243354503,0.0,0.004510212243354503
0.006,move_to_zero,-4.261358304181318,-4.3915152348668,0.13015693068548195,-92.07356807185407,-92.0617126060678,-0.011855465786268837,89.87088612938868,89.77446508782899,0.09642104155969378,55.00636268517391,55.008302811816804,-0.001940126642892892,0.0076838349613818045,0.0,0.0076838349613818045
0.008,move_to_zero,-4.172476288963686,-4.3871149190002,0.2146386300365135,-91.9617394943064,-91.9694664010517,0.007726906745304518,89.81628072509096,89.68451071399349,0.13177001109747266,54.93382591518377,54.953184271925196,-0.01935835674142794,0.010684126888519618,0.0,0.010684126888519618
0.01,move_to_zero,-4.064461683601596,-4.382714603133599,0.31825291953200274,-91.82460518053631,-91.8772201960356,0.05261501549928482,89.74888176294283,89.594556340158,0.15432542278483652,54.84486896312512,54.8980657320336,-0.05319676890847802,0.013120111404235217,0.0,0.013120111404235217
0.012,move_to_zero,-3.9387332479170363,-4.378314287266999,0.43958103934996284,-91.66333795483881,-91.7849739910195,0.12163603618068919,89.66907739590357,89.50460196632248,0.1644754295810884,54.740215639929666,54.842947192142,-0.1027315522123331,0.01506840997935852,0.0,0.01506840997935852
0.014,move_to_zero,-3.7967599374195644,-4.373913971400399,0.5771540339808348,-91.47915440099021,-91.69272778600339,0.21357338501317713,89.57728881053932,89.41464759248699,0.1626412180523289,54.6205768561576,54.787828652250404,-0.16725179609280616,0.016598054138093243,0.0,0.016598054138093243
0.016,move_to_zero,-3.640079937073585,-4.369513655533799,0.7294337184602142,-91.27328443720417,-91.6004815809873,0.32719714378313824,89.47393805251915,89.32469321865149,0.1492448338676553,54.48667659284097,54.7327101123588,-0.24603351951783026,0.017745969554322536,0.0,0.017745969554322536
0.018000000000000002,move_to_zero,-3.4702480628375065,-4.3651133396672,0.8948652768296936,-91.04700417051863,-91.5082353759712,0.46123120545256313,89.35947281776832,89.234738844816,0.12473397295232758,54.339226142712384,54.6775915724672,-0.3383654297548162,0.018409221701059866,0.0,0.018409221701059866
0.020000000000000004,move_to_zero,-3.288870449747472,-4.3607130238006,1.0718425740531283,-90.80163442288271,-91.4159891709551,0.6143547480723868,89.2343816800404,89.1447844709805,0.0895972090599031,54.17895459712799,54.6224730325756,-0.44351843544760783,0.018555452123547606,0.0,0.018555452123547606
0.022000000000000006,move_to_zero,-3.0975886848709835,-4.356312707934,1.2587240230630168,-90.5385140933384,-91.323742965939,0.785228872600598,89.09914581904246,89.05483009714499,0.044315721897476124,54.00655791696277,54.567354492684,-0.560796575721227,0.01823838090483527,0.0,0.01823838090483527
0.024000000000000007,move_to_zero,-2.8980273211341916,-4.351912392067399,1.4538850709332078,-90.25902131458028,-91.2314967609229,0.9724754463426137,88.95426514494166,88.96487572330949,-0.010610578367831636,53.82274691977252,54.5122359527924,-0.689489033019882,0.017535438964799314,0.0,0.017535438964799314
0.02600000000000001,move_to_zero,-2.691824101709285,-4.3475120762007995,1.6556879744915145,-89.96450785489913,-91.1392505559068,1.1747427010076734,88.80026771816937,88.874921349474,-0.07465363130462777,53.62820953369815,54.4571174129008,-0.828907879202653,0.016585034622751016,0.0,0.016585034622751016
0.02800000000000001,move_to_zero,-2.480576845520468,-4.3431117603341995,1.8625349148137316,-89.65635533415423,-91.0470043508907,1.3906490167364751,88.6376785417815,88.78496697563848,-0.14728843385698553,53.42363891196303,54.401998873009205,-0.9783599610461735,0.015532075830850407,0.0,0.015532075830850407
0.030000000000000013,move_to_zero,-2.265894973122482,-4.3387114444676,2.0728164713451176,-89.3359386574133,-90.9547581458746,1.6188194884613125,88.46702671883318,88.695012601803,-0.22798588296981848,53.20973224346291,54.3468803331176,-1.1371480896546942,0.014514551518771557,0.0,0.014514551518771557
0.032000000000000015,move_to_zero,-2.04932420601643,-4.334311128601,2.2849869225845696,-89.00463253015997,-90.8625119408585,1.85787941069853,88.28886653673155,88.60505822796749,-0.31619169123594304,52.987158083942376,54.291761793225994,-1.3046037092836187,0.013633011634634406,0.0,0.013633011634634406
0.034000000000000016,move_to_zero,-1.8323686539906334,-4.3299108127344,2.4975421587437663,-88.66381679020463,-90.7702657358424,2.1064489456377657,88.10371731933546,88.51510385413198,-0.4113865347965202,52.756573385746655,54.2366432533344,-1.4800698675877442,0.012888032610963964,0.0,0.012888032610963964
0.03600000000000002,move_to_zero,-1.6164498912260286,-4.3255104968678,2.7090606056417714,-88.31484311106276,-90.67801953082629,2.3631764197635334,87.91211709705708,88.4251494802965,-0.5130323832394197,52.518630522102775,54.1815247134428,-1.6628941913400226,0.012258766942992804,0.0,0.012258766942992804
0.03800000000000002,move_to_zero,-1.402962624409628,-4.3211101810012,2.9181475565915718,-87.95902010531552,-90.5857733258102,2.6267532204946775,87.71461751532897,88.33519510646099,-0.6205775911320188,52.273949593533416,54.1264061735512,-1.8524565800177868,0.011726134546778443,0.0,0.011726134546778443
0.04000000000000002,move_to_zero,-1.1932427419355625,-4.316709865134599,3.1234671231990365,-87.59763742417809,-90.4935271207941,2.8958896966160097,87.51174918162064,88.24524073262549,-0.7334915510048461,52.02317038694387,54.0712876336596,-2.0481172467157336,0.01127404857974404,0.0,0.01127404857974404
0.04200000000000002,move_to_zero,-0.9885414413261268,-4.312309549267999,3.323768107941872,-87.23195927253856,-90.401280915778,3.169321643239442,87.30402710602195,88.15528635879,-0.8512592527680454,51.766887672059,54.016169093768006,-2.249281421709007,0.010888867011413379,0.0,0.010888867011413379
0.044000000000000025,move_to_zero,-0.7900058534104604,-4.307909233401399,3.5179033799909387,-86.86324305506092,-90.3090347107619,3.4457916557009867,87.09199783247404,88.06533198495448,-0.9733341524804473,51.505685461621525,53.9610505538764,-2.4553650922548726,0.010559464016751726,0.0,0.010559464016751726
0.04600000000000003,move_to_zero,-0.5987298880575495,-4.3035089175348,3.7047790294772507,-86.49266548568563,-90.2167885057458,3.724123020060162,86.87620554504981,87.97537761111899,-1.0991720660691726,51.24014377217352,53.905932013984796,-2.6657882418112777,0.010274572885400044,0.0,0.010274572885400044
0.04800000000000003,move_to_zero,-0.41570634996347516,-4.2991086016682,3.883402251704725,-86.12136429130807,-90.1245423007297,4.003178009421632,86.65716064247351,87.88542323728349,-1.2282625948099763,50.970829233872564,53.8508134740932,-2.8799842402206366,0.010023819427870817,0.0,0.010023819427870817
0.05000000000000003,move_to_zero,-0.24521492412315646,-4.2947082858016,4.049493361678444,-85.75043268291697,-90.03229609571359,4.281863412796625,86.43536617033035,87.795468863448,-1.3601026931176392,50.69830480703158,53.7956949342016,-3.0973901271700157,0.009799314141322122,0.0,0.009799314141322122
0.05200000000000003,move_to_zero,-0.10711480560736104,-4.290307969935,4.183193164327639,-85.38094140986377,-89.9400498906975,4.5591084808337285,86.21131048957538,87.70551448961248,-1.4942040000371009,50.42308444842418,53.740576394310004,-3.317491945885827,0.009591911927697854,0.0,0.009591911927697854
0.054000000000000034,move_to_zero,-0.012065728491909613,-4.285907654068399,4.27384192557649,-85.01388107992656,-89.8478036856814,4.833922605754836,85.98546749101027,87.61556011577699,-1.6300926247667178,50.145666069229584,53.6854578544184,-3.539791785188818,0.009396268481151195,0.0,0.009396268481151195
0.056000000000000036,move_to_zero,0.03644693782428197,-4.281507338201799,4.317954276026081,-84.65022197147921,-89.7555574806653,5.105335509186091,85.75830558505444,87.52560574194149,-1.7673001568870461,49.86652708125045,53.6303393145268,-3.7638122332763473,0.009209500996310052,0.0,0.009209500996310052
0.05800000000000004,move_to_zero,0.0418411921857115,-4.2771070223351995,4.318948214520911,-84.29089389560605,-89.66331127564919,5.372417380043146,85.53029529876072,87.43565136810598,-1.9053560693452596,49.586150196439746,53.5752207746352,-3.9890705781954523,0.009028706544547927,0.0,0.009028706544547927
0.06000000000000004,move_to_zero,0.012493799520617261,-4.2727067064685995,4.285200505989216,-83.93674354368528,-89.5710650706331,5.634321526947815,85.30187825178723,87.3456969942705,-2.0438187424832677,49.305014917572834,53.5201022347436,-4.215087317170763,0.008852305257206872,0.0,0.008852305257206872
0.06200000000000004,move_to_zero,-0.040380546834514766,-4.268306390602,4.227925843767485,-83.58857528198243,-89.478818865617,5.890243583634572,85.07348456365027,87.25574262043499,-2.1822580567847183,49.02357626533478,53.464983694852,-4.44140742951722,0.008679436382306388,0.0,0.008679436382306388
0.06400000000000004,move_to_zero,-0.10479960928240803,-4.2639060747354,4.159106465452991,-83.24714148015805,-89.38657266060089,6.139431180442841,84.84552577671951,87.16578824659948,-2.320262469879964,48.742252677605215,53.4098651549604,-4.667612477355185,0.008510910832349372,0.0,0.008510910832349372
0.06600000000000004,move_to_zero,-0.1698641876366424,-4.2595057588688,4.089641571232157,-82.91313772477857,-89.29432645558481,6.381188730806244,84.61841062947396,87.075833872764,-2.4574232432900374,48.46147686621276,53.354746615068805,-4.893269748856042,0.008347120976975791,0.0,0.008347120976975791
0.06800000000000005,move_to_zero,-0.23501278783261614,-4.2551054430022,4.0200926551695835,-82.58722535601794,-89.2020802505687,6.61485489455076,84.3925263963879,86.98587949892848,-2.59335310254059,48.181650275875015,53.299628075177196,-5.1179777993021816,0.008186886896031097,0.0,0.008186886896031097
0.07000000000000005,move_to_zero,-0.2997058922582779,-4.250705127135599,3.950999234877321,-82.27000348896148,-89.1098340455526,6.839830556591124,84.16820908147054,86.89592512509299,-2.7277160436224506,47.90316280182199,53.2445095352856,-5.3413467334636096,0.008026267313609758,0.0,0.008026267313609758
0.07200000000000005,move_to_zero,-0.36343753182790856,-4.246304811268999,3.8828672794410903,-81.96201975282847,-89.01758784053649,7.055568087708025,83.94577237916782,86.80597075125749,-2.8601983720896698,47.62637754296255,53.189390995394,-5.5630134524314485,0.007863785160754548,0.0,0.007863785160754548
0.07400000000000005,move_to_zero,-0.42573961299587776,-4.241904495402399,3.8161648824065213,-81.66375271141573,-88.9253416355204,7.261588924104672,83.7255188349401,86.71601637742198,-2.990497542481876,47.35163198099128,53.1342724555024,-5.782640474511119,0.007696702739185951,0.0,0.007696702739185951
0.07600000000000005,move_to_zero,-0.4861655400845074,-4.2375041795358,3.7513386394512924,-81.37561382240514,-88.83309543050429,7.457481608099144,83.50775614136226,86.62606200358648,-3.1183058622242186,47.07923137584379,53.0791539156108,-5.999922539767013,0.007523399946137667,0.0,0.007523399946137667
0.07800000000000006,move_to_zero,-0.544318898522876,-4.2331038636692,3.688784965146324,-81.09795394285412,-88.74084922548819,7.642895282634072,83.29275573986625,86.53610762975099,-3.2433518898847353,46.80948518756855,53.0240353757192,-6.214550188150653,0.007344224497976841,0.0,0.007344224497976841
0.08000000000000006,move_to_zero,-0.5998414897004657,-4.2287035478026,3.6288620581021345,-80.8310595089833,-88.6486030204721,7.817543511488793,83.08077795827633,86.44615325591549,-3.3653752976391615,46.54267850464665,52.9689168358276,-6.426238331180947,0.0071567391739633295,0.0,0.0071567391739633295
0.08200000000000006,move_to_zero,-0.6523767352325752,-4.224303231936,3.571926496703425,-80.57517758111818,-88.556356815456,7.981179234337816,82.8720666983069,86.35619888207998,-3.4841321837730845,46.2790749879591,52.913798295936,-6.634723307976898,0.006963185251819232,0.0,0.006963185251819232
0.08400000000000006,move_to_zero,-0.7016443869324044,-4.219902916069399,3.518258529136995,-80.33050797709461,-88.4641106104399,8.13360263334529,82.66682335864745,86.26624450824448,-3.5994211495970347,46.018878354988196,52.858679756044396,-6.839801401056199,0.006759324078987681,0.0,0.006759324078987681
0.08600000000000006,move_to_zero,-0.7473654233607638,-4.215502600202799,3.4681371768420357,-80.09720812806417,-88.37186440542379,8.274656277359625,82.46524001258143,86.17629013440899,-3.7110501218275544,45.7623431999043,52.8035612161528,-7.0412180162485,0.006539648703100485,0.0,0.006539648703100485
0.08800000000000006,move_to_zero,-0.7892974761801965,-4.211102284336199,3.421804808156003,-79.87536877647807,-88.2796182004077,8.404249423929627,82.26751058011803,86.08633576057349,-3.8188251804554625,45.50969577872058,52.7484426762612,-7.238746897540622,0.006302875919726232,0.0,0.006302875919726232
0.09000000000000007,move_to_zero,-0.8272256432270416,-4.206701968469599,3.3794763252425577,-79.66504235319304,-88.18737199539159,8.522329642198542,82.07381496305484,85.996381386738,-3.9225664236831506,45.26111788538883,52.693324136369604,-7.4322062509807765,0.006044776215475642,0.0,0.006044776215475642
0.09200000000000007,move_to_zero,-0.86099685716736,-4.2023016526029995,3.3413047954356396,-79.46620007505469,-88.0951257903755,8.628925715320818,81.88431443263966,85.90642701290248,-4.022112580262828,45.016787218023175,52.638205596477995,-7.62141837845482,0.005779040050293694,0.0,0.005779040050293694
0.09400000000000007,move_to_zero,-0.8905106465080722,-4.1979013367363995,3.307390690228327,-79.27878935597762,-88.0028795853594,8.724090229381773,81.6991326539264,85.81647263906699,-4.117339985140589,44.77687608292305,52.5830870565864,-7.806210973663347,0.005488325472815584,0.0,0.005488325472815584
0.09600000000000007,move_to_zero,-0.9156648077952274,-4.1935010208698,3.277836213074572,-79.10270198095972,-87.9106333803433,8.807931399383577,81.51837877645714,85.72651826523149,-4.20813948877435,44.54153918789447,52.5279685166948,-7.986429328800327,0.005203331280612253,0.0,0.005203331280612253
0.09800000000000007,move_to_zero,-0.9363939271681906,-4.1891007050032,3.252706777835009,-78.93783479823223,-87.81838717532719,8.880552377094958,81.34216137371371,85.63656389139598,-4.294402517682272,44.31093064817035,52.4728499768032,-8.161919328632848,0.004930938335893164,0.0,0.004930938335893164
0.10000000000000007,move_to_zero,-0.9529300584257584,-4.184700389136599,3.2317703307108405,-78.78401301956758,-87.72614097031109,8.942127950743512,81.17054629374314,85.5466095175605,-4.376063223817354,44.0851720381495,52.4177314369116,-8.3325593987621,0.0046684412083950804,0.0,0.0046684412083950804
0.10200000000000008,move_to_zero,-0.9657158954242077,-4.180300073269999,3.2145841778457913,-78.64102907573577,-87.633894765295,8.992865689559224,81.00357872002448,85.45665514372499,-4.453076423700509,43.864364266240706,52.36261289702,-8.498248630779294,0.004415929957603969,0.0,0.004415929957603969
0.10400000000000008,move_to_zero,-0.9747411817918923,-4.1758997574034,3.2011585756115073,-78.50864535871212,-87.5416485602789,9.033003201566785,80.84128093617115,85.36670076988948,-4.525419833718331,43.64860405997489,52.3074943571284,-8.658890297153505,0.0041722433193052515,0.0,0.0041722433193052515
0.10600000000000008,move_to_zero,-0.9800259515788136,-4.1714994415368,3.1914734899579864,-78.3865913263056,-87.4494023552628,9.0628110289572,80.68367604171999,85.276746396054,-4.593070354334003,43.43795019923542,52.252375817236796,-8.81442561800138,0.003934595795151459,0.0,0.003934595795151459
0.10800000000000008,move_to_zero,-0.9815992839325829,-4.1670991256702,3.185499841737617,-78.2745762525372,-87.3571561502467,9.082579897709493,80.5307752132618,85.18679202221848,-4.656016808956679,43.23249628525317,52.1972572773452,-8.964760992092032,0.0037005680085046063,0.0,0.0037005680085046063
0.11000000000000008,move_to_zero,-0.9795243964453137,-4.1626988098036,3.1831744133582864,-78.1722685609613,-87.2649099452306,9.0926413842693,80.38255501078771,85.09683764838299,-4.714282637595275,43.03230685598036,52.1421387374536,-9.10983188147324,0.003471806782953053,0.0,0.003471806782953053
0.11200000000000009,move_to_zero,-0.9738925817388548,-4.158298493937,3.1844059121981454,-78.0793277784397,-87.17266374021449,9.093335961774784,80.23899731163912,85.00688327454749,-4.767885962908366,42.83740688634624,52.087020197562,-9.24961331121576,0.003244665207033503,0.0,0.003244665207033503
0.11400000000000009,move_to_zero,-0.9648257771125394,-4.153898178070399,3.1890724009578597,-77.99536148197105,-87.0804175351984,9.085056053227348,80.10008157124751,84.91692890071198,-4.816847329464466,42.64783126128791,52.031901657670396,-9.384070396382484,0.003018811787242232,0.0,0.003018811787242232
0.11600000000000009,move_to_zero,-0.95245462281912,-4.149497862203799,3.197043239384679,-77.91997863270993,-86.9881713301823,9.06819269747237,79.96573989077683,84.82697452687648,-4.861234636099653,42.463602888538944,51.976783117778794,-9.51318022923985,0.0027953972577191254,0.0,0.0027953972577191254
0.11800000000000009,move_to_zero,-0.9369377782964738,-4.145097546337199,3.2081597680407254,-77.85277485418248,-86.8959251251662,9.043150270983716,79.8359036148031,84.73702015304099,-4.901116538237886,42.28473644541988,51.9216645778872,-9.636928132467318,0.002572662608333253,0.0,0.002572662608333253
0.12000000000000009,move_to_zero,-0.9184317618352259,-4.140697230470599,3.2222654686353733,-77.79332219859407,-86.80367892015009,9.010356721556022,79.71049823236098,84.64706577920549,-4.936567546844515,42.111233681479106,51.8665460379956,-9.755312356516491,0.0023493916381954138,0.0,0.0023493916381954138
0.1220000000000001,move_to_zero,-0.8970854247323777,-4.136296914603999,3.2392114898716216,-77.74116599409281,-86.711432715134,8.970266721041185,79.58944052296692,84.55711140536998,-4.9676708824030555,41.94305684466439,51.811427498104,-9.868370653439612,0.0021223643399977225,0.0,0.0021223643399977225
0.1240000000000001,move_to_zero,-0.8731077172512658,-4.1318965987373995,3.258788881486134,-77.69583843436794,-86.6191865101179,8.923348075749956,79.47264376537535,84.46715703153448,-4.994513266159132,41.78018213969884,51.7563089582124,-9.976126818513563,0.0018567414507052711,0.0,0.0018567414507052711
0.12600000000000008,move_to_zero,-0.8467070960913902,-4.1274962828707995,3.2807891867794092,-77.65686840935756,-86.52694030510179,8.870071895744232,79.36003103365012,84.37720265769899,-5.017171624048871,41.6225807872073,51.70119041832079,-10.078609631113494,0.0015456453398180689,0.0,0.0015456453398180689
0.12800000000000009,move_to_zero,-0.8180918224548768,-4.1230959670042,3.305004144549323,-77.62378629951058,-86.4346941000857,8.810907800575109,79.25147442492596,84.28724828386348,-5.035773858937517,41.470216716372164,51.6460718784292,-10.175855162057033,0.0011843713507631891,0.0,0.0011843713507631891
0.1300000000000001,move_to_zero,-0.7874616008945304,-4.118695651137599,3.331234050243068,-77.59610067989674,-86.3424478950696,8.746347215172861,79.14684570195563,84.197293910028,-5.050448208072368,41.32305014045888,51.590953338537595,-10.267903198078713,0.0007922270822507832,0.0,0.0007922270822507832
0.1320000000000001,move_to_zero,-0.7550421369819139,-4.114295335270999,3.359253198289085,-77.57335151242542,-86.2502016900535,8.676850177628083,79.04600041030686,84.10733953619248,-5.061339125885624,41.181038576044244,51.535834798646,-10.354796222601756,0.0003874410404194407,0.0,0.0003874410404194407
0.1340000000000001,move_to_zero,-0.7210439314999282,-4.1098950194044,3.3888510879044715,-77.55508404801489,-86.15795548503739,8.6028714370225,78.94879788190319,84.01738516235697,-5.068587280453784,41.044121309458724,51.4807162587544,-10.436594949295674,-5.02363675792661e-06,0.0,-5.02363675792661e-06
0.1360000000000001,move_to_zero,-0.6856803021155106,-4.1054947035378,3.4198144014222893,-77.54049740034864,-86.0657092800213,8.525211879672653,78.85506121945558,83.92743078852149,-5.072369569065913,40.91220592164343,51.425597718862804,-10.513391797219377,-0.00036339775889100256,0.0,-0.00036339775889100256
0.1380000000000001,move_to_zero,-0.6492070856966979,-4.1010943876712,3.451887301974502,-77.52886657125606,-85.97346307500518,8.444596503749125,78.76463601166577,83.83747641468598,-5.0728404030202086,40.78522842814525,51.370479178971195,-10.585250750825942,-0.0006942924092218473,0.0,-0.0006942924092218473
0.1400000000000001,move_to_zero,-0.6118669550537283,-4.0966940718046,3.4848271167508713,-77.51960218691397,-85.88121686998909,8.361614683075118,78.67736454825607,83.74752204085048,-5.070157492594419,40.66312504090442,51.31536063907959,-10.652235598175174,-0.0010038710071947564,0.0,-0.0010038710071947564
0.1420000000000001,move_to_zero,-0.5739068872666854,-4.092293755938,3.5183868686713144,-77.51222941320927,-85.788970664973,8.276741251763724,78.59311152296262,83.65756766701499,-5.064456144052372,40.54578333643882,51.260242099188,-10.714458762749182,-0.0012943980685362314,0.0,-0.0012943980685362314
0.1440000000000001,move_to_zero,-0.5355598274067379,-4.087893440071399,3.552333612664661,-77.50636318263913,-85.6967244599569,8.190361277317763,78.51172582440087,83.56761329317948,-5.055887468778607,40.43310770326517,51.205123559296396,-10.772015856031224,-0.0015705719804885636,0.0,-0.0015705719804885636
0.1460000000000001,move_to_zero,-0.4970421568810032,-4.083493124204799,3.586450967323796,-77.5016916995419,-85.6044782549408,8.102786555398907,78.43304905853965,83.47765891934398,-5.044609860804329,40.32499954419379,51.1500050194048,-10.825005475211015,-0.0018341098813203808,0.0,-0.0018341098813203808
0.1480000000000001,move_to_zero,-0.4585589963455781,-4.079092808338199,3.620533811992621,-77.49796169294503,-85.51223204992469,8.014270356979665,78.3569284666169,83.38770454550848,-5.030776078891577,40.221369778743615,51.0948864795132,-10.873516700769585,-0.0020887373031386993,0.0,-0.0020887373031386993
0.1500000000000001,move_to_zero,-0.4203186142635039,-4.074692492471599,3.6543738782080952,-77.49496663818702,-85.4199858449086,7.925019206721572,78.28322390631064,83.29775017167299,-5.014526265362349,40.12209989197301,51.0397679396216,-10.91766804764859,-0.0023358118913061284,0.0,-0.0023358118913061284
0.1520000000000001,move_to_zero,-0.3825004309108823,-4.070292176604999,3.687791745694117,-77.49253949042345,-85.32773963989249,7.835200149469031,78.21178524071092,83.20779579783748,-4.996010557126553,40.027079026892714,50.984649399729996,-10.957570372837282,-0.0025773511477846815,0.0,-0.0025773511477846815
0.1540000000000001,move_to_zero,-0.34529579794479554,-4.065891860738399,3.7205960627936037,-77.49032163668328,-85.23549343487639,7.7451717981931125,78.1424376655779,83.11784142400198,-4.975403758424079,39.936199790993996,50.929530859838394,-10.993331068844398,-0.0028297008423881866,0.0,-0.0028297008423881866
0.1560000000000001,move_to_zero,-0.30887293324388354,-4.061491544871799,3.752618611627916,-77.48791848025435,-85.1432472298603,7.655328749605943,78.07500775951554,83.02788705016648,-4.952879290650941,39.84932327031871,50.8744123199468,-11.025089049628086,-0.0031066681834153466,0.0,-0.0031066681834153466
0.1580000000000001,move_to_zero,-0.27338237691473355,-4.0570912290051995,3.783708852090466,-77.48498023819772,-85.0510010248442,7.566020786646476,78.00933452422757,82.93793267633099,-4.928598152103419,39.766333629331235,50.8192937800552,-11.052960150723962,-0.003415545907136397,0.0,-0.003415545907136397
0.16000000000000011,move_to_zero,-0.23898179290578672,-4.052690913138599,3.813709120232812,-77.48117744830766,-84.95875481982809,7.477577371520425,77.94524416853952,82.84797830249549,-4.902734133955974,39.687132426665215,50.7641752401636,-11.077042813498387,-0.003750677652318585,0.0,-0.003750677652318585
0.16200000000000012,move_to_zero,-0.2058466135931459,-4.048290597272,3.8424439836788538,-77.47617904861333,-84.86650861481199,7.390329566198659,77.88258752220494,82.75802392865998,-4.875436406455037,39.61161604706295,50.709056700271994,-11.097440653209041,-0.004115207876618404,0.0,-0.004115207876618404
0.16400000000000012,move_to_zero,-0.17797107708766538,-4.0438902814054,3.865919204317734,-77.46969017812056,-84.7742624097959,7.304572231675337,77.82122709586126,82.66806955482448,-4.8468424589632235,39.539658373908615,50.6539381603804,-11.114279786471783,-0.004513608674822964,0.0,-0.004513608674822964
0.16600000000000012,move_to_zero,-0.1571016449724136,-4.0394899655388,3.882388320566386,-77.46139147347291,-84.68201620477979,7.22062473130687,77.76098164009052,82.57811518098899,-4.8171335408984675,39.471130763193635,50.5988196204888,-11.127688857295162,-0.004941869960404595,0.0,-0.004941869960404595
0.16800000000000012,move_to_zero,-0.14446084520474028,-4.0350896496722,3.8906288044674593,-77.45100837316748,-84.5897699997637,7.138761626596221,77.70169429895213,82.48816080715348,-4.786466508201343,39.40587985709178,50.543701080597195,-11.137821223505412,-0.005353293266689156,0.0,-0.005353293266689156
0.17000000000000012,move_to_zero,-0.13994260749094797,-4.0306893338056,3.890746726314652,-77.43829401567427,-84.4975237947476,7.05922977907332,77.64320812366945,82.398206433318,-4.754998309648542,39.34376231187005,50.4885825407056,-11.144820228835549,-0.005733706201060413,0.0,-0.005733706201060413
0.17200000000000013,move_to_zero,-0.1424044692159685,-4.026289017939,3.8838845487230316,-77.42302654716946,-84.4052775897315,6.982251042562041,77.58539369490974,82.30825205948248,-4.722858364572744,39.284638812581214,50.433464000814,-11.148825188232784,-0.00607925418768885,0.0,-0.00607925418768885
0.17400000000000013,move_to_zero,-0.1500338876668495,-4.021888702072399,3.8718548144055496,-77.40499761038672,-84.31303138471539,6.908033774328672,77.5281256361655,82.21829768564697,-4.690172049481475,39.22836137935675,50.3783454609224,-11.149984081565648,-0.00639707757697306,0.0,-0.00639707757697306
0.17600000000000013,move_to_zero,-0.16073318484628082,-4.017488386205799,3.856755201359518,-77.38399831984502,-84.22078517969929,6.836786859854271,77.47127972235927,82.12834331181149,-4.657063589452221,39.17479512711356,50.323226921030795,-11.148431793917233,-0.006692319100846074,0.0,-0.006692319100846074
0.17800000000000013,move_to_zero,-0.1724361073332739,-4.013088070339199,3.840651963005925,-77.359850868926,-84.12853897468318,6.768688105757178,77.41473139582982,82.03838893797598,-4.623657542146162,39.12380558751036,50.2681083811392,-11.144302793628839,-0.006969101091386221,0.0,-0.006969101091386221
0.18000000000000013,move_to_zero,-0.1833564918806791,-4.008687754472599,3.82533126259192,-77.33241176902978,-84.0362927696671,6.703881000637324,77.35836143364894,81.94843456414048,-4.590073130491547,39.07525077427574,50.2129898412476,-11.13773906697186,-0.007234209008070926,0.0,-0.007234209008070926
0.18200000000000013,move_to_zero,-0.19291450840839514,-4.004287438605999,3.8113729301976043,-77.30153803655087,-83.944046564651,6.642508528100137,77.30205578357966,81.85848019030499,-4.556424406725327,39.02898699029097,50.157871301355996,-11.128884311065029,-0.007495532953631002,0.0,-0.007495532953631002
0.18400000000000014,move_to_zero,-0.20104286974393648,-3.9998871227393993,3.7988442529954627,-77.26710084722495,-83.8518003596349,6.584699512409941,77.24569442942925,81.76852581646948,-4.5228313870402275,38.98488124447801,50.1027527614644,-11.11787151698639,-0.007753344843787081,0.0,-0.007753344843787081
0.18600000000000014,move_to_zero,-0.20768493598977597,-3.995486806872799,3.787801870883023,-77.2289831795598,-83.7595541546188,6.530570975058993,77.18915630454897,81.67857144263398,-4.489415138085008,38.942805143011064,50.04763422157279,-11.104829078561728,-0.008006772808840905,0.0,-0.008006772808840905
0.18800000000000014,move_to_zero,-0.21299298348378293,-3.991086491006199,3.7780935075224162,-77.1871056133947,-83.66730794960269,6.480202336207981,77.13234471985177,81.58861706879848,-4.456272348946712,38.9026329404175,49.9925156816812,-11.0898827412637,-0.008254300450890935,0.0,-0.008254300450890935
0.19000000000000014,move_to_zero,-0.2172154415107859,-3.986686175139599,3.769470733628813,-77.14139101462642,-83.57506174458659,6.43367072996017,77.07518401897975,81.49866269496299,-4.423478675983233,38.86424391983513,49.937397141789596,-11.073153221954463,-0.00849716327436345,0.0,-0.00849716327436345
0.19200000000000014,move_to_zero,-0.22054124231521777,-3.9822858592729995,3.761744616957782,-77.09178549252232,-83.48281553957048,6.391030047048162,77.01755837928178,81.40870832112748,-4.391149941845697,38.82751249540332,49.882278601897994,-11.054766106494675,-0.008763699349461458,0.0,-0.008763699349461458
0.19400000000000014,move_to_zero,-0.22292956703510483,-3.9778855434063995,3.7549559763712947,-77.03823485408172,-83.3905693345544,6.352334480472678,76.95938373699559,81.31875394729198,-4.35937021029639,38.79231077710386,49.8271600620064,-11.034849284902542,-0.009021968067883895,0.0,-0.009021968067883895
0.19600000000000015,move_to_zero,-0.22434012907876755,-3.9734852275397996,3.749145098461032,-76.98072274531418,-83.29832312953829,6.317600384224107,76.90057289054563,81.22879957345648,-4.328226682910852,38.7584995213491,49.7720415221148,-11.013542000765696,-0.009273025331103841,0.0,-0.009273025331103841
0.19800000000000015,move_to_zero,-0.22473788559147553,-3.9690849116731997,3.744347026081724,-76.91923207614178,-83.2060769245222,6.286844848380412,76.84104830334671,81.13884519962097,-4.297796896274264,38.7259510625194,49.716922982223196,-10.990971919703796,-0.009517503787045937,0.0,-0.009517503787045937
0.20000000000000015,move_to_zero,-0.2240826532062738,-3.9646845958065993,3.7406019426003256,-76.85377127104881,-83.1138307195061,6.260059448457284,76.78074396962177,81.04889082578549,-4.268146856163725,38.69454634690844,49.661804442331594,-10.967258095423155,-0.009765057879967544,0.0,-0.009765057879967544
0.20200000000000015,move_to_zero,-0.2223499801933985,-3.9602842799399993,3.737934299746601,-76.78437045236124,-83.02158451448999,6.237214062128743,76.71960904052955,80.95893645194998,-4.239327411420433,38.664137068455176,49.60668590244,-10.942548833984823,-0.010023931690077526,0.0,-0.010023931690077526
0.20400000000000015,move_to_zero,-0.2195439419380364,-3.9558839640733994,3.736340022135363,-76.71110540425843,-82.92933830947389,6.218232905215459,76.65758945281586,80.86898207811447,-4.211392625298615,38.63461951849663,49.5515673625484,-10.91694784405177,-0.010287269780822155,0.0,-0.010287269780822155
0.20600000000000016,move_to_zero,-0.21566394194090502,-3.9514836482067994,3.7358197062658944,-76.63401787293954,-82.8370921044578,6.203074231518258,76.59460328475639,80.77902770427899,-4.1844244195226,38.60587778757698,49.496448822656795,-10.890571035079816,-0.010546609315651986,0.0,-0.010546609315651986
0.20800000000000016,move_to_zero,-0.2106928041971686,-3.947083332340199,3.7363905281430303,-76.55316150027781,-82.7448458994417,6.19168439916389,76.53061221190492,80.68907333044348,-4.158461118538554,38.577802463216216,49.4413302827652,-10.863527819548985,-0.01079827663640584,0.0,-0.01079827663640584
0.21000000000000016,move_to_zero,-0.2046460363441307,-3.942683016473599,3.7380369801294684,-76.46860773576455,-82.65259969442559,6.183991958661039,76.46560356899651,80.59911895660798,-4.133515387611467,38.55027863778099,49.38621174287359,-10.8359331050926,-0.01104418136484353,0.0,-0.01104418136484353
0.21200000000000016,move_to_zero,-0.19752664369389927,-3.938282700606999,3.7407560569130998,-76.38045232892567,-82.5603534894095,6.179901160483823,76.39956394426969,80.50916458277248,-4.109600638502798,38.52318337712055,49.331093202982,-10.807909825861444,-0.011289005451097017,0.0,-0.011289005451097017
0.21400000000000016,move_to_zero,-0.18990458742628144,-3.933882384740399,3.743977797314118,-76.28878224982847,-82.46810728439338,6.179325034564911,76.332444867191,80.41921020893697,-4.0867653417459735,38.49640050834506,49.275974663090395,-10.779574154745333,-0.011532265829239554,0.0,-0.011532265829239554
0.21600000000000016,move_to_zero,-0.1828326026532446,-3.929482068873799,3.7466494662205543,-76.19369762467261,-82.37586107937729,6.182163454704678,76.2642263377896,80.32925583510148,-4.065029497311883,38.46983699862284,49.2208561231988,-10.751019124575961,-0.011787345323766364,0.0,-0.011787345323766364
0.21800000000000017,move_to_zero,-0.17705837789572565,-3.925081753007199,3.7480233751114733,-76.09530563981335,-82.28361487436119,6.1883092345478445,76.19487616504517,80.23930146126598,-4.044425296220808,38.44338394054521,49.1657375833072,-10.722353642761988,-0.0120516409160907,0.0,-0.0120516409160907
0.22000000000000017,move_to_zero,-0.17246783160588716,-3.9206814371406,3.748213605534713,-75.99373550062795,-82.1913686693451,6.197633168717147,76.12436707997168,80.14934708743048,-4.024980007458808,38.416951355976416,49.110619043415596,-10.69366768743918,-0.012328783120504385,0.0,-0.012328783120504385
0.22200000000000017,move_to_zero,-0.16914680005167135,-3.9162811212739994,3.7471343212223283,-75.88911475713,-82.099122464329,6.210007707198997,76.05267936605662,80.05939271359497,-4.006713347538351,38.39044423003278,49.055500503523994,-10.665056273491217,-0.012595769700695446,0.0,-0.012595769700695446
0.22400000000000017,move_to_zero,-0.16717902011080943,-3.9118808054073995,3.74470178529659,-75.78159203488725,-82.00687625931289,6.225284224425636,75.97980718922524,79.96943833975948,-3.989631150534237,38.36380071015906,49.00038196363239,-10.63658125347333,-0.012857074702305253,0.0,-0.012857074702305253
0.22600000000000017,move_to_zero,-0.16648266497677663,-3.9074804895407995,3.740997824564023,-75.67131410947765,-81.9146300542968,6.243315944819145,75.90573768840733,79.87948396592398,-3.9737462775166534,38.33691408961012,48.9452634237408,-10.60834933413068,-0.013136919954278443,0.0,-0.013136919954278443
0.22800000000000017,move_to_zero,-0.16684045734749486,-3.9030801736741996,3.736239716326705,-75.55844368108755,-81.82238384928068,6.26394016819313,75.83047340274102,79.78952959208848,-3.9590561893474643,38.30971601336106,48.890144883849196,-10.580428870488134,-0.013433788198613987,0.0,-0.013433788198613987
0.23000000000000018,move_to_zero,-0.16794515078222463,-3.898679857807599,3.7307347070253747,-75.44314944743871,-81.73013764426459,6.286988196825874,75.7540044761826,79.69957521825299,-3.9455707420703874,38.282150172716236,48.8350263439576,-10.552876171241365,-0.013739067907514608,0.0,-0.013739067907514608
0.23200000000000018,move_to_zero,-0.1694484244903516,-3.8942795419409992,3.7248311174506474,-75.32560248334211,-81.63789143924849,6.312288955906382,75.67634837888959,79.60962084441748,-3.9332724655278923,38.25412000322394,48.77990780406599,-10.525787800842053,-0.014060485467372413,0.0,-0.014060485467372413
0.23400000000000018,move_to_zero,-0.17098153390232818,-3.8898792260743993,3.718897692172071,-75.20595939924033,-81.5456452342324,6.339685834992068,75.5975114304948,79.51966647058198,-3.9221550400871763,38.22556898437189,48.72478926417439,-10.4992202798025,-0.014361406791468932,0.0,-0.014361406791468932
0.23600000000000018,move_to_zero,-0.17228839370966373,-3.8854789102077993,3.713190516498136,-75.08437629820394,-81.45339902921629,6.36902273101235,75.517510031015,79.42971209674648,-3.912202065731492,38.19644226152612,48.669670724282796,-10.473228462756673,-0.014646254502158656,0.0,-0.014646254502158656
0.23800000000000018,move_to_zero,-0.1733451762640287,-3.881078594341199,3.7077334180771704,-74.96101956389211,-81.36115282420019,6.400133260308081,75.43636837881186,79.33975772291097,-3.9033893440991108,38.16664707181158,48.614552184391194,-10.447905112579612,-0.014917000632663418,0.0,-0.014917000632663418
0.24000000000000019,move_to_zero,-0.1741877895901058,-3.876678278474599,3.7024904888844934,-74.83605366859665,-81.2689066191841,6.432852950587446,75.35409933828618,79.24980334907549,-3.8957040107893164,38.13610165770804,48.5594336444996,-10.42333198679156,-0.01517583419148982,0.0,-0.01517583419148982
0.2420000000000002,move_to_zero,-0.17484772936717471,-3.872277962607999,3.697430233240824,-74.70966154652663,-81.17666041416798,6.466998867641351,75.2707201066747,79.15984897523998,-3.8891288685652796,38.10472003133224,48.504315104608,-10.399595073275755,-0.015423334790724703,0.0,-0.015423334790724703
0.2440000000000002,move_to_zero,-0.17535037103784246,-3.867877646741399,3.6925272757035565,-74.58198887441846,-81.08441420915189,6.502425334733431,75.18625088383509,79.06989460140447,-3.8836437175693845,38.07242783089185,48.449196564716395,-10.376768733824548,-0.015663406898858357,0.0,-0.015663406898858357
0.2460000000000002,move_to_zero,-0.17568956719862786,-3.8634773308747987,3.687787763676171,-74.45320663544373,-80.99216800413579,6.538961368692057,75.10068893883566,78.97994022756899,-3.879251288733329,38.03919037371768,48.39407802482479,-10.354887651107113,-0.01590019254350554,0.0,-0.01590019254350554
0.2480000000000002,move_to_zero,-0.17580083105309052,-3.8590770150081988,3.6832761839551083,-74.32349162720351,-80.8999217991197,6.576430171916186,75.01405956176112,78.88998585373348,-3.8759262919723625,38.00496097102207,48.33895948493319,-10.33399851391112,-0.01614569626488824,0.0,-0.01614569626488824
0.25000000000000017,move_to_zero,-0.17566131119941708,-3.8546766991415997,3.6790153879421825,-74.19299017120878,-80.80767559410359,6.614685422894809,74.92641082926566,78.80003147989798,-3.8736206506323185,37.96972219032814,48.2838409450416,-10.314118754713455,-0.016388447641842212,0.0,-0.016388447641842212
0.25200000000000017,move_to_zero,-0.17526488517202407,-3.8502763832749993,3.6750114981029753,-74.06187053847147,-80.71542938908749,6.653558850616022,74.8377696098794,78.71007710606249,-3.8723074961830832,37.93343699707528,48.228722405149995,-10.295285408074712,-0.01662953227565359,0.0,-0.01662953227565359
0.25400000000000017,move_to_zero,-0.17466143407654924,-3.8458760674083994,3.67121463333185,-73.93031234707827,-80.62318318407138,6.692870836993109,74.74815908659112,78.62012273222697,-3.8719636456358586,37.8961111859334,48.1736038652584,-10.277492679325,-0.01687254825110358,0.0,-0.01687254825110358
0.25600000000000017,move_to_zero,-0.1739089608560702,-3.8414757515417994,3.667566790685729,-73.79846317883317,-80.53093697905528,6.73247380022211,74.65759467957622,78.53016835839148,-3.8725736788152574,37.85771424876264,48.11848532536679,-10.26077107660415,-0.01711107466564424,0.0,-0.01711107466564424
0.2580000000000002,move_to_zero,-0.17307880222387742,-3.8370754356751995,3.663996633451322,-73.66645522536642,-80.43869077403919,6.772235548672768,74.56609752024782,78.44021398455598,-3.874116464308159,37.81822248392531,48.063366785475196,-10.245144301549885,-0.017350117318439273,0.0,-0.017350117318439273
0.2600000000000002,move_to_zero,-0.17226674533150854,-3.832675119808599,3.6604083744770906,-73.53444871516444,-80.34644456902309,6.811995853858647,74.47369397699131,78.35025961072049,-3.8765656337291716,37.777624411042446,48.008248245583594,-10.230623834541149,-0.01758580259671791,0.0,-0.01758580259671791
0.2620000000000002,move_to_zero,-0.1715413619122715,-3.828274803941999,3.6567334420297275,-73.40257782379405,-80.254198364007,6.851620540212949,74.3804137955622,78.26030523688497,-3.879891441322769,37.735890080896816,47.95312970569199,-10.217239624795177,-0.01781823344228455,0.0,-0.01781823344228455
0.2640000000000002,move_to_zero,-0.17093502398560667,-3.823874488075399,3.6529394640897923,-73.27098608454311,-80.16195215899089,6.890966074447775,74.28627380351442,78.17035086304948,-3.884077059535059,37.692994549944025,47.8980111658004,-10.205016615856373,-0.018047788651568013,0.0,-0.018047788651568013
0.2660000000000002,move_to_zero,-0.17042370197589765,-3.8194741722087993,3.6490504702329014,-73.13980847390656,-80.06970595397479,6.9298974800682345,74.19129144047659,78.08039648921398,-3.8891050487373917,37.648914349752026,47.842892625908796,-10.19397827615677,-0.018281516320451656,0.0,-0.018281516320451656
0.2680000000000002,move_to_zero,-0.16998854918639,-3.815073856342199,3.6450853071558087,-73.00917994137141,-79.97745974895868,6.968279807587265,74.09547891335257,77.99044211537847,-3.894963202025906,37.60365162695975,47.787774086017194,-10.184122459057441,-0.018522553990448228,0.0,-0.018522553990448228
0.2700000000000002,move_to_zero,-0.169614167197832,-3.810673540475599,3.6410593732777667,-72.87921307742026,-79.8852135439426,7.006000466522337,73.99887269786728,77.90048774154299,-3.9016150436757044,37.557216336368086,47.73265554612559,-10.175439209757506,-0.01876385149124462,0.0,-0.01876385149124462
0.2720000000000002,move_to_zero,-0.1692873933431138,-3.806273224608999,3.636985831265885,-72.7500429424348,-79.79296733892649,7.042924396491685,73.90151079059177,77.81053336770748,-3.9090225771157066,37.509598211593406,47.677537006234,-10.167938794640591,-0.01900324931772891,0.0,-0.01900324931772891
0.2740000000000002,move_to_zero,-0.1689789037736866,-3.801872908742399,3.6328940049687124,-72.62177284431499,-79.70072113391039,7.078948289595402,73.8034175521809,77.72057899387197,-3.9171614416910643,37.46076802796321,47.622418466342396,-10.161650438379183,-0.019246817742454625,0.0,-0.019246817742454625
0.2760000000000002,move_to_zero,-0.1686815778280516,-3.7974725928757986,3.628791015047747,-72.49450076597961,-79.60847492889428,7.113974162914673,73.7046228054031,77.63062462003649,-3.9260018146333806,37.41073377637779,47.567299926450794,-10.156566150073004,-0.01950545046694451,0.0,-0.01950545046694451
0.2780000000000002,move_to_zero,-0.16836483617372133,-3.7930722770091996,3.6247074408354782,-72.3682817433896,-79.51622872387819,7.147946980488584,73.60514996000569,77.54067024620097,-3.9355202861952847,37.35948937480677,47.5121813865592,-10.152692011752428,-0.019787016383834937,0.0,-0.019787016383834937
0.2800000000000002,move_to_zero,-0.16803666436116987,-3.7886719611425996,3.6206352967814297,-72.24320962994244,-79.42398251886209,7.180772888919648,73.50503908790525,77.45071587236548,-3.9456767844602325,37.307023541563,47.45706284666759,-10.150039305104592,-0.02009610573802532,0.0,-0.02009610573802532
0.2820000000000002,move_to_zero,-0.16771812949552845,-3.7842716452759992,3.616553515780471,-72.11938415507801,-79.331736313846,7.212352158767985,73.40432514179889,77.36076149852998,-3.956436356731089,37.25334548550294,47.401944306775995,-10.148598821273055,-0.020420252577138358,0.0,-0.020420252577138358
0.2840000000000002,move_to_zero,-0.16740199117353022,-3.7798713294093993,3.612469338235869,-71.99686611327974,-79.2394901088299,7.2426239955501615,73.30305224269568,77.27080712469449,-3.9677548819988004,37.19846119964693,47.34682576688439,-10.148364567237465,-0.020758462867037343,0.0,-0.020758462867037343
0.2860000000000002,move_to_zero,-0.16708384471929136,-3.7754710135427993,3.608387168823508,-71.87573612223629,-79.14724390381379,7.2715077815774976,73.20124784830628,77.18085275085897,-3.979604902552694,37.14240365169621,47.29170722699279,-10.149303575296578,-0.0210905764615338,0.0,-0.0210905764615338
0.2880000000000002,move_to_zero,-0.16675922136662377,-3.7710706976761994,3.604311476309576,-71.75603663721522,-79.05499769879769,7.2989610615824745,73.09894059348694,77.09089837702348,-3.9919577835365345,37.085181256802706,47.2365886871012,-10.151407430298491,-0.02139748755776925,0.0,-0.02139748755776925
0.2900000000000002,move_to_zero,-0.16642584088509177,-3.766670381809599,3.6002445409245074,-71.63781956813435,-78.96275149378158,7.324931925647235,72.99617031564586,77.00094400318798,-4.0047736875421265,37.026824451871576,47.181470147209595,-10.154645695338019,-0.02168419750459297,0.0,-0.02168419750459297
0.2920000000000002,move_to_zero,-0.16608006677067086,-3.762270065942999,3.5961899991723283,-71.52112788966986,-78.87050528876549,7.34937739909563,72.89297307769647,76.91098962935247,-4.018016551656004,36.96736618417419,47.12635160731799,-10.158985423143804,-0.02195369113180498,0.0,-0.02195369113180498
0.2940000000000002,move_to_zero,-0.16573216477543634,-3.757869750076399,3.592137585300963,-71.40598764542302,-78.77825908374939,7.372271438326365,72.78940823987821,76.82103525551699,-4.031627015638776,36.90682966970269,47.07123306742639,-10.164403397723703,-0.022208671152296352,0.0,-0.022208671152296352
0.2960000000000002,move_to_zero,-0.1653505352369856,-3.753469434209799,3.5881188989728137,-71.29244094791395,-78.6860128787333,7.393571930819348,72.685508344144,76.73108088168148,-4.045572537537481,36.84523704891958,47.016114527534796,-10.170877478615218,-0.022450709371753877,0.0,-0.022450709371753877
0.2980000000000002,move_to_zero,-0.1649353108486335,-3.749069118343199,3.5841338074945654,-71.18051338078253,-78.59376667371718,7.413253292934655,72.58130756385658,76.64112650784598,-4.059818943989399,36.78260207203119,46.960995987643194,-10.178393915612006,-0.02268416688636633,0.0,-0.02268416688636633
0.3000000000000002,move_to_zero,-0.16448321501186428,-3.744668802476599,3.5801855874647344,-71.0702332545126,-78.50152046870109,7.431287214188487,72.47683459020365,76.55117213401049,-4.074337543806834,36.71895252132667,46.90587744775159,-10.186924926424922,-0.022912491604407545,0.0,-0.022912491604407545
0.3020000000000002,move_to_zero,-0.16402354171957842,-3.740268486609999,3.5762449448904206,-70.96159563560097,-78.40927426368499,7.44767862808402,72.37214504677864,76.46121776017497,-4.089072713396334,36.65433442443356,46.85075890786,-10.19642448342644,-0.02313715168422684,0.0,-0.02313715168422684
0.3040000000000002,move_to_zero,-0.16356429159992492,-3.735868170743399,3.5723038791434742,-70.85460244173889,-78.31702805866888,7.462425616929991,72.26728724594562,76.37126338633948,-4.103976140393854,36.58874410720214,46.79564036796839,-10.20689626076625,-0.023357364380170973,0.0,-0.023357364380170973
0.3060000000000002,move_to_zero,-0.16309412958847877,-3.7314678548767994,3.5683737252883208,-70.7492461890712,-78.22478185365279,7.475535664581585,72.16227836158777,76.28130901250398,-4.119030650916216,36.522206249473506,46.740521828076794,-10.218315578603288,-0.023573061566817564,0.0,-0.023573061566817564
0.3080000000000002,move_to_zero,-0.16261854023600258,-3.7270675390101995,3.5644489987741967,-70.64552223013594,-78.13253564863669,7.4870134185007515,72.05711697289803,76.19135463866847,-4.134237665770442,36.45475725479502,46.68540328818519,-10.230646033390173,-0.02378430576035522,0.0,-0.02378430576035522
0.3100000000000002,move_to_zero,-0.16214867601888105,-3.7226672231435995,3.5605185471247185,-70.54339981131466,-78.0402894436206,7.496889632305937,71.95182201278222,76.10140026483299,-4.149578252050773,36.38640728448977,46.6302847482936,-10.243877463803827,-0.023992583744744278,0.0,-0.023992583744744278
0.3120000000000002,move_to_zero,-0.16171305835797703,-3.718266907276999,3.5565538489190223,-70.44284117639724,-77.94804323860448,7.505202062207246,71.84640946326039,76.01144589099748,-4.165036427737093,36.317162041397985,46.575166208401996,-10.25800416700401,-0.024196851890906992,0.0,-0.024196851890906992
0.3140000000000002,move_to_zero,-0.16132878598454217,-3.713866591410399,3.552537805425857,-70.34382907931956,-77.85579703358839,7.511967954268826,71.74091387318632,75.92149151716198,-4.180577643975667,36.247062658550774,46.520047668510394,-10.27298500995962,-0.024398958559486376,0.0,-0.024398958559486376
0.3160000000000002,move_to_zero,-0.16097503750662662,-3.7094662755437993,3.5484912380371725,-70.24634422687546,-77.76355082857228,7.517206601696813,71.63536254062363,75.83153714332649,-4.196174602702854,36.17613227278871,46.46492912861879,-10.288796855830078,-0.024600548276154655,0.0,-0.024600548276154655
0.3180000000000002,move_to_zero,-0.1606405659223846,-3.7050659596771993,3.544425393754815,-70.15035171205959,-77.67130462355618,7.520952911496593,71.5297694705127,75.74158276949098,-4.211813298978271,36.10438936110669,46.40981058872719,-10.3054212276205,-0.024800351159226994,0.0,-0.024800351159226994
0.32000000000000023,move_to_zero,-0.16030280173962094,-3.700665643810599,3.540362842070978,-70.05579844402178,-77.57905841854009,7.523259974518311,71.42415826223221,75.65162839565548,-4.227470133423267,36.03189269086283,46.354692048835595,-10.322799357972762,-0.025000393805055813,0.0,-0.025000393805055813
0.32200000000000023,move_to_zero,-0.1599611844992128,-3.696265327943999,3.536304143444786,-69.96261903842098,-77.48681221352399,7.524193175103008,71.31856813204685,75.56167402181998,-4.243105889773133,35.95863473822629,46.29957350894399,-10.340938770717706,-0.02520248584279855,0.0,-0.02520248584279855
0.32400000000000023,move_to_zero,-0.159600553084953,-3.691865012077399,3.532264458992446,-69.87076017721552,-77.3945660085079,7.523805831292378,71.21301354124896,75.47171964798449,-4.258706106735531,35.8846485541733,46.2444549690524,-10.359806414879095,-0.025405487205753773,0.0,-0.025405487205753773
0.32600000000000023,move_to_zero,-0.15920822982622426,-3.687464696210799,3.528256466384575,-69.78020842091935,-77.30231980349178,7.522111382572433,71.10752176675435,75.38176527414898,-4.27424350739463,35.809945069611864,46.1893364291608,-10.379391359548933,-0.02560799617122763,0.0,-0.02560799617122763
0.32800000000000024,move_to_zero,-0.15880505782710494,-3.6830643803441987,3.5242593225170937,-69.6909069502283,-77.21007359847569,7.519166648247392,71.00209580453617,75.29181090031348,-4.289715095777311,35.734538685131106,46.13421788926919,-10.399679204138081,-0.025812833404917458,0.0,-0.025812833404917458
0.33000000000000024,move_to_zero,-0.1583899411010281,-3.6786640644775987,3.520274123376571,-69.60278922101841,-77.11782739345958,7.515038172441166,70.89674501900781,75.20185652647798,-4.305111507470173,35.658473509008125,46.07909934937759,-10.420625840369468,-0.0260197075333164,0.0,-0.0260197075333164
0.33200000000000024,move_to_zero,-0.15796274139457775,-3.674263748610999,3.516301007216421,-69.51578593180686,-77.02558118844348,7.509795256636622,70.79147663629556,75.11190215264247,-4.320425516346916,35.581773715985946,46.02398080948599,-10.442207093500045,-0.026228621406054715,0.0,-0.026228621406054715
0.33400000000000024,move_to_zero,-0.15754553320316442,-3.669863432744399,3.5123178995412343,-69.42982714026716,-76.93333498342739,7.503507843160222,70.68629580514613,75.02194777880699,-4.335651973660859,35.50447457702778,45.968862269594396,-10.464387692566618,-0.026440567928497524,0.0,-0.026440567928497524
0.33600000000000024,move_to_zero,-0.15713681479048772,-3.6654631168777994,3.5083263020873114,-69.34486532832975,-76.84108877841129,7.496223450081544,70.5812389837174,74.93199340497148,-4.350754421254081,35.42660804271561,45.913743729702794,-10.487135686987187,-0.026652218952604015,0.0,-0.026652218952604015
0.33800000000000024,move_to_zero,-0.1567491322536468,-3.6610628010111994,3.5043136687575527,-69.26084845671382,-76.74884257339518,7.487994116681364,70.47632115601449,74.84203903113597,-4.365717875121476,35.34820270490255,45.85862518981119,-10.510422484908645,-0.026863625225129334,0.0,-0.026863625225129334
0.34000000000000025,move_to_zero,-0.1564057766954043,-3.6566624851445995,3.500256708449195,-69.17771761436842,-76.65659636837908,7.478878754010665,70.37152271197303,74.75208465730049,-4.380561945327457,35.26929418565358,45.80350664991959,-10.534212464266012,-0.027076022298492854,0.0,-0.027076022298492854
0.34200000000000025,move_to_zero,-0.15609770209995122,-3.652262169277999,3.4961644671780476,-69.09540640445512,-76.56435016336299,7.468943758907869,70.26683541261643,74.66213028346498,-4.395294870848545,35.18988465989353,45.74838811002799,-10.55850345013446,-0.027291385505999778,0.0,-0.027291385505999778
0.34400000000000025,move_to_zero,-0.15582274313700475,-3.647861853411399,3.492039110274394,-69.01383095081233,-76.47210395834688,7.458273007534544,70.16225168317204,74.57217590962948,-4.409924226457434,35.11001299209992,45.693269570136394,-10.583256578036476,-0.027529805357156458,0.0,-0.027529805357156458
0.34600000000000025,move_to_zero,-0.15556793043601244,-3.643461537544799,3.487893607108787,-68.93293376979435,-76.3798577533308,7.4469239835364505,70.05778517497119,74.48222153579398,-4.424436360822796,35.02973318114823,45.63815103024479,-10.608417849096561,-0.027778902257003222,0.0,-0.027778902257003222
0.34800000000000025,move_to_zero,-0.15532860633368878,-3.6390612216781992,3.4837326153445103,-68.85264679203448,-76.28761154831469,7.434964756280209,69.95343853668386,74.39226716195847,-4.43882862527461,34.94908428682989,45.5830324903532,-10.63394820352331,-0.028031228793267807,0.0,-0.028031228793267807
0.35000000000000026,move_to_zero,-0.15510872851397514,-3.634660905811599,3.4795521772976237,-68.77291583916595,-76.19536534329859,7.4224495041326435,69.84923010745183,74.30231278812298,-4.4530826806711445,34.868085875115185,45.52791395046159,-10.659828075346404,-0.028292075338384796,0.0,-0.028292075338384796
0.35200000000000026,move_to_zero,-0.1549044006349304,-3.630260589944999,3.4753561893100686,-68.69368345516583,-76.10311913828248,7.409435683116655,69.74519445349326,74.21235841428748,-4.467163960794224,34.78677867825676,45.472795410569994,-10.686016732313234,-0.028569000059909363,0.0,-0.028569000059909363
0.35400000000000026,move_to_zero,-0.1547027297947947,-3.625860274078399,3.4711575442836042,-68.61487542570023,-76.01087293326638,7.39599750756615,69.64132434814032,74.12240404045198,-4.481079692311667,34.705177347071924,45.41767687067839,-10.712499523606468,-0.02883520188251489,0.0,-0.02883520188251489
0.35600000000000026,move_to_zero,-0.1544879050019944,-3.621459958211799,3.4669720532098047,-68.53644785855239,-75.91862672825027,7.382178869697881,69.53760606043622,74.03244966661647,-4.494843606180254,34.62329792547934,45.36255833078679,-10.739260405307448,-0.029118032025239445,0.0,-0.029118032025239445
0.35800000000000026,move_to_zero,-0.1542526416563449,-3.6170596423451986,3.4628070006888536,-68.45833978401373,-75.82638052323418,7.368040739220447,69.43406454895324,73.94249529278098,-4.508430743827731,34.54118118347261,45.307439790895195,-10.766258607422586,-0.029420012896039453,0.0,-0.029420012896039453
0.36000000000000026,move_to_zero,-0.15396925122220856,-3.6126593264785987,3.4586900752563903,-68.38050463579971,-75.7341343182181,7.353629682418386,69.33069107589687,73.85254091894548,-4.521849843048614,34.45885033082734,45.25232125100359,-10.793470920176254,-0.029747102494328024,0.0,-0.029747102494328024
0.36200000000000027,move_to_zero,-0.15367118960906087,-3.6082590106119987,3.4545878210029377,-68.3029025017286,-75.64188811320199,7.33898561147339,69.22748577833325,73.76258654510997,-4.535100766776722,34.37632583226745,45.19720271111199,-10.820876878844544,-0.0300727069502805,0.0,-0.0300727069502805
0.36400000000000027,move_to_zero,-0.1533568307251998,-3.603858694745399,3.4505018640201994,-68.22546050910138,-75.54964190818589,7.324181399084509,69.12442206133359,73.67263217127449,-4.5482101099408965,34.29363224630535,45.14208417122039,-10.84845192491504,-0.030389975771270592,0.0,-0.030389975771270592
0.36600000000000027,move_to_zero,-0.15302110173085956,-3.5994583788787993,3.4464372771479397,-68.14813913482897,-75.45739570316978,7.309256568340814,69.02149458530374,73.58267779743898,-4.561183212135234,34.210804850326774,45.086965631328795,-10.87616078100202,-0.030687427895823,0.0,-0.030687427895823
0.36800000000000027,move_to_zero,-0.15263794110774717,-3.5950580630121993,3.442420121904452,-68.07085377440585,-75.36514949815368,7.294295723747837,68.91868404522758,73.49272342360348,-4.5740393783759,34.127870018660545,45.03184709143719,-10.903977072776648,-0.0309637304316642,0.0,-0.0309637304316642
0.3700000000000003,move_to_zero,-0.15223745206526357,-3.5906577471455994,3.438420295080336,-67.99355378923458,-75.27290329313757,7.279349503902992,68.8159907443404,73.40276904976798,-4.586778305427586,34.0448400909034,44.97672855154559,-10.931888460642192,-0.031222368329410874,0.0,-0.031222368329410874
0.3720000000000003,move_to_zero,-0.15181934286305468,-3.586257431278999,3.4344380884159444,-67.91619885048269,-75.18065708812149,7.264458237638806,68.71341324990127,73.31281467593247,-4.599401426031207,33.96171771135139,44.921610011653996,-10.959892300302606,-0.03146608017880625,0.0,-0.03146608017880625
0.3740000000000003,move_to_zero,-0.15139866436343055,-3.581857115412399,3.4304584510489686,-67.83873197440252,-75.08841088310538,7.249678908702862,68.61095648950773,73.22286030209698,-4.611903812589247,33.878530462980606,44.86649147176239,-10.987961008781781,-0.03169660348385949,0.0,-0.03169660348385949
0.3760000000000003,move_to_zero,-0.15098719225510382,-3.577456799545799,3.426469607290695,-67.7611177892119,-74.99616467808929,7.235046888877392,68.50863308108478,73.13290592826148,-4.624272847176698,33.79528107757471,44.81137293187079,-11.016091854296086,-0.031913957482522154,0.0,-0.031913957482522154
0.3780000000000003,move_to_zero,-0.1506018968415516,-3.573056483679199,3.4224545868376475,-67.68332395975274,-74.90391847307319,7.220594513320449,68.40643611681715,73.04295155442597,-4.636515437608821,33.7119927881899,44.75625439197919,-11.044261603789288,-0.032121539918266884,0.0,-0.032121539918266884
0.3800000000000003,move_to_zero,-0.15025355074724683,-3.5686561678125988,3.418402617065352,-67.60534422014918,-74.81167226805708,7.206328047907903,68.30436234276793,72.95299718059049,-4.648634837822556,33.62865586480437,44.70113585208759,-11.072479987283216,-0.03232110651240866,0.0,-0.03232110651240866
0.3820000000000003,move_to_zero,-0.14992649040690106,-3.564255851945999,3.4143293615390977,-67.52716137945863,-74.71942606304098,7.192264683582351,68.20240321026697,72.86304280675498,-4.660639596488011,33.54531844531429,44.646017312195994,-11.100698866881707,-0.03251358525789089,0.0,-0.03251358525789089
0.3840000000000003,move_to_zero,-0.1496217381639702,-3.559855536079399,3.4102337979154287,-67.44873028070545,-74.62717985802489,7.178449577319441,68.1005874883312,72.77308843291948,-4.672500944588279,33.46201555869202,44.59089877230439,-11.128883213612369,-0.03270007871507566,0.0,-0.03270007871507566
0.3860000000000003,move_to_zero,-0.14932193902240787,-3.5554552202127994,3.4061332811903915,-67.37002679628023,-74.53493365300879,7.164906856728564,67.99890238559907,72.68313405908398,-4.684231673484916,33.37876577829682,44.53578023241279,-11.157014454115973,-0.032883217369613436,0.0,-0.032883217369613436
0.3880000000000003,move_to_zero,-0.14902010166877985,-3.551054904346199,3.402034802677419,-67.29098789007641,-74.44268744799268,7.151699557916274,67.89733425591164,72.59317968524847,-4.695845429336828,33.29558307899917,44.48066169252119,-11.185078613522016,-0.03306389386105805,0.0,-0.03306389386105805
0.3900000000000003,move_to_zero,-0.14869803415112273,-3.546654588479599,3.397956554328476,-67.21159354263318,-74.35044124297659,7.138847700343405,67.79587537391606,72.50322531141298,-4.7073499374969145,33.21245881827912,44.425543152629594,-11.213084334350476,-0.033244015216914856,0.0,-0.033244015216914856
0.3920000000000003,move_to_zero,-0.14835784293401774,-3.542254272612999,3.3938964296789815,-67.13183435824499,-74.25819503796048,7.126360679715489,67.69452279704562,72.41327093757748,-4.718748140531858,33.129409946108964,44.37042461273799,-11.241014666629027,-0.03342285526785806,0.0,-0.03342285526785806
0.3940000000000003,move_to_zero,-0.14800778705583084,-3.537853956746399,3.389846169690568,-67.05171334852325,-74.16594883294438,7.11423548442113,67.59326345956366,72.32331656374198,-4.7300531041783245,33.0464776762233,44.31530607284639,-11.268828396623093,-0.03360402866393856,0.0,-0.03360402866393856
0.3960000000000003,move_to_zero,-0.14764948113104698,-3.5334536408797987,3.385804159748752,-66.97121451296645,-74.07370262792828,7.1024881149618295,67.49208859176282,72.23336218990647,-4.74127359814365,32.96367499127464,44.260187532954795,-11.296512541680158,-0.0337869370963697,0.0,-0.0337869370963697
0.3980000000000003,move_to_zero,-0.1473142966763221,-3.529053325013199,3.381739028336877,-66.89032055802792,-73.98145642291219,7.091135864884265,67.39098922340993,72.14340781607098,-4.752418592661044,32.881006775864144,44.205068993063186,-11.324062217199042,-0.03397070525798461,0.0,-0.03397070525798461
0.4000000000000003,move_to_zero,-0.14698622906342423,-3.524653009146599,3.3776667800831746,-66.80902429251921,-73.88921021789609,7.080185925376881,67.28997760366408,72.05345344223548,-4.763475838571395,32.79850219128497,44.14995045317159,-11.351448261886624,-0.0341531883436901,0.0,-0.0341531883436901
0.4020000000000003,move_to_zero,-0.14666624827345356,-3.520252693279999,3.3735864450065454,-66.72731480758598,-73.79696401287998,7.069649205293999,67.1890660623179,71.96349906839997,-4.774433006082063,32.71615042828292,44.09483191327999,-11.378681484997067,-0.03433413724408512,0.0,-0.03433413724408512
0.4040000000000003,move_to_zero,-0.14635733303148749,-3.515852377413399,3.3694950443819116,-66.64520317115468,-73.70471780786389,7.05951463670921,67.0882458068286,71.87354469456449,-4.785298887735891,32.633963610728394,44.039713373388395,-11.405749762660001,-0.03451230282044446,0.0,-0.03451230282044446
0.4060000000000003,move_to_zero,-0.1460567019822631,-3.511452061546799,3.365395359564536,-66.56268016599587,-73.61247160284778,7.049791436851905,66.98750651110488,71.78359032072898,-4.796083809624093,32.551958947756276,43.98459483349679,-11.432635885740517,-0.03468848755775961,0.0,-0.03468848755775961
0.4080000000000003,move_to_zero,-0.1457361888670435,-3.507051745680199,3.3613155568131554,-66.47973512570202,-73.52022539783168,7.040490272129659,66.8868308859633,71.69363594689347,-4.806805060930159,32.47013408737447,43.92947629360519,-11.459342206230723,-0.03486521410016654,0.0,-0.03486521410016654
0.4100000000000003,move_to_zero,-0.14538234040048123,-3.5026514298135987,3.3572690894131174,-66.39635642330867,-73.42797919281558,7.03162276950691,66.78620024723486,71.60368157305798,-4.817481325823124,32.38850944050575,43.87435775371359,-11.485848313207839,-0.03504021870254873,0.0,-0.03504021870254873
0.4120000000000003,move_to_zero,-0.14501614012394268,-3.4982511139469987,3.353234973823056,-66.3125448673359,-73.33573298779949,7.023188120463587,66.68561981160109,71.51372719922247,-4.828107387621387,32.30710249789175,43.81923921382199,-11.51213671593024,-0.03521184658073556,0.0,-0.03521184658073556
0.4140000000000003,move_to_zero,-0.1446305970128286,-3.493850798080399,3.34922020106757,-66.22827913824602,-73.24348678278338,7.015207644537355,66.58509898757106,71.42377282538698,-4.838673837815918,32.22589588940921,43.76412067393039,-11.538224784521184,-0.0353808614828124,0.0,-0.0353808614828124
0.4160000000000003,move_to_zero,-0.14424440501544733,-3.4894504822137993,3.345206077198352,-66.14354572198064,-73.15124057776728,7.007694855786639,66.48463413704668,71.33381845155148,-4.849184314504797,32.14488313145598,43.70900213403879,-11.564119002582814,-0.035545439257949826,0.0,-0.035545439257949826
0.4180000000000003,move_to_zero,-0.14386448975167004,-3.485050166347199,3.341185676595529,-66.05833572859996,-73.05899437275119,7.00065864415123,66.38423818217518,71.24386407771597,-4.859625895540788,32.06407572119493,43.653883594147196,-11.589807872952264,-0.03571025453531496,0.0,-0.03571025453531496
0.4200000000000003,move_to_zero,-0.1435050382874887,-3.480649850480599,3.3371448121931104,-65.97266813067934,-72.96674816773508,6.994080037055738,66.28391455970745,71.15390970388047,-4.869995144173018,31.983498749312613,43.598765054255594,-11.615266304942981,-0.03587590544045414,0.0,-0.03587590544045414
0.4220000000000003,move_to_zero,-0.14314096275853866,-3.476249534613999,3.3331085718554605,-65.88655328856534,-72.87450196271898,6.9879486741536425,66.18364892407449,71.06395533004498,-4.880306405970487,31.90316252069608,43.543646514363985,-11.640483993667907,-0.03604140914787759,0.0,-0.03604140914787759
0.4240000000000003,move_to_zero,-0.1427701830013922,-3.471849218747399,3.3290790357460067,-65.80000381406334,-72.78225575770288,6.98225194363954,66.08343137707952,70.97400095620948,-4.890569579129959,31.82307530766596,43.48852797447239,-11.66545266680643,-0.03620543748954848,0.0,-0.03620543748954848
0.4260000000000003,move_to_zero,-0.14239846933538658,-3.4674489028807987,3.325050433545412,-65.71303283098837,-72.69000955268679,6.976976721698421,65.98329906140623,70.88404658237397,-4.900747520967741,31.743227590599677,43.43340943458079,-11.690181843981112,-0.03636599082993967,0.0,-0.03636599082993967
0.4280000000000003,move_to_zero,-0.14203707339463215,-3.4630485870141987,3.3210115136195664,-65.62564130037516,-72.59776334767068,6.972122047295514,65.88326058551728,70.79409220853847,-4.9108316230211955,31.663641472428854,43.378290894689194,-11.71464942226034,-0.036523165357692955,0.0,-0.036523165357692955
0.4300000000000003,move_to_zero,-0.14169949504289775,-3.458648271147599,3.3169487761047014,-65.53783439276374,-72.50551714265458,6.967682749890841,65.78332037531426,70.70413783470298,-4.920817459388715,31.584340002876555,43.32317235479759,-11.738832351921037,-0.03667692845148982,0.0,-0.03667692845148982
0.43200000000000033,move_to_zero,-0.14136560055118594,-3.454247955280999,3.3128823547298127,-65.44961988022713,-72.41327093763847,6.96365105741134,65.68345980278549,70.61418346086747,-4.930723658081973,31.50530773814753,43.268053814906,-11.762746076758468,-0.03683016804351411,0.0,-0.03683016804351411
0.43400000000000033,move_to_zero,-0.1410515112525842,-3.449847639414399,3.3087961281618146,-65.36099597546192,-72.32102473262238,6.960028757160458,65.5836823246312,70.52422908703198,-4.9405467624007855,31.426571057365585,43.21293527501439,-11.786364217648803,-0.03698135916280901,0.0,-0.03698135916280901
0.43600000000000033,move_to_zero,-0.14075887920477143,-3.445447323547799,3.3046884443430273,-65.27197720776171,-72.22877852760628,6.956801319844573,65.48398973664906,70.43427471319647,-4.950284976547408,31.348121415157394,43.157816735122786,-11.809695319965392,-0.03713091741903954,0.0,-0.03713091741903954
0.43800000000000033,move_to_zero,-0.14049696154293095,-3.441047007681199,3.300550046138268,-65.18257551746348,-72.13653232259018,6.953956805126708,65.38436925159179,70.34432033936098,-4.959951087769184,31.26996203030679,43.10269819523119,-11.832736164924402,-0.03727781886402347,0.0,-0.03727781886402347
0.44000000000000034,move_to_zero,-0.1402555781881859,-3.4366466918145986,3.2963911136264126,-65.09283200922606,-72.04428611757409,6.951454108348031,65.28483664492914,70.25436596552548,-4.969529320596337,31.19208230632978,43.04757965533959,-11.85549734900981,-0.037421610671932656,0.0,-0.037421610671932656
0.44200000000000034,move_to_zero,-0.14003569574207353,-3.4322463759479986,3.292210680205925,-65.00277541601913,-71.95203991255798,6.949264496538845,65.1853926238709,70.16441159168997,-4.979018967819073,31.114504911419782,42.992461115447995,-11.877956204028212,-0.03756248473793378,0.0,-0.03756248473793378
0.44400000000000034,move_to_zero,-0.1398337726984047,-3.427846060081399,3.2880122873829944,-64.91240601818178,-71.85979370754188,6.947387689360099,65.08605571976702,70.07445721785447,-4.988401498087455,31.037225607484483,42.937342575556386,-11.900116968071902,-0.03770140421219103,0.0,-0.03770140421219103
0.44600000000000034,move_to_zero,-0.1396444317463591,-3.423445744214799,3.28380131246844,-64.82170684405453,-71.76754750252577,6.945840658471241,64.98682709147506,69.98450284401898,-4.997675752543913,30.960259197246017,42.88222403566479,-11.921964838418774,-0.037837953195362296,0.0,-0.037837953195362296
0.44800000000000034,move_to_zero,-0.13944819464916222,-3.419045428348199,3.2795972336990364,-64.73071583830216,-71.67530129750969,6.944585459207531,64.88770251379103,69.89454847018347,-5.006845956392439,30.883606611487615,42.82710549577319,-11.943498884285574,-0.03797128692927332,0.0,-0.03797128692927332
0.45000000000000034,move_to_zero,-0.13923036246501527,-3.414645112481599,3.2754147500165836,-64.63946250553862,-71.58305509249358,6.9435925869549635,64.78866377807864,69.80459409634798,-5.015930318269341,30.80726571455767,42.77198695588159,-11.964721241323918,-0.038103245208898406,0.0,-0.038103245208898406
0.45200000000000035,move_to_zero,-0.13900474338676944,-3.410244796614999,3.2712400532282295,-64.5479712731773,-71.49080888747748,6.942837614300188,64.68968706753758,69.71463972251247,-5.024952654974896,30.731212956349868,42.71686841598999,-11.985655459640125,-0.03823672225238107,0.0,-0.03823672225238107
0.45400000000000035,move_to_zero,-0.13876064456648837,-3.405844480748399,3.267083836181911,-64.45623307395466,-71.39856268246137,6.942329608506711,64.59074962103908,69.62468534867698,-5.033935727637896,30.655434279055818,42.66174987609839,-12.006315597042573,-0.038369992390989933,0.0,-0.038369992390989933
0.45600000000000035,move_to_zero,-0.13850213310342824,-3.4014441648817986,3.2629420317783704,-64.36424604967814,-71.30631647744528,6.942070427767135,64.49184471982626,69.53473097484148,-5.042886255015219,30.579907603520162,42.60663133620679,-12.026723732686627,-0.038505144529235154,0.0,-0.038505144529235154
0.45800000000000035,move_to_zero,-0.13822577348490267,-3.397043849015199,3.2588180755302965,-64.2720518077064,-71.21407027242918,6.9420184647227785,64.39296049919048,69.44477660100597,-5.05181610181549,30.504638772993147,42.55151279631519,-12.04687402332204,-0.03864082972098353,0.0,-0.03864082972098353
0.46000000000000035,move_to_zero,-0.13792705670820585,-3.392643533148599,3.254716476440393,-64.17966304919159,-71.12182406741309,6.942161018221498,64.29407366073484,69.35482222717047,-5.060748566435635,30.429620098966446,42.49639425642359,-12.066774157457147,-0.03877620491709643,0.0,-0.03877620491709643
0.46200000000000035,move_to_zero,-0.13764306690878164,-3.3882432172819987,3.250600150373217,-64.0871088935029,-71.02957786239699,6.94246896889409,64.19519262431575,69.26486785333498,-5.069675229019225,30.35487036603875,42.44127571653199,-12.08640535049324,-0.038914645025067654,0.0,-0.038914645025067654
0.46400000000000036,move_to_zero,-0.1373872677258619,-3.383842901415399,3.246455633689537,-63.99440147755157,-70.93733165738088,6.942930179829311,64.09633024426549,69.17491347949948,-5.078583235233992,30.28039708444463,42.38615717664039,-12.105760092195759,-0.03905510088212732,0.0,-0.03905510088212732
0.46600000000000036,move_to_zero,-0.1371441864117699,-3.379442585548799,3.242298399137029,-63.90157169348055,-70.84508545236478,6.943513758884237,63.997452917249596,69.08495910566397,-5.087506188414373,30.206238989387053,42.331038636748794,-12.12479964736174,-0.039195817749021394,0.0,-0.039195817749021394
0.46800000000000036,move_to_zero,-0.13692054618711574,-3.375042269682199,3.238121723495083,-63.80862513524568,-70.75283924734867,6.944214112102998,63.89857750141717,68.99500473182847,-5.096427230411301,30.1324083944754,42.275920096857185,-12.143511702381783,-0.03933652008108423,0.0,-0.03933652008108423
0.47000000000000036,move_to_zero,-0.136709367634932,-3.3706419538155985,3.2339325861806665,-63.71561317298737,-70.66059304233258,6.944979869345211,63.7996859165127,68.90505035799298,-5.105364441480276,30.058898662005436,42.22080155696559,-12.161902894960154,-0.03947847349245079,0.0,-0.03947847349245079
0.47200000000000036,move_to_zero,-0.13650282881588624,-3.3662416379489986,3.2297388091331123,-63.62253286300184,-70.56834683731647,6.945813974314632,63.70079218341509,68.81509598415747,-5.114303800742377,29.98569646281857,42.16568301707399,-12.179986554255418,-0.03961921141263506,0.0,-0.03961921141263506
0.47400000000000037,move_to_zero,-0.1362974058446451,-3.361841322082399,3.225543916237754,-63.529392305890106,-70.47610063230039,6.946708326410281,63.60187994649001,68.72514161032198,-5.1232616638319755,29.912787734166184,42.11056447718239,-12.19777674301621,-0.03976071585085846,0.0,-0.03976071585085846
0.47600000000000037,move_to_zero,-0.13606350222788086,-3.357441006215799,3.2213775039879184,-63.436224528010335,-70.38385442728428,6.947629899273942,63.50295457883398,68.63518723648647,-5.132232657652494,29.840148367782124,42.05544593729079,-12.215297569508667,-0.03990424462956528,0.0,-0.03990424462956528
0.47800000000000037,move_to_zero,-0.1357838980431552,-3.3530406903491987,3.2172567923060433,-63.34301917731701,-70.29160822226818,6.94858904495117,63.404019746075654,68.54523286265096,-5.141213116575308,29.76775628030778,42.00032739739919,-12.23257111709141,-0.04004785179174725,0.0,-0.04004785179174725
0.48000000000000037,move_to_zero,-0.13545978772531905,-3.3486403744825988,3.2131805867572796,-63.249795399141995,-70.19936201725208,6.94956661811009,63.30507810790957,68.45527848881548,-5.150200380905908,29.695610971627293,41.94520885750759,-12.249597885880295,-0.040191974547655246,0.0,-0.040191974547655246
0.4820000000000004,move_to_zero,-0.1351323285975748,-3.344240058615999,3.209107730018424,-63.15657918989406,-70.10711581223597,6.9505366223419145,63.206112795369165,68.36532411497997,-5.1592113196108045,29.623701939876927,41.890090317615986,-12.266388377739059,-0.04033751738217499,0.0,-0.04033751738217499
0.4840000000000004,move_to_zero,-0.1348053438963486,-3.339839742749399,3.20503439885305,-63.06340976433361,-70.01486960721988,6.9514598428862655,63.10711722710717,68.27536974114447,-5.168252514037306,29.552006399343135,41.83497177772439,-12.282965378381256,-0.04048249113128977,0.0,-0.04048249113128977
0.4860000000000004,move_to_zero,-0.1344767054504918,-3.3354394268827985,3.200962721432307,-62.970313108110886,-69.92262340220378,6.9523102940928965,63.008112176468615,68.18541536730898,-5.177303190840362,29.48049107456979,41.77985323783279,-12.299362163262998,-0.040624136638425415,0.0,-0.040624136638425415
0.4880000000000004,move_to_zero,-0.1341859997932611,-3.331039111016199,3.196853111222938,-62.87727322617557,-69.83037719718769,6.953103971012119,62.90911408062944,68.09546099347347,-5.186346912844023,29.40913009612188,41.72473469794119,-12.315604601819306,-0.04076237527530102,0.0,-0.04076237527530102
0.4900000000000004,move_to_zero,-0.13392583015114853,-3.326638795149599,3.1927129649984507,-62.78432890655967,-69.73813099217158,6.953802085611905,62.810115123497816,68.00550661963797,-5.195391496140154,29.337924959125033,41.66961615804959,-12.33169119892456,-0.04089708129425178,0.0,-0.04089708129425178
0.4920000000000004,move_to_zero,-0.13369004987083707,-3.3222384792829986,3.1885484294121618,-62.691464597334424,-69.64588478715548,6.954420189821057,62.71110196055406,67.91555224580247,-5.204450285248413,29.266872281616052,41.61449761815798,-12.347625336541931,-0.04103151007150983,0.0,-0.04103151007150983
0.4940000000000004,move_to_zero,-0.13346739061036306,-3.3178381634163987,3.1843707728060355,-62.59871219061827,-69.55363858213937,6.954926391521099,62.61208219612707,67.82559787196698,-5.213515675839908,29.19596374271402,41.55937907826639,-12.363415335552368,-0.04116685234585644,0.0,-0.04116685234585644
0.4960000000000004,move_to_zero,-0.13325968587402878,-3.3134378475497988,3.18017816167577,-62.50609633889478,-69.46139237712327,6.9552960382284965,62.513064389056844,67.73564349813147,-5.222579109074623,29.125201617880645,41.50426053837479,-12.379058920494142,-0.04130328251974479,0.0,-0.04130328251974479
0.4980000000000004,move_to_zero,-0.1330558754881502,-3.309037531683199,3.1759816561950487,-62.41363617711192,-69.36914617210718,6.955509994995261,62.4140575755768,67.64568912429597,-5.231631548719172,29.054617787423425,41.44914199848319,-12.394524211059768,-0.04143868410916476,0.0,-0.04143868410916476
0.5000000000000003,move_to_zero,-0.1328530614227943,-3.3046372158165984,3.171784154393804,-62.32135588153027,-69.27689996709108,6.95554408556081,62.3150508473882,67.55573475046047,-5.240683903072274,28.98418897126666,41.39402345859159,-12.409834487324929,-0.0415733020633937,0.0,-0.0415733020633937
0.5020000000000003,move_to_zero,-0.13263658882662202,-3.300236899949999,3.167600311123377,-62.2292729028122,-69.18465376207499,6.955380859262789,62.21604183178864,67.46578037662498,-5.24973854483634,28.913888618269393,41.33890491869999,-12.425016300430595,-0.04170414058001831,0.0,-0.04170414058001831
0.5040000000000003,move_to_zero,-0.1323825867927482,-3.2958365840833994,3.163453997290651,-62.13738991826008,-69.09240755705889,6.9550176387988145,62.11704629934432,67.37582600278948,-5.258779703445164,28.843703909711223,41.283786378808394,-12.44008246909717,-0.041830307200954146,0.0,-0.041830307200954146
0.5060000000000003,move_to_zero,-0.13211788864801913,-3.291436268216799,3.15931837956878,-62.04570424793082,-69.00016135204278,6.95445710411196,62.018080575567474,67.28587162895397,-5.267791053386496,28.77363228842934,41.228667838916785,-12.455035550487445,-0.041951074164286915,0.0,-0.041951074164286915
0.5080000000000003,move_to_zero,-0.1318579320084244,-3.287035952350199,3.1551780203417747,-61.95421906010094,-68.90791514702669,6.953696086925746,61.9191302469776,67.19591725511847,-5.276787008140872,28.70365704773738,41.1735492990252,-12.469892251287817,-0.042068093969508745,0.0,-0.042068093969508745
0.5100000000000003,move_to_zero,-0.13160350604269563,-3.2826356364835987,3.1510321304409032,-61.862936523284205,-68.81566894201057,6.95273241872637,61.820171708491124,67.10596288128298,-5.285791172791853,28.63380379964213,41.11843075913359,-12.484626959491457,-0.042179877258874406,0.0,-0.042179877258874406
0.5120000000000003,move_to_zero,-0.13136177548738262,-3.278235320616999,3.1468735451296164,-61.771868121319024,-68.7234227369945,6.9515546156754695,61.72120946120026,67.01600850744748,-5.2947990462472205,28.564070703169232,41.06331221924199,-12.499241516072761,-0.042289820718999095,0.0,-0.042289820718999095
0.5140000000000003,move_to_zero,-0.1310916128703772,-3.273835004750399,3.1427433918800216,-61.68104953808977,-68.63117653197838,6.95012699388861,61.62225600227243,66.92605413361197,-5.303798131339541,28.49445543020851,41.00819367935039,-12.51373824914188,-0.04239810237927943,0.0,-0.04239810237927943
0.5160000000000003,move_to_zero,-0.1308210953204291,-3.2694346888837993,3.1386135935633703,-61.59048642764895,-68.53893032696229,6.9484438993133395,61.52332655076575,66.83609975977649,-5.312773209010736,28.424945553850556,40.95307513945879,-12.528129585608234,-0.04250536078007842,0.0,-0.04250536078007842
0.5180000000000003,move_to_zero,-0.13056264516273933,-3.265034373017199,3.1344717278544594,-61.50016095789032,-68.44668412194618,6.946523164055854,61.42440225865068,66.74614538594096,-5.321743127290283,28.35554753120332,40.89795659956719,-12.542409068363867,-0.04261342073841571,0.0,-0.04261342073841571
0.5200000000000004,move_to_zero,-0.13032007134130139,-3.2606340571505994,3.130313985809298,-61.41011390106347,-68.35443791693008,6.944324015866613,61.32548442179358,66.65619101210548,-5.330706590311898,28.286237818455966,40.84283805967559,-12.556600241219627,-0.04272239194564504,0.0,-0.04272239194564504
0.5220000000000004,move_to_zero,-0.13009814339758813,-3.2562337412839986,3.1261355978864103,-61.32036468591825,-68.26219171191397,6.941827025995721,61.22658892719598,66.56623663826997,-5.339647711073994,28.21701030523617,40.78771951978399,-12.570709214547822,-0.04282914557297975,0.0,-0.04282914557297975
0.5240000000000004,move_to_zero,-0.12989365946803585,-3.251833425417399,3.1219397659493633,-61.23091701733633,-68.16994550689789,6.939028489561558,61.12772576214893,66.47628226443447,-5.348556502285547,28.147871780328355,40.732600979892396,-12.584729199564041,-0.04293368150872374,0.0,-0.04293368150872374
0.5260000000000004,move_to_zero,-0.1297030857343989,-3.2474331095507987,3.1177300238164,-61.14178131494462,-68.07769930188178,6.935917986937156,61.02891484903765,66.38632789059898,-5.35741304156133,28.078813601769895,40.677482440000794,-12.5986688382309,-0.043037816687425595,0.0,-0.043037816687425595
0.5280000000000004,move_to_zero,-0.12952259214593936,-3.2430327936841996,3.11351020153826,-61.05294607700744,-67.9854530968657,6.932507019858257,60.930147428879856,66.29637351676348,-5.366226087883625,28.00981849869669,40.62236390010919,-12.612545401412504,-0.04314111742723018,0.0,-0.04314111742723018
0.5300000000000004,move_to_zero,-0.12935121756069634,-3.2386324778175983,3.109281260256902,-60.964397081304554,-67.89320689184957,6.928809810545019,60.83140920328624,66.20641914292797,-5.375009939641728,27.940886484225476,40.56724536021758,-12.626358875992107,-0.04324131778754028,0.0,-0.04324131778754028
0.5320000000000004,move_to_zero,-0.1291867022291764,-3.2342321619509993,3.105045459721823,-60.87610276296335,-67.80096068683349,6.924857923870142,60.73269954871634,66.11646476909249,-5.383765220376148,27.872004541692288,40.512126820325996,-12.640122278633708,-0.04333742719657189,0.0,-0.04333742719657189
0.5340000000000004,move_to_zero,-0.12902813081664477,-3.229831846084399,3.1008037152677543,-60.78805902357073,-67.70871448181737,6.920655458246635,60.634011741606614,66.02651039525698,-5.392498653650364,27.803136772259133,40.45700828043439,-12.653871508175254,-0.04343014606591236,0.0,-0.04343014606591236
0.5360000000000004,move_to_zero,-0.12887427784723363,-3.2254315302177994,3.0965572523705656,-60.700285649743044,-67.61646827680129,6.916182627058241,60.53533735813665,65.93655602142148,-5.40121866328483,27.73427988499815,40.4018897405428,-12.66760985554465,-0.04351961377051913,0.0,-0.04351961377051913
0.5380000000000004,move_to_zero,-0.12872299039853044,-3.2210312143511985,3.092308223952668,-60.61279544149858,-67.52422207178519,6.911426630286613,60.436667765002184,65.84660164758597,-5.409933882583786,27.66545143892764,40.34677120065119,-12.68131976172355,-0.043607233307049936,0.0,-0.043607233307049936
0.5400000000000004,move_to_zero,-0.12856184791152567,-3.216630898484599,3.0880690505730732,-60.52558762721984,-67.4319758667691,6.906388239549251,60.33799335570487,65.75664727375049,-5.418653918045621,27.59665104414079,40.29165266075959,-12.6950016166188,-0.04369132838107547,0.0,-0.04369132838107547
0.5420000000000004,move_to_zero,-0.12839907869890393,-3.2122305826179987,3.083831503919095,-60.43866764285555,-67.33972966175298,6.901062018897434,60.23929671253506,65.66669289991496,-5.427396187379905,27.527862589760108,40.23653412086799,-12.708671531107878,-0.04377362319837346,0.0,-0.04377362319837346
0.5440000000000004,move_to_zero,-0.1282400683604397,-3.207830266751399,3.0795901983909593,-60.352026387454366,-67.24748345673689,6.8954570692825214,60.14057801382365,65.57673852607948,-5.436160512255832,27.459070865123415,40.18141558097639,-12.722344715852977,-0.043853931326687134,0.0,-0.043853931326687134
0.5460000000000004,move_to_zero,-0.1280767796140134,-3.2034299508847988,3.0753531712707853,-60.26566407161745,-67.15523725172078,6.889573180103326,60.04183273726419,65.48678415224397,-5.4449514149797835,27.390259371673036,40.12629704108479,-12.736037669411754,-0.04393188509352726,0.0,-0.04393188509352726
0.5480000000000004,move_to_zero,-0.12791692662343274,-3.1990296350181993,3.0711127083947667,-60.17957598290373,-67.06299104670468,6.883415063800953,59.9430702515725,65.39682977840847,-5.453759526835974,27.32141774185365,40.071178501193195,-12.749760759339544,-0.04400733831129473,0.0,-0.04400733831129473
0.5500000000000004,move_to_zero,-0.1277605295994799,-3.194629319151599,3.066868789552119,-60.09376247479152,-66.97074484168859,6.876982366897067,59.84431264475807,65.30687540457298,-5.462562759814908,27.2525369616657,40.01605996130159,-12.763522999635892,-0.044081309488610734,0.0,-0.044081309488610734
0.5520000000000004,move_to_zero,-0.12760667291512148,-3.190229003284999,3.0626223303698774,-60.008204919871034,-66.87849863667249,6.870293716801456,59.74555225916683,65.21692103073748,-5.471368771570653,27.183647492601157,39.96094142140999,-12.777293928808835,-0.044153441971065924,0.0,-0.044153441971065924
0.5540000000000004,move_to_zero,-0.1274493074944424,-3.1858286874183985,3.0583793799239563,-59.92288211977484,-66.78625243165638,6.863370311881539,59.646763640778445,65.12696665690197,-5.480203016123525,27.114746940418073,39.90582288151839,-12.791075941100317,-0.04422389501861369,0.0,-0.04422389501861369
0.5560000000000004,move_to_zero,-0.127295890478706,-3.1814283715517995,3.0541324810730934,-59.83777085175193,-66.69400622664028,6.856235374888357,59.54793531192925,65.03701228306649,-5.489076971137237,27.04582731546076,39.850704341626795,-12.804877026166036,-0.04429308496899719,0.0,-0.04429308496899719
0.5580000000000004,move_to_zero,-0.12714481594332327,-3.1770280556851986,3.0498832397418756,-59.75287686804251,-66.60176002162417,6.84888315358166,59.44905208565787,64.94705790923096,-5.498005823573095,26.97689352803785,39.795585801735186,-12.818692273697337,-0.04436070879992229,0.0,-0.04436070879992229
0.5600000000000004,move_to_zero,-0.1269958205846219,-3.172627739818599,3.045631919233977,-59.66820074360478,-66.50951381660808,6.841313073003299,59.35010871719566,64.85710353539548,-5.506994818199821,26.9079628647878,39.7404672618436,-12.832504397055796,-0.04442839677903424,0.0,-0.04442839677903424
0.5620000000000004,move_to_zero,-0.12684279424811823,-3.1682274239519987,3.0413846297038805,-59.58373743729204,-66.41726761159198,6.833530174299945,59.25111257936266,64.76714916155997,-5.516036582197309,26.839010869118685,39.68534872195198,-12.846337852833297,-0.0444984544076252,0.0,-0.0444984544076252
0.5640000000000004,move_to_zero,-0.12668779624280363,-3.1638271080853992,3.0371393118425956,-59.49947834727543,-66.3250214065759,6.825543059300472,59.15205299728953,64.67719478772447,-5.525141790434944,26.770039319890085,39.630230182060394,-12.86019086217031,-0.04457326632796938,0.0,-0.04457326632796938
0.5660000000000004,move_to_zero,-0.12653567874214638,-3.159426792218799,3.0328911134766523,-59.415418828140645,-66.23277520155978,6.8173563734191305,59.05292276012059,64.58724041388896,-5.534317653768376,26.701031072688036,39.575111642168785,-12.87408056948075,-0.04465342573757615,0.0,-0.04465342573757615
0.5680000000000004,move_to_zero,-0.12638555245172675,-3.155026476352199,3.0286409239004723,-59.331538484147494,-66.1405289965437,6.8089905123962,58.953725068720075,64.49728604005348,-5.543560971333406,26.63197105911602,39.51999310227719,-12.888022043161172,-0.044738388339077256,0.0,-0.044738388339077256
0.5700000000000004,move_to_zero,-0.1262339583949945,-3.1506261604855985,3.024392202090604,-59.24785391325175,-66.04828279152757,6.800428878275817,58.85447491557631,64.40733166621797,-5.552856750641659,26.562853293501945,39.46487456238559,-12.902021268883644,-0.044827608652153836,0.0,-0.044827608652153836
0.5720000000000004,move_to_zero,-0.12606361399417337,-3.1462258446189995,3.020162230624826,-59.1643481626981,-65.95603658651149,6.79168842381339,58.75518019295369,64.31737729238247,-5.562197099428786,26.493681021662855,39.409756022493994,-12.916075000831139,-0.044917428250316214,0.0,-0.044917428250316214
0.5740000000000004,move_to_zero,-0.1258785599425124,-3.141825528752399,3.0159469688098866,-59.080988239533596,-65.86379038149538,6.782802141961781,58.655835944904815,64.22742291854698,-5.571586973642162,26.42445732371971,39.354637482602385,-12.930180158882674,-0.0450082682202584,0.0,-0.0450082682202584
0.5760000000000004,move_to_zero,-0.12567222713818452,-3.137425212885799,3.0117529857476146,-58.99778009960123,-65.7715441764793,6.7737640768780665,58.556447487322764,64.13746854471148,-5.581021057388718,26.35518998328724,39.29951894271079,-12.94432895942355,-0.04509854839358346,0.0,-0.04509854839358346
0.5780000000000004,move_to_zero,-0.12545418006397588,-3.1330248970191987,3.007570716955223,-58.91470023892568,-65.67929797146319,6.764597732537503,58.456999738324235,64.04751417087597,-5.5905144325517355,26.28588332828355,39.24440040281919,-12.958517074535639,-0.04519113121940478,0.0,-0.04519113121940478
0.5800000000000004,move_to_zero,-0.12524126286663925,-3.1286245811525992,3.00338331828596,-58.8317214202571,-65.58705176644709,6.755330346189993,58.35746412933884,63.95755979704048,-5.600095667701645,26.216551752617313,39.189281862927594,-12.97273011031028,-0.04528488025933503,0.0,-0.04528488025933503
0.5820000000000004,move_to_zero,-0.1250426912854234,-3.1242242652859984,2.999181574000575,-58.748843081503495,-65.49480556143098,6.745962479927485,58.25786780409476,63.867605423204964,-5.609737619110206,26.147182810389456,39.134163323035985,-12.986980512646529,-0.045379577569326375,0.0,-0.045379577569326375
0.5840000000000004,move_to_zero,-0.12485688911136017,-3.119823949419399,2.9949670603080385,-58.66603923979057,-65.40255935641488,6.7365201166243125,58.158227623794104,63.777651049369474,-5.61942342557537,26.077766664939322,39.0790447831444,-13.001278118205075,-0.04547658937552582,0.0,-0.04547658937552582
0.5860000000000004,move_to_zero,-0.12468027098358647,-3.1154236335527985,2.990743362569212,-58.583288841481725,-65.31031315139877,6.727024309917049,58.0585535779867,63.68769667553397,-5.629143097547271,26.008292492781067,39.02392624325278,-13.015633750471714,-0.04557450346797263,0.0,-0.04557450346797263
0.5880000000000004,move_to_zero,-0.12451253956488183,-3.1110233176861994,2.9865107781213176,-58.5005678851373,-65.21806694638268,6.717499061245377,57.958829515264945,63.597742301698474,-5.638912786433529,25.938799670410134,38.96880770336119,-13.03000803295106,-0.04567178165829952,0.0,-0.04567178165829952
0.5900000000000004,move_to_zero,-0.12435107677097454,-3.1066230018195986,2.9822719250486243,-58.41784281148163,-65.12582074136658,6.7079779298849544,57.859056590053484,63.50778792786297,-5.648731337809487,25.869271529685452,38.913689163469584,-13.044417633784132,-0.04576672482511164,0.0,-0.04576672482511164
0.5920000000000004,move_to_zero,-0.12419509627112277,-3.102222685952999,2.978027589681876,-58.33511757123275,-65.03357453635049,6.698456965117735,57.7592453249403,63.41783355402748,-5.658588229087179,25.799713551408423,38.858570623578,-13.058857072169573,-0.04586028659289631,0.0,-0.04586028659289631
0.5940000000000004,move_to_zero,-0.12404420418149038,-3.0978223700863987,2.9737781659049083,-58.25238060107477,-64.94132833133438,6.688947730259606,57.65939210061087,63.32787918019197,-5.668487079581098,25.730146982301157,38.80345208368639,-13.07330510138523,-0.04595038951474136,0.0,-0.04595038951474136
0.5960000000000004,move_to_zero,-0.12389684089737368,-3.093422054219799,2.9695252133224255,-58.16961337803194,-64.84908212631828,6.6794687482863395,57.55949712449186,63.23792480635648,-5.678427681864619,25.660589890959407,38.74833354379479,-13.087743652835385,-0.04603737230213602,0.0,-0.04603737230213602
0.5980000000000004,move_to_zero,-0.12375120411785707,-3.0890217383531984,2.965270534235341,-58.08682068883443,-64.75683592130217,6.67001523246774,57.4595314720257,63.147970432520964,-5.688438960495262,25.591062827736895,38.693215003903184,-13.102152176166289,-0.046121788768135316,0.0,-0.046121788768135316
0.6000000000000004,move_to_zero,-0.12360828220022274,-3.0846214224865993,2.9610131402863766,-58.00401184904828,-64.66458971628607,6.660577867237791,57.35948174776089,63.05801605868548,-5.698534310924593,25.52156357257542,38.63809646401159,-13.116532891436169,-0.046202381406865695,0.0,-0.046202381406865695
0.6020000000000004,move_to_zero,-0.12346660873952174,-3.0802211066199985,2.956754497880477,-57.92119457558358,-64.57234351126998,6.6511489356864,57.25933523352193,62.968061684849964,-5.708726451328033,25.452105688600398,38.58297792411999,-13.13087223551959,-0.04627887505886921,0.0,-0.04627887505886921
0.6040000000000004,move_to_zero,-0.12332025600907669,-3.075820790753399,2.9525005347443223,-57.83837393225561,-64.4800973062539,6.641723373998289,57.159096236887116,62.878107311014475,-5.7190110741273585,25.382693547567058,38.52785938422839,-13.145165836661334,-0.04634877171483287,0.0,-0.04634877171483287
0.6060000000000004,move_to_zero,-0.12315604396703109,-3.0714204748867986,2.9482644309197674,-57.75555423374088,-64.38785110123777,6.6322968674968905,57.05878071799185,62.78815293717897,-5.72937221918712,25.313315949772566,38.47274084433679,-13.159424894564225,-0.04641292640946976,0.0,-0.04641292640946976
0.6080000000000004,move_to_zero,-0.12297516732745596,-3.067020159020199,2.944044991692743,-57.67273037513614,-64.29560489622169,6.622874521085549,56.95841566485917,62.698198563343475,-5.739782898484307,25.24397801733463,38.417622304445196,-13.173644287110566,-0.046472778421285325,0.0,-0.046472778421285325
0.6100000000000004,move_to_zero,-0.12280096808676089,-3.0626198431535987,2.939818875066838,-57.58988182236254,-64.20335869120557,6.613476868843023,56.858013634383916,62.60824418950797,-5.750230555124055,25.174671219369447,38.36250376455359,-13.18783254518414,-0.046529208684896864,0.0,-0.046529208684896864
0.6120000000000004,move_to_zero,-0.12263285192838749,-3.0582195272869988,2.935586675358611,-57.50701573360281,-64.11111248618948,6.6040967525866705,56.75758361914298,62.51828981567248,-5.7607061965295046,25.105366803137695,38.30738522466199,-13.202018421524297,-0.046582627609800524,0.0,-0.046582627609800524
0.6140000000000004,move_to_zero,-0.12247009965210676,-3.0538192114203984,2.9313491117682915,-57.42412013178173,-64.01886628117337,6.594746149391646,56.657107554004554,62.42833544183697,-5.771227887832417,25.0360786422287,38.25226668477038,-13.216188042541685,-0.04663298153740057,0.0,-0.04663298153740057
0.6160000000000004,move_to_zero,-0.12231323436656301,-3.0494188955537993,2.927105661187236,-57.34120558983155,-63.926620076157285,6.585414486325732,56.5565917773457,62.33838106800148,-5.78178929065578,24.966795663732842,38.197148144878796,-13.230352481145953,-0.04667986471740078,0.0,-0.04667986471740078
0.6180000000000004,move_to_zero,-0.12216013213199971,-3.045018579687199,2.9228584475551993,-57.25824460269506,-63.83437387114118,6.576129268446124,56.45603016474918,62.248426694165964,-5.792396529416784,24.89750522743771,38.14202960498719,-13.244524377549478,-0.04672149218936428,0.0,-0.04672149218936428
0.6200000000000004,move_to_zero,-0.12200899060276191,-3.040618263820599,2.9186092732178373,-57.17523495541029,-63.742127666125086,6.5668927107147965,56.3554361376589,62.15847232033048,-5.803036182671583,24.828224012131226,38.08691106509559,-13.258687052964365,-0.04675697877020987,0.0,-0.04675697877020987
0.6220000000000004,move_to_zero,-0.12185913370652236,-3.0362179479539986,2.914358814247476,-57.09217030107772,-63.649881461108976,6.557711160031253,56.25481027399305,62.068517946494964,-5.813707672501913,24.758971143378314,38.03179252520398,-13.272821381825668,-0.04678760087349353,0.0,-0.04678760087349353
0.6240000000000004,move_to_zero,-0.12171055334270384,-3.031817632087399,2.910107078744695,-57.00903380212953,-63.55763525609289,6.548601453963357,56.154149413243395,61.978563572659475,-5.824414159416079,24.689746263758334,37.97667398531239,-13.286927721554054,-0.04681045467824364,0.0,-0.04681045467824364
0.6260000000000004,move_to_zero,-0.1215644597599361,-3.0274173162207987,2.9058528564608626,-56.9258329994997,-63.46538905107678,6.53955605157708,56.05344833092466,61.888609198823964,-5.8351608678993045,24.620586484391605,37.921555445420786,-13.30096896102918,-0.04682617796798196,0.0,-0.04682617796798196
0.6280000000000004,move_to_zero,-0.12142151428547662,-3.0230170003541987,2.901595486068722,-56.84256258761989,-63.37314284606068,6.530580258440793,55.9527131549303,61.798654824988475,-5.845941670058174,24.55152049539246,37.86643690552919,-13.314916410136732,-0.04683675965024213,0.0,-0.04683675965024213
0.6300000000000004,move_to_zero,-0.12128086661016756,-3.0186166844875983,2.8973358178774307,-56.7592342072288,-63.28089664104458,6.521662433815777,55.851945578241626,61.70870045115297,-5.8567548729113454,24.482545567838326,37.81131836563759,-13.328772797799264,-0.04684635383479164,0.0,-0.04684635383479164
0.6320000000000005,move_to_zero,-0.12114158817726643,-3.0142163686209993,2.8930747804437327,-56.675850127210964,-63.18865043602848,6.512800308817518,55.75112845417989,61.618746077317475,-5.867617623137583,24.413686540840708,37.756199825745995,-13.342513284905287,-0.04685419658801462,0.0,-0.04685419658801462
0.6340000000000005,move_to_zero,-0.12100204208299019,-3.009816052754399,2.8888140106714086,-56.592416640413596,-63.09640423101237,6.503987590598776,55.65027397294147,61.52879170348197,-5.878517730540501,24.34493891731842,37.701081285854386,-13.356142368535966,-0.046860195141207116,0.0,-0.046860195141207116
0.6360000000000005,move_to_zero,-0.12086242059481689,-3.005415736887799,2.884553316292982,-56.50891715647016,-63.00415802599628,6.495240869526121,55.54938279871014,61.43883732964648,-5.889454530936341,24.276299727820906,37.64596274596279,-13.369663018141885,-0.04686460998927916,0.0,-0.04686460998927916
0.6380000000000005,move_to_zero,-0.12072381967137151,-3.0010154210211986,2.880291601349827,-56.425357222857045,-62.91191182098017,6.486554598123128,55.44845657340674,61.348882955810964,-5.900426382404227,24.20776071458486,37.59084420607118,-13.383083491486321,-0.04686739771291293,0.0,-0.04686739771291293
0.6400000000000005,move_to_zero,-0.12058410279435783,-2.996615105154599,2.876031002360241,-56.34171907948043,-62.81966561596408,6.47794653648365,55.347499852878286,61.25892858197548,-5.911428729097196,24.1393205651352,37.535725666179594,-13.396405101044394,-0.04686492982858118,0.0,-0.04686492982858118
0.6420000000000005,move_to_zero,-0.12044377897636563,-2.9922147892879987,2.871771010311633,-56.25800011445106,-62.727419410947974,6.469419296496916,55.24651571113119,61.168974208139964,-5.922458497008776,24.071000795004544,37.480607126287985,-13.409606331283442,-0.04685783277211924,0.0,-0.04685783277211924
0.6440000000000005,move_to_zero,-0.12030410087114636,-2.987814473421399,2.8675103725502527,-56.174191074644405,-62.63517320593189,6.460982131287487,55.14549014395199,61.079019834304475,-5.933529690352486,24.002829104666702,37.42548858639639,-13.422659481729688,-0.046847129612988446,0.0,-0.046847129612988446
0.6460000000000005,move_to_zero,-0.12016419482474515,-2.9834141575547983,2.863249962730053,-56.0902750577098,-62.54292700091577,6.452651943205964,55.04440982893475,60.989065460468964,-5.944655631534218,23.93479884512224,37.37037004650478,-13.43557120138254,-0.046835311275725836,0.0,-0.046835311275725836
0.6480000000000005,move_to_zero,-0.12002445238254786,-2.9790138416881993,2.8589893893056515,-56.00625843244009,-62.450680795899686,6.444422363459594,54.94327018742064,60.899111086633475,-5.955840899212838,23.866903219389286,37.31525150661319,-13.4483482872239,-0.0468233256271899,0.0,-0.0468233256271899
0.6500000000000005,move_to_zero,-0.11988282720579525,-2.9746135258215984,2.854730698615803,-55.92216969303146,-62.35843459088357,6.436264897852112,54.84207667038992,60.80915671279797,-5.96708004240805,23.79913527707024,37.260132966721585,-13.460997689651347,-0.04680996970541823,0.0,-0.04680996970541823
0.6520000000000005,move_to_zero,-0.11974084043562487,-2.970213209954999,2.850472369519374,-55.83802610703695,-62.26618838586749,6.428162278830534,54.74084280392596,60.719202338962475,-5.9783595350365175,23.73149503124885,37.20501442682999,-13.473519395581139,-0.046795305542506785,0.0,-0.046795305542506785
