GerardoFJ/TE3001B_TEAM_3/src/s0s1_gazebo/scripts/results/P1/state.csv
t,phase,shoulder_pan_actual_deg,shoulder_pan_desired_deg,shoulder_pan_error_deg,shoulder_lift_actual_deg,shoulder_lift_desired_deg,shoulder_lift_error_deg,elbow_flex_actual_deg,elbow_flex_desired_deg,elbow_flex_error_deg,wrist_flex_actual_deg,wrist_flex_desired_deg,wrist_flex_error_deg,wrist_roll_actual_deg,wrist_roll_desired_deg,wrist_roll_error_deg
0.002,move_to_zero,-4.376474382407018,-4.4003158666,0.02384148419298171,-92.21682027023317,-92.2462050161,0.02938474586683526,89.9402674989065,89.9543738355,-0.014106336593499691,55.09939055982472,55.1185398916,-0.019149331775281553,0.0017248340730163765,0.0,0.0017248340730163765
0.004,move_to_zero,-4.329653699653374,-4.3959155507334,0.06626185108002591,-92.1591832231232,-92.15395881108391,-0.005224412039282811,89.91252926366379,89.86441946166448,0.048109801999302704,55.06183478720185,55.0634213517084,-0.0015865645065460399,0.004512572919100396,0.0,0.004512572919100396
0.006,move_to_zero,-4.260733537726662,-4.3915152348668,0.13078169714013743,-92.07438629796766,-92.0617126060678,-0.012673691899863115,89.87163763464446,89.77446508782899,0.0971725468154716,55.00656053052243,55.008302811816804,-0.0017422812943763688,0.007693995307597416,0.0,0.007693995307597416
0.008,move_to_zero,-4.170581697125564,-4.3871149190002,0.21653322187463608,-91.96351478822737,-91.9694664010517,0.005951612824333097,89.81804713030316,89.68451071399349,0.13353641630966706,54.93423451662483,54.953184271925196,-0.01894975530036902,0.010709885376821113,0.0,0.010709885376821113
0.01,move_to_zero,-4.060032644631853,-4.382714603133599,0.32268195850174575,-91.82763093920407,-91.8772201960356,0.04958925683152415,89.75219505204818,89.594556340158,0.1576387118901863,54.845519270342415,54.8980657320336,-0.05254646169118615,0.013159402220206765,0.0,0.013159402220206765
0.012,move_to_zero,-3.9299076160356474,-4.378314287266999,0.4484066712313517,-91.66774212710288,-91.7849739910195,0.117231863916615,89.67450052893565,89.50460196632248,0.16989856261317016,54.7410704891395,54.842947192142,-0.10187670300249607,0.01511978083682538,0.0,0.01511978083682538
0.014,move_to_zero,-3.780991578944083,-4.373913971400399,0.5929223924563161,-91.48481958004855,-91.69272778600339,0.20790820595483694,89.58537999879078,89.41464759248699,0.1707324063037987,54.6215055730436,54.787828652250404,-0.1663230792068049,0.01666051187842191,0.0,0.01666051187842191
0.016,move_to_zero,-3.614065267384672,-4.369513655533799,0.7554483881491274,-91.27977557024312,-91.6004815809873,0.32070601074418903,89.48521754902093,89.32469321865149,0.1605243303694408,54.487431915019215,54.7327101123588,-0.24527819733958722,0.017835401545883776,0.0,0.017835401545883776
0.018000000000000002,move_to_zero,-3.429865679636599,-4.3651133396672,0.9352476600306012,-91.05350366210322,-91.5082353759712,0.4547317138679716,89.37439213678384,89.234738844816,0.13965329196784637,54.33942340257368,54.6775915724672,-0.33816816989352105,0.01853724583519165,0.0,0.01853724583519165
0.020000000000000004,move_to_zero,-3.2291334105511993,-4.3607130238006,1.131579613249401,-90.80688453136948,-91.4159891709551,0.6091046395856239,89.2532952332905,89.1447844709805,0.10851076231000434,54.17805305975643,54.6224730325756,-0.4444199728191691,0.01872830465604336,0.0,0.01872830465604336
0.022000000000000006,move_to_zero,-3.0126093361168764,-4.356312707934,1.3437033718171238,-90.54076651724098,-91.323742965939,0.7829764486980224,89.12228499406152,89.05483009714499,0.06745489691653006,54.003844224441174,54.567354492684,-0.5635102682428226,0.018456729765579147,0.0,0.018456729765579147
0.024000000000000007,move_to_zero,-2.780994445998985,-4.351912392067399,1.5709179460684144,-90.25599376463113,-91.2314967609229,0.9755029962917661,88.98171472920065,88.96487572330949,0.016839005891156944,53.81732050924024,54.5122359527924,-0.6949154435521621,0.01779504358441952,0.0,0.01779504358441952
0.02600000000000001,move_to_zero,-2.5349918224341508,-4.3475120762007995,1.8125202537666487,-89.95334749016551,-91.1392505559068,1.185903065741286,88.83194464195519,88.874921349474,-0.04297670751880389,53.618969982443645,54.4571174129008,-0.8381474304571555,0.01687799942833158,0.0,0.01687799942833158
0.02800000000000001,move_to_zero,-2.275264914029702,-4.3431117603341995,2.0678468463044974,-89.63360871750615,-91.0470043508907,1.4133956333845532,88.67331292765482,88.78496697563848,-0.11165404798366296,53.409275093025975,54.401998873009205,-0.9927237799832298,0.015848466526235384,0.0,0.015848466526235384
0.030000000000000013,move_to_zero,-2.0024997596608447,-4.3387114444676,2.336211684806755,-89.29752808400184,-90.9547581458746,1.6572300618727667,88.50614515806423,88.695012601803,-0.18886744373877207,53.18871323549656,54.3468803331176,-1.158167097621046,0.014844079749750626,0.0,0.014844079749750626
0.032000000000000015,move_to_zero,-1.7173400273644308,-4.334311128601,2.616971101236569,-88.94583845899744,-90.8625119408585,1.9166734818610536,88.33077752908193,88.60505822796749,-0.27428069888556195,52.957725778620095,54.291761793225994,-1.3340360146058998,0.013966534251948867,0.0,0.013966534251948867
0.034000000000000016,move_to_zero,-1.420418615640218,-4.3299108127344,2.9094921970941816,-88.57926614411396,-90.7702657358424,2.190999591728442,88.14749886964886,88.51510385413198,-0.3676049844831226,52.71673667099779,54.2366432533344,-1.5199065823366098,0.013223337643260058,0.0,0.013223337643260058
0.03600000000000002,move_to_zero,-1.1123256158773533,-4.3255104968678,3.2131848809904464,-88.19850322383827,-90.67801953082629,2.4795163069880175,87.95660631277929,88.4251494802965,-0.46854316751721115,52.466160967119606,54.1815247134428,-1.7153637463231917,0.012594093251775665,0.0,0.012594093251775665
0.03800000000000002,move_to_zero,-0.793671932787476,-4.3211101810012,3.527438248213724,-87.80419799579846,-90.5857733258102,2.7815753300117336,87.75840217940015,88.33519510646099,-0.5767929270608363,52.20637855955744,54.1264061735512,-1.92002761399376,0.0120601129532366,0.0,0.0120601129532366
0.04000000000000002,move_to_zero,-0.46506477485712694,-4.316709865134599,3.851645090277472,-87.3969840329205,-90.4935271207941,3.0965430878735987,87.55316126907509,88.24524073262549,-0.6920794635503995,51.93778745166378,54.0712876336596,-2.133500181995821,0.01160564636026674,0.0,0.01160564636026674
0.04200000000000002,move_to_zero,-0.149283255724649,-4.312309549267999,4.16302629354335,-86.97747461257917,-90.401280915778,3.4238063031988304,87.3411253953427,88.15528635879,-0.8141609634472928,51.66072203780631,54.016169093768006,-2.3554470559616973,0.011214480418752292,0.0,0.011214480418752292
0.044000000000000025,move_to_zero,0.1279005054035062,-4.307909233401399,4.435809738804905,-86.54628672263853,-90.3090347107619,3.7627479881233796,87.12256864913252,88.06533198495448,-0.9427633358219651,51.37551273761077,53.9610505538764,-2.585537816265628,0.010873088300642026,0.0,0.010873088300642026
0.04600000000000003,move_to_zero,0.36778967494031206,-4.3035089175348,4.671298592475112,-86.10397716782815,-90.2167885057458,4.112811337917648,86.89778313186201,87.97537761111899,-1.0775944792569732,51.082518397866444,53.905932013984796,-2.8234136161183514,0.010571848886321839,0.0,0.010571848886321839
0.04800000000000003,move_to_zero,0.5716725317518689,-4.2991086016682,4.870781133420069,-85.65108579341015,-90.1245423007297,4.473456507319554,86.66702610168039,87.88542323728349,-1.218397135603098,50.78208477782998,53.8508134740932,-3.0687286962632214,0.010301747386217726,0.0,0.010301747386217726
0.05000000000000003,move_to_zero,0.7408096647477747,-4.2947082858016,5.035517950549375,-85.18813405026822,-90.03229609571359,4.844162045445373,86.43055002062502,87.795468863448,-1.3649188428229735,50.47455823574206,53.7956949342016,-3.32113669845954,0.01005644161608065,0.0,0.01005644161608065
0.05200000000000003,move_to_zero,0.8764519822904013,-4.290307969935,5.1667599522254015,-84.71565311818597,-89.9400498906975,5.2243967725115255,86.18860367847427,87.70551448961248,-1.5169108111382172,50.160250851207955,53.740576394310004,-3.580325543102049,0.00983005320996734,0.0,0.00983005320996734
0.054000000000000034,move_to_zero,0.980567543823983,-4.285907654068399,5.266475197892382,-84.23412418302289,-89.8478036856814,5.613679502658513,85.94141770509316,87.61556011577699,-1.674142410683828,49.83945194732677,53.6854578544184,-3.84600590709163,0.009618729595593139,0.0,0.009618729595593139
0.056000000000000036,move_to_zero,1.0543142645262278,-4.281507338201799,5.335821602728027,-83.74403991649696,-89.7555574806653,6.011517564168344,85.68921725330667,87.52560574194149,-1.8363884886348245,49.512428181836555,53.6303393145268,-4.117911132690246,0.009419704628755918,0.0,0.009419704628755918
0.05800000000000004,move_to_zero,1.0988492603669007,-4.2771070223351995,5.3759562827021,-83.24588626561264,-89.66331127564919,6.417425010036553,85.432233002596,87.43565136810598,-2.0034183655099724,49.17945324607655,53.5752207746352,-4.39576752855865,0.009229230500439778,0.0,0.009229230500439778
0.06000000000000004,move_to_zero,1.115287698778708,-4.2727067064685995,5.387994405247308,-82.74010210331909,-89.5710650706331,6.830962967314008,85.1706729381989,87.3456969942705,-2.1750240560715923,48.84080236134943,53.5201022347436,-4.679299873394164,0.009044370358121449,0.0,0.009044370358121449
0.06200000000000004,move_to_zero,1.1047321692595673,-4.268306390602,5.373038559861567,-82.22712232221384,-89.478818865617,7.251696543403156,84.90474172137709,87.25574262043499,-2.351000899057894,48.49673290095238,53.464983694852,-4.968250793899621,0.008862792725280885,0.0,0.008862792725280885
0.06400000000000004,move_to_zero,1.0682790745616044,-4.2639060747354,5.332185149297004,-81.70737034881411,-89.38657266060089,7.679202311786781,84.63463510931908,87.16578824659948,-2.5311531372803984,48.14747352447318,53.4098651549604,-5.2623916304872225,0.008684034953128255,0.0,0.008684034953128255
0.06600000000000004,move_to_zero,1.006989351146696,-4.2595057588688,5.266495110015496,-81.18125521713357,-89.29432645558481,8.11307123845124,84.36055709176823,87.075833872764,-2.715276780995765,47.79327611468977,53.354746615068805,-5.561470500379038,0.008507626464088598,0.0,0.008507626464088598
0.06800000000000005,move_to_zero,0.9219243379745256,-4.2551054430022,5.177029780976725,-80.64919797455215,-89.2020802505687,8.552882276016547,84.08270780131214,86.98587949892848,-2.9031716976163437,47.434377788511846,53.299628075177196,-5.865250286665351,0.00833307169210962,0.0,0.00833307169210962
0.07000000000000005,move_to_zero,0.8141207526375249,-4.250705127135599,5.064825879773124,-80.11160103112309,-89.1098340455526,8.998233014429516,83.80124824988474,86.89592512509299,-3.0946768752082505,47.071013066148566,53.2445095352856,-6.173496469137035,0.008156996853211921,0.0,0.008156996853211921
0.07200000000000005,move_to_zero,0.6845821722681418,-4.246304811268999,4.930886983537141,-79.56885931142159,-89.01758784053649,9.448728529114902,83.51632989481612,86.80597075125749,-3.289640856441366,46.70339902384449,53.189390995394,-6.48599197154951,0.007978391650212344,0.0,0.007978391650212344
0.07400000000000005,move_to_zero,0.5342774290593405,-4.241904495402399,4.776181924461739,-79.0213428825524,-88.9253416355204,9.903998752967993,83.2281062961593,86.71601637742198,-3.487910081262683,46.33173680219119,53.1342724555024,-6.80253565331121,0.007794898920396337,0.0,0.007794898920396337
0.07600000000000005,move_to_zero,0.3641593466584301,-4.2375041795358,4.60166352619423,-78.46939885215974,-88.83309543050429,10.363696578344545,82.93674984955109,86.62606200358648,-3.6893121540353917,45.956205255831655,53.0791539156108,-7.122948659779148,0.007605205388096193,0.0,0.007605205388096193
0.07800000000000006,move_to_zero,0.18271364247071734,-4.2331038636692,4.415817506139917,-77.91336031682569,-88.74084922548819,10.827488908662502,82.6424167622346,86.53610762975099,-3.8936908675163835,45.57700360624918,53.0240353757192,-7.447031769470023,0.0074109043630059875,0.0,0.0074109043630059875
0.08000000000000006,move_to_zero,0.015032719971976834,-4.2287035478026,4.243736267774577,-77.35354542951012,-88.6486030204721,11.295057590961974,82.345281186178,86.44615325591549,-4.100872069737491,45.19433148015751,52.9689168358276,-7.774585355670091,0.007212745820422513,0.0,0.007212745820422513
0.08200000000000006,move_to_zero,-0.12348014624720392,-4.224303231936,4.100823085688797,-76.79027106407949,-88.556356815456,11.766085751376508,82.04551238795408,86.35619888207998,-4.310686494125903,44.80837398682269,52.913798295936,-8.10542430911331,0.007014190721898376,0.0,0.007014190721898376
0.08400000000000006,move_to_zero,-0.23394332595014994,-4.219902916069399,3.9859595901192493,-76.22384154768189,-88.4641106104399,12.240269062758017,81.74324088104001,86.26624450824448,-4.523003627204474,44.41925560142885,52.858679756044396,-8.439424154615544,0.006813184883854637,0.0,0.006813184883854637
0.08600000000000006,move_to_zero,-0.31797163862161004,-4.215502600202799,3.8975309615811895,-75.6545594443096,-88.37186440542379,12.717304961114195,81.43860144775981,86.17629013440899,-4.737688686649179,44.027160660727,52.8035612161528,-8.776400555425802,0.0066091348250829525,0.0,0.0066091348250829525
0.08800000000000006,move_to_zero,-0.37649119746908455,-4.211102284336199,3.834611086867115,-75.08270064292387,-88.2796182004077,13.196917557483829,81.13174536157645,86.08633576057349,-4.954590398997041,43.63225521683489,52.7484426762612,-9.116187459426307,0.006401786951847871,0.0,0.006401786951847871
0.09000000000000007,move_to_zero,-0.41040256662776226,-4.206701968469599,3.796299401841837,-74.50854095853596,-88.18737199539159,13.678831036855627,80.82282416518657,85.996381386738,-5.17355722155142,43.23467055645434,52.693324136369604,-9.458653579915264,0.006190433528663691,0.0,0.006190433528663691
0.09200000000000007,move_to_zero,-0.4206150153254067,-4.2023016526029995,3.781686637277593,-73.93231187393138,-88.0951257903755,14.162813916444122,80.51198491842527,85.90642701290248,-5.394442094477213,42.834543560476924,52.638205596477995,-9.803662036001072,0.0059759787134092066,0.0,0.0059759787134092066
0.09400000000000007,move_to_zero,-0.40803758218636105,-4.1979013367363995,3.7898637545500384,-73.35425605023414,-88.0028795853594,14.648623535125253,80.1993512735147,85.81647263906699,-5.617121365552293,42.43201541730901,52.5830870565864,-10.15107163927739,0.005743521570834457,0.0,0.005743521570834457
0.09600000000000007,move_to_zero,-0.37352565783516595,-4.1935010208698,3.819975363034634,-72.7745939208287,-87.9106333803433,15.136039459514592,79.8850463013669,85.72651826523149,-5.841471963864592,42.027219366941594,52.5279685166948,-10.500749149753204,0.005511077408750466,0.0,0.005511077408750466
0.09800000000000007,move_to_zero,-0.31792006540609324,-4.1891007050032,3.8711806395971062,-72.19358236204461,-87.81838717532719,15.62480481328258,79.56920627836786,85.63656389139598,-6.067357613028122,41.620297637452744,52.4728499768032,-10.852552339350453,0.005279230605899732,0.0,0.005279230605899732
0.10000000000000007,move_to_zero,-0.2420370375758076,-4.184700389136599,3.942663351560791,-71.61143646229831,-87.72614097031109,16.114704508012778,79.25193844114854,85.5466095175605,-6.294671076411959,41.211369675672536,52.4177314369116,-11.206361761239066,0.005045312813896202,0.0,0.005045312813896202
0.10200000000000008,move_to_zero,-0.1533419584297086,-4.180300073269999,4.026958114840291,-71.02836285391754,-87.633894765295,16.605531911377454,78.93333642774954,85.45665514372499,-6.523318715975449,40.80053869476694,52.36261289702,-11.562074202253058,0.004812041407929794,0.0,0.004812041407929794
0.10400000000000008,move_to_zero,-0.06545708466295673,-4.1758997574034,4.110442672740443,-70.44456025408445,-87.5416485602789,17.09708830619445,78.61347836227971,85.36670076988948,-6.753222407609769,40.387908820196735,52.3074943571284,-11.919585536931663,0.004556963147347768,0.0,0.004556963147347768
0.10600000000000008,move_to_zero,0.010926983749345108,-4.1714994415368,4.182426425286145,-69.86021977530528,-87.4494023552628,17.589182579957523,78.29246007588043,85.276746396054,-6.984286320173567,39.973559532416964,52.252375817236796,-12.278816284819833,0.004254244162602239,0.0,0.004254244162602239
0.10800000000000008,move_to_zero,0.06951888800634563,-4.1670991256702,4.236618013676545,-69.27553642665265,-87.3571561502467,18.081619723594045,77.97038294842079,85.18679202221848,-7.216409073797692,39.55761883466647,52.1972572773452,-12.63963844267873,0.0038982599095381165,0.0,0.0038982599095381165
0.11000000000000008,move_to_zero,0.10679303040844305,-4.1626988098036,4.269491840212043,-68.69068551959784,-87.2649099452306,18.574224425632764,77.64732845412085,85.09683764838299,-7.449509194262134,39.14019706354291,52.1421387374536,-13.001941673910693,0.0035338806296249035,0.0,0.0035338806296249035
0.11200000000000009,move_to_zero,0.12258659897485029,-4.158298493937,4.28088509291185,-68.10585287996878,-87.17266374021449,19.06681086024571,77.32339754772525,85.00688327454749,-7.683485726822241,38.72137591759694,52.087020197562,-13.36564427996506,0.003155075451153391,0.0,0.003155075451153391
0.11400000000000009,move_to_zero,0.1194144512606393,-4.153898178070399,4.273312629331039,-67.52118963999874,-87.0804175351984,19.559227895199655,76.99870103893593,84.91692890071198,-7.918227861776046,38.30125666638819,52.031901657670396,-13.730644991282205,0.002790733527213422,0.0,0.002790733527213422
0.11600000000000009,move_to_zero,0.10162026729669105,-4.149497862203799,4.25111812950049,-66.93686222897051,-86.9881713301823,20.051309101211785,76.67331362652854,84.82697452687648,-8.153660900347944,37.879937360032486,51.976783117778794,-14.096845757746308,0.0024581952009719178,0.0,0.0024581952009719178
0.11800000000000009,move_to_zero,0.07443949032687344,-4.145097546337199,4.2195370366640725,-66.35303540909402,-86.8959251251662,20.54288971607218,76.34731888402453,84.73702015304099,-8.389701269016456,37.45751567084662,51.9216645778872,-14.464148907040581,0.002151886630624074,0.0,0.002151886630624074
0.12000000000000009,move_to_zero,0.0431962894097423,-4.140697230470599,4.183893519880342,-65.76985955291885,-86.80367892015009,21.033819367231246,76.02080290344892,84.64706577920549,-8.626262875756566,37.034083511924635,51.8665460379956,-14.832462526070962,0.0018672281908570848,0.0,0.0018672281908570848
0.1220000000000001,move_to_zero,0.012634120508504725,-4.136296914603999,4.148931035112504,-65.18746503764616,-86.711432715134,21.523967677487832,75.69385031529201,84.55711140536998,-8.86326109007797,36.609699828670905,51.811427498104,-15.201727669433097,0.0016009450327141826,0.0,0.0016009450327141826
0.1240000000000001,move_to_zero,-0.013614641900867993,-4.1318965987373995,4.118281956836531,-64.60597349029781,-86.6191865101179,22.013213019820085,75.36654828129089,84.46715703153448,-9.100608750243595,36.184443431602126,51.7563089582124,-15.571865526610274,0.0013467679452119313,0.0,0.0013467679452119313
0.12600000000000008,move_to_zero,-0.03391673630105418,-4.1274962828707995,4.093579546569745,-64.02550497489015,-86.52694030510179,22.501435330211635,75.03899812716642,84.37720265769899,-9.338204530532565,35.758392986672014,51.70119041832079,-15.942797431648778,0.0011007412886641945,0.0,0.0011007412886641945
0.12800000000000009,move_to_zero,-0.046969307488218155,-4.1230959670042,4.076126659515982,-63.44618134660452,-86.4346941000857,22.988512753481174,74.71125597502899,84.28724828386348,-9.575992308834486,35.33162574490573,51.6460718784292,-16.314446133523468,0.0008589968133372802,0.0,0.0008589968133372802
0.1300000000000001,move_to_zero,-0.052611358171682776,-4.118695651137599,4.066084292965916,-62.86810126214863,-86.3424478950696,23.47434663292097,74.38338133145301,84.197293910028,-9.813912578574985,34.90422002761142,51.590953338537595,-16.686733310926172,0.0006168727796030083,0.0,0.0006168727796030083
0.1320000000000001,move_to_zero,-0.051641815832155324,-4.114295335270999,4.062653519438843,-62.29139083476667,-86.2502016900535,23.958810855286828,74.05542114151288,84.10733953619248,-10.051918394679603,34.476256192529945,51.535834798646,-17.059578606116055,0.00036351670625170277,0.0,0.00036351670625170277
0.1340000000000001,move_to_zero,-0.04548481114024148,-4.1098950194044,4.064410208264158,-61.71617651924866,-86.15795548503739,24.44177896578873,73.72742923967238,84.01738516235697,-10.289955922684598,34.04780095814952,51.4807162587544,-17.432915300604876,9.984418450670072e-05,0.0,9.984418450670072e-05
0.1360000000000001,move_to_zero,-0.035904617131075955,-4.1054947035378,4.069590086406723,-61.1425501247084,-86.0657092800213,24.923159155312895,73.39945038942815,83.92743078852149,-10.527980399093337,33.61890107035503,51.425597718862804,-17.806696648507774,-0.0001663840300607157,0.0,-0.0001663840300607157
0.1380000000000001,move_to_zero,-0.02476076910490448,-4.1010943876712,4.076333618566295,-60.57058591495667,-85.97346307500518,25.40287716004851,73.07154655591474,83.83747641468598,-10.765929858771244,33.18963384682825,51.370479178971195,-18.180845332142944,-0.0004476357741251229,0.0,-0.0004476357741251229
0.1400000000000001,move_to_zero,-0.013710346096324861,-4.0966940718046,4.082983725708275,-60.00033696161552,-85.88121686998909,25.880879908373572,72.74376639475473,83.74752204085048,-11.003755646095755,32.76007757811824,51.31536063907959,-18.55528306096135,-0.0007551118762477671,0.0,-0.0007551118762477671
0.1420000000000001,move_to_zero,-0.00406614851465982,-4.092293755938,4.08822760742334,-59.43189543482369,-85.788970664973,26.357075230149306,72.41617784528087,83.65756766701499,-11.241389821734117,32.33026450706827,51.260242099188,-18.929977592119727,-0.0010663196423548267,0.0,-0.0010663196423548267
0.1440000000000001,move_to_zero,0.0036249314039121737,-4.087893440071399,4.091518371475312,-58.865349696333894,-85.6967244599569,26.831374763623003,72.08882829167045,83.56761329317948,-11.478785001509024,31.90024592662795,51.205123559296396,-19.304877632668447,-0.0013868686480232012,0.0,-0.0013868686480232012
0.1460000000000001,move_to_zero,0.00926265203074578,-4.083493124204799,4.092755776235545,-58.30079028179143,-85.6044782549408,27.303687973149373,71.76175425700187,83.47765891934398,-11.715904662342112,31.470072374984795,51.1500050194048,-19.679932644420006,-0.001696694436857844,0.0,-0.001696694436857844
0.1480000000000001,move_to_zero,0.012617086677058324,-4.079092808338199,4.091709895015257,-57.738298422048715,-85.51223204992469,27.773933627875977,71.43499330675195,83.38770454550848,-11.952711238756535,31.03980547701888,51.0948864795132,-20.05508100249432,-0.0020039214119135606,0.0,-0.0020039214119135606
0.1500000000000001,move_to_zero,0.013771026914353581,-4.074692492471599,4.088463519385953,-57.177937203453396,-85.4199858449086,28.2420486414552,71.10859142423028,83.29775017167299,-12.189158747442704,30.609479072293688,51.0397679396216,-20.43028886732791,-0.002297209959161026,0.0,-0.002297209959161026
0.1520000000000001,move_to_zero,0.013075364558077092,-4.070292176604999,4.083367541163076,-56.61977168765952,-85.32773963989249,28.707967952232963,70.78258246418224,83.20779579783748,-12.425213333655236,30.17913673968788,50.984649399729996,-20.805512660042115,-0.0025774945665093026,0.0,-0.0025774945665093026
0.1540000000000001,move_to_zero,0.011011899632110035,-4.065891860738399,4.076903760370509,-56.063862825583655,-85.23549343487639,29.171630609292734,70.45699058134768,83.11784142400198,-12.660850842654298,29.74883237294463,50.929530859838394,-21.180698486893764,-0.002864580108996836,0.0,-0.002864580108996836
0.1560000000000001,move_to_zero,0.008140707938412045,-4.061491544871799,4.069632252810211,-55.5102518934939,-85.1432472298603,29.632995336366392,70.13184172044193,83.02788705016648,-12.896045329724558,29.31859067388735,50.8744123199468,-21.55582164605945,-0.00316722013476122,0.0,-0.00316722013476122
0.1580000000000001,move_to_zero,0.005010991312872479,-4.0570912290051995,4.062102220318072,-54.95900604854235,-85.0510010248442,30.091994976301848,69.80717168378465,82.93793267633099,-13.130760992546342,28.88846068157969,50.8192937800552,-21.930833098475507,-0.003490123264720194,0.0,-0.003490123264720194
0.16000000000000011,move_to_zero,0.0020727405760816715,-4.052690913138599,4.05476365371468,-54.41019322791914,-84.95875481982809,30.54856159190895,69.48300033671812,82.84797830249549,-13.36497796577737,28.45850982703514,50.7641752401636,-22.305665413128462,-0.0038274635422976193,0.0,-0.0038274635422976193
0.16200000000000012,move_to_zero,-0.00032576613898216384,-4.048290597272,4.047964831133018,-53.86386087254677,-84.86650861481199,31.002647742265218,69.15936811535975,82.75802392865998,-13.598655813300226,28.02880089413183,50.709056700271994,-22.680255806140163,-0.004184083450687293,0.0,-0.004184083450687293
0.16400000000000012,move_to_zero,-0.0022454612821915737,-4.0438902814054,4.041644820123208,-53.320074453754636,-84.7742624097959,31.45418795604126,68.83632498212,82.66806955482448,-13.83174457270448,27.59937703099877,50.6539381603804,-23.05456112938163,-0.00456060796705389,0.0,-0.00456060796705389
0.16600000000000012,move_to_zero,-0.0037635949967006733,-4.0394899655388,4.035726370542099,-52.77885280627856,-84.68201620477979,31.903163398501228,68.51387139060115,82.57811518098899,-14.064243790387835,27.17027740479907,50.5988196204888,-23.428542215689728,-0.0049564565418002285,0.0,-0.0049564565418002285
0.16800000000000012,move_to_zero,-0.004946184572475912,-4.0350896496722,4.030143465099724,-52.24023769542798,-84.5897699997637,32.349532304335725,68.19202769540436,82.48816080715348,-14.296133111749114,26.741516038354668,50.543701080597195,-23.802185042242527,-0.005330062038910916,0.0,-0.005330062038910916
0.17000000000000012,move_to_zero,-0.005715019133540058,-4.0306893338056,4.024974314672059,-51.704276097232714,-84.4975237947476,32.79324769751488,67.87080899432581,82.398206433318,-14.527397438992182,26.313115931907937,50.4885825407056,-24.175466608797663,-0.005674211775196129,0.0,-0.005674211775196129
0.17200000000000013,move_to_zero,-0.00602878037666385,-4.026289017939,4.020260237562336,-51.17101809418144,-84.4052775897315,33.234259495550056,67.55025221533477,82.30825205948248,-14.757999844147719,25.885102813755104,50.433464000814,-24.548361187058894,-0.005991469454467194,0.0,-0.005991469454467194
0.17400000000000013,move_to_zero,-0.0059094124843297865,-4.021888702072399,4.015979289588069,-50.640505370733074,-84.31303138471539,33.67252601398231,67.23039266744833,82.21829768564697,-14.987905018198646,25.457492521029913,50.3783454609224,-24.920852939892484,-0.006288009808416335,0.0,-0.006288009808416335
0.17600000000000013,move_to_zero,-0.0054382721436055425,-4.017488386205799,4.012050114062194,-50.1127580538436,-84.22078517969929,34.10802712585569,66.91126081713402,82.12834331181149,-15.21708249467747,25.030312723540906,50.323226921030795,-25.29291419748989,-0.006568152974908906,0.0,-0.006568152974908906
0.17800000000000013,move_to_zero,-0.004720837759797808,-4.013088070339199,4.008367232579402,-49.58780543218499,-84.12853897468318,34.54073354249819,66.59288145304869,82.03838893797598,-15.44550748492729,24.603590375215337,50.2681083811392,-25.664518005923863,-0.006835278816449984,0.0,-0.006835278816449984
0.18000000000000013,move_to_zero,-0.003857003901793508,-4.008687754472599,4.004830750570806,-49.0656894554292,-84.0362927696671,34.9706033142379,66.27527944529022,81.94843456414048,-15.67315511885026,24.177343727708937,50.2129898412476,-26.03564611353866,-0.007110726803126369,0.0,-0.007110726803126369
0.18200000000000013,move_to_zero,-0.002942941262628806,-4.004287438605999,4.0013444973433705,-48.546433124176964,-83.944046564651,35.39761344047404,65.95847925233096,81.85848019030499,-15.900000937974028,23.751588386823336,50.157871301355996,-26.40628291453266,-0.007408331620679335,0.0,-0.007408331620679335
0.18400000000000014,move_to_zero,-0.0020709934210050404,-3.9998871227393993,3.997816129318394,-48.03005313965456,-83.8518003596349,35.82174721998033,65.64249360700035,81.76852581646948,-16.12603220946913,23.32634916097291,50.1027527614644,-26.77640360049149,-0.0077181547892490945,0.0,-0.0077181547892490945
0.18600000000000014,move_to_zero,-0.0013085964480104857,-3.995486806872799,3.9941782104247885,-47.51655764274127,-83.7595541546188,36.24299651187753,65.32732804312701,81.67857144263398,-16.35124339950697,22.90165339109793,50.04763422157279,-27.145980830474862,-0.008029211031308246,0.0,-0.008029211031308246
0.18800000000000014,move_to_zero,-0.0006727956912785519,-3.991086491006199,3.9904136953149205,-47.00597214908296,-83.66730794960269,36.66133580051973,65.01300667069759,81.58861706879848,-16.575610398100892,22.47752897857193,49.9925156816812,-27.51498670310927,-0.008329796212489731,0.0,-0.008329796212489731
0.19000000000000014,move_to_zero,-0.00014279284543239934,-3.986686175139599,3.9865433822941667,-46.49830594815422,-83.57506174458659,37.07675579643237,64.6995680266087,81.49866269496299,-16.799094668354286,22.054006346552256,49.937397141789596,-27.88339079523734,-0.008615277089669304,0.0,-0.008615277089669304
0.19200000000000014,move_to_zero,0.0003015117204575692,-3.9822858592729995,3.982587370993457,-45.993570626099434,-83.48281553957048,37.48924491347105,64.38700484487566,81.40870832112748,-17.021703476251815,21.631108756210274,49.882278601897994,-28.25116984568772,-0.008910954498294802,0.0,-0.008910954498294802
0.19400000000000014,move_to_zero,0.0006752772345988864,-3.9778855434063995,3.9785608206409986,-45.491760046679396,-83.3905693345544,37.898809287875004,64.07533462409054,81.31875394729198,-17.243419323201437,21.208854032302217,49.8271600620064,-28.618306029704183,-0.009191431823801279,0.0,-0.009191431823801279
0.19600000000000015,move_to_zero,0.0009917806705776373,-3.9734852275397996,3.974477008210377,-44.99288634444682,-83.29832312953829,38.305436785091466,63.76456611126236,81.22879957345648,-17.464233462194123,20.78724598849001,49.7720415221148,-28.984795533624787,-0.00945908335929397,0.0,-0.00945908335929397
0.19800000000000015,move_to_zero,0.0012623446394150828,-3.9690849116731997,3.9703472563126145,-44.49694429446003,-83.2060769245222,38.709132630062165,63.45471101040417,81.13884519962097,-17.684134189216806,20.366296903874492,49.716922982223196,-29.350626078348704,-0.0097154968248389,0.0,-0.0097154968248389
0.20000000000000015,move_to_zero,0.0014974040725876264,-3.9646845958065993,3.9661819998791867,-44.00393696313445,-83.1138307195061,39.10989375637165,63.145786497618815,81.04889082578549,-17.903104328166677,19.94602458446048,49.661804442331594,-29.715779857871112,-0.009964787955243288,0.0,-0.009964787955243288
0.20200000000000015,move_to_zero,0.0017050757163492136,-3.9602842799399993,3.9619893556563484,-43.51387249027696,-83.02158451448999,39.50771202421303,62.83781906364483,80.95893645194998,-18.12111738830515,19.526414332232683,49.60668590244,-30.080271570207316,-0.010211875065012187,0.0,-0.010211875065012187
0.20400000000000015,move_to_zero,0.0018905689958136744,-3.9558839640733994,3.957774533069213,-43.02678761387003,-82.92933830947389,39.902550695603864,62.53082664098501,80.86898207811447,-18.33815543712946,19.107493026896556,49.5515673625484,-30.44407433565184,-0.010454897101913012,0.0,-0.010454897101913012
0.20600000000000016,move_to_zero,0.0020591144007863246,-3.9514836482067994,3.9535427626075856,-42.54267144311118,-82.8370921044578,40.294420661346614,62.22479267904378,80.77902770427899,-18.554235025235208,18.689271765487376,49.496448822656795,-30.80717705716942,-0.010693769424358793,0.0,-0.010693769424358793
0.20800000000000016,move_to_zero,0.0022168099889385393,-3.947083332340199,3.9493001423291374,-42.06151242049269,-82.7448458994417,40.68333347894901,61.9197379128398,80.68907333044348,-18.769335417603678,18.271764339409764,49.4413302827652,-31.169565943355437,-0.010928583057939218,0.0,-0.010928583057939218
0.21000000000000016,move_to_zero,0.0023667872468232823,-3.942683016473599,3.9450498037204222,-41.58330393047092,-82.65259969442559,41.06929576395467,61.615703010966406,80.59911895660798,-18.983415945641575,17.854975363215416,49.38621174287359,-31.531236379658175,-0.01116076793741449,0.0,-0.01116076793741449
0.21200000000000016,move_to_zero,0.0025130380549841466,-3.938282700606999,3.940795738661983,-41.10805015764918,-82.5603534894095,41.45230333176031,61.31272285211989,80.50916458277248,-19.196441730652595,17.438897876818434,49.331093202982,-31.892195326163563,-0.011394764273238241,0.0,-0.011394764273238241
0.21400000000000016,move_to_zero,0.002658177031812191,-3.933882384740399,3.9365405617722113,-40.63573500498037,-82.46810728439338,41.832372279413015,61.01079208063571,80.41921020893697,-19.408418128301264,17.023528413785787,49.275974663090395,-32.25244624930461,-0.0116300984741089,0.0,-0.0116300984741089
0.21600000000000016,move_to_zero,0.0028018877031791645,-3.929482068873799,3.932283956576978,-40.16634603259484,-82.37586107937729,42.20951504678245,60.70992852679198,80.32925583510148,-19.6193273083095,16.608882990679398,49.2208561231988,-32.6119731325194,-0.011878825951882865,0.0,-0.011878825951882865
0.21800000000000017,move_to_zero,0.0029452619609530942,-3.925081753007199,3.9280270149681518,-39.699866835653836,-82.28361487436119,42.583748038707355,60.41013284876012,80.23930146126598,-19.82916861250586,16.194957715879443,49.1657375833072,-32.97077986742775,-0.012137706721960503,0.0,-0.012137706721960503
0.22000000000000017,move_to_zero,0.003104649249053241,-3.9206814371406,3.923786086389653,-39.23629250104331,-82.1913686693451,42.95507616830179,60.11140558843232,80.14934708743048,-20.037941498998165,15.781763245518743,49.110619043415596,-33.32885579789685,-0.012411406660549991,0.0,-0.012411406660549991
0.22200000000000017,move_to_zero,0.0032907993716512402,-3.9162811212739994,3.9195719206456507,-38.77560885183519,-82.099122464329,43.32351361249381,59.813749930514476,80.05939271359497,-20.2456427830805,15.369301278249441,49.055500503523994,-33.68619922527455,-0.012677091561146102,0.0,-0.012677091561146102
0.22400000000000017,move_to_zero,0.0035322527832716577,-3.9118808054073995,3.915413058190671,-38.31781513986658,-82.00687625931289,43.68906111944631,59.517178504898574,79.96943833975948,-20.452259834860904,14.957602824800203,49.00038196363239,-34.04277913883219,-0.01293902218194434,0.0,-0.01293902218194434
0.22600000000000017,move_to_zero,0.00382090886359125,-3.9074804895407995,3.9113013984043907,-37.862901323921335,-81.9146300542968,44.05172873037546,59.221692576749284,79.87948396592398,-20.657791389174697,14.546649929423433,48.9452634237408,-34.39861349431737,-0.013221392675603304,0.0,-0.013221392675603304
0.22800000000000017,move_to_zero,0.004133504277614714,-3.9030801736741996,3.9072136779518143,-37.41086754703557,-81.82238384928068,44.41151630224511,58.92730447563307,79.78952959208848,-20.862225116455413,14.136458989503993,48.890144883849196,-34.7536858943452,-0.013522727715872963,0.0,-0.013522727715872963
0.23000000000000018,move_to_zero,0.004446797189756195,-3.898679857807599,3.9031266549973553,-36.9617141911492,-81.73013764426459,44.76842345311539,58.63401024711692,79.69957521825299,-21.06556497113607,13.727054599929188,48.8350263439576,-35.10797174402841,-0.013834380556604946,0.0,-0.013834380556604946
0.23200000000000018,move_to_zero,0.004748810257646011,-3.8942795419409992,3.8990283521986453,-36.51544033398729,-81.63789143924849,45.1224511052612,58.34182941184769,79.60962084441748,-21.267791432569787,13.318416949453646,48.77990780406599,-35.46149085461235,-0.014163855810681707,0.0,-0.014163855810681707
0.23400000000000018,move_to_zero,0.0050681626344808725,-3.8898792260743993,3.8949473887088804,-36.0720283222166,-81.5456452342324,45.47361691201579,58.05076611422975,79.51966647058198,-21.46890035635223,12.910562319719286,48.72478926417439,-35.8142269444551,-0.014471498953092517,0.0,-0.014471498953092517
0.23600000000000018,move_to_zero,0.005388353506761596,-3.8854789102077993,3.890867263714561,-35.63145792315619,-81.45339902921629,45.821941106060095,57.76083096045175,79.42971209674648,-21.668881136294736,12.503504742784276,48.669670724282796,-36.16616598149852,-0.014761986445836761,0.0,-0.014761986445836761
0.23800000000000018,move_to_zero,0.0057224172803118254,-3.881078594341199,3.8868010116215106,-35.19371650910387,-81.36115282420019,46.16743631509632,57.472039787344485,79.33975772291097,-21.86771793556649,12.097216694148644,48.614552184391194,-36.51733549024255,-0.015037470587333172,0.0,-0.015037470587333172
0.24000000000000019,move_to_zero,0.006062685025310131,-3.876678278474599,3.8827409634999093,-34.758788035017645,-81.2689066191841,46.51011858416645,57.18439407348035,79.24980334907549,-22.065409275595144,11.691677900569452,48.5594336444996,-36.86775574393015,-0.015300289995302587,0.0,-0.015300289995302587
0.2420000000000002,move_to_zero,0.006392349218460277,-3.872277962607999,3.8786703118264594,-34.32667302050972,-81.17666041416798,46.84998739365826,56.897897434619736,79.15984897523998,-22.261951540620245,11.28686018482222,48.504315104608,-37.21745491978578,-0.015551154136545755,0.0,-0.015551154136545755
0.2440000000000002,move_to_zero,0.006717219995053506,-3.867877646741399,3.8745948667364525,-33.89733783834227,-81.08441420915189,47.18707637080962,56.61255252767362,79.06989460140447,-22.45734207373085,10.8827426666054,48.449196564716395,-37.56645389811099,-0.0157940750573819,0.0,-0.0157940750573819
0.2460000000000002,move_to_zero,0.0070217807585132965,-3.8634773308747987,3.870499111633312,-33.47077230074694,-80.99216800413579,47.521395703388855,56.328337497855706,78.97994022756899,-22.651602729713282,10.479340817448648,48.39407802482479,-37.91473720737615,-0.016033800345557517,0.0,-0.016033800345557517
0.2480000000000002,move_to_zero,0.007300657068965312,-3.8590770150081988,3.866377672077164,-33.0469738573986,-80.8999217991197,47.8529479417211,56.04525625348854,78.88998585373348,-22.84472960024494,10.07665416791613,48.33895948493319,-38.26230531701706,-0.01628340123069606,0.0,-0.01628340123069606
0.25000000000000017,move_to_zero,0.0075533166565624026,-3.8546766991415997,3.862230015798162,-32.62591522248939,-80.80767559410359,48.181760371614196,55.76333194921777,78.80003147989798,-23.03669953068021,9.674707313954732,48.2838409450416,-38.60913363108686,-0.01653093282351421,0.0,-0.01653093282351421
0.25200000000000017,move_to_zero,0.007800662258696405,-3.8502763832749993,3.8580770455336957,-32.20759016187004,-80.71542938908749,48.50783922721745,55.482565936583995,78.71007710606249,-23.22751116947849,9.273502135699662,48.228722405149995,-38.955220269450336,-0.01677693414342669,0.0,-0.01677693414342669
0.25400000000000017,move_to_zero,0.008040687024950127,-3.8458760674083994,3.8539167544333495,-31.79200615917236,-80.62318318407138,48.83117702489902,55.20295446856577,78.62012273222697,-23.417168263661203,8.873080128805487,48.1736038652584,-39.30052373645292,-0.017024503673217107,0.0,-0.017024503673217107
0.25600000000000017,move_to_zero,0.008280159032344591,-3.8414757515417994,3.849755910574144,-31.37914346906502,-80.53093697905528,49.15179350999026,54.92448376167378,78.53016835839148,-23.6056845967177,8.473442701355008,48.11848532536679,-39.64504262401178,-0.017266672404859386,0.0,-0.017266672404859386
0.2580000000000002,move_to_zero,0.008519242674110736,-3.8370754356751995,3.8455946783493102,-30.968972290206807,-80.43869077403919,49.46971848383238,54.64714375508156,78.44021398455598,-23.793070229474424,8.074594545076211,48.063366785475196,-39.98877224039899,-0.01750848584368371,0.0,-0.01750848584368371
0.2600000000000002,move_to_zero,0.008738477485173885,-3.832675119808599,3.841413597293773,-30.56149299425391,-80.34644456902309,49.78495157476918,54.37092941023372,78.35025961072049,-23.979330200486764,7.67654979841114,48.008248245583594,-40.33169844717246,-0.017746347755713605,0.0,-0.017746347755713605
0.2620000000000002,move_to_zero,0.008940303298096319,-3.828274803941999,3.8372151072400955,-30.156686311902757,-80.254198364007,50.097512052104236,54.0958371928948,78.26030523688497,-24.164468043990176,7.279300610198644,47.95312970569199,-40.673829095493346,-0.017980472475318796,0.0,-0.017980472475318796
0.2640000000000002,move_to_zero,0.009126305034943204,-3.823874488075399,3.8330007931103425,-29.75454558047874,-80.16195215899089,50.407406578512145,53.82185027539276,78.17035086304948,-24.348500587656716,6.882841363574092,47.8980111658004,-41.0151698022263,-0.01821133840361862,0.0,-0.01821133840361862
0.2660000000000002,move_to_zero,0.009301688257119354,-3.8194741722087993,3.828775860465919,-29.355061349561826,-80.06970595397479,50.71464460441297,53.548951369711524,78.08039648921398,-24.531445119502457,6.4871648277384795,47.842892625908796,-41.355727798170314,-0.018445782265937138,0.0,-0.018445782265937138
0.2680000000000002,move_to_zero,0.009469485880063688,-3.815073856342199,3.8245433422222623,-28.95822965358365,-79.97745974895868,51.01923009537503,53.277117268634555,77.99044211537847,-24.713324846743916,6.09228663462984,47.787774086017194,-41.69548745138735,-0.01868729565387664,0.0,-0.01868729565387664
0.2700000000000002,move_to_zero,0.009631831723611265,-3.810673540475599,3.8203053721992104,-28.5640332324125,-79.8852135439426,51.3211803115301,53.00634736350948,77.90048774154299,-24.894140378033512,5.698226979296253,47.73265554612559,-42.03442856682934,-0.018929139100562133,0.0,-0.018929139100562133
0.2720000000000002,move_to_zero,0.00979344454215653,-3.806273224608999,3.8160666691511556,-28.17248068646326,-79.79296733892649,51.62048665246323,52.73664328298227,77.81053336770748,-25.073890084725207,5.304983585620713,47.677537006234,-42.372553420613286,-0.019169373032264594,0.0,-0.019169373032264594
0.2740000000000002,move_to_zero,0.009980843840581103,-3.801872908742399,3.81185375258298,-27.783556578551476,-79.70072113391039,51.917164555358916,52.46799181088983,77.72057899387197,-25.25258718298214,4.91253226088276,47.622418466342396,-42.70988620545963,-0.019414175946851804,0.0,-0.019414175946851804
0.2760000000000002,move_to_zero,0.010183399530860303,-3.7974725928757986,3.807655992406659,-27.39724783245991,-79.60847492889428,52.21122709643437,52.20038455283376,77.63062462003649,-25.430240067202725,4.520883508499479,47.567299926450794,-43.04641641795131,-0.01967451973230542,0.0,-0.01967451973230542
0.2780000000000002,move_to_zero,0.010411632489687255,-3.7930722770091996,3.803483909498887,-27.013508002400073,-79.51622872387819,52.50272072147811,51.93380507368905,77.54067024620097,-25.606865172511924,4.1300306847832795,47.5121813865592,-43.38215070177592,-0.019958283663208592,0.0,-0.019958283663208592
0.2800000000000002,move_to_zero,0.010644924288055255,-3.7886719611425996,3.7993168854306547,-26.632332864993522,-79.42398251886209,52.79164965386857,51.66825518669395,77.45071587236548,-25.78246068567153,3.7399602552968836,47.45706284666759,-43.717102591370704,-0.020270024887781957,0.0,-0.020270024887781957
0.2820000000000002,move_to_zero,0.01085963341554941,-3.7842716452759992,3.7951312786915485,-26.253729947368434,-79.331736313846,53.07800636647756,51.40373200617599,77.36076149852998,-25.95702949235399,3.3506771875552346,47.401944306775995,-44.05126711922076,-0.020597204958581906,0.0,-0.020597204958581906
0.2840000000000002,move_to_zero,0.011059011658487642,-3.7798713294093993,3.7909303410678867,-25.8776784738996,-79.2394901088299,53.3618116349303,51.14024043921245,77.27080712469449,-26.130566685482037,2.9621803693221276,47.34682576688439,-44.38464539756227,-0.020938732837772384,0.0,-0.020938732837772384
0.2860000000000002,move_to_zero,0.011245667171434435,-3.7754710135427993,3.7867166807142336,-25.50418152462622,-79.14724390381379,53.64306237918757,50.87777004493994,77.18085275085897,-26.30308270591903,2.5744942171064706,47.29170722699279,-44.71721300988632,-0.02127434756044274,0.0,-0.02127434756044274
0.2880000000000002,move_to_zero,0.011421890149333137,-3.7710706976761994,3.7824925878255327,-25.13321370620104,-79.05499769879769,53.92178399259665,50.61631054290599,77.09089837702348,-26.474587834117486,2.187615975880108,47.2365886871012,-45.04897271122109,-0.02158412954311066,0.0,-0.02158412954311066
0.2900000000000002,move_to_zero,0.01158957120237465,-3.766670381809599,3.7782599530119736,-24.764765658669567,-78.96275149378158,54.197985835112014,50.35586363579108,77.00094400318798,-26.6450803673969,1.8015632966240762,47.181470147209595,-45.37990685058552,-0.021873207408636495,0.0,-0.021873207408636495
0.2920000000000002,move_to_zero,0.011750516524687737,-3.762270065942999,3.7740205824676867,-24.398826069508377,-78.87050528876549,54.47167921925711,50.09642755441615,76.91098962935247,-26.81456207493632,1.416354564666511,47.12635160731799,-45.70999704265148,-0.022144671812756922,0.0,-0.022144671812756922
0.2940000000000002,move_to_zero,0.011905369782196147,-3.757869750076399,3.769775119858595,-24.03537583353788,-78.77825908374939,54.742883250211506,49.838023683102776,76.82103525551699,-26.983011572414213,1.0319964197897662,47.07123306742639,-46.03923664763663,-0.02240131135128446,0.0,-0.02240131135128446
0.2960000000000002,move_to_zero,0.012057679928511625,-3.753469434209799,3.765527114138311,-23.674414536551197,-78.6860128787333,55.0115983421821,49.58064840849384,76.73108088168148,-27.150432473187635,0.6484934897083868,47.016114527534796,-46.36762103782641,-0.02264477358718356,0.0,-0.02264477358718356
0.2980000000000002,move_to_zero,0.012215513885220235,-3.749069118343199,3.761284632228419,-23.31629579567089,-78.59376667371718,55.277470878046294,49.32372536302846,76.64112650784598,-27.317401144817524,0.2749557664483331,46.960995987643194,-46.68604022119486,-0.02287948016903072,0.0,-0.02287948016903072
0.3000000000000002,move_to_zero,0.012407088901700312,-3.744668802476599,3.757075891378299,-22.96268744963789,-78.50152046870109,55.5388330190632,49.064636222705985,76.55117213401049,-27.4865359113045,-0.04683986878831,46.90587744775159,-46.9527173165399,-0.02310893849662645,0.0,-0.02310893849662645
0.3020000000000002,move_to_zero,0.012613315707422221,-3.740268486609999,3.7528818023174213,-22.613454837265298,-78.40927426368499,55.7958194264197,48.803632112844035,76.46121776017497,-27.65758564733094,-0.31892908047686874,46.85075890786,-47.16968798833687,-0.02333465247614654,0.0,-0.02333465247614654
0.3040000000000002,move_to_zero,0.012831304281654419,-3.735868170743399,3.7486994750250533,-22.268473886004546,-78.31702805866888,56.04855417266434,48.5409469169182,76.37126338633948,-27.830316469421277,-0.5433255209981016,46.79564036796839,-47.33896588896649,-0.023555868349540557,0.0,-0.023555868349540557
0.3060000000000002,move_to_zero,0.01307269325859845,-3.7314678548767994,3.7445405481353977,-21.927599609115184,-78.22478185365279,56.2971822445376,48.276800272386794,76.28130901250398,-28.00450874011719,-0.7223799367756085,46.740521828076794,-47.462901764852404,-0.023772540965747952,0.0,-0.023772540965747952
0.3080000000000002,move_to_zero,0.013333276652056218,-3.7270675390101995,3.7404008156622557,-21.590699310470164,-78.13253564863669,56.541836338166526,48.011377198123476,76.19135463866847,-28.179977440544995,-0.8582729431057918,46.68540328818519,-47.54367623129098,-0.023984751289210286,0.0,-0.023984751289210286
0.3100000000000002,move_to_zero,0.013602537793739376,-3.7226672231435995,3.736269760937339,-21.257640180674503,-78.0402894436206,56.782649262946094,47.74484842126299,76.10140026483299,-28.356551843570003,-0.9527725547162703,46.6302847482936,-47.583057303009866,-0.02419400073786601,0.0,-0.02419400073786601
0.3120000000000002,move_to_zero,0.013853395440667517,-3.718266907276999,3.7321203027176666,-20.928289628708615,-77.94804323860448,57.01975360989587,47.47737282448057,76.01144589099748,-28.53407306651691,-1.0075900316364834,46.575166208401996,-47.58275624003848,-0.02439925734039914,0.0,-0.02439925734039914
0.3140000000000002,move_to_zero,0.014080802986053171,-3.713866591410399,3.7279473943964523,-20.60254219882603,-77.85579703358839,57.25325483476236,47.209120427012856,75.92149151716198,-28.712371090149126,-1.0243415430152107,46.520047668510394,-47.544389211525605,-0.02460237571268399,0.0,-0.02460237571268399
0.3160000000000002,move_to_zero,0.014289864151501241,-3.7094662755437993,3.7237561396953005,-20.28029627718819,-77.76355082857228,57.48325455138409,46.94024634660601,75.83153714332649,-28.891290796720476,-1.0046040274653814,46.46492912861879,-47.469533156084175,-0.024805007951845495,0.0,-0.024805007951845495
0.3180000000000002,move_to_zero,0.014484134625966743,-3.7050659596771993,3.719550094303166,-19.961441981841162,-77.67130462355618,57.70986264171502,46.6708844983625,75.74158276949098,-29.070698271128478,-0.9499039961150699,46.40981058872719,-47.35971458484226,-0.02500588866103009,0.0,-0.02500588866103009
0.32000000000000023,move_to_zero,0.014667421954588672,-3.700665643810599,3.7153330657651877,-19.645861494709102,-77.57905841854009,57.933196923830984,46.40117035882639,75.65162839565548,-29.250458036829087,-0.8616745760808118,46.354692048835595,-47.216366624916404,-0.025207048698245114,0.0,-0.025207048698245114
0.32200000000000023,move_to_zero,0.014841604656562065,-3.696265327943999,3.7111069326005612,-19.33343163250841,-77.48681221352399,58.15338058101558,46.13124813220057,75.56167402181998,-29.430425889619414,-0.7413639446758358,46.29957350894399,-47.040937453619826,-0.025410297979517084,0.0,-0.025410297979517084
0.32400000000000023,move_to_zero,0.015009634633369398,-3.691865012077399,3.7068746467107685,-19.024045233623337,-77.3945660085079,58.370520774884554,45.861231709680744,75.47171964798449,-29.61048793830374,-0.5903292917798033,46.2444549690524,-46.8347842608322,-0.02561449804759956,0.0,-0.02561449804759956
0.32600000000000023,move_to_zero,0.015185895216834652,-3.687464696210799,3.7026505914276338,-18.717636546085973,-77.30231980349178,58.584683257405814,45.59124405119117,75.38176527414898,-29.790521222957807,-0.4099009246545255,46.1893364291608,-46.59923735381532,-0.025818245640488832,0.0,-0.025818245640488832
0.32800000000000024,move_to_zero,0.015357046930293617,-3.6830643803441987,3.6984214272744924,-18.413944509802693,-77.21007359847569,58.796129088673,45.32161938331181,75.29181090031348,-29.970191517001666,-0.2052517160574737,46.13421788926919,-46.33946960532666,-0.02602435848109431,0.0,-0.02602435848109431
0.33000000000000024,move_to_zero,0.015522597682037571,-3.6786640644775987,3.694186662159636,-18.111568363785924,-77.11782739345958,59.00625902967366,45.05441120332808,75.20185652647798,-30.147445323149903,-0.00912629450315609,46.07909934937759,-46.08822564388075,-0.0262325326814196,0.0,-0.0262325326814196
0.33200000000000024,move_to_zero,0.01568406309794725,-3.674263748610999,3.689947811708946,-17.809868638629528,-77.02558118844348,59.21571254981396,44.79052728545002,75.11190215264247,-30.321374867192453,0.16305378107060564,46.02398080948599,-45.86092702841538,-0.026442767671851657,0.0,-0.026442767671851657
0.33400000000000024,move_to_zero,0.015841437963071622,-3.669863432744399,3.6857048707074704,-17.508900499061678,-76.93333498342739,59.424434484365705,44.529828910154706,75.02194777880699,-30.492118868652284,0.3121780766856938,45.968862269594396,-45.6566841929087,-0.026657955134737298,0.0,-0.026657955134737298
0.33600000000000024,move_to_zero,0.015996087409335735,-3.6654631168777994,3.681459204287135,-17.208738268862817,-76.84108877841129,59.63235050954847,44.27221551159481,74.93199340497148,-30.65977789337667,0.43910203970505196,45.913743729702794,-45.47464168999774,-0.026872458911775955,0.0,-0.026872458911775955
0.33800000000000024,move_to_zero,0.016148019865052536,-3.6610628010111994,3.677210820876252,-16.909447967647775,-76.74884257339518,59.8393946057474,44.01757069551918,74.84203903113597,-30.824468335616785,0.5446478311354946,45.85862518981119,-45.3139773586757,-0.02708639501419811,0.0,-0.02708639501419811
0.34000000000000025,move_to_zero,0.01629607300602609,-3.6566624851445995,3.6729585581506257,-16.611084630177064,-76.65659636837908,60.04551173820202,43.76574882967233,74.75208465730049,-30.986335827628153,0.6296158502151655,45.80350664991959,-45.173890799704424,-0.02730105404138023,0.0,-0.02730105404138023
0.34200000000000025,move_to_zero,0.016441009525648476,-3.652262169277999,3.6687031788036477,-16.313726836177924,-76.56435016336299,60.25062332718507,43.5165710588993,74.66213028346498,-31.145559224565673,0.6955406674888026,45.74838811002799,-45.05284744253919,-0.027520589148290538,0.0,-0.027520589148290538
0.34400000000000025,move_to_zero,0.016582667106824465,-3.647861853411399,3.6644445205182237,-16.017400957719627,-76.47210395834688,60.45470300062725,43.269916286820674,74.57217590962948,-31.302259622808805,0.7431385243845118,45.693269570136394,-44.95013104575188,-0.027764358782330276,0.0,-0.027764358782330276
0.34600000000000025,move_to_zero,0.016721613522633606,-3.643461537544799,3.6601831510674327,-15.72215578600063,-76.3798577533308,60.65770196733017,43.025690508235535,74.48222153579398,-31.456531027558448,0.7731166439045518,45.63815103024479,-44.86503438634024,-0.028019304575620838,0.0,-0.028019304575620838
0.34800000000000025,move_to_zero,0.016857638789960695,-3.6390612216781992,3.65591886046816,-15.42802684577075,-76.28761154831469,60.859584702543934,42.78379279030273,74.39226716195847,-31.60847437165574,0.7861434206502437,45.5830324903532,-44.79688906970296,-0.02827738506000825,0.0,-0.02827738506000825
0.35000000000000026,move_to_zero,0.016989554239575728,-3.634660905811599,3.6516504600511746,-15.135059683299845,-76.19536534329859,61.06030565999875,42.544142946252784,74.30231278812298,-31.758169841870192,0.7828451534187886,45.52791395046159,-44.7450687970428,-0.02854343384337326,0.0,-0.02854343384337326
0.35200000000000026,move_to_zero,0.017117073078976097,-3.630260589944999,3.647377663023975,-14.843295885743977,-76.10311913828248,61.2598232525385,42.306680884848106,74.21235841428748,-31.905677529439373,0.7638472318673717,45.472795410569994,-44.70894817870262,-0.028824755394743773,0.0,-0.028824755394743773
0.35400000000000026,move_to_zero,0.017241006738794373,-3.625860274078399,3.643101280817193,-14.55275566065725,-76.01087293326638,61.45811727260914,42.07130819427872,74.12240404045198,-32.05109584617326,0.7297276177100758,45.41767687067839,-44.687949252968316,-0.029094471065079265,0.0,-0.029094471065079265
0.35600000000000026,move_to_zero,0.01736205137843186,-3.621459958211799,3.638822009590231,-14.263482471451866,-75.91862672825027,61.65514425679841,41.83792544788116,74.03244966661647,-32.19452421873531,0.6810460032596521,45.36255833078679,-44.68151232752714,-0.029380038082772484,0.0,-0.029380038082772484
0.35800000000000026,move_to_zero,0.017480518658672176,-3.6170596423451986,3.634540161003871,-13.97550548457883,-75.82638052323418,61.850875038655346,41.606474485320355,73.94249529278098,-32.33602080746062,0.6183666693330225,45.307439790895195,-44.689073121562174,-0.029684144968306476,0.0,-0.029684144968306476
0.36000000000000026,move_to_zero,0.01759851086949848,-3.6126593264785987,3.630257837348097,-13.688860477299398,-75.7341343182181,62.045273840918696,41.37686796920014,73.85254091894548,-32.47567294974534,0.5422178977781883,45.25232125100359,-44.710103353225406,-0.030013020580192982,0.0,-0.030013020580192982
0.36200000000000027,move_to_zero,0.017714017051137166,-3.6082590106119987,3.625973027663136,-13.403586777743781,-75.64188811320199,62.2383013354582,41.14903121410096,73.76258654510997,-32.61355533100901,0.4531071903606314,45.19720271111199,-44.74409552075136,-0.03034024655728271,0.0,-0.03034024655728271
0.36400000000000027,move_to_zero,0.01782771191747536,-3.603858694745399,3.6216864066628744,-13.119690034639344,-75.54964190818589,62.42995187354654,40.92286436919182,73.67263217127449,-32.749767802082665,0.3515280104739359,45.14208417122039,-44.790556160746455,-0.030659191352185967,0.0,-0.030659191352185967
0.36600000000000027,move_to_zero,0.017940588416925755,-3.5994583788787993,3.617398967295725,-12.837203916016163,-75.45739570316978,62.620191787153615,40.6982935655653,73.58267779743898,-32.884384231873675,0.23796836349806208,45.086965631328795,-44.84899726783073,-0.030958036182599156,0.0,-0.030958036182599156
0.36800000000000027,move_to_zero,0.018055580613509835,-3.5950580630121993,3.613113643625709,-12.55673764508404,-75.36514949815368,62.80841185306964,40.4743273715177,73.49272342360348,-33.01839605208578,0.12750918747640202,45.03184709143719,-44.904337903960794,-0.03123553214742843,0.0,-0.03123553214742843
0.3700000000000003,move_to_zero,0.018171636490990524,-3.5906577471455994,3.60882938363659,-12.278872355645895,-75.27290329313757,62.99403093749168,40.25009182976526,73.40276904976798,-33.15267722000272,0.034152576782168285,44.97672855154559,-44.94257597476342,-0.03149522420132356,0.0,-0.03149522420132356
0.3720000000000003,move_to_zero,0.018289770999049694,-3.586257431278999,3.6045472022780487,-12.003920863743621,-75.18065708812149,63.17673622437787,40.02512179457207,73.31281467593247,-33.2876928813604,-0.034305409523551586,44.921610011653996,-44.95591542117755,-0.03173989972829556,0.0,-0.03173989972829556
0.3740000000000003,move_to_zero,0.01840972021397024,-3.581857115412399,3.6002668356263694,-11.731991976659984,-75.08841088310538,63.3564189064454,39.79923513598042,73.22286030209698,-33.42362516611656,-0.07430879754718696,44.86649147176239,-44.94080026930958,-0.031971331097107675,0.0,-0.031971331097107675
0.3760000000000003,move_to_zero,0.018531212340653865,-3.577456799545799,3.595988011886453,-11.463011223515363,-74.99616467808929,63.53315345457392,39.572547532016486,73.13290592826148,-33.56035839624499,-0.08691645471938098,44.81137293187079,-44.89828938659017,-0.03218956307757929,0.0,-0.03218956307757929
0.3780000000000003,move_to_zero,0.018653295494141676,-3.573056483679199,3.5917097791733408,-11.196757728333228,-74.90391847307319,63.707160744739966,39.34536307616411,73.04295155442597,-33.697588478261856,-0.07658911588851543,44.75625439197919,-44.83284350786771,-0.03239801061301496,0.0,-0.03239801061301496
0.3800000000000003,move_to_zero,0.018775121181766764,-3.5686561678125988,3.5874312889943654,-10.93294605198742,-74.81167226805708,63.87872621606966,39.118108896462395,72.95299718059049,-33.83488828412809,-0.04988859209262776,44.70113585208759,-44.75102444418022,-0.03259844203628907,0.0,-0.03259844203628907
0.3820000000000003,move_to_zero,0.01889746205157817,-3.564255851945999,3.583153313997577,-10.671256134083018,-74.71942606304098,64.04816992895796,38.891237589290675,72.86304280675498,-33.9718052174643,-0.014044853154246575,44.646017312195994,-44.66006216535024,-0.03279179725306573,0.0,-0.03279179725306573
0.3840000000000003,move_to_zero,0.019019723939867308,-3.559855536079399,3.578875260019266,-10.411368803194131,-74.62717985802489,64.21581105483075,38.665199319202394,72.77308843291948,-34.107889113717086,0.024088942611676493,44.59089877230439,-44.566809829692716,-0.03297918551741731,0.0,-0.03297918551741731
0.3860000000000003,move_to_zero,0.01914259966878415,-3.5554552202127994,3.5745978198815833,-10.15303735525973,-74.53493365300879,64.38189629774907,38.44031581505139,72.68313405908398,-34.24281824403259,0.0588652593752169,44.53578023241279,-44.47691497303757,-0.033163244259215706,0.0,-0.033163244259215706
0.3880000000000003,move_to_zero,0.019266114800122,-3.551054904346199,3.570321019146321,-9.896071114221355,-74.44268744799268,64.54661633377133,38.216772689579834,72.59317968524847,-34.37640699566864,0.08662677835272103,44.48066169252119,-44.394034914168465,-0.033344870442394745,0.0,-0.033344870442394745
0.3900000000000003,move_to_zero,0.019391284357877167,-3.546654588479599,3.566045872837476,-9.640402945289987,-74.35044124297659,64.7100382976866,37.99463640720484,72.50322531141298,-34.50858890420814,0.10566360767178366,44.425543152629594,-44.31987954495781,-0.03352597582618598,0.0,-0.03352597582618598
0.3920000000000003,move_to_zero,0.01951787023760556,-3.542254272612999,3.5617721428506046,-9.38602027208976,-74.25819503796048,64.87217476587071,37.773912294789056,72.41327093757748,-34.63935864278842,0.11533039821520777,44.37042461273799,-44.255094214522785,-0.03370583543720904,0.0,-0.03370583543720904
0.3940000000000003,move_to_zero,0.019645374859217375,-3.537853956746399,3.5574993316056167,-9.132979747902464,-74.16594883294438,65.03296908504191,37.55450986598205,72.32331656374198,-34.768806697759935,0.11640204443075162,44.31530607284639,-44.19890402841564,-0.033888063991301266,0.0,-0.033888063991301266
0.3960000000000003,move_to_zero,0.019773880646385935,-3.5334536408797987,3.5532275215261846,-8.88136027206912,-74.07370262792828,65.19234235585917,37.33628396256526,72.23336218990647,-34.89707822734121,0.11060164687972507,44.260187532954795,-44.14958588607507,-0.03407206416910476,0.0,-0.03407206416910476
0.3980000000000003,move_to_zero,0.019901278494898582,-3.529053325013199,3.5489546035080974,-8.631258592412134,-73.98145642291219,65.35019783050005,37.119060163321684,72.14340781607098,-35.02434765274929,0.10017879873185749,44.205068993063186,-44.104890194331325,-0.03425695789991588,0.0,-0.03425695789991588
0.4000000000000003,move_to_zero,0.020028754155499144,-3.524653009146599,3.544681763302098,-8.382783229000704,-73.88921021789609,65.50642698889538,36.902683278715394,72.05345344223548,-35.150770163520086,0.08752423012790828,44.14995045317159,-44.06242622304368,-0.03444060342688932,0.0,-0.03444060342688932
0.4020000000000003,move_to_zero,0.020156152280914105,-3.520252693279999,3.540408845560913,-8.136023844649785,-73.79696401287998,65.6609401682302,36.687017191463866,71.96349906839997,-35.2764818769361,0.07475557233223712,44.09483191327999,-44.02007634094775,-0.03462275136334656,0.0,-0.03462275136334656
0.4040000000000003,move_to_zero,0.020283095495269094,-3.515852377413399,3.536135472908668,-7.891064215209605,-73.70471780786389,65.81365359265428,36.47193812282287,71.87354469456449,-35.40160657174162,0.06355745601822527,44.039713373388395,-43.97615591737017,-0.03480215125656408,0.0,-0.03480215125656408
0.4060000000000003,move_to_zero,0.02040954960159052,-3.511452061546799,3.5318616111483894,-7.647923805271151,-73.61247160284778,65.96454779757663,36.257383966518745,71.78359032072898,-35.52620635421023,0.05462207499439309,43.98459483349679,-43.9299727585024,-0.03497960405050869,0.0,-0.03497960405050869
0.4080000000000003,move_to_zero,0.02053735144214198,-3.507051745680199,3.527589097122341,-7.406598731893537,-73.52022539783168,66.11362666593814,36.04331299114098,71.69363594689347,-35.650322955752486,0.04819646206252042,43.92947629360519,-43.88127983154267,-0.035157633251580944,0.0,-0.035157633251580944
0.4100000000000003,move_to_zero,0.020667467200240867,-3.5026514298135987,3.5233188970138394,-7.167082669890384,-73.42797919281558,66.26089652292521,35.829682889082825,71.60368157305798,-35.77399868397516,0.04454347802297124,43.87435775371359,-43.829814275690616,-0.035333973640996406,0.0,-0.035333973640996406
0.4120000000000003,move_to_zero,0.020798576544254314,-3.4982511139469987,3.519049690491253,-6.929361313788955,-73.33573298779949,66.40637167401053,35.61650256128773,71.51372719922247,-35.89722463793474,0.04349558992191589,43.81923921382199,-43.77574362390007,-0.03550696438895849,0.0,-0.03550696438895849
0.4140000000000003,move_to_zero,0.02093151187601639,-3.493850798080399,3.514782309956415,-6.693385578848319,-73.24348678278338,66.55010120393506,35.40380242720035,71.42377282538698,-36.01997039818663,0.04454020544857549,43.76412067393039,-43.719580468481816,-0.03567736678167625,0.0,-0.03567736678167625
0.4160000000000003,move_to_zero,0.021065278372341716,-3.4894504822137993,3.510515760586141,-6.459103988550475,-73.15124057776728,66.6921365892168,35.1916094870258,71.33381845155148,-36.14220896452568,0.04701015499854158,43.70900213403879,-43.66199197904025,-0.035843350987960605,0.0,-0.035843350987960605
0.4180000000000003,move_to_zero,0.02119968038778578,-3.485050166347199,3.5062498467349847,-6.226468169808108,-73.05899437275119,66.83252620294309,34.979968889347084,71.24386407771597,-36.263895188368885,0.050214567586409256,43.653883594147196,-43.60366902656079,-0.03600958767936595,0.0,-0.03600958767936595
0.4200000000000003,move_to_zero,0.021333844242846768,-3.480649850480599,3.5019836947234455,-5.9954549758694204,-72.96674816773508,66.97129319186566,34.76891320588984,71.15390970388047,-36.384996497990635,0.05353340680040834,43.598765054255594,-43.54523164745518,-0.03617667084515849,0.0,-0.03617667084515849
0.4220000000000003,move_to_zero,0.02146961666123638,-3.476249534613999,3.4977191512752355,-5.766036616820478,-72.87450196271898,67.10846534589851,34.55844807925785,71.06395533004498,-36.505507250787126,0.05645580957325372,43.543646514363985,-43.487190704790734,-0.03634361895974343,0.0,-0.03634361895974343
0.4240000000000003,move_to_zero,0.0216071604131842,-3.471849218747399,3.493456379160583,-5.538201878086143,-72.78225575770288,67.24405387961674,34.348562080141384,70.97400095620948,-36.625438876068095,0.05881108448377034,43.48852797447239,-43.42971688998862,-0.03650910216237696,0.0,-0.03650910216237696
0.4260000000000003,move_to_zero,0.02174610326612998,-3.4674489028807987,3.489195006146929,-5.311954073340797,-72.69000955268679,67.37805547934599,34.13927452816753,70.88404658237397,-36.744772054206436,0.06067747460629904,43.43340943458079,-43.37273195997449,-0.03667111834185366,0.0,-0.03667111834185366
0.4280000000000003,move_to_zero,0.021885642506414157,-3.4630485870141987,3.4849342295206127,-5.0872816559105445,-72.59776334767068,67.51048169176013,33.9305781229566,70.79409220853847,-36.863514085581876,0.062126907685456256,43.378290894689194,-43.31616398700374,-0.03682976053867065,0.0,-0.03682976053867065
0.4300000000000003,move_to_zero,0.022024690326627808,-3.458648271147599,3.480672961474227,-4.864168625076887,-72.50551714265458,67.6413485175777,33.72247096070377,70.70413783470298,-36.98166687399921,0.06308497724391353,43.32317235479759,-43.26008737755368,-0.03698499285212807,0.0,-0.03698499285212807
0.43200000000000033,move_to_zero,0.02216447909320574,-3.454247955280999,3.4764124343742044,-4.64259846345206,-72.41327093763847,67.77067247418641,33.51492647651211,70.61418346086747,-37.09925698435536,0.06346940957477176,43.268053814906,-43.204584405331225,-0.03713970409451341,0.0,-0.03713970409451341
0.43400000000000033,move_to_zero,0.022303533238109557,-3.449847639414399,3.4721511726525085,-4.4225529271399635,-72.32102473262238,67.89847180548242,33.30793401412302,70.52422908703198,-37.21629507290896,0.06333435298733608,43.21293527501439,-43.149600922027055,-0.0372923657571376,0.0,-0.0372923657571376
0.43600000000000033,move_to_zero,0.022441336572179286,-3.445447323547799,3.467888660119978,-4.204028123579208,-72.22877852760628,68.02475040402707,33.101478991842214,70.43427471319647,-37.33279572135426,0.06275822412748404,43.157816735122786,-43.0950585109953,-0.037443392107313365,0.0,-0.037443392107313365
0.43800000000000033,move_to_zero,0.02257592909309622,-3.441047007681199,3.463622936774295,-3.987017987554193,-72.13653232259018,68.14951433503599,32.89552995005121,70.34432033936098,-37.448790389309764,0.06187280756430363,43.10269819523119,-43.040825387666885,-0.037591757273021095,0.0,-0.037591757273021095
0.44000000000000034,move_to_zero,0.02270831805450757,-3.4366466918145986,3.459355009869106,-3.771543069408864,-72.04428611757409,68.27274304816522,32.690085521121325,70.25436596552548,-37.564280444404154,0.060809263566091405,43.04757965533959,-42.9867703917735,-0.03773700856924025,0.0,-0.03773700856924025
0.44200000000000034,move_to_zero,0.02283585323647857,-3.4322463759479986,3.455082229184477,-3.557612107605486,-71.95203991255798,68.3944278049525,32.485129326249556,70.16441159168997,-37.67928226544041,0.05972650056329004,42.992461115447995,-42.9327346148847,-0.03787933695690473,0.0,-0.03787933695690473
0.44400000000000034,move_to_zero,0.022957669512908452,-3.427846060081399,3.4508037295943077,-3.3452081341073527,-71.85979370754188,68.51458557343453,32.28066365186874,70.07445721785447,-37.79379356598573,0.05872437265170263,42.937342575556386,-42.87861820290468,-0.03801970480230086,0.0,-0.03801970480230086
0.44600000000000034,move_to_zero,0.023075478841762097,-3.423445744214799,3.4465212230565614,-3.1342959940529216,-71.76754750252577,68.63325150847285,32.07667536541175,69.98450284401898,-37.907827478607224,0.05787989853381647,42.88222403566479,-42.82434413713097,-0.03815769514106339,0.0,-0.03815769514106339
0.44800000000000034,move_to_zero,0.02319112704146734,-3.419045428348199,3.442236555389666,-2.9248819107704827,-71.67530129750969,68.75041938673921,31.87315508475812,69.89454847018347,-38.02139338542534,0.05716800679957004,42.82710549577319,-42.76993748897362,-0.03829246390986578,0.0,-0.03829246390986578
0.45000000000000034,move_to_zero,0.02330510402956104,-3.414645112481599,3.43795021651116,-2.7169636284037035,-71.58305509249358,68.86609146408988,31.67007878348078,69.80459409634798,-38.13451531286721,0.05656668973208023,42.77198695588159,-42.71542026614951,-0.0384258507998942,0.0,-0.0384258507998942
0.45200000000000035,move_to_zero,0.0234160981251337,-3.410244796614999,3.433660894740133,-2.510534292077007,-71.49080888747748,68.98027459540047,31.46741542788696,69.71463972251247,-38.24722429462551,0.05605483656985729,42.71686841598999,-42.660813579420136,-0.03856074652572202,0.0,-0.03856074652572202
0.45400000000000035,move_to_zero,0.02352480061896375,-3.405844480748399,3.4293692813673626,-2.3055584840272987,-71.39856268246137,69.09300419843407,31.265133546225485,69.62468534867698,-38.35955180245149,0.0556153259373758,42.66174987609839,-42.606134550161016,-0.03869542576546952,0.0,-0.03869542576546952
0.45600000000000035,move_to_zero,0.02363101138988248,-3.4014441648817986,3.425075176271681,-2.102008289077987,-71.30631647744528,69.20430818836729,31.063217820480148,69.53473097484148,-38.47151315436133,0.05523279188674984,42.60663133620679,-42.55139854432004,-0.03883197606562998,0.0,-0.03883197606562998
0.45800000000000035,move_to_zero,0.023735229806653223,-3.397043849015199,3.420779078821852,-1.8998919567542663,-71.21407027242918,69.31417831567492,30.861651989954364,69.44477660100597,-38.5831246110516,0.05489704849460128,42.55151279631519,-42.496615747820584,-0.038969048578143886,0.0,-0.038969048578143886
0.46000000000000035,move_to_zero,0.023838177380444525,-3.392643533148599,3.4164817105290437,-1.6991923517979795,-71.12182406741309,69.42263171561511,30.660405818707687,69.35482222717047,-38.694416408462786,0.054598022431510976,42.49639425642359,-42.44179623399208,-0.039105800662433604,0.0,-0.039105800662433604
0.46200000000000035,move_to_zero,0.02393758874194393,-3.3882432172819987,3.4121808060239425,-1.4999089178564278,-71.02957786239699,69.52966894454056,30.459483385157238,69.26486785333498,-38.805384468177735,0.05432996749526882,42.44127571653199,-42.38694574903672,-0.0392456028300433,0.0,-0.0392456028300433
0.46400000000000036,move_to_zero,0.02403272474988176,-3.383842901415399,3.4078756261652807,-1.3020272139628164,-70.93733165738088,69.63530444341806,30.258891574253457,69.17491347949948,-38.916021905246026,0.05408687981062417,42.38615717664039,-42.33207029682976,-0.039387405786194984,0.0,-0.039387405786194984
0.46600000000000036,move_to_zero,0.024124822510722097,-3.379442585548799,3.403567408059521,-1.1055444389661797,-70.84508545236478,69.73954101339861,30.058593541812563,69.08495910566397,-39.02636556385141,0.053866801231174474,42.331038636748794,-42.27717183551762,-0.03952945847208716,0.0,-0.03952945847208716
0.46800000000000036,move_to_zero,0.024213301325792615,-3.375042269682199,3.3992555710079917,-0.910441284811076,-70.75283924734867,69.8423979625376,29.858600147533124,68.99500473182847,-39.13640458429535,0.05366549940146068,42.275920096857185,-42.22225459745572,-0.03967148597391355,0.0,-0.03967148597391355
0.47000000000000036,move_to_zero,0.02429847180337905,-3.3706419538155985,3.3949404256189775,-0.7167345887172769,-70.66059304233258,69.9438584536153,29.658889063528612,68.90505035799298,-39.246161294464365,0.05347754968955515,42.22080155696559,-42.16732400727604,-0.03981475612129989,0.0,-0.03981475612129989
0.47200000000000036,move_to_zero,0.024380668783757983,-3.3662416379489986,3.3906223067327566,-0.5243984643904922,-70.56834683731647,70.04394837292598,29.459466511913398,68.81509598415747,-39.35562947224407,0.05329782274803698,42.16568301707399,-42.11238519432595,-0.03995680452851821,0.0,-0.03995680452851821
0.47400000000000037,move_to_zero,0.024459933949756204,-3.361841322082399,3.386301256032155,-0.3334139969375474,-70.47610063230039,70.14268663536284,29.260308972692545,68.72514161032198,-39.46483263762944,0.053122014363764465,42.11056447718239,-42.05744246281863,-0.04009961436370078,0.0,-0.04009961436370078
0.47600000000000037,move_to_zero,0.02453891721595311,-3.357441006215799,3.3819799234317522,-0.15619407305612565,-70.38385442728428,70.22766035422815,29.063829147810097,68.63518723648647,-39.57135808867638,0.053003320235720124,42.05544593729079,-42.002442617055074,-0.040244433622326777,0.0,-0.040244433622326777
0.47800000000000037,move_to_zero,0.02461969942250739,-3.3530406903491987,3.377660389771706,-0.008670242622106682,-70.29160822226818,70.28293797964608,28.87301978695344,68.54523286265096,-39.67221307569753,0.0538029279602424,42.00032739739919,-41.94652446943895,-0.04038930357058346,0.0,-0.04038930357058346
0.48000000000000037,move_to_zero,0.024702908234855686,-3.3486403744825988,3.3733432827174545,0.0997981865719237,-70.19936201725208,70.299160203824,28.689557793689826,68.45527848881548,-39.76572069512565,0.05574892700651351,41.94520885750759,-41.889459930501076,-0.04053465620976474,0.0,-0.04053465620976474
0.4820000000000004,move_to_zero,0.02478590541385681,-3.344240058615999,3.3690259640298557,0.17052848301673126,-70.10711581223597,70.2776442952527,28.513016733003422,68.36532411497997,-39.852307381976544,0.058233451157622615,41.890090317615986,-41.83185686645837,-0.04068139922034532,0.0,-0.04068139922034532
0.4840000000000004,move_to_zero,0.02486883115488026,-3.339839742749399,3.364708573904279,0.20478592328991688,-70.01486960721988,70.2196555305098,28.342987138170585,68.27536974114447,-39.93238260297389,0.0606991038862453,41.83497177772439,-41.77427267383815,-0.04082755085039329,0.0,-0.04082755085039329
0.4860000000000004,move_to_zero,0.024952206802464374,-3.3354394268827985,3.360391633685263,0.20380295848808613,-69.92262340220378,70.12642636069187,28.17908877014662,68.18541536730898,-40.00632659716236,0.06270294826350474,41.77985323783279,-41.71715028956928,-0.04097035880822269,0.0,-0.04097035880822269
0.4880000000000004,move_to_zero,0.025032717449384387,-3.331039111016199,3.3560718284655833,0.1687920319534156,-69.83037719718769,69.9991692291411,28.020917842166906,68.09546099347347,-40.07454315130656,0.06426333112404929,41.72473469794119,-41.66047136681714,-0.041109745246996274,0.0,-0.041109745246996274
0.4900000000000004,move_to_zero,0.025110351515243316,-3.326638795149599,3.3517491466648424,0.10823334923685117,-69.73813099217158,69.84636434140843,27.86662078695887,68.00550661963797,-40.1388858326791,0.06524805214337917,41.66961615804959,-41.60436810590621,-0.04124559841091742,0.0,-0.04124559841091742
0.4920000000000004,move_to_zero,0.02518495334552102,-3.3222384792829986,3.3474234326285197,0.03287370199978997,-69.64588478715548,69.67875848915527,27.713980239869947,67.91555224580247,-40.201572005932526,0.06498730005968885,41.61449761815798,-41.54951031809829,-0.0413811867781549,0.0,-0.0413811867781549
0.4940000000000004,move_to_zero,0.025257694143588215,-3.3178381634163987,3.343095857559987,-0.046945871344431296,-69.55363858213937,69.50669271079494,27.56091518368349,67.82559787196698,-40.264682688283486,0.06313633297844955,41.55937907826639,-41.49624274528794,-0.041517711662456984,0.0,-0.041517711662456984
0.4960000000000004,move_to_zero,0.025327657911580235,-3.3134378475497988,3.338765505461379,-0.1222386900343819,-69.46139237712327,69.3391536870889,27.40565259382474,67.73564349813147,-40.329990904306726,0.05972354913177978,41.50426053837479,-41.444536989243005,-0.04165535328072895,0.0,-0.04165535328072895
0.4980000000000004,move_to_zero,0.025395207821545116,-3.309037531683199,3.3344327395047437,-0.1894488534868941,-69.36914617210718,69.17969731862028,27.247520283602395,67.64568912429597,-40.39816884069357,0.0553279220902966,41.44914199848319,-41.39381407639289,-0.04179199523147246,0.0,-0.04179199523147246
0.5000000000000003,move_to_zero,0.025460363618609965,-3.3046372158165984,3.3300975794352086,-0.24886095804195776,-69.27689996709108,69.02803900904912,27.086597563429535,67.55573475046047,-40.46913718703094,0.05070471836949447,41.39402345859159,-41.343318740222095,-0.04192787685025465,0.0,-0.04192787685025465
0.5020000000000003,move_to_zero,0.025524084873635555,-3.300236899949999,3.3257609848236345,-0.30074260003534464,-69.18465376207499,68.88391116203964,26.922976552580405,67.46578037662498,-40.54280382404457,0.04646719375868849,41.33890491869999,-41.2924377249413,-0.04205999876668791,0.0,-0.04205999876668791
0.5040000000000003,move_to_zero,0.025588198743230702,-3.2958365840833994,3.32142478282663,-0.3453366989638366,-69.09240755705889,68.74707085809506,26.756774488594154,67.37582600278948,-40.61905151419533,0.043049536931429544,41.283786378808394,-41.240736841876966,-0.04218746593101778,0.0,-0.04218746593101778
0.5060000000000003,move_to_zero,0.02565103133729474,-3.291436268216799,3.317087299554094,-0.3828505721051374,-69.00016135204278,68.61731077993764,26.58813898258343,67.28587162895397,-40.69773264637054,0.04032679634917217,41.228667838916785,-41.188341042567615,-0.042309541618458076,0.0,-0.042309541618458076
0.5080000000000003,move_to_zero,0.025711813686952512,-3.287035952350199,3.3127477660371514,-0.4134899045162219,-68.90791514702669,68.49442524251046,26.417180659481613,67.19591725511847,-40.77873659563686,0.038188753839978155,41.1735492990252,-41.13536054518522,-0.042427871716483226,0.0,-0.042427871716483226
0.5100000000000003,move_to_zero,0.025770805074193496,-3.2826356364835987,3.3084064415577923,-0.4378784889005257,-68.81566894201057,68.37779045311005,26.244075499455597,67.10596288128298,-40.86188738182738,0.03665694489876215,41.11843075913359,-41.08177381423483,-0.04254096237056238,0.0,-0.04254096237056238
0.5120000000000003,move_to_zero,0.025827671742516742,-3.278235320616999,3.304062992359516,-0.456405825479065,-68.7234227369945,68.26701691151543,26.06896954588195,67.01600850744748,-40.94703896156553,0.03578097317128877,41.06331221924199,-41.0275312460707,-0.042652205659065745,0.0,-0.042652205659065745
0.5140000000000003,move_to_zero,0.025885581604827228,-3.273835004750399,3.299720586355226,-0.4692759574060397,-68.63117653197838,68.16190057457234,25.89198017552758,66.92605413361197,-41.03407395808439,0.03550014678241421,41.00819367935039,-40.97269353256798,-0.04276178157395944,0.0,-0.04276178157395944
0.5160000000000003,move_to_zero,0.025942706972965596,-3.2694346888837993,3.295377395856765,-0.47666098045040245,-68.53893032696229,68.06226934651188,25.713225865976934,66.83609975977649,-41.12287389379955,0.035677068498988766,40.95307513945879,-40.9173980709598,-0.0428703220758907,0.0,-0.0428703220758907
0.5180000000000003,move_to_zero,0.02599835830706499,-3.265034373017199,3.2910327313242638,-0.478705706035897,-68.44668412194618,67.96797841591028,25.53278752850195,66.74614538594096,-41.213357857439014,0.03616181839420305,40.89795659956719,-40.86179478117298,-0.0429796485897025,0.0,-0.0429796485897025
0.5200000000000004,move_to_zero,0.02605234592392488,-3.2606340571505994,3.2866864030745244,-0.47560141820496654,-68.35443791693008,67.87883649872512,25.3507669489172,66.65619101210548,-41.30542406318828,0.03676857371211082,40.84283805967559,-40.806069485963484,-0.043089869397492084,0.0,-0.043089869397492084
0.5220000000000004,move_to_zero,0.026103451970511102,-3.2562337412839986,3.28233719325451,-0.46752132027549015,-68.26219171191397,67.79467039163848,25.167274330580618,66.56623663826997,-41.39896230768935,0.03735276400923234,40.78771951978399,-40.750366755774756,-0.04319785499852777,0.0,-0.04319785499852777
0.5240000000000004,move_to_zero,0.02615096904958502,-3.251833425417399,3.277984394466984,-0.45462590749889353,-68.16994550689789,67.715319599399,24.982404821517388,66.47628226443447,-41.49387744291708,0.037863884831477644,40.732600979892396,-40.694737095060916,-0.04330360568519904,0.0,-0.04330360568519904
0.5260000000000004,move_to_zero,0.026195167689430844,-3.2474331095507987,3.2736282772402294,-0.4370818560643621,-68.07769930188178,67.64061744581741,24.796256872645294,66.38632789059898,-41.59007101795368,0.03830607370265519,40.677482440000794,-40.63917636629814,-0.043408938541106556,0.0,-0.043408938541106556
0.5280000000000004,move_to_zero,0.026237159660142794,-3.2430327936841996,3.2692699533443426,-0.4150317409399862,-67.9854530968657,67.57042135592572,24.608895408084287,66.29637351676348,-41.687478108679194,0.03868257045797661,40.62236390010919,-40.58368132965121,-0.04351342006689702,0.0,-0.04351342006689702
0.5300000000000004,move_to_zero,0.026275693544158676,-3.2386324778175983,3.264908171361757,-0.3886120721301304,-67.89320689184957,67.50459481971944,24.42037792888975,66.20641914292797,-41.78604121403822,0.038998493514472966,40.56724536021758,-40.528246866703114,-0.04361478469590818,0.0,-0.04361478469590818
0.5320000000000004,move_to_zero,0.026311187684112097,-3.2342321619509993,3.2605433496351113,-0.3579430879484509,-67.80096068683349,67.44301759888504,24.230771319072513,66.11646476909249,-41.88569345001997,0.039257432267189425,40.512126820325996,-40.472869388058804,-0.04371204184659242,0.0,-0.04371204184659242
0.5340000000000004,move_to_zero,0.02634306396074964,-3.229831846084399,3.2561749100451487,-0.32316457741582894,-67.70871448181737,67.38554990440154,24.040134391912687,66.02651039525698,-41.98637600334429,0.03946067873047408,40.45700828043439,-40.417547601703916,-0.043805891658737404,0.0,-0.043805891658737404
0.5360000000000004,move_to_zero,0.02637132437668273,-3.2254315302177994,3.251802854594482,-0.28443289026846263,-67.61646827680129,67.33203538653282,23.848525179748492,65.93655602142148,-42.08803084167299,0.03961316313221029,40.4018897405428,-40.36227657741059,-0.04389647299672042,0.0,-0.04389647299672042
0.5380000000000004,move_to_zero,0.026397118164878025,-3.2210312143511985,3.2474283325160767,-0.24189543468062227,-67.52422207178519,67.28232663710456,23.655999794913974,65.84660164758597,-42.190601852671996,0.03972156114099384,40.34677120065119,-40.3070496395102,-0.04398518817171621,0.0,-0.04398518817171621
0.5400000000000004,move_to_zero,0.026421885304978247,-3.216630898484599,3.2430527837895773,-0.1965529624230657,-67.4319758667691,67.23542290434602,23.462789662630385,65.75664727375049,-42.2938576111201,0.03979430832682494,40.29165266075959,-40.25185835243276,-0.04407036063179484,0.0,-0.04407036063179484
0.5420000000000004,move_to_zero,0.026445025948168464,-3.2122305826179987,3.238675608566167,-0.1534824375576805,-67.33972966175298,67.1862472241953,23.269960690902224,65.66669289991496,-42.39673220901274,0.039857224330250324,40.23653412086799,-40.19667689653774,-0.044153707055683285,0.0,-0.044153707055683285
0.5440000000000004,move_to_zero,0.026465938973528398,-3.207830266751399,3.2342962057249274,-0.11664765561413812,-67.24748345673689,67.13083580112274,23.078336842109408,65.57673852607948,-42.49840168397007,0.03992592873148003,40.18141558097639,-40.141489652244914,-0.04423503669720022,0.0,-0.04423503669720022
0.5460000000000004,move_to_zero,0.026485306788577006,-3.2034299508847988,3.2299152576733756,-0.0881053617184965,-67.15523725172078,67.06713189000229,22.888315012732576,65.48678415224397,-42.598469139511394,0.04000334998255736,40.12629704108479,-40.086293691102235,-0.04431398226420967,0.0,-0.04431398226420967
0.5480000000000004,move_to_zero,0.026502438784940626,-3.1990296350181993,3.22553207380314,-0.06932059794355568,-67.06299104670468,66.99367044876112,22.700171404805996,65.39682977840847,-42.696658373602475,0.04008947313189446,40.071178501193195,-40.0310890280613,-0.04439039685739999,0.0,-0.04439039685739999
0.5500000000000004,move_to_zero,0.026516715253459177,-3.194629319151599,3.221146034405058,-0.06052719729669871,-66.97074484168859,66.91021764439189,22.513927477136107,65.30687540457298,-42.79294792743687,0.040178207885170715,40.01605996130159,-39.975881753416424,-0.04446530095036808,0.0,-0.04446530095036808
0.5520000000000004,move_to_zero,0.026528271327828954,-3.190229003284999,3.216757274612828,-0.06089193597330507,-66.87849863667249,66.81760670069919,22.329353836227884,65.21692103073748,-42.8875671945096,0.04026327113699001,39.96094142140999,-39.920678150273,-0.044538340871533785,0.0,-0.044538340871533785
0.5540000000000004,move_to_zero,0.026537621436017768,-3.1858286874183985,3.212366308854416,-0.06879705575032705,-66.78625243165638,66.71745537590606,22.146041409930383,65.12696665690197,-42.98092524697159,0.04033250854862067,39.90582288151839,-39.86549037296977,-0.04460967994073313,0.0,-0.04460967994073313
0.5560000000000004,move_to_zero,0.026542653652523795,-3.1814283715517995,3.207971025204323,-0.08214132285680255,-66.69400622664028,66.61186490378348,21.96350232374484,65.03701228306649,-43.07350995932165,0.04037337206722746,39.850704341626795,-39.810330969559566,-0.04467973721718864,0.0,-0.04467973721718864
0.5580000000000004,move_to_zero,0.026544324511308056,-3.1770280556851986,3.2035723801965066,-0.09865870747289046,-66.60176002162417,66.50310131415128,21.78122024328799,64.94705790923096,-43.16583766594297,0.04037645536416846,39.795585801735186,-39.75520934637102,-0.04474821276714245,0.0,-0.04474821276714245
0.5600000000000004,move_to_zero,0.0265424046279693,-3.172627739818599,3.1991701444465686,-0.11614850352937466,-66.50951381660808,66.3933653130787,21.598717410936878,64.85710353539548,-43.2583861244586,0.04033625500966111,39.7404672618436,-39.700131006833935,-0.04481673938667862,0.0,-0.04481673938667862
0.5620000000000004,move_to_zero,0.02653819609763631,-3.1682274239519987,3.194765620049635,-0.13267979730825816,-66.41726761159198,66.28458781428373,21.415605993714713,64.76714916155997,-43.35154316784526,0.04011936262715877,39.68534872195198,-39.64522935932482,-0.04488762493128861,0.0,-0.04488762493128861
0.5640000000000004,move_to_zero,0.026531479117894517,-3.1638271080853992,3.190358587203294,-0.1467462269303827,-66.3250214065759,66.17827517964551,21.231579495181915,64.67719478772447,-43.445615292542556,0.039659780806748195,39.630230182060394,-39.59057040125364,-0.044963255146933154,0.0,-0.044963255146933154
0.5660000000000004,move_to_zero,0.026521129347809237,-3.159426792218799,3.185947921566608,-0.15792017306718736,-66.23277520155978,66.07485502849259,21.04656604693783,64.58724041388896,-43.54067436695114,0.03898667306053332,39.575111642168785,-39.53612496910825,-0.04504422342171664,0.0,-0.04504422342171664
0.5680000000000004,move_to_zero,0.026507703068906232,-3.155026476352199,3.181534179421105,-0.16559414328571676,-66.1405289965437,65.97493485325798,20.860468181376504,64.49728604005348,-43.63681785867698,0.03814116390439163,39.51999310227719,-39.4818519383728,-0.045129987041661684,0.0,-0.045129987041661684
0.5700000000000004,move_to_zero,0.026492162833031595,-3.1506261604855985,3.17711832331863,-0.16961663551160638,-66.04828279152757,65.87866615601597,20.67329395952061,64.40733166621797,-43.734037706697364,0.03721406393482995,39.46487456238559,-39.427660498450756,-0.04522000222970598,0.0,-0.04522000222970598
0.5720000000000004,move_to_zero,0.02647590175409343,-3.1462258446189995,3.172701746373093,-0.17020157997480617,-65.95603658651149,65.78583500653669,20.485126053809736,64.31737729238247,-43.83225123857274,0.036319907637923435,39.409756022493994,-39.37343611485607,-0.04531061379161625,0.0,-0.04531061379161625
0.5740000000000004,move_to_zero,0.02645887770574556,-3.141825528752399,3.168284406458145,-0.16785592302196356,-65.86379038149538,65.69593445847342,20.296098135111055,64.22742291854698,-43.931324783435926,0.035562695241476205,39.354637482602385,-39.31907478736091,-0.045402242629646844,0.0,-0.045402242629646844
0.5760000000000004,move_to_zero,0.026441964342293116,-3.137425212885799,3.1638671772280924,-0.16332092194697234,-65.7715441764793,65.60822325453232,20.106404997254074,64.13746854471148,-44.03106354745741,0.0349276614340662,39.29951894271079,-39.26459128127672,-0.045493309455982296,0.0,-0.045493309455982296
0.5780000000000004,move_to_zero,0.02642494001059333,-3.1330248970191987,3.159449837029792,-0.15740495186934486,-65.67929797146319,65.52189301959385,19.916233659662847,64.04751417087597,-44.13128051121312,0.03439873596521076,39.24440040281919,-39.21000166685398,-0.04558667537836729,0.0,-0.04558667537836729
0.5800000000000004,move_to_zero,0.026407041266985638,-3.1286245811525992,3.155031622419585,-0.15091225437329714,-65.58705176644709,65.4361395120738,19.725752041290427,63.95755979704048,-44.231807755750054,0.03396275619228822,39.189281862927594,-39.155319106735305,-0.045681202354763,0.0,-0.045681202354763
0.5820000000000004,move_to_zero,0.02638738514327534,-3.1242242652859984,3.1506116504292736,-0.14459539273740196,-65.49480556143098,65.35021016869358,19.5351616976533,63.867605423204964,-44.33244372555166,0.03360515751550565,39.134163323035985,-39.10055816552048,-0.045776672469402264,0.0,-0.045776672469402264
0.5840000000000004,move_to_zero,0.026365160726054847,-3.119823949419399,3.1461891101454538,-0.13903977539724116,-65.40255935641488,65.26351958101765,19.344615464702258,63.777651049369474,-44.433035584667216,0.03331275465351802,39.0790447831444,-39.04573202849088,-0.04587445372316902,0.0,-0.04587445372316902
0.5860000000000004,move_to_zero,0.026341898436540546,-3.1154236335527985,3.141765531989339,-0.13459336581632644,-65.31031315139877,65.17571978558244,19.154202836469896,63.68769667553397,-44.53349383906408,0.03307282095505819,39.02392624325278,-38.990853422297725,-0.04597313571819237,0.0,-0.04597313571819237
0.5880000000000004,move_to_zero,0.026316176927441242,-3.1110233176861994,3.1373394946136406,-0.1310739301065081,-65.21806694638268,65.08699301627617,18.96387199118933,63.597742301698474,-44.633870310509145,0.03287676414126339,38.96880770336119,-38.93593093921993,-0.046071182628128295,0.0,-0.046071182628128295
0.5900000000000004,move_to_zero,0.026289165070000002,-3.1066230018195986,3.1329121668895987,-0.12854163024672124,-65.12582074136658,64.99727911111987,18.773640072770604,63.50778792786297,-44.73414785509237,0.032712981704211296,38.913689163469584,-38.88097618176538,-0.0461668966280439,0.0,-0.0461668966280439
0.5920000000000004,move_to_zero,0.02626046781199223,-3.102222685952999,3.1284831537649915,-0.12708803682351075,-65.03357453635049,64.90648649952698,18.583536675133615,63.41783355402748,-44.834296878893866,0.03257402896646228,38.858570623578,-38.82599659461153,-0.046261232097127625,0.0,-0.046261232097127625
0.5940000000000004,move_to_zero,0.026229491880477986,-3.0978223700863987,3.1240518619668767,-0.12666759150598933,-64.94132833133438,64.81466073982838,18.393549060644347,63.32787918019197,-44.934330119547624,0.032454566555550055,38.80345208368639,-38.77099751713084,-0.04635211212332201,0.0,-0.04635211212332201
0.5960000000000004,move_to_zero,0.02619695470085363,-3.093422054219799,3.119619008920653,-0.12713391729178822,-64.84908212631828,64.7219482090265,18.20364664820771,63.23792480635648,-45.03427815814877,0.03234934764301755,38.74833354379479,-38.71598419615177,-0.046439875388620974,0.0,-0.046439875388620974
0.5980000000000004,move_to_zero,0.02616395424656901,-3.0890217383531984,3.115185692599767,-0.12829304336437258,-64.75683592130217,64.6285428779378,18.01375755054951,63.147970432520964,-45.13421288197145,0.03225395191639464,38.693215003903184,-38.66096105198679,-0.046525075270787454,0.0,-0.046525075270787454
0.6000000000000004,move_to_zero,0.026128964178529352,-3.0846214224865993,3.1107503866651287,-0.129920500821169,-64.66458971628607,64.5346692154649,17.82381757103409,63.05801605868548,-45.23419848765139,0.03216236834335683,38.63809646401159,-38.60593409566823,-0.04660645378023429,0.0,-0.04660645378023429
0.6020000000000004,move_to_zero,0.026092975838193137,-3.0802211066199985,3.1063140824581916,-0.13178203595215515,-64.57234351126998,64.44056147531782,17.633763184929393,62.968061684849964,-45.33429849992057,0.032071285586134736,38.58297792411999,-38.55090663853385,-0.04668373469873549,0.0,-0.04668373469873549
0.6040000000000004,move_to_zero,0.026057889320363025,-3.075820790753399,3.101878680073762,-0.1336594401848433,-64.4800973062539,64.34643786606905,17.44355218230359,62.878107311014475,-45.43455512871088,0.03197730598788563,38.52785938422839,-38.495882078240506,-0.046754419045402104,0.0,-0.046754419045402104
0.6060000000000004,move_to_zero,0.026024332321752087,-3.0714204748867986,3.0974448072085505,-0.13537053844986824,-64.38785110123777,64.25248056278791,17.253162126778527,62.78815293717897,-45.534990810400444,0.03187642265898534,38.47274084433679,-38.44086442167781,-0.04681936143182997,0.0,-0.04681936143182997
0.6080000000000004,move_to_zero,0.025992065293425157,-3.067020159020199,3.0930122243136244,-0.13677362325155856,-64.29560489622169,64.15883127297013,17.06259340980462,62.698198563343475,-45.635605153538854,0.03176739250820244,38.417622304445196,-38.385854911936995,-0.04687999834273703,0.0,-0.04687999834273703
0.6100000000000004,move_to_zero,0.025959347058529085,-3.0626198431535987,3.0885791902121276,-0.13790744037414543,-64.20335869120557,64.06545125083142,16.871874187646764,62.60824418950797,-45.736370001861204,0.03164896205634546,38.36250376455359,-38.33085480249724,-0.046937205183942454,0.0,-0.046937205183942454
0.6120000000000004,move_to_zero,0.025926005985422405,-3.0582195272869988,3.0841455332724212,-0.13881596297787394,-64.11111248618948,63.97229652321161,16.681025308076386,62.51828981567248,-45.837264507596096,0.03151813572015509,38.30738522466199,-38.27586708894184,-0.04699139046950121,0.0,-0.04699139046950121
0.6140000000000004,move_to_zero,0.02589159849935609,-3.0538192114203984,3.0797108099197543,-0.13953481164077278,-64.01886628117337,63.8793314695326,16.4900431526032,62.42833544183697,-45.93829228923377,0.03137684008574582,38.25226668477038,-38.220889844684635,-0.047042498853522074,0.0,-0.047042498853522074
0.6160000000000004,move_to_zero,0.025854647113186136,-3.0494188955537993,3.0752735426669853,-0.14009612735305835,-63.926620076157285,63.78652394880422,16.298942910541726,62.33838106800148,-46.039438157459756,0.03122425379831232,38.197148144878796,-38.16592389108048,-0.04709012309681371,0.0,-0.04709012309681371
0.6180000000000004,move_to_zero,0.025816442325892447,-3.045018579687199,3.0708350220130916,-0.14052404572784627,-63.83437387114118,63.69384982541334,16.107729598532263,62.248426694165964,-46.1406970956337,0.03105973236652791,38.14202960498719,-38.11096987262066,-0.04713247660067694,0.0,-0.04713247660067694
0.6200000000000004,move_to_zero,0.025778098094913503,-3.040618263820599,3.0663963619155123,-0.14084106792673565,-63.742127666125086,63.60128659819835,15.91642551553678,62.15847232033048,-46.2420468047937,0.030885764980001562,38.08691106509559,-38.05602530011559,-0.047168672434928074,0.0,-0.047168672434928074
0.6220000000000004,move_to_zero,0.025739737926501645,-3.0362179479539986,3.0619576858805004,-0.1410658330923347,-63.649881461108976,63.50881562801664,15.725039653335624,62.068517946494964,-46.343478293159336,0.03070474733894844,38.03179252520398,-38.00108777786503,-0.04719998514480671,0.0,-0.04719998514480671
0.6240000000000004,move_to_zero,0.025700925338074044,-3.031817632087399,3.0575185574254733,-0.14120471639612361,-63.55763525609289,63.41643053969676,15.533574304045521,61.978563572659475,-46.44498926861395,0.03051676756068852,37.97667398531239,-37.9461572177517,-0.04722350912038438,0.0,-0.04722350912038438
0.6260000000000004,move_to_zero,0.025660101424964672,-3.0274173162207987,3.0530774176457633,-0.14126205391639507,-63.46538905107678,63.324126997160384,15.342028276084761,61.888609198823964,-46.5465809227392,0.030325669763822907,37.921555445420786,-37.89122977565696,-0.04723988010354821,0.0,-0.04723988010354821
0.6280000000000004,move_to_zero,0.025616313664095235,-3.0230170003541987,3.048633314018294,-0.1412400924443628,-63.37314284606068,63.23190275361632,15.150411990092772,61.798654824988475,-46.648242834895704,0.030133920183276253,37.86643690552919,-37.83630298534592,-0.04725108476157691,0.0,-0.04725108476157691
0.6300000000000004,move_to_zero,0.025570154764030746,-3.0186166844875983,3.044186839251629,-0.14116198953785414,-63.28089664104458,63.13973465150672,14.958732231397754,61.70870045115297,-46.74996821975522,0.029940517263825808,37.81131836563759,-37.781377848373765,-0.04726127500631044,0.0,-0.04726127500631044
0.6320000000000005,move_to_zero,0.025522344779907034,-3.0142163686209993,3.039738713400906,-0.1410428243030653,-63.18865043602848,63.04760761172542,14.766977697425933,61.618746077317475,-46.85176837989154,0.029747421457250657,37.756199825745995,-37.72645240428874,-0.04726968538023478,0.0,-0.04726968538023478
0.6340000000000005,move_to_zero,0.02547434703911843,-3.009816052754399,3.0352903997935172,-0.14090565035630395,-63.09640423101237,62.95549858065607,14.575165541888785,61.52879170348197,-46.953626161593185,0.029553443147943947,37.701081285854386,-37.67152784270644,-0.04727622202989236,0.0,-0.04727622202989236
0.6360000000000005,move_to_zero,0.025425860704744927,-3.005415736887799,3.030841597592544,-0.1407514566003994,-63.00415802599628,62.863406569395885,14.38329895118137,61.43883732964648,-47.055538378465116,0.02935774160602601,37.64596274596279,-37.616605004356764,-0.047281144890536704,0.0,-0.047281144890536704
0.6380000000000005,move_to_zero,0.025375721416704293,-3.0010154210211986,3.0263911424379026,-0.14059827787636067,-62.91191182098017,62.771313543103815,14.19138287536165,61.348882955810964,-47.15750008044931,0.029159172325862272,37.59084420607118,-37.56168503374532,-0.0472844103522081,0.0,-0.0472844103522081
0.6400000000000005,move_to_zero,0.025325968752945856,-2.996615105154599,3.021941073907545,-0.1404457070725846,-62.81966561596408,62.67921990889149,13.999423864053187,61.25892858197548,-47.2595047179223,0.028957528896138972,37.535725666179594,-37.50676813728346,-0.0472823898000863,0.0,-0.0472823898000863
0.6420000000000005,move_to_zero,0.02527606065163454,-2.9922147892879987,3.0174908499396333,-0.14029451192409173,-62.727419410947974,62.587124899023884,13.807426622661069,61.168974208139964,-47.361547585478895,0.028754953455873842,37.480607126287985,-37.45185217283211,-0.047275709491371005,0.0,-0.047275709491371005
0.6440000000000005,move_to_zero,0.025224735979691788,-2.987814473421399,3.013039209401091,-0.14014466004055712,-62.63517320593189,62.49502854589134,13.61537977336225,61.079019834304475,-47.463640060942225,0.028553884815754573,37.42548858639639,-37.39693470158063,-0.04726539223691768,0.0,-0.04726539223691768
0.6460000000000005,move_to_zero,0.025172837751334307,-2.9834141575547983,3.008586995306133,-0.13999550168221336,-62.54292700091577,62.40293149923355,13.423271226454466,60.989065460468964,-47.5657942340145,0.02835295462112635,37.37037004650478,-37.342017091883655,-0.047253928607735286,0.0,-0.047253928607735286
0.6480000000000005,move_to_zero,0.025119974695639674,-2.9790138416881993,3.004133816383839,-0.13984832752117857,-62.450680795899686,62.31083246837851,13.231094998030859,60.899111086633475,-47.66801608860261,0.028151008877461265,37.31525150661319,-37.28710049773573,-0.04724226656279241,0.0,-0.04724226656279241
