GerardoFJ/TE3001B_TEAM_3/src/s0s1_gazebo/scripts/results/PI2/state.csv
t,phase,shoulder_pan_actual_deg,shoulder_pan_desired_deg,shoulder_pan_error_deg,shoulder_lift_actual_deg,shoulder_lift_desired_deg,shoulder_lift_error_deg,elbow_flex_actual_deg,elbow_flex_desired_deg,elbow_flex_error_deg,wrist_flex_actual_deg,wrist_flex_desired_deg,wrist_flex_error_deg,wrist_roll_actual_deg,wrist_roll_desired_deg,wrist_roll_error_deg
0.002,move_to_zero,-4.376474382407018,-4.4003158666,0.02384148419298171,-92.21682027023317,-92.2462050161,0.02938474586683526,89.9402674989065,89.9543738355,-0.014106336593499691,55.09939055982472,55.1185398916,-0.019149331775281553,0.0017248340730163765,0.0,0.0017248340730163765
0.004,move_to_zero,-4.329721294906479,-4.3959155507334,0.06619425582692084,-92.15905412523075,-92.15395881108391,-0.005095314146842611,89.91241849613854,89.86441946166448,0.047999034474059954,55.06180238454767,55.0634213517084,-0.0016189671607307332,0.004511261404674066,0.0,0.004511261404674066
0.006,move_to_zero,-4.2610808316289095,-4.3915152348668,0.13043440323789035,-92.0739314931791,-92.0617126060678,-0.012218887111302479,89.87121997654872,89.77446508782899,0.09675488871972959,55.00645058740905,55.008302811816804,-0.001852224407755898,0.007688349435761461,0.0,0.007688349435761461
0.008,move_to_zero,-4.171635628461891,-4.3871149190002,0.21547929053830917,-91.96252730093433,-91.9694664010517,0.006939100117378416,89.81706496864489,89.68451071399349,0.1325542546513958,54.934007378297395,54.953184271925196,-0.01917689362780095,0.010695567905020296,0.0,0.010695567905020296
0.01,move_to_zero,-4.062498702607866,-4.382714603133599,0.32021590052573323,-91.82594618148282,-91.8772201960356,0.05127401455277436,89.75035165652908,89.594556340158,0.15579531637108346,54.845157587806455,54.8980657320336,-0.05290814422714618,0.013137560954589594,0.0,0.013137560954589594
0.012,move_to_zero,-3.934827067034399,-4.378314287266999,0.4434872202325999,-91.66528635352137,-91.7849739910195,0.1196876374981315,89.67148097838731,89.50460196632248,0.16687901206482536,54.74059468406212,54.842947192142,-0.10235250807988194,0.015091221873270185,0.0,0.015091221873270185
0.014,move_to_zero,-3.789792215774526,-4.373913971400399,0.5841217556258731,-91.48165420256485,-91.69272778600339,0.21107358343853377,89.58087071257599,89.41464759248699,0.16622312008900053,54.62098798646417,54.787828652250404,-0.16684066578623202,0.016625785262400616,0.0,0.016625785262400616
0.016,move_to_zero,-3.6286058617163826,-4.369513655533799,0.7409077938174167,-91.27613745993382,-91.6004815809873,0.3243441210534854,89.47892444942396,89.32469321865149,0.15423123077246714,54.48700971343773,54.7327101123588,-0.24570039892107332,0.017785620543713895,0.0,0.017785620543713895
0.018000000000000002,move_to_zero,-3.452474146133252,-4.3651133396672,0.912639193533948,-91.04984161598682,-91.5082353759712,0.45839375998437504,89.36605751387617,89.234738844816,0.1313186690601782,54.33931028339907,54.6775915724672,-0.33828128906812793,0.018465881158823475,0.0,0.018465881158823475
0.020000000000000004,move_to_zero,-3.2626389689467095,-4.3607130238006,1.0980740548538908,-90.80389200508017,-91.4159891709551,0.6120971658749284,89.24271334002029,89.1447844709805,0.09792886903979081,54.178549822325046,54.6224730325756,-0.4439232102505528,0.018631801134950974,0.0,0.018631801134950974
0.022000000000000006,move_to_zero,-3.0603687319982265,-4.356312707934,1.2959439759357738,-90.539410716635,-91.323742965939,0.7843322493040006,89.10931637582429,89.05483009714499,0.05448627867930611,54.00534823999692,54.567354492684,-0.5620062526870768,0.018334610831400935,0.0,0.018334610831400935
0.024000000000000007,move_to_zero,-2.8469123447065625,-4.351912392067399,1.505000047360837,-90.25754123700972,-91.2314967609229,0.9739555239131761,88.96629935728936,88.96487572330949,0.0014236339798685549,53.82033416856375,54.5122359527924,-0.691901784228655,0.017649546937184048,0.0,0.017649546937184048
0.02600000000000001,move_to_zero,-2.6235356515803177,-4.3475120762007995,1.7239764246204818,-89.95938630175931,-91.1392505559068,1.179864254147489,88.81411387937013,88.874921349474,-0.060807470103867445,53.62410815082004,54.4571174129008,-0.8330092620807577,0.016713383557586076,0.0,0.016713383557586076
0.02800000000000001,move_to_zero,-2.3914742990988778,-4.3431117603341995,1.9516374612353218,-89.64606742003389,-91.0470043508907,1.4009369308568154,88.65320034517326,88.78496697563848,-0.13176663046522208,53.417271639747575,54.401998873009205,-0.9847272332616299,0.0156701155056111,0.0,0.0156701155056111
0.030000000000000013,move_to_zero,-2.1519908577732725,-4.3387114444676,2.186720586694327,-89.31869155575713,-90.9547581458746,1.6360665901174798,88.4839962536681,88.695012601803,-0.21101634813490477,53.20042667045343,54.3468803331176,-1.1464536626641717,0.0146575691551359,0.0,0.0146575691551359
0.032000000000000015,move_to_zero,-1.9063048627749797,-4.334311128601,2.4280062658260197,-88.97836076784837,-90.8625119408585,1.8841511730101246,88.30695839273743,88.60505822796749,-0.29809983523006167,52.9741440275751,54.291761793225994,-1.317617765650894,0.013776798785498505,0.0,0.013776798785498505
0.034000000000000016,move_to_zero,-1.65561976387262,-4.3299108127344,2.6742910488617797,-88.62618055399638,-90.7702657358424,2.144085181846023,88.122503801647,88.51510385413198,-0.39260005248497976,52.73898105622921,54.2366432533344,-1.4976621971051927,0.013031804924935653,0.0,0.013031804924935653
0.03600000000000002,move_to_zero,-1.401086462851998,-4.3255104968678,2.924424034015802,-88.26322945309549,-90.67801953082629,2.4147900777307996,87.93106448470019,88.4251494802965,-0.49408499559631025,52.49548943255506,54.1815247134428,-1.6860352808877366,0.012401897677895415,0.0,0.012401897677895415
0.03800000000000002,move_to_zero,-1.1438628904609434,-4.3211101810012,3.1772472905402562,-87.89054688552268,-90.5857733258102,2.695226440287513,87.73308335243831,88.33519510646099,-0.6021117540226726,52.244188179734884,54.1264061735512,-1.8822179938163188,0.011868133274446647,0.0,0.011868133274446647
0.04000000000000002,move_to_zero,-0.8850855941768129,-4.316709865134599,3.431624270957786,-87.50915980321835,-90.4935271207941,2.984367317575746,87.52898058582346,88.24524073262549,-0.7162601468020284,51.98561628285876,54.0712876336596,-2.085671350800844,0.011414540839604735,0.0,0.011414540839604735
0.04200000000000002,move_to_zero,-0.62584693820973,-4.312309549267999,3.686462611058269,-87.12007860402346,-90.401280915778,3.281202311754541,87.31916003889621,88.15528635879,-0.8361263198937792,51.72026862913235,54.016169093768006,-2.2959004646356576,0.011027575210491879,0.0,0.011027575210491879
0.044000000000000025,move_to_zero,-0.3671782716707894,-4.307909233401399,3.9407309617306097,-86.72431802006172,-90.3090347107619,3.5847166907001906,87.10405727931165,88.06533198495448,-0.9612747056428361,51.44863084577823,53.9610505538764,-2.5124197080981645,0.010696189775318271,0.0,0.010696189775318271
0.04600000000000003,move_to_zero,-0.13255997500707944,-4.3035089175348,4.170948942527721,-86.32282101159132,-90.2167885057458,3.893967494154481,86.88409350236772,87.97537761111899,-1.0912841087512675,51.1711681401085,53.905932013984796,-2.7347638738762967,0.010406287127988438,0.0,0.010406287127988438
0.04800000000000003,move_to_zero,0.05343848326096438,-4.2991086016682,4.3525470849291645,-85.91650472416802,-90.1245423007297,4.208037576561679,86.65966169405473,87.88542323728349,-1.2257615432287565,50.88834055777273,53.8508134740932,-2.962472916320472,0.010145117024289689,0.0,0.010145117024289689
0.05000000000000003,move_to_zero,0.19145836549523895,-4.2947082858016,4.4861666512968394,-85.50626351269263,-90.03229609571359,4.526032583020964,86.43117055108254,87.795468863448,-1.3642983123654489,50.60063575892673,53.7956949342016,-3.1950591752748707,0.009906638814995254,0.0,0.009906638814995254
0.05200000000000003,move_to_zero,0.2828194300383128,-4.290307969935,4.573127399973313,-85.09299238832834,-89.9400498906975,4.847057502369154,86.19902473040601,87.70551448961248,-1.5064897592064739,50.30850516820873,53.740576394310004,-3.4320712261012716,0.00968532984989924,0.0,0.00968532984989924
0.054000000000000034,move_to_zero,0.3289784211489155,-4.285907654068399,4.614886075217315,-84.67752546616676,-89.8478036856814,5.170278219514643,85.96360882118753,87.61556011577699,-1.651951294589452,50.012373963534685,53.6854578544184,-3.673083890883717,0.009477568242540485,0.0,0.009477568242540485
0.056000000000000036,move_to_zero,0.3315151947176707,-4.281507338201799,4.61302253291947,-84.26069638256799,-89.7555574806653,5.494861098097317,85.72530048958717,87.52560574194149,-1.8003052523543204,49.7126422392712,53.6303393145268,-3.917697075255603,0.009280912052674686,0.0,0.009280912052674686
0.05800000000000004,move_to_zero,0.29215225746765605,-4.2771070223351995,4.569259279802855,-83.84331859405683,-89.66331127564919,5.8199926815923675,85.48448035152786,87.43565136810598,-1.9511710165781153,49.40971369497945,53.5752207746352,-4.165507079655747,0.009091906167880175,0.0,0.009091906167880175
0.06000000000000004,move_to_zero,0.2127015664406175,-4.2727067064685995,4.485408272909217,-83.42614378100123,-89.5710650706331,6.144921289631867,85.24150326869896,87.3456969942705,-2.104193725571534,49.103989960350006,53.5201022347436,-4.4161122743935906,0.008907876271919765,0.0,0.008907876271919765
0.06200000000000004,move_to_zero,0.10612303122255283,-4.268306390602,4.374429421824552,-83.00990697648331,-89.478818865617,6.468911889133693,84.9967244927149,87.25574262043499,-2.2590181277200827,48.795860001065364,53.464983694852,-4.669123693786638,0.008728159854514545,0.0,0.008728159854514545
0.06400000000000004,move_to_zero,-0.008068143591674003,-4.2639060747354,4.255837931143725,-82.59531672569705,-89.38657266060089,6.791255934903845,84.7504917589137,87.16578824659948,-2.4152964876857794,48.48568635780308,53.4098651549604,-4.924178797157317,0.008554471087661799,0.0,0.008554471087661799
0.06600000000000004,move_to_zero,-0.1134814545664999,-4.2595057588688,4.1460243043022995,-82.18304817341247,-89.29432645558481,7.111278282172336,84.50315704361961,87.075833872764,-2.5726768291443847,48.173850695218256,53.354746615068805,-5.180895919850549,0.00838763930890921,0.0,0.00838763930890921
0.06800000000000005,move_to_zero,-0.20644403947439666,-4.2551054430022,4.048661403527803,-81.77376570566382,-89.2020802505687,7.428314544904879,84.25505754637268,86.98587949892848,-2.7308219525558,47.86070794245788,53.299628075177196,-5.438920132719318,0.00822649487102694,0.0,0.00822649487102694
0.07000000000000005,move_to_zero,-0.2869756136361462,-4.250705127135599,3.9637295134994526,-81.3680947261867,-89.1098340455526,7.741739319365905,84.00648476253916,86.89592512509299,-2.8894403625538274,47.54660417978322,53.2445095352856,-5.697905355502378,0.008066598833053502,0.0,0.008066598833053502
0.07200000000000005,move_to_zero,-0.3551561534348341,-4.246304811268999,3.8911486578341647,-80.96663353613263,-89.01758784053649,8.05095430440386,83.75771578853401,86.80597075125749,-3.048254962723476,47.231864093721754,53.189390995394,-5.957526901672246,0.007906051939669393,0.0,0.007906051939669393
0.07400000000000005,move_to_zero,-0.4111253179303538,-4.241904495402399,3.830779177472045,-80.56993551399115,-88.9253416355204,8.355406121529242,83.50902463582034,86.71601637742198,-3.206991741601641,46.91679225361289,53.1342724555024,-6.217480201889508,0.007741760658920517,0.0,0.007741760658920517
0.07600000000000005,move_to_zero,-0.45572962266547334,-4.2375041795358,3.7817745568703267,-80.17851043593792,-88.83309543050429,8.654584994566363,83.26069817572369,86.62606200358648,-3.3653638278627938,46.60166604383357,53.0791539156108,-6.477487871777235,0.007571719618849614,0.0,0.007571719618849614
0.07800000000000006,move_to_zero,-0.4892575597020688,-4.2331038636692,3.743846303967131,-79.79283089169577,-88.74084922548819,8.948018333792419,83.01299574169882,86.53610762975099,-3.5231118880521706,46.286773148383716,53.0240353757192,-6.737262227335485,0.007396042053916264,0.0,0.007396042053916264
0.08000000000000006,move_to_zero,-0.5119634997236251,-4.2287035478026,3.716740048078975,-79.41332760074947,-88.6486030204721,9.235275419722626,82.76617395282986,86.44615325591549,-3.6799793030856307,45.97238261152645,52.9689168358276,-6.996534224301151,0.0072121096423985185,0.0,0.0072121096423985185
0.08200000000000006,move_to_zero,-0.5241062658531046,-4.224303231936,3.7001969660828955,-79.04041361258511,-88.556356815456,9.515943202870886,82.5204813658018,86.35619888207998,-3.83571751627818,45.65874773604168,52.913798295936,-7.255050559894315,0.00702201758809776,0.0,0.00702201758809776
0.08400000000000006,move_to_zero,-0.5260201413025698,-4.219902916069399,3.6938827747668297,-78.67447554495708,-88.4641106104399,9.789635065482827,82.2761323851893,86.26624450824448,-3.9901121230551837,45.34606756618984,52.858679756044396,-7.512612189854558,0.006824870410718711,0.0,0.006824870410718711
0.08600000000000006,move_to_zero,-0.5180365279165629,-4.215502600202799,3.6974660722862365,-78.31587750495262,-88.37186440542379,10.055986900471169,82.03334029389978,86.17629013440899,-4.142949840509203,45.034597646730354,52.8035612161528,-7.768963569422446,0.006618112212046048,0.0,0.006618112212046048
0.08800000000000006,move_to_zero,-0.5005162202422628,-4.211102284336199,3.7105860640939365,-77.96493578022886,-88.2796182004077,10.31468242017884,81.7923282941168,86.08633576057349,-4.294007466456691,44.72457077733487,52.7484426762612,-8.02387189892633,0.00639597304745382,0.0,0.00639597304745382
0.09000000000000007,move_to_zero,-0.4738373288246251,-4.206701968469599,3.7328646396449745,-77.62194604593319,-88.18737199539159,10.565425949458401,81.55331352697482,85.996381386738,-4.443067859763175,44.416180843699394,52.693324136369604,-8.27714329267021,0.00615052971364781,0.0,0.00615052971364781
0.09200000000000007,move_to_zero,-0.4384269642631273,-4.2023016526029995,3.763874688339872,-77.2871393252343,-88.0951257903755,10.807986465141198,81.31650222822228,85.90642701290248,-4.589924784680207,44.109623095969184,52.638205596477995,-8.528582500508811,0.005892901359756587,0.0,0.005892901359756587
0.09400000000000007,move_to_zero,-0.3947496794556052,-4.1979013367363995,3.8031516572807944,-76.96073802376098,-88.0028795853594,11.042141561598413,81.08207059381121,85.81647263906699,-4.734402045255777,43.8050927730104,52.5830870565864,-8.777994283576,0.005604406994752644,0.0,0.005604406994752644
0.09600000000000007,move_to_zero,-0.34325118520923503,-4.1935010208698,3.8502498356605646,-76.64292285136656,-87.9106333803433,11.267710528976735,80.85018756673043,85.72651826523149,-4.876330698501064,43.50277278879255,52.5279685166948,-9.02519572790225,0.0053155374673022815,0.0,0.0053155374673022815
0.09800000000000007,move_to_zero,-0.28439494739298216,-4.1891007050032,3.9047057576102175,-76.33389207565781,-87.81838717532719,11.484495099669374,80.62102850960238,85.63656389139598,-5.0155353817935975,43.20285061774602,52.4728499768032,-9.269999359057174,0.005039223896255213,0.0,0.005039223896255213
0.10000000000000007,move_to_zero,-0.2186496076577242,-4.184700389136599,3.9660507814788746,-76.03378366559305,-87.72614097031109,11.692357304718044,80.39473291240145,85.5466095175605,-5.151876605159046,42.90548645318439,52.4177314369116,-9.512244983727214,0.004771975827299783,0.0,0.004771975827299783
0.10200000000000008,move_to_zero,-0.15435689693268703,-4.180300073269999,4.025943176337312,-75.74270857562604,-87.633894765295,11.891186189668957,80.1714200831117,85.45665514372499,-5.285235060613289,42.61081886841218,52.36261289702,-9.751794028607819,0.00451386105554467,0.0,0.00451386105554467
0.10400000000000008,move_to_zero,-0.09937927840720993,-4.1758997574034,4.07652047899619,-75.46075605172007,-87.5416485602789,12.080892508558833,79.95119311142626,85.36670076988948,-5.415507658463213,42.31898785757244,52.3074943571284,-9.98850649955596,0.004259377908295881,0.0,0.004259377908295881
0.10600000000000008,move_to_zero,-0.0580202190290969,-4.1714994415368,4.113479222507703,-75.18799129708331,-87.4494023552628,12.26141105817949,79.73416473655881,85.276746396054,-5.542581659495184,42.03010346461945,52.252375817236796,-10.222272352617345,0.003990469633093649,0.0,0.003990469633093649
0.10800000000000008,move_to_zero,-0.032672111707521635,-4.1670991256702,4.134427013962679,-74.92446587615797,-87.3571561502467,12.432690274088728,79.52044245289774,85.18679202221848,-5.666349569320744,41.744316551100965,52.1972572773452,-10.452940726244236,0.0036978599655959773,0.0,0.0036978599655959773
0.11000000000000008,move_to_zero,-0.02319730762039882,-4.1626988098036,4.139501502183201,-74.67019598916349,-87.2649099452306,12.59471395606711,79.31010564258239,85.09683764838299,-5.7867320058006015,41.461754911619344,52.1421387374536,-10.680383825834255,0.0034190448027072748,0.0,0.0034190448027072748
0.11200000000000009,move_to_zero,-0.027468253439220287,-4.158298493937,4.1308302404977795,-74.4251926848789,-87.17266374021449,12.747471055335595,79.10324443288025,85.00688327454749,-5.903638841667245,41.18251190790052,52.087020197562,-10.904508289661479,0.0031363312278443432,0.0,0.0031363312278443432
0.11400000000000009,move_to_zero,-0.042056783102272316,-4.153898178070399,4.111841394968127,-74.18941711987465,-87.0804175351984,12.891000415323745,78.89995083668042,84.91692890071198,-6.016978064031562,40.90669516071157,52.031901657670396,-11.125206496958825,0.0028652122779618647,0.0,0.0028652122779618647
0.11600000000000009,move_to_zero,-0.06292145263030278,-4.149497862203799,4.086576409573497,-73.9628317929812,-86.9881713301823,13.025339537201091,78.70027307747775,84.82697452687648,-6.1267014493987375,40.634404051218645,51.976783117778794,-11.342379066560149,0.002606797307852274,0.0,0.002606797307852274
0.11800000000000009,move_to_zero,-0.08606992198315243,-4.145097546337199,4.059027624354047,-73.74538421271048,-86.8959251251662,13.150540912455725,78.50426121000511,84.73702015304099,-6.232758943035876,40.3657328551324,51.9216645778872,-11.5559317227548,0.002358247772473964,0.0,0.002358247772473964
0.12000000000000009,move_to_zero,-0.10802881491781224,-4.140697230470599,4.032668415552787,-73.53699504326465,-86.80367892015009,13.266683876885438,78.31196122245967,84.64706577920549,-6.335104556745819,40.100765547930315,51.8665460379956,-11.765780490065282,0.002117294548965787,0.0,0.002117294548965787
0.1220000000000001,move_to_zero,-0.12617316785375976,-4.136296914603999,4.0101237467502395,-73.33755342807932,-86.711432715134,13.373879287054677,78.12341149542435,84.55711140536998,-6.433699909945631,39.83954880010664,51.811427498104,-11.971878697997361,0.0018826522880603185,0.0,0.0018826522880603185
0.1240000000000001,move_to_zero,-0.13968685224264688,-4.1318965987373995,3.9922097464947526,-73.1469287048442,-86.6191865101179,13.4722578052737,77.93864680595918,84.46715703153448,-6.528510225575303,39.58214454004815,51.7563089582124,-12.174164418164253,0.001649437482326471,0.0,0.001649437482326471
0.12600000000000008,move_to_zero,-0.14776630061510998,-4.1274962828707995,3.9797299822556895,-72.96498011369,-86.52694030510179,13.561960191411785,77.75771250476885,84.37720265769899,-6.61949015293014,39.32861203916486,51.70119041832079,-12.372578379155932,0.0013991221240728482,0.0,0.0013991221240728482
0.12800000000000009,move_to_zero,-0.1504554117971685,-4.1230959670042,3.972640555207031,-72.7915596307808,-86.4346941000857,13.643134469304897,77.58060280480606,84.28724828386348,-6.706645479057414,39.07900483194401,51.6460718784292,-12.567067046485185,0.0011123578563783064,0.0,0.0011123578563783064
0.1300000000000001,move_to_zero,-0.14845757527227887,-4.118695651137599,3.97023807586532,-72.62648793095205,-86.3424478950696,13.715959964117545,77.40731095040972,84.197293910028,-6.789982959618271,38.83337415477363,51.590953338537595,-12.757579183763966,0.0007938715585105408,0.0,0.0007938715585105408
0.1320000000000001,move_to_zero,-0.1429454091909567,-4.114295335270999,3.971349926080042,-72.46960635317345,-86.2502016900535,13.780595336880054,77.23781325682192,84.10733953619248,-6.869526279370561,38.591769975310456,51.535834798646,-12.944064823335545,0.0004498290695151282,0.0,0.0004498290695151282
0.1340000000000001,move_to_zero,-0.13527656949340375,-4.1098950194044,3.974618449910996,-72.32075016264372,-86.15795548503739,13.837205322393672,77.07208881161603,84.01738516235697,-6.945296350740946,38.354225417158055,51.4807162587544,-13.126490841596343,9.723858600308455e-05,0.0,9.723858600308455e-05
0.1360000000000001,move_to_zero,-0.12680203428423242,-4.1054947035378,3.9786926692535673,-72.17971397443893,-86.0657092800213,13.88599530558237,76.9101037001462,83.92743078852149,-7.017327088375296,38.12075044676453,51.425597718862804,-13.304847272098272,-0.00024317918413664947,0.0,-0.00024317918413664947
0.1380000000000001,move_to_zero,-0.11873765022802527,-4.1010943876712,3.9823567374431748,-72.04626936335515,-85.97346307500518,13.927193711650034,76.75183745496878,83.83747641468598,-7.085638959717201,37.89138246198166,51.370479178971195,-13.479096716989538,-0.0005753933805242804,0.0,-0.0005753933805242804
0.1400000000000001,move_to_zero,-0.11198611959899041,-4.0966940718046,3.9847079522056097,-71.92016208846246,-85.88121686998909,13.961054781526627,76.59725243425346,83.74752204085048,-7.150269606597021,37.66615663595311,51.31536063907959,-13.649204003126485,-0.0009069872922659021,0.0,-0.0009069872922659021
0.1420000000000001,move_to_zero,-0.10661417240614762,-4.092293755938,3.9856795835318524,-71.80117393274637,-85.788970664973,13.987796732226627,76.446326524572,83.65756766701499,-7.2112411424429865,37.44505925319687,51.260242099188,-13.815182845991131,-0.0012166687424518985,0.0,-0.0012166687424518985
0.1440000000000001,move_to_zero,-0.10274308889845064,-4.087893440071399,3.9851503511729485,-71.68907927223322,-85.6967244599569,14.007645187723682,76.29901256583778,83.56761329317948,-7.268600727341692,37.228091951532924,51.205123559296396,-13.977031607763472,-0.0015136197432165605,0.0,-0.0015136197432165605
0.1460000000000001,move_to_zero,-0.10050881189774978,-4.083493124204799,3.982984312307049,-71.58365203691523,-85.6044782549408,14.020826218025576,76.15524867991087,83.47765891934398,-7.322410239433111,37.01525234640164,51.1500050194048,-14.134752673003163,-0.0017947854610839624,0.0,-0.0017947854610839624
0.1480000000000001,move_to_zero,-0.09980826087713456,-4.079092808338199,3.9792845474610647,-71.48465522832701,-85.51223204992469,14.027576821597677,76.01497147568917,83.38770454550848,-7.3727330698193185,36.80654663442212,51.0948864795132,-14.28833984509108,-0.002064267535939314,0.0,-0.002064267535939314
0.1500000000000001,move_to_zero,-0.10037678973395084,-4.074692492471599,3.9743157027376483,-71.39183217407543,-85.4199858449086,14.028153670833163,75.87812311080536,83.29775017167299,-7.419627060867626,36.60195049846105,51.0397679396216,-14.437817441160547,-0.0023237386840145305,0.0,-0.0023237386840145305
0.1520000000000001,move_to_zero,-0.10182455810938466,-4.070292176604999,3.9684676184956147,-71.3049277086039,-85.32773963989249,14.022811931288587,75.7446308946224,83.20779579783748,-7.463164903215073,36.40144669787966,50.984649399729996,-14.583202701850333,-0.0025754876456807606,0.0,-0.0025754876456807606
0.1540000000000001,move_to_zero,-0.1037519208972271,-4.065891860738399,3.962139939841172,-71.2236826106296,-85.23549343487639,14.011810824246794,75.61441011337021,83.11784142400198,-7.503431310631768,36.20502579979196,50.929530859838394,-14.724505060046432,-0.002837067510811406,0.0,-0.002837067510811406
0.1560000000000001,move_to_zero,-0.10576889757881702,-4.061491544871799,3.9557226472929825,-71.14781837319464,-85.1432472298603,13.995428856665654,75.48737593089753,83.02788705016648,-7.540511119268956,36.012646879226295,50.8744123199468,-14.861765440720504,-0.0031202660952860195,0.0,-0.0031202660952860195
0.1580000000000001,move_to_zero,-0.1075480797210591,-4.0570912290051995,3.9495431492841404,-71.07708392859408,-85.0510010248442,13.97391709625012,75.36345157183405,82.93793267633099,-7.57448110449694,35.824291134669274,50.8192937800552,-14.995002645385924,-0.00343140568281406,0.0,-0.00343140568281406
0.16000000000000011,move_to_zero,-0.10898740366331079,-4.052690913138599,3.943703509475288,-71.01123095278437,-84.95875481982809,13.947523867043714,75.24254282068432,82.84797830249549,-7.6054354818111705,35.63995597885986,50.7641752401636,-15.124219261303743,-0.003765085024434353,0.0,-0.003765085024434353
0.16200000000000012,move_to_zero,-0.11013859703648338,-4.048290597272,3.938152000235516,-70.94999234248016,-84.86650861481199,13.916516272331833,75.12457515415672,82.75802392865998,-7.633448774503265,35.45963229975338,50.709056700271994,-15.249424400518613,-0.0041254458352322195,0.0,-0.0041254458352322195
0.16400000000000012,move_to_zero,-0.11104663804751179,-4.0438902814054,3.932843643357888,-70.89312258574226,-84.7742624097959,13.881139824053633,75.00948297434722,82.66806955482448,-7.658586580477262,35.2832897809069,50.6539381603804,-15.3706483794735,-0.004510632636412305,0.0,-0.004510632636412305
0.16600000000000012,move_to_zero,-0.11174899220665978,-4.0394899655388,3.92774097333214,-70.84033267171164,-84.68201620477979,13.84168353306815,74.89715068815364,82.57811518098899,-7.6809644928353435,35.11089237425558,50.5988196204888,-15.48792724623322,-0.00491740745812204,0.0,-0.00491740745812204
0.16800000000000012,move_to_zero,-0.11225962829170655,-4.0350896496722,3.922830021380493,-70.79136068436807,-84.5897699997637,13.79840931539563,74.78748192641656,82.48816080715348,-7.700678880736916,34.942377277642755,50.543701080597195,-15.60132380295444,-0.005301803148859015,0.0,-0.005301803148859015
0.17000000000000012,move_to_zero,-0.11251015240141778,-4.0306893338056,3.918179181404182,-70.7459543737405,-84.4975237947476,13.75156942100709,74.6803746072021,82.398206433318,-7.717831826115898,34.77768909729503,50.4885825407056,-15.71089344341057,-0.005654941386805157,0.0,-0.005654941386805157
0.17200000000000013,move_to_zero,-0.11247469036951978,-4.026289017939,3.91381432756948,-70.70386907488287,-84.4052775897315,13.701408514848623,74.57574852195012,82.30825205948248,-7.7325035375323665,34.61677385345598,50.433464000814,-15.816690147358017,-0.005979257196366112,0.0,-0.005979257196366112
0.17400000000000013,move_to_zero,-0.11216937506629467,-4.021888702072399,3.9097193270061044,-70.66485675582184,-84.31303138471539,13.648174628893543,74.47352208413125,82.21829768564697,-7.744775601515727,34.45956646985324,50.3783454609224,-15.918778991069154,-0.006281200884570271,0.0,-0.006281200884570271
0.17600000000000013,move_to_zero,-0.11165368795644898,-4.017488386205799,3.90583469824935,-70.62865281439844,-84.22078517969929,13.592132365300856,74.37360951200404,82.12834331181149,-7.754733799807454,34.30601265198641,50.323226921030795,-16.017214269044388,-0.006565332758699971,0.0,-0.006565332758699971
0.17800000000000013,move_to_zero,-0.11100011922694934,-4.013088070339199,3.9020879511122497,-70.59500802389725,-84.12853897468318,13.53353095078593,74.27591973002082,82.03838893797598,-7.762469207955164,34.1560563498899,50.2681083811392,-16.1120520312493,-0.006835242231152556,0.0,-0.006835242231152556
0.18000000000000013,move_to_zero,-0.11026968252855121,-4.008687754472599,3.898418071944048,-70.56369243278725,-84.0362927696671,13.47260033687985,74.18036220751135,81.94843456414048,-7.768072356629133,34.009631877449856,50.2129898412476,-16.203357963797743,-0.007108385022987552,0.0,-0.007108385022987552
0.18200000000000013,move_to_zero,-0.10951960213446046,-4.004287438605999,3.8947678364715386,-70.53446313089748,-83.944046564651,13.409583433753525,74.08684706324317,81.85848019030499,-7.771633127061818,33.866670191268334,50.157871301355996,-16.291201110087663,-0.007399783354604461,0.0,-0.007399783354604461
0.18400000000000014,move_to_zero,-0.10880777034292768,-3.9998871227393993,3.8910793523964715,-70.50707768031265,-83.8518003596349,13.344722679322246,73.9952737349143,81.76852581646948,-7.773252081555171,33.72711076449627,50.1027527614644,-16.375641996968135,-0.007700944344140152,0.0,-0.007700944344140152
0.18600000000000014,move_to_zero,-0.1081739859071783,-3.995486806872799,3.8873128209656205,-70.48129199693044,-83.7595541546188,13.27826215768836,73.9055357004258,81.67857144263398,-7.7730357422081795,33.590895046056005,50.04763422157279,-16.456739175516788,-0.008002346048636009,0.0,-0.008002346048636009
0.18800000000000014,move_to_zero,-0.10762879943283035,-3.991086491006199,3.8834576915733687,-70.4568868426031,-83.66730794960269,13.21042110699959,73.81754614056932,81.58861706879848,-7.771070928229165,33.45796455726439,49.9925156816812,-16.534551124416808,-0.008293603863461297,0.0,-0.008293603863461297
0.19000000000000014,move_to_zero,-0.10716721528058772,-3.986686175139599,3.8795189598590114,-70.43363342345364,-83.57506174458659,13.141428321132949,73.73123441520444,81.49866269496299,-7.767428279758548,33.328263079746435,49.937397141789596,-16.60913406204316,-0.008571316616482421,0.0,-0.008571316616482421
0.19200000000000014,move_to_zero,-0.10677205652727488,-3.9822858592729995,3.8755138027457248,-70.41131415275775,-83.48281553957048,13.071501386812727,73.64648532748829,81.40870832112748,-7.762222993639185,33.201726777795365,49.882278601897994,-16.68055182410263,-0.00886111398397277,0.0,-0.00886111398397277
0.19400000000000014,move_to_zero,-0.10643065970106932,-3.9778855434063995,3.87145488370533,-70.3897005054476,-83.3905693345544,13.000868829106793,73.56321059538435,81.31875394729198,-7.755543351907633,33.07828636900622,49.8271600620064,-16.748873693000178,-0.009136986858883978,0.0,-0.009136986858883978
0.19600000000000015,move_to_zero,-0.10613187686575043,-3.9734852275397996,3.8673533506740494,-70.36859132986054,-83.29832312953829,12.929731799677754,73.48131462406984,81.22879957345648,-7.747484949386646,32.95785833986057,49.7720415221148,-16.814183182254226,-0.009401093182538135,0.0,-0.009401093182538135
0.19800000000000015,move_to_zero,-0.10586620700125716,-3.9690849116731997,3.8632187046719424,-70.3477756191093,-83.2060769245222,12.858301305412894,73.40070707867999,81.13884519962097,-7.738138120940988,32.84036774187906,49.716922982223196,-16.87655524034414,-0.009654834831612828,0.0,-0.009654834831612828
0.20000000000000015,move_to_zero,-0.10562138446767039,-3.9646845958065993,3.859063211338929,-70.32705922376542,-83.1138307195061,12.78677149574068,73.32130507156909,81.04889082578549,-7.727585754216406,32.72574522302572,49.661804442331594,-16.936059219305875,-0.009902168000389415,0.0,-0.009902168000389415
0.20200000000000015,move_to_zero,-0.10536905955571184,-3.9602842799399993,3.8549152203842874,-70.30626184297172,-83.02158451448999,12.715322671518265,73.24303702156975,80.95893645194998,-7.715899430380233,32.613889136854326,49.60668590244,-16.992796765585673,-0.010149480007691938,0.0,-0.010149480007691938
0.20400000000000015,move_to_zero,-0.10510769701461602,-3.9558839640733994,3.8507762670587833,-70.28524147452146,-82.92933830947389,12.644096834952435,73.1658245111299,80.86898207811447,-7.703157566984572,32.50473944188018,49.5515673625484,-17.046827920668214,-0.01039422053390941,0.0,-0.01039422053390941
0.20600000000000016,move_to_zero,-0.10482557746260845,-3.9514836482067994,3.846658070744191,-70.26381618587519,-82.8370921044578,12.57327591858261,73.08955751729103,80.77902770427899,-7.689470186987961,32.39822081617679,49.496448822656795,-17.098228006480007,-0.010634574313702816,0.0,-0.010634574313702816
0.20800000000000016,move_to_zero,-0.10449236371719824,-3.947083332340199,3.842590968623001,-70.24181096544747,-82.7448458994417,12.503034933994229,73.01416596885144,80.68907333044348,-7.674907361592034,32.294261230084885,49.4413302827652,-17.147069052680315,-0.010870641108522629,0.0,-0.010870641108522629
0.21000000000000016,move_to_zero,-0.10411465260425425,-3.942683016473599,3.838568363869345,-70.21906415684639,-82.65259969442559,12.433535537579203,72.93960214520601,80.59911895660798,-7.659516811401971,32.192780014069655,49.38621174287359,-17.193431728803937,-0.011103865552960005,0.0,-0.011103865552960005
0.21200000000000016,move_to_zero,-0.1036843006748611,-3.938282700606999,3.8345983999321382,-70.19543443986846,-82.5603534894095,12.36491904954103,72.8658146771504,80.50916458277248,-7.643349905622088,32.09368541509225,49.331093202982,-17.237407787889744,-0.011338759653843171,0.0,-0.011338759653843171
0.21400000000000016,move_to_zero,-0.10320941674142743,-3.933882384740399,3.830672967998972,-70.170769137885,-82.46810728439338,12.29733814650838,72.7927145910161,80.41921020893697,-7.626495617920881,31.99688979019035,49.275974663090395,-17.279084872900043,-0.011574620164699399,0.0,-0.011574620164699399
0.21600000000000016,move_to_zero,-0.10273414841034033,-3.929482068873799,3.8267479204634585,-70.14492717979705,-82.37586107937729,12.230933899580236,72.72023876868602,80.32925583510148,-7.609017066415461,31.902325762057817,49.2208561231988,-17.318530361140983,-0.011823439024253148,0.0,-0.011823439024253148
0.21800000000000017,move_to_zero,-0.10227599335826777,-3.925081753007199,3.822805759648931,-70.11777277335442,-82.28361487436119,12.165842101006774,72.64830938671183,80.23930146126598,-7.590992074554151,31.80990682116731,49.1657375833072,-17.355830762139888,-0.01208192876581271,0.0,-0.01208192876581271
0.22000000000000017,move_to_zero,-0.1018342239272337,-3.9206814371406,3.818847213213366,-70.08919071250072,-82.1913686693451,12.102177956844372,72.57685088232688,80.14934708743048,-7.572496205103604,31.719561766615254,49.110619043415596,-17.391057276800343,-0.012354777528704099,0.0,-0.012354777528704099
0.22200000000000017,move_to_zero,-0.10141275778401583,-3.9162811212739994,3.8148683634899836,-70.05906462804286,-82.099122464329,12.040057836286138,72.50579315861236,80.05939271359497,-7.553599554982611,31.63121144278201,49.055500503523994,-17.424289060741984,-0.012619217726034686,0.0,-0.012619217726034686
0.22400000000000017,move_to_zero,-0.10098771039878607,-3.9118808054073995,3.8108930950086135,-70.02730017700745,-82.00687625931289,11.979576082305442,72.43507805966375,79.96943833975948,-7.534360280095726,31.54480688862769,49.00038196363239,-17.455575075004703,-0.012879608225071244,0.0,-0.012879608225071244
0.22600000000000017,move_to_zero,-0.10056689472241613,-3.9074804895407995,3.806913594818383,-69.99380254872416,-81.9146300542968,11.920827505572632,72.36463868727334,79.87948396592398,-7.51484527865064,31.460251227373824,48.9452634237408,-17.485012196366974,-0.013160239453944036,0.0,-0.013160239453944036
0.22800000000000017,move_to_zero,-0.1001681585071169,-3.9030801736741996,3.8029120151670828,-69.95849519664124,-81.82238384928068,11.863888652639446,72.29442184307274,79.78952959208848,-7.4951077490157445,31.37748293188172,48.890144883849196,-17.512661951967477,-0.013459708040825021,0.0,-0.013459708040825021
0.23000000000000018,move_to_zero,-0.09980483470406279,-3.898679857807599,3.798875023103536,-69.92131045668656,-81.73013764426459,11.808827187578032,72.22436059632369,79.69957521825299,-7.475214621929297,31.296449677076733,48.8350263439576,-17.538576666880868,-0.013769418204861815,0.0,-0.013769418204861815
0.23200000000000018,move_to_zero,-0.09947579209965358,-3.8942795419409992,3.794803749841346,-69.88218694921765,-81.63789143924849,11.755704490030837,72.15441413290802,79.60962084441748,-7.455206711509462,31.217055998645115,48.77990780406599,-17.562851805420877,-0.014096914981226375,0.0,-0.014096914981226375
0.23400000000000018,move_to_zero,-0.09913608485036995,-3.8898792260743993,3.7907431412240293,-69.84105348503132,-81.5456452342324,11.704591749201072,72.08452934384852,79.51966647058198,-7.435137126733466,31.139243769458822,48.72478926417439,-17.585545494715568,-0.014402937274845621,0.0,-0.014402937274845621
0.23600000000000018,move_to_zero,-0.09879166990851478,-3.8854789102077993,3.7866872402992846,-69.7978435420365,-81.45339902921629,11.655555487179782,72.01466236371334,79.42971209674648,-7.415049733033143,31.062953874296348,48.669670724282796,-17.606716849986448,-0.01469208776534972,0.0,-0.01469208776534972
0.23800000000000018,move_to_zero,-0.09841937598217046,-3.881078594341199,3.7826592183590284,-69.75250651122359,-81.36115282420019,11.608646312976603,71.94477679029183,79.33975772291097,-7.3949809326191485,30.988086853288785,48.614552184391194,-17.62646533110241,-0.014966458296694619,0.0,-0.014966458296694619
0.24000000000000019,move_to_zero,-0.09802213135215584,-3.876678278474599,3.7786561471224434,-69.70499593171263,-81.2689066191841,11.563910687471463,71.8748244786006,79.24980334907549,-7.374978870474891,30.91455174698719,48.5594336444996,-17.64488189751241,-0.015228337404212587,0.0,-0.015228337404212587
0.2420000000000002,move_to_zero,-0.0976160964233516,-3.872277962607999,3.7746618661846476,-69.6552901598672,-81.17666041416798,11.521370254300777,71.80476147531388,79.15984897523998,-7.3550874999261,30.84225086668396,48.504315104608,-17.66206423792404,-0.015478393420464837,0.0,-0.015478393420464837
0.2440000000000002,move_to_zero,-0.09719553952800553,-3.867877646741399,3.7706821072133936,-69.6033379609778,-81.08441420915189,11.481076248174091,71.7345463806276,79.06989460140447,-7.335348220776865,30.771095593109898,48.449196564716395,-17.678100971606497,-0.01572060547237581,0.0,-0.01572060547237581
0.2460000000000002,move_to_zero,-0.09678016797988871,-3.8634773308747987,3.76669716289491,-69.54912036742586,-80.99216800413579,11.443047636709935,71.6641150996225,78.97994022756899,-7.315825127946482,30.701034686387597,48.39407802482479,-17.693043338437196,-0.015959187587098595,0.0,-0.015959187587098595
0.2480000000000002,move_to_zero,-0.09637974213409466,-3.8590770150081988,3.762697272874104,-69.49263224815,-80.8999217991197,11.407289550969693,71.59343164430157,78.88998585373348,-7.296554209431903,30.63200246306118,48.33895948493319,-17.70695702187201,-0.01620717317898744,0.0,-0.01620717317898744
0.25000000000000017,move_to_zero,-0.09599917589004003,-3.8546766991415997,3.75867752325156,-69.43384704290361,-80.80767559410359,11.373828551199978,71.52248271005182,78.80003147989798,-7.277548769846163,30.56396014561036,48.2838409450416,-17.719880799431238,-0.016452783637922276,0.0,-0.016452783637922276
0.25200000000000017,move_to_zero,-0.09561979990752482,-3.8502763832749993,3.7546565833674745,-69.37276816865128,-80.71542938908749,11.342661220436213,71.45123465331226,78.71007710606249,-7.25884245275023,30.49684735752718,48.228722405149995,-17.731875047622815,-0.01669673462934191,0.0,-0.01669673462934191
0.25400000000000017,move_to_zero,-0.09524786895489118,-3.8458760674083994,3.750628198453508,-69.30941922699738,-80.62318318407138,11.313763957074002,71.37965077087091,78.62012273222697,-7.240471961356064,30.43064456784741,48.1736038652584,-17.74295929741099,-0.016942274578710472,0.0,-0.016942274578710472
0.25600000000000017,move_to_zero,-0.09487913914417719,-3.8414757515417994,3.746596612397622,-69.2438012163835,-80.53093697905528,11.287135762671781,71.3076872370858,78.53016835839148,-7.222481121305677,30.365293936411017,48.11848532536679,-17.753191388955774,-0.017182794865530482,0.0,-0.017182794865530482
0.2580000000000002,move_to_zero,-0.09451570964834484,-3.8370754356751995,3.7425597260268546,-69.17590940699347,-80.43869077403919,11.262781367045719,71.23530661903214,78.44021398455598,-7.204907365523837,30.300742515045865,48.063366785475196,-17.76262427042933,-0.017423070747065707,0.0,-0.017423070747065707
0.2600000000000002,move_to_zero,-0.09418724537960009,-3.832675119808599,3.738487874428999,-69.10577632494365,-80.34644456902309,11.240668244079444,71.16247784530857,78.35025961072049,-7.187781765411913,30.236947864502703,48.008248245583594,-17.77130038108089,-0.017659687197104902,0.0,-0.017659687197104902
0.2620000000000002,move_to_zero,-0.09389675840413839,-3.828274803941999,3.7343780455378606,-69.03341848092866,-80.254198364007,11.220779883078336,71.08917410066483,78.26030523688497,-7.17113113622014,30.17384730881309,47.95312970569199,-17.7792823968789,-0.01789280042415794,0.0,-0.01789280042415794
0.2640000000000002,move_to_zero,-0.09363830671404914,-3.823874488075399,3.73023618136135,-68.95887126838922,-80.16195215899089,11.203080890601669,71.01535692803267,78.17035086304948,-7.154993935016805,30.111381630062006,47.8980111658004,-17.786629535738392,-0.018122838359028417,0.0,-0.018122838359028417
0.2660000000000002,move_to_zero,-0.09340303692978667,-3.8194741722087993,3.7260711352790126,-68.88217149725612,-80.06970595397479,11.187534456718666,70.94098960821034,78.08039648921398,-7.139406881003637,30.049491507443555,47.842892625908796,-17.79340111846524,-0.018356376338131804,0.0,-0.018356376338131804
0.2680000000000002,move_to_zero,-0.09317223888495067,-3.815073856342199,3.7219016174572483,-68.80336593888137,-79.97745974895868,11.17409381007731,70.8660314545659,77.99044211537847,-7.124410660812572,29.988141837058294,47.787774086017194,-17.7996322489589,-0.01859685859635295,0.0,-0.01859685859635295
0.2700000000000002,move_to_zero,-0.09293128632360649,-3.810673540475599,3.717742254151992,-68.72248955992679,-79.8852135439426,11.162723984015813,70.79046707438405,77.90048774154299,-7.110020667158935,29.927303850170567,47.73265554612559,-17.805351695955025,-0.018837527189720354,0.0,-0.018837527189720354
0.2720000000000002,move_to_zero,-0.09266575506019302,-3.806273224608999,3.713607469548806,-68.63960936917097,-79.79296733892649,11.153357969755518,70.71428428218923,77.81053336770748,-7.096249085518252,29.86692738109946,47.677537006234,-17.810609625134536,-0.019076454469668172,0.0,-0.019076454469668172
0.2740000000000002,move_to_zero,-0.09235063573292972,-3.801872908742399,3.7095222730094695,-68.55477077473006,-79.70072113391039,11.145950359180333,70.63745863497829,77.72057899387197,-7.08312035889368,29.806942104942667,47.622418466342396,-17.81547636139973,-0.019319878502598628,0.0,-0.019319878502598628
0.2760000000000002,move_to_zero,-0.09200480601714299,-3.7974725928757986,3.7054677868586556,-68.46802391168309,-79.60847492889428,11.140451017211191,70.55997252503028,77.63062462003649,-7.07065209500621,29.747313802487728,47.567299926450794,-17.819986123963066,-0.01957882104246518,0.0,-0.01957882104246518
0.2780000000000002,move_to_zero,-0.09162397046395473,-3.7930722770091996,3.701448306545245,-68.37938615868703,-79.51622872387819,11.13684256519116,70.48180327384571,77.54067024620097,-7.058866972355261,29.68799308787426,47.5121813865592,-17.824188298684938,-0.019861197414735385,0.0,-0.019861197414735385
0.2800000000000002,move_to_zero,-0.09123849663773076,-3.7886719611425996,3.697433464504869,-68.28892283043999,-79.42398251886209,11.135059688422103,70.40294677436408,77.45071587236548,-7.047769098001396,29.628924531750094,47.45706284666759,-17.828138314917496,-0.020171568152056663,0.0,-0.020171568152056663
0.2820000000000002,move_to_zero,-0.0908862727440488,-3.7842716452759992,3.6933853725319503,-68.19671441928865,-79.331736313846,11.13502189455734,70.3233955181008,77.36076149852998,-7.037365980429186,29.57007240918863,47.401944306775995,-17.831871897587366,-0.02049738329495085,0.0,-0.02049738329495085
0.2840000000000002,move_to_zero,-0.09057091313215504,-3.7798713294093993,3.689300416277244,-68.10281232138348,-79.2394901088299,11.136677787446416,70.24315254379424,77.27080712469449,-7.027654580900247,29.511396890180787,47.34682576688439,-17.835428876703606,-0.020837528871832645,0.0,-0.020837528871832645
0.2860000000000002,move_to_zero,-0.09029015602770318,-3.7754710135427993,3.685180857515096,-68.00729637034561,-79.14724390381379,11.139947533468174,70.16220618879515,77.18085275085897,-7.018646562063822,29.45288458422227,47.29170722699279,-17.83882264277052,-0.02117170610771096,0.0,-0.02117170610771096
0.2880000000000002,move_to_zero,-0.0900371257272908,-3.7710706976761994,3.6810335719489085,-67.91021745140733,-79.05499769879769,11.144780247390358,70.08054751754504,77.09089837702348,-7.010350859478436,29.394496861251877,47.2365886871012,-17.84209182584932,-0.0214803020541779,0.0,-0.0214803020541779
0.2900000000000002,move_to_zero,-0.08980611153207815,-3.766670381809599,3.676864270277521,-67.81164442623691,-78.96275149378158,11.151107067544672,69.99818056233848,77.00094400318798,-7.002763440849506,29.336216627313682,47.181470147209595,-17.845253519895913,-0.021768388628474685,0.0,-0.021768388628474685
0.2920000000000002,move_to_zero,-0.08958869246232413,-3.762270065942999,3.672681373480675,-67.71164549806602,-78.87050528876549,11.158859790699466,69.91510735116046,76.91098962935247,-6.995882278192013,29.278028892621755,47.12635160731799,-17.848322714696238,-0.02203900975727893,0.0,-0.02203900975727893
0.2940000000000002,move_to_zero,-0.08938500942043245,-3.757869750076399,3.6684847406559666,-67.61028026412677,-78.77825908374939,11.167978819622618,69.83135481887872,76.82103525551699,-6.989680436638267,29.21990850749706,47.07123306742639,-17.85132455992933,-0.022294916929537792,0.0,-0.022294916929537792
0.2960000000000002,move_to_zero,-0.08915389506957207,-3.753469434209799,3.664315539140227,-67.50763143820804,-78.6860128787333,11.178381440525257,69.74692523183228,76.73108088168148,-6.9841556498492,29.161829154886345,47.016114527534796,-17.85428537264845,-0.022537722880878946,0.0,-0.022537722880878946
0.2980000000000002,move_to_zero,-0.08888657699174356,-3.749069118343199,3.660182541351455,-67.40377266079248,-78.59376667371718,11.1899940129247,69.66182423074079,76.64112650784598,-6.979302277105191,29.103755922063378,46.960995987643194,-17.857240065579816,-0.02277182275638176,0.0,-0.02277182275638176
0.3000000000000002,move_to_zero,-0.08857293638285907,-3.744668802476599,3.65609586609374,-67.29878715566628,-78.50152046870109,11.202733313034813,69.57605384142717,76.55117213401049,-6.975118292583318,29.045667875029437,46.90587744775159,-17.860209572722155,-0.023000693073955733,0.0,-0.023000693073955733
0.3020000000000002,move_to_zero,-0.08823748533111667,-3.740268486609999,3.6520310012788824,-67.192732255528,-78.40927426368499,11.216542008156992,69.48964439835011,76.46121776017497,-6.971573361824866,28.987562136760467,46.85075890786,-17.86319677109953,-0.023225825986979975,0.0,-0.023225825986979975
0.3040000000000002,move_to_zero,-0.08788639928871061,-3.735868170743399,3.6479817714546883,-67.08567795253266,-78.31702805866888,11.231350106136219,69.4026210222739,76.37126338633948,-6.968642364065573,28.92938623105725,46.79564036796839,-17.866254136911138,-0.023446459068967133,0.0,-0.023446459068967133
0.3060000000000002,move_to_zero,-0.08750911232219606,-3.7314678548767994,3.643958742554603,-66.97769053313527,-78.22478185365279,11.247091320517512,69.3149795470591,76.28130901250398,-6.966329465444886,28.871116234206863,46.740521828076794,-17.86940559386993,-0.023662541215104235,0.0,-0.023662541215104235
0.3080000000000002,move_to_zero,-0.0871133818252498,-3.7270675390101995,3.63995415718495,-66.86884432812515,-78.13253564863669,11.26369132051154,69.22669910429104,76.19135463866847,-6.964655534377428,28.812740201723578,46.68540328818519,-17.872663086461614,-0.023874148872693516,0.0,-0.023874148872693516
0.3100000000000002,move_to_zero,-0.08671370465598441,-3.7226672231435995,3.6359535184876153,-66.75919305235841,-78.0402894436206,11.281096391262182,69.13778067737783,76.10140026483299,-6.963619587455156,28.75422004546148,46.6302847482936,-17.876064702832117,-0.024082780089874956,0.0,-0.024082780089874956
0.3120000000000002,move_to_zero,-0.08634227197597168,-3.718266907276999,3.6319246353010275,-66.64878804713352,-77.94804323860448,11.299255191470962,69.0482239710356,76.01144589099748,-6.963221919961882,28.69551351032007,46.575166208401996,-17.879652698081927,-0.02428740018117681,0.0,-0.02428740018117681
0.3140000000000002,move_to_zero,-0.08601693564370588,-3.713866591410399,3.6278496557666933,-66.53770536359218,-77.85579703358839,11.318091669996207,68.95804887938323,75.92149151716198,-6.963442637778755,28.636614135094,46.520047668510394,-17.883433533416394,-0.024489864077081144,0.0,-0.024489864077081144
0.3160000000000002,move_to_zero,-0.08572500508631686,-3.7094662755437993,3.6237412704574825,-66.42602266170688,-77.76355082857228,11.337528166865397,68.86726973886334,75.83153714332649,-6.964267404463143,28.5774978775451,46.46492912861879,-17.887431251073693,-0.02469182238026841,0.0,-0.02469182238026841
0.3180000000000002,move_to_zero,-0.08545818691713598,-3.7050659596771993,3.6196077727600633,-66.31380544187704,-77.67130462355618,11.357499181679145,68.77588913589649,75.74158276949098,-6.9656936335944835,28.518136493363013,46.40981058872719,-17.891674095364177,-0.024892009171356765,0.0,-0.024892009171356765
0.32000000000000023,move_to_zero,-0.08519573650170799,-3.700665643810599,3.6154699073088907,-66.20110450063211,-77.57905841854009,11.377953917907973,68.68392047423386,75.65162839565548,-6.967707921421621,28.458542461236497,46.354692048835595,-17.896149587599098,-0.02509245377248092,0.0,-0.02509245377248092
0.32200000000000023,move_to_zero,-0.08493731482086533,-3.696265327943999,3.6113280131231336,-66.08796097578066,-77.48681221352399,11.39885123774333,68.59139427520711,75.56167402181998,-6.970279746612874,28.39866244123363,46.29957350894399,-17.900911067710364,-0.025294967492614166,0.0,-0.025294967492614166
0.32400000000000023,move_to_zero,-0.08466712305218596,-3.691865012077399,3.607197889025213,-65.9744299288173,-77.3945660085079,11.420136079690593,68.4983178706989,75.47171964798449,-6.973401777285588,28.338484395617265,46.2444549690524,-17.905970573435134,-0.02549841136049999,0.0,-0.02549841136049999
0.32600000000000023,move_to_zero,-0.08437098199016811,-3.687464696210799,3.603093714220631,-65.86060754567013,-77.30231980349178,11.44171225782165,68.40471312216684,75.38176527414898,-6.977052151982136,28.2779748919484,46.1893364291608,-17.911361537212397,-0.025701384168233223,0.0,-0.025701384168233223
0.32800000000000024,move_to_zero,-0.08406733154967803,-3.6830643803441987,3.5989970487945206,-65.74654840961539,-77.21007359847569,11.463525188860302,68.31057872712688,75.29181090031348,-6.981232173186598,28.217104583072977,46.13421788926919,-17.91711330619621,-0.025906706486542093,0.0,-0.025906706486542093
0.33000000000000024,move_to_zero,-0.08375297988775875,-3.6786640644775987,3.59491108458984,-65.63229871925769,-77.11782739345958,11.485528674201888,68.21592084605459,75.20185652647798,-6.985935680423395,28.155874491074556,46.07909934937759,-17.923224858303037,-0.026114086790584468,0.0,-0.026114086790584468
0.33200000000000024,move_to_zero,-0.08342591073803922,-3.674263748610999,3.5908378378729595,-65.51790249432415,-77.02558118844348,11.507678694119335,68.12074477139608,75.11190215264247,-6.991157381246396,28.094266451626154,46.02398080948599,-17.929714357859837,-0.026323527658228853,0.0,-0.026323527658228853
0.33400000000000024,move_to_zero,-0.08310646925432999,-3.669863432744399,3.586756963490069,-65.40340340073257,-76.93333498342739,11.529931582694815,68.0250548515938,75.02194777880699,-6.996892927213196,28.03227419686666,45.968862269594396,-17.936588072727737,-0.026536480796915073,0.0,-0.026536480796915073
0.33600000000000024,move_to_zero,-0.08279237039047095,-3.6654631168777994,3.582670746487328,-65.28886742879344,-76.84108877841129,11.552221349617852,67.92888787096575,74.93199340497148,-7.003105534005726,27.969888942774688,45.913743729702794,-17.943854786928107,-0.02674905836565466,0.0,-0.02674905836565466
0.33800000000000024,move_to_zero,-0.08249577092907312,-3.6610628010111994,3.578567030082126,-65.17435546010378,-76.74884257339518,11.574487113291397,67.8322602831002,74.84203903113597,-7.009778748035771,27.907099463098614,45.85862518981119,-17.95152572671258,-0.02696132618883257,0.0,-0.02696132618883257
0.34000000000000025,move_to_zero,-0.08223063252982542,-3.6566624851445995,3.574431852614774,-65.05992056797373,-76.65659636837908,11.59667580040535,67.73515505704997,74.75208465730049,-7.016929600250521,27.843902547144342,45.80350664991959,-17.95960410277525,-0.027174531519604524,0.0,-0.027174531519604524
0.34200000000000025,move_to_zero,-0.08199067517726334,-3.652262169277999,3.570271494100736,-64.94560740783695,-76.56435016336299,11.618742755526043,67.63756741805169,74.66213028346498,-7.024562865413287,27.780262386834305,45.74838811002799,-17.968125723193683,-0.027391746534915586,0.0,-0.027391746534915586
0.34400000000000025,move_to_zero,-0.08177144591156962,-3.647861853411399,3.5660904074998294,-64.83144221588083,-76.47210395834688,11.640661742466051,67.53949386049715,74.57217590962948,-7.032682049132333,27.716180758537828,45.693269570136394,-17.977088811598566,-0.02763268211337642,0.0,-0.02763268211337642
0.34600000000000025,move_to_zero,-0.08156852949018896,-3.643461537544799,3.5618930080546103,-64.71747586440866,-76.3798577533308,11.662381888922141,67.44095293920833,74.48222153579398,-7.0412685965856525,27.65167556595512,45.63815103024479,-17.986475464289672,-0.027884608486332924,0.0,-0.027884608486332924
0.34800000000000025,move_to_zero,-0.08137894520542452,-3.6390612216781992,3.5576822764727747,-64.60374671263075,-76.28761154831469,11.683864835683934,67.34195294688789,74.39226716195847,-7.0503142150705855,27.586750786368423,45.5830324903532,-17.996281703984774,-0.028139756877516183,0.0,-0.028139756877516183
0.35000000000000026,move_to_zero,-0.08120124768659157,-3.634660905811599,3.553459658125007,-64.49030474197181,-76.19536534329859,11.705060601326778,67.24251862422112,74.30231278812298,-7.059794163901856,27.521391945050397,45.52791395046159,-18.006522005411192,-0.02840315822225704,0.0,-0.02840315822225704
0.35200000000000026,move_to_zero,-0.08103354417325728,-3.630260589944999,3.5492270457717416,-64.37719453775571,-76.10311913828248,11.725924600526767,67.14269140783341,74.21235841428748,-7.069667006454068,27.455606733583572,45.472795410569994,-18.01718867698642,-0.02868222647578361,0.0,-0.02868222647578361
0.35400000000000026,move_to_zero,-0.08087322182350593,-3.625860274078399,3.544987052254893,-64.2644410111411,-76.01087293326638,11.746431922125282,67.04247168542733,74.12240404045198,-7.079932355024653,27.38937789564708,45.41767687067839,-18.028298975031312,-0.028950138307915967,0.0,-0.028950138307915967
0.35600000000000026,move_to_zero,-0.08071811019151678,-3.621459958211799,3.540741848020282,-64.15209608527046,-75.91862672825027,11.766530642979816,66.94185414698944,74.03244966661647,-7.09059551962703,27.322690769665396,45.36255833078679,-18.039867561121394,-0.029234273351322178,0.0,-0.029234273351322178
0.35800000000000026,move_to_zero,-0.0805667065286457,-3.6170596423451986,3.536492935816553,-64.04019233755946,-75.82638052323418,11.786188185674717,66.84087227566236,73.94249529278098,-7.101623017118612,27.25555635437267,45.307439790895195,-18.051883436522527,-0.029537232499597433,0.0,-0.029537232499597433
0.36000000000000026,move_to_zero,-0.08040851494654927,-3.6126593264785987,3.5322508115320495,-63.92877294378111,-75.7341343182181,11.805361374436984,66.73952662794245,73.85254091894548,-7.113014291003026,27.18796933111435,45.25232125100359,-18.064351919889244,-0.029865112559915835,0.0,-0.029865112559915835
0.36200000000000027,move_to_zero,-0.0802537890558143,-3.6082590106119987,3.5280052215561843,-63.817884446966026,-75.64188811320199,11.82400366623596,66.63782707107913,73.76258654510997,-7.124759474030839,27.119922777657187,45.19720271111199,-18.077279933454804,-0.03019138566570797,0.0,-0.03019138566570797
0.36400000000000027,move_to_zero,-0.08010089791781773,-3.603858694745399,3.5237577968275815,-63.70753716322847,-75.54964190818589,11.842104744957417,66.53575693563018,73.67263217127449,-7.136875235644311,27.051414938574016,45.14208417122039,-18.090669232646373,-0.03050931461580458,0.0,-0.03050931461580458
0.36600000000000027,move_to_zero,-0.07993233659320764,-3.5994583788787993,3.519526042285592,-63.597770962585116,-75.45739570316978,11.859624740584664,66.43332123101005,73.58267779743898,-7.149356566428921,26.98245596646583,45.086965631328795,-18.104509664862963,-0.030807312111283056,0.0,-0.030807312111283056
0.36800000000000027,move_to_zero,-0.07971161506981636,-3.5950580630121993,3.515346447942383,-63.488577379900924,-75.36514949815368,11.87657211825276,66.33051096938782,73.49272342360348,-7.162212454215663,26.9130481345632,45.03184709143719,-18.11879895687399,-0.031084076109439328,0.0,-0.031084076109439328
0.3700000000000003,move_to_zero,-0.07946022967232207,-3.5906577471455994,3.5111975174732772,-63.379977715678834,-75.27290329313757,11.89292557745874,66.22733715263837,73.40276904976798,-7.175431897129613,26.843180885278162,44.97672855154559,-18.13354766626743,-0.03134311628851009,0.0,-0.03134311628851009
0.3720000000000003,move_to_zero,-0.07917298876002891,-3.586257431278999,3.5070844425189702,-63.27199944033552,-75.18065708812149,11.908657647785972,66.12380929501889,73.31281467593247,-7.189005380913585,26.77283513549718,44.921610011653996,-18.148774876156818,-0.03158719126375454,0.0,-0.03158719126375454
0.3740000000000003,move_to_zero,-0.07886303144273425,-3.581857115412399,3.5029940839696647,-63.16464975506783,-75.08841088310538,11.923761128037555,66.01994315260303,73.22286030209698,-7.202917149493942,26.702017795810537,44.86649147176239,-18.16447367595185,-0.03181805457378226,0.0,-0.03181805457378226
0.3760000000000003,move_to_zero,-0.0785431176112781,-3.577456799545799,3.498913681934521,-63.05795307172365,-74.99616467808929,11.938211606365634,65.9157624483491,73.13290592826148,-7.21714347991238,26.630712090225995,44.81137293187079,-18.180660841644798,-0.03203573819087207,0.0,-0.03203573819087207
0.3780000000000003,move_to_zero,-0.07823332535690664,-3.573056483679199,3.4948231583222924,-62.95193257708789,-74.90391847307319,11.951985895985302,65.811271503909,73.04295155442597,-7.231680050516971,26.558922918149744,44.75625439197919,-18.197331473829447,-0.032243649687674465,0.0,-0.032243649687674465
0.3800000000000003,move_to_zero,-0.07794903631975157,-3.5686561678125988,3.4907071314928473,-62.846632966495356,-74.81167226805708,11.965039301561724,65.7064785939657,72.95299718059049,-7.246518586624788,26.486623382411228,44.70113585208759,-18.21451246967636,-0.03244355227970547,0.0,-0.03244355227970547
0.3820000000000003,move_to_zero,-0.07768013488394604,-3.564255851945999,3.4865757170620526,-62.74208427094955,-74.71942606304098,11.977341792091437,65.60138650404588,72.86304280675498,-7.261656302709099,26.413845519304058,44.646017312195994,-18.232171792891936,-0.03263637952357061,0.0,-0.03263637952357061
0.3840000000000003,move_to_zero,-0.07743265182718594,-3.559855536079399,3.482422884252213,-62.638285218893785,-74.62717985802489,11.988894639131104,65.4960349729992,72.77308843291948,-7.277053459920282,26.3406091447031,44.59089877230439,-18.25028962760129,-0.03282323777434903,0.0,-0.03282323777434903
0.3860000000000003,move_to_zero,-0.07719365275713962,-3.5554552202127994,3.4782615674556596,-62.53525072114347,-74.53493365300879,11.999682931865323,65.39042256165284,72.68313405908398,-7.292711497431142,26.266918890437093,44.53578023241279,-18.268861341975697,-0.03300675991008017,0.0,-0.03300675991008017
0.3880000000000003,move_to_zero,-0.07695913626131709,-3.551054904346199,3.474095768084882,-62.432953281972566,-74.44268744799268,12.009734166020117,65.28454664471168,72.59317968524847,-7.30863304053679,26.19277573988171,44.48066169252119,-18.287885952639478,-0.03318783984585025,0.0,-0.03318783984585025
0.3900000000000003,move_to_zero,-0.0767126426290994,-3.546654588479599,3.4699419458504996,-62.33140373915383,-74.35044124297659,12.019037503822759,65.17841080808333,72.50322531141298,-7.324814503329648,26.118159251419964,44.425543152629594,-18.30738390120963,-0.03336838505017729,0.0,-0.03336838505017729
0.3920000000000003,move_to_zero,-0.0764563332665331,-3.542254272612999,3.465797939346466,-62.23061956904599,-74.25819503796048,12.027575468914485,65.07202332159949,72.41327093757748,-7.341247615977991,26.043075645559757,44.37042461273799,-18.327348967178235,-0.03354766917012931,0.0,-0.03354766917012931
0.3940000000000003,move_to_zero,-0.07619736405644746,-3.537853956746399,3.461656592689952,-62.13062656650278,-74.16594883294438,12.035322266441604,64.9653823032064,72.32331656374198,-7.357934260535586,25.96755650766612,44.31530607284639,-18.34774956518027,-0.03372930620978872,0.0,-0.03372930620978872
0.3960000000000003,move_to_zero,-0.07593564625426422,-3.5334536408797987,3.4575179946255346,-62.031427918470584,-74.07370262792828,12.0422747094577,64.85848993209578,72.23336218990647,-7.3748722578106936,25.891606133678398,44.260187532954795,-18.368581399276398,-0.03391269713165766,0.0,-0.03391269713165766
0.3980000000000003,move_to_zero,-0.07569777756180948,-3.529053325013199,3.4533555474513893,-61.93302177439844,-73.98145642291219,12.048434648513748,64.7513480439741,72.14340781607098,-7.3920597720968715,25.815221732229656,44.205068993063186,-18.38984726083353,-0.03409696548442336,0.0,-0.03409696548442336
0.4000000000000003,move_to_zero,-0.07546916735987777,-3.524653009146599,3.449183841786721,-61.8354128986972,-73.88921021789609,12.053797319198893,64.64397946118402,72.05345344223548,-7.4094739810514625,25.73842575879476,44.14995045317159,-18.41152469437683,-0.034279966169703,0.0,-0.034279966169703
0.4020000000000003,move_to_zero,-0.07524913365083365,-3.520252693279999,3.445003559629165,-61.73859868370616,-73.79696401287998,12.058365329173824,64.53640699387566,71.96349906839997,-7.42709207452431,25.661201659711693,44.09483191327999,-18.433630253568296,-0.03446144913504703,0.0,-0.03446144913504703
0.4040000000000003,move_to_zero,-0.07503926960964605,-3.515852377413399,3.440813107803753,-61.642594607962224,-73.70471780786389,12.062123199901663,64.42863238803709,71.87354469456449,-7.444912306527399,25.58355690094158,44.039713373388395,-18.456156472446814,-0.034640164213565916,0.0,-0.034640164213565916
0.4060000000000003,move_to_zero,-0.07483590688197128,-3.511452061546799,3.4366161546648275,-61.54739285888218,-73.61247160284778,12.065078743965593,64.32065553036554,71.78359032072898,-7.462934790363434,25.505504892878843,43.98459483349679,-18.47908994061795,-0.03481691277526982,0.0,-0.03481691277526982
0.4080000000000003,move_to_zero,-0.0746107588539579,-3.507051745680199,3.4324409868262413,-61.45298084463282,-73.52022539783168,12.067244553198861,64.21246923459674,71.69363594689347,-7.4811667122967265,25.427040400823877,43.92947629360519,-18.502435892781314,-0.03499421637074882,0.0,-0.03499421637074882
0.4100000000000003,move_to_zero,-0.07435026450637139,-3.5026514298135987,3.4283011653072273,-61.359342005740714,-73.42797919281558,12.06863718707487,64.10406467140969,71.60368157305798,-7.499616901648295,25.348181843405417,43.87435775371359,-18.526175910308172,-0.035169810234831844,0.0,-0.035169810234831844
0.4120000000000003,move_to_zero,-0.07407500908116313,-3.4982511139469987,3.4241761048658357,-61.26646927395774,-73.33573298779949,12.06926371384175,63.995456706278866,71.51372719922247,-7.518270492943607,25.268945572969535,43.81923921382199,-18.550293640852452,-0.035342038476601896,0.0,-0.035342038476601896
0.4140000000000003,move_to_zero,-0.0737783311097755,-3.493850798080399,3.4200724669706233,-61.17433082064649,-73.24348678278338,12.06915596213689,63.88666408161821,71.42377282538698,-7.537108743768769,25.18931383209476,43.76412067393039,-18.57480684183563,-0.035511663723028726,0.0,-0.035511663723028726
0.4160000000000003,move_to_zero,-0.07347904268387917,-3.4894504822137993,3.41597143952992,-61.082899646539786,-73.15124057776728,12.068340931227496,63.77769239077786,71.33381845155148,-7.556126060773622,25.109280628381185,43.70900213403879,-18.599721505657605,-0.03567686062568086,0.0,-0.03567686062568086
0.4180000000000003,move_to_zero,-0.07318456583798123,-3.485050166347199,3.4118656005092176,-60.99215090074427,-73.05899437275119,12.066843472006916,63.66856352644137,71.24386407771597,-7.5753005512746014,25.028858704613995,43.653883594147196,-18.6250248895332,-0.03584230254777256,0.0,-0.03584230254777256
0.4200000000000003,move_to_zero,-0.07290958109019638,-3.480649850480599,3.4077402693904024,-60.902084603927,-72.96674816773508,12.064663563808075,63.559289951127326,71.15390970388047,-7.594619752753147,24.948075281645366,43.598765054255594,-18.650689772610228,-0.0360085865155631,0.0,-0.0360085865155631
0.4220000000000003,move_to_zero,-0.07263011839997661,-3.476249534613999,3.4036194162140223,-60.81268969367921,-72.87450196271898,12.06181226903977,63.44986621383437,71.06395533004498,-7.614089116210607,24.866943543959696,43.543646514363985,-18.67670297040429,-0.03617472886411034,0.0,-0.03617472886411034
0.4240000000000003,move_to_zero,-0.07234464713929195,-3.471849218747399,3.399504571608107,-60.72395515157501,-72.78225575770288,12.058300606127872,63.34029113492843,70.97400095620948,-7.633709821281052,24.78547536546884,43.48852797447239,-18.70305260900355,-0.036339400602212524,0.0,-0.036339400602212524
0.4260000000000003,move_to_zero,-0.07205916381357991,-3.4674489028807987,3.3953897390672187,-60.63586881806741,-72.69000955268679,12.05414073461938,63.23061025186003,70.88404658237397,-7.653436330513941,24.703665409359132,43.43340943458079,-18.729744025221656,-0.03650060125633823,0.0,-0.03650060125633823
0.4280000000000003,move_to_zero,-0.07178491615186619,-3.4630485870141987,3.3912636708623327,-60.548404470467446,-72.59776334767068,12.049358877203233,63.120840382452734,70.79409220853847,-7.673251826085739,24.6215406666981,43.378290894689194,-18.756750227991095,-0.036658426074227486,0.0,-0.036658426074227486
0.4300000000000003,move_to_zero,-0.07153528482755515,-3.458648271147599,3.387112986320044,-60.461538208675755,-72.50551714265458,12.043978933978828,63.01099409320864,70.70413783470298,-7.693143741494339,24.53912975497782,43.32317235479759,-18.78404259981977,-0.03681284144481434,0.0,-0.03681284144481434
0.43200000000000033,move_to_zero,-0.07129047983389782,-3.454247955280999,3.382957475447101,-60.37524665361248,-72.41327093763847,12.038024284025994,62.901060981327994,70.61418346086747,-7.7131224795394715,24.456423491310737,43.268053814906,-18.81163032359526,-0.036966734355960366,0.0,-0.036966734355960366
0.43400000000000033,move_to_zero,-0.07106592644910406,-3.449847639414399,3.378781712965295,-60.289495916768644,-72.32102473262238,12.031528815853733,62.791052346629115,70.52422908703198,-7.733176740402868,24.373455043061643,43.21293527501439,-18.839480231952745,-0.037118578911907014,0.0,-0.037118578911907014
0.43600000000000033,move_to_zero,-0.07085795481487857,-3.445447323547799,3.3745893687329205,-60.20426663235585,-72.22877852760628,12.024511895250427,62.68097792857454,70.43427471319647,-7.753296784621931,24.290223302011604,43.157816735122786,-18.867593433111182,-0.03726878926829438,0.0,-0.03726878926829438
0.43800000000000033,move_to_zero,-0.0706650581172791,-3.441047007681199,3.37038194956392,-60.119535551954755,-72.13653232259018,12.01699677063543,62.5708327837868,70.34432033936098,-7.773487555574178,24.206739515893698,43.10269819523119,-18.895958679337493,-0.03741633954000483,0.0,-0.03741633954000483
0.44000000000000034,move_to_zero,-0.07048332204286188,-3.4366466918145986,3.3661633697717366,-60.0353072624388,-72.04428611757409,12.00897885513529,62.46064056146778,70.25436596552548,-7.793725404057703,24.123001674038253,43.04757965533959,-18.924577981301336,-0.037560777478095046,0.0,-0.037560777478095046
0.44200000000000034,move_to_zero,-0.07031303304743139,-3.4322463759479986,3.361933342900567,-59.95157324511931,-71.95203991255798,12.000466667438666,62.350409638212945,70.16441159168997,-7.814001953477025,24.03904153379055,42.992461115447995,-18.953419581657446,-0.03770229439917361,0.0,-0.03770229439917361
0.44400000000000034,move_to_zero,-0.07015309031339031,-3.427846060081399,3.3576929697680087,-59.8682962811885,-71.85979370754188,11.991497426353384,62.240165887291944,70.07445721785447,-7.834291330562529,23.95486427209538,42.937342575556386,-18.982478303461004,-0.03784185328943901,0.0,-0.03784185328943901
0.44600000000000034,move_to_zero,-0.0700001393980407,-3.423445744214799,3.3534456048167587,-59.785421402719486,-71.76754750252577,11.982126099806287,62.12991763863152,69.98450284401898,-7.854585205387458,23.87049454991976,42.88222403566479,-19.011729485745033,-0.037979038006204974,0.0,-0.037979038006204974
0.44800000000000034,move_to_zero,-0.06985099018522535,-3.419045428348199,3.3491944381629732,-59.70294696702991,-71.67530129750969,11.972354330479781,62.01966827735908,69.89454847018347,-7.874880192824385,23.785943809596965,42.82710549577319,-19.041161686176224,-0.03811300537243486,0.0,-0.03811300537243486
0.45000000000000034,move_to_zero,-0.06970407874639546,-3.414645112481599,3.3449410337352035,-59.62086245719404,-71.58305509249358,11.962192635299537,61.90940713509286,69.80459409634798,-7.895186961255121,23.701220844493502,42.77198695588159,-19.070766111388085,-0.03824559588414138,0.0,-0.03824559588414138
0.45200000000000035,move_to_zero,-0.06955987475601094,-3.410244796614999,3.340684921858988,-59.53915197314103,-71.49080888747748,11.951656914336453,61.79911789647284,69.71463972251247,-7.91552182603963,23.616313424589908,42.71686841598999,-19.100554991400085,-0.03837970081380087,0.0,-0.03837970081380087
0.45400000000000035,move_to_zero,-0.06941699605868652,-3.405844480748399,3.3364274846897124,-59.45776653569114,-71.39856268246137,11.940796146770232,61.68878489609844,69.62468534867698,-7.935900452578537,23.53121901586766,42.66174987609839,-19.13053086023073,-0.038513595245391004,0.0,-0.038513595245391004
0.45600000000000035,move_to_zero,-0.06927511156487139,-3.4014441648817986,3.3321690533169273,-59.37666433509006,-71.30631647744528,11.929652142355216,61.57840842394047,69.53473097484148,-7.956322550901007,23.44592737241959,42.60663133620679,-19.1607039637872,-0.03864936693581439,0.0,-0.03864936693581439
0.45800000000000035,move_to_zero,-0.0691333021737423,-3.397043849015199,3.3279105468414567,-59.29584638016123,-71.21407027242918,11.918223892267953,61.467983829494116,69.44477660100597,-7.976792771511853,23.36045663267999,42.55151279631519,-19.191056163635196,-0.038785667090491374,0.0,-0.038785667090491374
0.46000000000000035,move_to_zero,-0.06898736443743846,-3.392643533148599,3.3236561687111608,-59.21528521798368,-71.12182406741309,11.90653884942941,61.35749473334241,69.35482222717047,-7.99732749382806,23.274811567822674,42.49639425642359,-19.22158268860092,-0.03892165258887692,0.0,-0.03892165258887692
0.46200000000000035,move_to_zero,-0.06884319827139873,-3.3882432172819987,3.3194000190106,-59.13497029588467,-71.02957786239699,11.89460756651232,61.24695631557782,69.26486785333498,-8.017911537757158,23.189023668334052,42.44127571653199,-19.25225204819794,-0.03906069422308045,0.0,-0.03906069422308045
0.46400000000000036,move_to_zero,-0.06870127846883908,-3.383842901415399,3.31514162294656,-59.05487468769839,-70.93733165738088,11.882456969682494,61.136387922945175,69.17491347949948,-8.038525556554305,23.10311328086421,42.38615717664039,-19.283043895776178,-0.0392017422168431,0.0,-0.0392017422168431
0.46600000000000036,move_to_zero,-0.0685601475339421,-3.379442585548799,3.3108824380148567,-58.97498993969703,-70.84508545236478,11.870095512667753,61.02576259105435,69.08495910566397,-8.059196514609617,23.017132366416178,42.331038636748794,-19.313906270332616,-0.03934304509508675,0.0,-0.03934304509508675
0.46800000000000036,move_to_zero,-0.06842025711304237,-3.375042269682199,3.3066220125691563,-58.89528374874381,-70.75283924734867,11.857555498604867,60.91510334447469,68.99500473182847,-8.079901387353786,22.93110646190334,42.275920096857185,-19.344813634953844,-0.03948432737123624,0.0,-0.03948432737123624
0.47000000000000036,move_to_zero,-0.06828120060931644,-3.3706419538155985,3.302360753206282,-58.81576894223369,-70.66059304233258,11.84482410009889,60.804398702414915,68.90505035799298,-8.100651655578062,22.845042615588934,42.22080155696559,-19.375758941376656,-0.039626856454977544,0.0,-0.039626856454977544
0.47200000000000036,move_to_zero,-0.06814259322888004,-3.3662416379489986,3.2980990447201184,-58.73640603394187,-70.56834683731647,11.8319408033746,60.693668588718815,68.81509598415747,-8.121427395438651,22.75894106375701,42.16568301707399,-19.406741953316978,-0.03976816745156682,0.0,-0.03976816745156682
0.47400000000000037,move_to_zero,-0.06800437692686812,-3.361841322082399,3.293836945155531,-58.6571668412878,-70.47610063230039,11.81893379101259,60.58290265204961,68.72514161032198,-8.142238958272372,22.67280158022519,42.11056447718239,-19.437762896957203,-0.0399102431520328,0.0,-0.0399102431520328
0.47600000000000037,move_to_zero,-0.06786141417821945,-3.357441006215799,3.2895795920375797,-58.57804870472181,-70.38385442728428,11.805805722562468,60.472112292555124,68.63518723648647,-8.163074943931349,22.586614045827204,42.05544593729079,-19.468831891463587,-0.04005434480682355,0.0,-0.04005434480682355
0.47800000000000037,move_to_zero,-0.06769220711454783,-3.3530406903491987,3.285348483234651,-58.49900730122404,-70.29160822226818,11.79260092104414,60.36130673386247,68.54523286265096,-8.183926128788492,22.500370287840877,42.00032739739919,-19.499957109558313,-0.040198525551910606,0.0,-0.040198525551910606
0.48000000000000037,move_to_zero,-0.0674917584397535,-3.3486403744825988,3.281148616042845,-58.42002833950107,-70.19936201725208,11.779333677751012,60.25049430673631,68.45527848881548,-8.204784182079173,22.414083897041753,41.94520885750759,-19.531124960465835,-0.04034322160627064,0.0,-0.04034322160627064
0.4820000000000004,move_to_zero,-0.06729393171870741,-3.344240058615999,3.2769461268972915,-58.34110500762214,-70.10711581223597,11.766010804613835,60.13966385937796,68.36532411497997,-8.225660255602008,22.327758562921336,41.890090317615986,-19.56233175469465,-0.04048933651177057,0.0,-0.04048933651177057
0.4840000000000004,move_to_zero,-0.06709650646370657,-3.339839742749399,3.2727432362856925,-58.26224463834639,-70.01486960721988,11.75262496887349,60.0288145130011,68.27536974114447,-8.246555228143372,22.241385714547505,41.83497177772439,-19.593586063176886,-0.04063488064214662,0.0,-0.04063488064214662
0.4860000000000004,move_to_zero,-0.06689259769147873,-3.3354394268827985,3.26854682919132,-58.183443002491984,-69.92262340220378,11.739180399711799,59.91797243322896,68.18541536730898,-8.267442934080016,22.154946135720017,41.77985323783279,-19.624907102112772,-0.0407770946410724,0.0,-0.0407770946410724
0.4880000000000004,move_to_zero,-0.06670259568379511,-3.331039111016199,3.264336515332404,-58.10465584690843,-69.83037719718769,11.725721350279258,59.807159001810916,68.09546099347347,-8.28830199166255,22.068427793239625,41.72473469794119,-19.656306904701562,-0.04091589765337317,0.0,-0.04091589765337317
0.4900000000000004,move_to_zero,-0.06652388062451721,-3.326638795149599,3.2601149145250816,-58.02589376022514,-69.73813099217158,11.712237231946439,59.69637178065463,68.00550661963797,-8.30913483898334,21.98184619896999,41.66961615804959,-19.687769959079603,-0.041051165170874156,0.0,-0.041051165170874156
0.4920000000000004,move_to_zero,-0.06635430210186502,-3.3222384792829986,3.2558841771811338,-57.94711515244649,-69.64588478715548,11.698769634708988,59.585602273341614,67.91555224580247,-8.32994997246086,21.89521164974978,41.61449761815798,-19.719285968408204,-0.041186153305141686,0.0,-0.041186153305141686
0.4940000000000004,move_to_zero,-0.06619077667077922,-3.3178381634163987,3.2516473867456197,-57.86832650819018,-69.55363858213937,11.685312073949191,59.47486319354827,67.82559787196698,-8.350734678418704,21.808529527287174,41.55937907826639,-19.750849550979215,-0.04132205393860565,0.0,-0.04132205393860565
0.4960000000000004,move_to_zero,-0.06603273055026067,-3.3134378475497988,3.247405116999538,-57.78952859777426,-69.46139237712327,11.671863779349017,59.36416803879784,67.73564349813147,-8.371475459333624,21.721815640710794,41.50426053837479,-19.782444897663993,-0.041459041063731245,0.0,-0.041459041063731245
0.4980000000000004,move_to_zero,-0.06587883973515857,-3.309037531683199,3.2431586919480404,-57.71071825635776,-69.36914617210718,11.65842791574942,59.25353059487925,67.64568912429597,-8.392158529416719,21.63511522960006,41.44914199848319,-19.81402676888313,-0.0415949995335717,0.0,-0.0415949995335717
0.5000000000000003,move_to_zero,-0.06572850138267479,-3.3046372158165984,3.2389087144339235,-57.63189814919549,-69.27689996709108,11.64500181789559,59.14294485915762,67.55573475046047,-8.41278989130285,21.548418289106483,41.39402345859159,-19.845605169485108,-0.04173017433323461,0.0,-0.04173017433323461
0.5020000000000003,move_to_zero,-0.06558026589755274,-3.300236899949999,3.2346566340524463,-57.55306581425633,-69.18465376207499,11.631587947818659,59.032413194089344,67.46578037662498,-8.433367182535633,21.461711321833832,41.33890491869999,-19.877193596866157,-0.0418615710714125,0.0,-0.0418615710714125
0.5040000000000003,move_to_zero,-0.06542326015932358,-3.2958365840833994,3.230413323924076,-57.474205986145876,-69.09240755705889,11.618201570913016,58.921955802452985,67.37582600278948,-8.453870200336496,21.374994267704757,41.283786378808394,-19.908792111103637,-0.0419882981796139,0.0,-0.0419882981796139
0.5060000000000003,move_to_zero,-0.06526932767094812,-3.291436268216799,3.226166940545851,-57.395299631242096,-69.00016135204278,11.604861720800685,58.81159332020526,67.28587162895397,-8.474278308748708,21.288277115907665,41.228667838916785,-19.94039072300912,-0.04210962462856893,0.0,-0.04210962462856893
0.5080000000000003,move_to_zero,-0.06511868094180712,-3.287035952350199,3.221917271408392,-57.31633439270069,-68.90791514702669,11.591580754325996,58.701315775748476,67.19591725511847,-8.494601479369997,21.201555577042903,41.1735492990252,-19.971993721982294,-0.042227200020589474,0.0,-0.042227200020589474
0.5100000000000003,move_to_zero,-0.06497061751279205,-3.2826356364835987,3.2176650189708065,-57.23729837779353,-68.81566894201057,11.578370564217046,58.59110386484601,67.10596288128298,-8.514859016436965,21.114867463634805,41.11843075913359,-20.003563295498783,-0.0423395343320998,0.0,-0.0423395343320998
0.5120000000000003,move_to_zero,-0.06482510695098886,-3.278235320616999,3.2134102136660103,-57.15819038854921,-68.7234227369945,11.565232348445285,58.480966328073826,67.01600850744748,-8.535042179373654,21.028222881465204,41.06331221924199,-20.03508933777679,-0.04245002275125175,0.0,-0.04245002275125175
0.5140000000000003,move_to_zero,-0.06466670087724455,-3.273835004750399,3.209168303873154,-57.07903435916974,-68.63117653197838,11.552142172808644,58.37091997716319,66.92605413361197,-8.55513415644878,20.941631290959304,41.00819367935039,-20.066562388391088,-0.04255884641535901,0.0,-0.04255884641535901
0.5160000000000003,move_to_zero,-0.06451146465400984,-3.2694346888837993,3.2049232242297894,-56.999826155442314,-68.53893032696229,11.539104171519973,58.260984005473,66.83609975977649,-8.57511575430349,20.85509169465549,40.95307513945879,-20.0979834448033,-0.04266664131041016,0.0,-0.04266664131041016
0.5180000000000003,move_to_zero,-0.06435947432852672,-3.265034373017199,3.200674898688672,-56.92053961590165,-68.44668412194618,11.526144506044524,58.151143325765766,66.74614538594096,-8.595002060175197,20.7686217044755,40.89795659956719,-20.129334895091688,-0.04277523022699814,0.0,-0.04277523022699814
0.5200000000000004,move_to_zero,-0.06421040674897262,-3.2606340571505994,3.1964236504016266,-56.84120743144758,-68.35443791693008,11.513230485482502,58.04140341563468,66.65619101210548,-8.614787596470798,20.682208889589678,40.84283805967559,-20.160629170085915,-0.04288472245796501,0.0,-0.04288472245796501
0.5220000000000004,move_to_zero,-0.06406507413382083,-3.2562337412839986,3.192168667150178,-56.76184293972136,-68.26219171191397,11.50034877219261,57.93178395747555,66.56623663826997,-8.634452680794418,20.595857854227457,40.78771951978399,-20.191861665556534,-0.04299198903841103,0.0,-0.04299198903841103
0.5240000000000004,move_to_zero,-0.06392384665973361,-3.251833425417399,3.1879095787576652,-56.682445333958675,-68.16994550689789,11.487500172939214,57.82229849262714,66.47628226443447,-8.653983771807333,20.509585764396107,40.732600979892396,-20.22301521549629,-0.043097030721361014,0.0,-0.043097030721361014
0.5260000000000004,move_to_zero,-0.06378616825069454,-3.2474331095507987,3.183646941300104,-56.60302169751271,-68.07769930188178,11.47467760436907,57.71297047643056,66.38632789059898,-8.673357414168414,20.423394083922457,40.677482440000794,-20.254088356078338,-0.043201665031020714,0.0,-0.043201665031020714
0.5280000000000004,move_to_zero,-0.06365068409640831,-3.2430327936841996,3.179382109587791,-56.523558450140186,-67.9854530968657,11.461894646725511,57.603794524438385,66.29637351676348,-8.692578992325096,20.337275322249443,40.62236390010919,-20.28508857785975,-0.043305458760116704,0.0,-0.043305458760116704
0.5300000000000004,move_to_zero,-0.06351848132418679,-3.2386324778175983,3.1751139964934114,-56.44404054269694,-67.89320689184957,11.449166349152634,57.49475959355345,66.20641914292797,-8.711659549374524,20.251238979772058,40.56724536021758,-20.316006380445526,-0.04340614632175641,0.0,-0.04340614632175641
0.5320000000000004,move_to_zero,-0.06338899132978212,-3.2342321619509993,3.1708431706212172,-56.36443713404596,-67.80096068683349,11.436523552787534,57.385868029401585,66.11646476909249,-8.730596739690903,20.165281109550946,40.512126820325996,-20.34684571077505,-0.04350273729516963,0.0,-0.04350273729516963
0.5340000000000004,move_to_zero,-0.0632626865211587,-3.229831846084399,3.1665691595632404,-56.284745132000836,-67.70871448181737,11.423969349816531,57.277116285764826,66.02651039525698,-8.749394109492151,20.079374709953846,40.45700828043439,-20.37763357048054,-0.043595932019423196,0.0,-0.043595932019423196
0.5360000000000004,move_to_zero,-0.06313947530736863,-3.2254315302177994,3.1622920549104307,-56.204985996625936,-67.61646827680129,11.411482280175349,57.16849915837278,65.93655602142148,-8.768056863048699,19.993525178757135,40.4018897405428,-20.408364561785664,-0.043685869669004694,0.0,-0.043685869669004694
0.5380000000000004,move_to_zero,-0.06301812592807506,-3.2210312143511985,3.1580130884231234,-56.12517542230233,-67.52422207178519,11.399046649482862,57.060010988295716,65.84660164758597,-8.786590659290255,19.907758397633486,40.34677120065119,-20.439012803017704,-0.04377395295954079,0.0,-0.04377395295954079
0.5400000000000004,move_to_zero,-0.06289719136228929,-3.216630898484599,3.15373370712231,-56.04531661949609,-67.4319758667691,11.386659247273002,56.95164489337789,65.75664727375049,-8.8050023803726,19.822081900998725,40.29165266075959,-20.469570759760863,-0.043858506670427164,0.0,-0.043858506670427164
0.5420000000000004,move_to_zero,-0.06277756912150784,-3.2122305826179987,3.149453013496491,-55.965419622292956,-67.33972966175298,11.374310039460028,56.843386135090356,65.66669289991496,-8.823306764824608,19.736487235718517,40.23653412086799,-20.50004688514947,-0.043941253342370735,0.0,-0.043941253342370735
0.5440000000000004,move_to_zero,-0.06266003639849697,-3.207830266751399,3.1451702303529023,-55.88548130530484,-67.24748345673689,11.362002151432044,56.73523718562608,65.57673852607948,-8.841501340453398,19.65096640932534,40.18141558097639,-20.530449171651053,-0.044022005570077405,0.0,-0.044022005570077405
0.5460000000000004,move_to_zero,-0.06254391229507347,-3.2034299508847988,3.1408860385897253,-55.80550837871217,-67.15523725172078,11.349728873008608,56.62719572978025,65.48678415224397,-8.859588422463723,19.565509855269884,40.12629704108479,-20.560787185814906,-0.04410039646791581,0.0,-0.04410039646791581
0.5480000000000004,move_to_zero,-0.06242987298805353,-3.1990296350181993,3.1365997620301456,-55.72550372006357,-67.06299104670468,11.33748732664111,56.51927305302544,65.39682977840847,-8.877556725383037,19.480113748144095,40.071178501193195,-20.5910647530491,-0.04417627855946122,0.0,-0.04417627855946122
0.5500000000000004,move_to_zero,-0.06231844642224097,-3.194629319151599,3.132310872729358,-55.64547603223811,-66.97074484168859,11.325268809450478,56.411492978549965,65.30687540457298,-8.895382426023012,19.39477526075825,40.01605996130159,-20.62128470054334,-0.044250670288742855,0.0,-0.044250670288742855
0.5520000000000004,move_to_zero,-0.06220934317412511,-3.190229003284999,3.1280196601108736,-55.56541591439551,-66.87849863667249,11.313082722276981,56.303849261930864,65.21692103073748,-8.913071768806617,19.3095306753957,39.96094142140999,-20.651410746014292,-0.0443232150003601,0.0,-0.0443232150003601
0.5540000000000004,move_to_zero,-0.06210186768208541,-3.1858286874183985,3.123726819736313,-55.48531161272887,-66.78625243165638,11.300940818927508,56.19631777440454,65.12696665690197,-8.93064888249743,19.22438310573551,39.90582288151839,-20.68143977578288,-0.04439407258415876,0.0,-0.04439407258415876
0.5560000000000004,move_to_zero,-0.06199799165527416,-3.1814283715517995,3.1194303798965253,-55.40515007746649,-66.69400622664028,11.288856149173796,56.08888810698152,65.03701228306649,-8.948124176084967,19.139329713176632,39.850704341626795,-20.711374628450162,-0.044463658470406564,0.0,-0.044463658470406564
0.5580000000000004,move_to_zero,-0.0618965927173583,-3.1770280556851986,3.1151314629678404,-55.32494709807568,-66.60176002162417,11.27681292354849,55.98154618542487,64.94705790923096,-8.965511723806095,19.054380394491776,39.795585801735186,-20.74120540724341,-0.04453166974782665,0.0,-0.04453166974782665
0.5600000000000004,move_to_zero,-0.06179779151598707,-3.172627739818599,3.1108299483026123,-55.2447140158714,-66.50951381660808,11.264799800736675,55.87428753300339,64.85710353539548,-8.982816002392092,18.969557067252786,39.7404672618436,-20.77091019459081,-0.04459973678665594,0.0,-0.04459973678665594
0.5620000000000004,move_to_zero,-0.061700200899997344,-3.1682274239519987,3.1065272230520016,-55.16445697452009,-66.41726761159198,11.252810637071889,55.767120023215554,64.76714916155997,-9.000029138344416,18.88483953908749,39.68534872195198,-20.80050918286449,-0.04467016586077565,0.0,-0.04467016586077565
0.5640000000000004,move_to_zero,-0.0616040287397315,-3.1638271080853992,3.1022230793456678,-55.084178887041766,-66.3250214065759,11.240842519534134,55.66003322564941,64.67719478772447,-9.017161562075067,18.800233583100628,39.630230182060394,-20.829996598959767,-0.04474534159669467,0.0,-0.04474534159669467
0.5660000000000004,move_to_zero,-0.06151048882176924,-3.159426792218799,3.09791630339703,-55.00388676819927,-66.23277520155978,11.228888433360503,55.55301999193568,64.58724041388896,-9.034220421953286,18.71572575657373,39.575111642168785,-20.859385885595056,-0.04482585730668321,0.0,-0.04482585730668321
0.5680000000000004,move_to_zero,-0.06141906952192495,-3.155026476352199,3.093607406830274,-54.923572602034525,-66.1405289965437,11.216956394509168,55.4460831447692,64.49728604005348,-9.051202895284284,18.63130428146494,39.51999310227719,-20.888688820812252,-0.04491116971200433,0.0,-0.04491116971200433
0.5700000000000004,move_to_zero,-0.0613288774231983,-3.1506261604855985,3.0892972830624004,-54.84326497480674,-66.04828279152757,11.205017816720826,55.33923737079881,64.40733166621797,-9.068094295419158,18.54696632068616,39.46487456238559,-20.91790824169943,-0.045000734776908156,0.0,-0.045000734776908156
0.5720000000000004,move_to_zero,-0.06123860631935326,-3.1462258446189995,3.084987238299646,-54.762959745275914,-65.95603658651149,11.193076841235573,55.23248970284335,64.31737729238247,-9.084887589539122,18.462717794382048,39.409756022493994,-20.947038228111946,-0.04509089728004662,0.0,-0.04509089728004662
0.5740000000000004,move_to_zero,-0.06114841739522846,-3.141825528752399,3.0806771113571707,-54.682637042332686,-65.86379038149538,11.181153339162691,55.125834007606755,64.22742291854698,-9.101588910940222,18.37856411135467,39.354637482602385,-20.976073371247715,-0.045182078322041644,0.0,-0.045182078322041644
0.5760000000000004,move_to_zero,-0.06105754076806933,-3.137425212885799,3.0763676721177298,-54.60231530439738,-65.7715441764793,11.169228872081916,55.01927455626272,64.13746854471148,-9.118193988448759,18.294515272254262,39.29951894271079,-21.005003670456528,-0.045272699087194716,0.0,-0.045272699087194716
0.5780000000000004,move_to_zero,-0.06096630909115092,-3.1330248970191987,3.0720585879280478,-54.521983894290884,-65.67929797146319,11.157314077172302,54.912794795447695,64.04751417087597,-9.134719375428276,18.21057743659255,39.24440040281919,-21.033822966226637,-0.045365621114563284,0.0,-0.045365621114563284
0.5800000000000004,move_to_zero,-0.06087558730253357,-3.1286245811525992,3.0677489938500657,-54.44162837078699,-65.58705176644709,11.145423395660103,54.80636445522397,63.95755979704048,-9.15119534181651,18.12676657834195,39.189281862927594,-21.062515284585643,-0.04545970650400139,0.0,-0.04545970650400139
0.5820000000000004,move_to_zero,-0.06078634297884032,-3.1242242652859984,3.063437922307158,-54.36126087851485,-65.49480556143098,11.133544682916131,54.700008875694095,63.867605423204964,-9.167596547510868,18.04307159152775,39.134163323035985,-21.091091731508236,-0.04555473725876006,0.0,-0.04555473725876006
0.5840000000000004,move_to_zero,-0.06069944554762741,-3.119823949419399,3.0591245038717716,-54.28086842105422,-65.40255935641488,11.121690935360661,54.59374266843848,63.777651049369474,-9.183908380930994,17.959483608720326,39.0790447831444,-21.11956117442407,-0.0456520810512146,0.0,-0.0456520810512146
0.5860000000000004,move_to_zero,-0.060613362161724735,-3.1154236335527985,3.054810271391074,-54.200442540822685,-65.31031315139877,11.109870610576088,54.4875734575151,63.68769667553397,-9.200123218018874,17.875992562794753,39.02392624325278,-21.147933680458028,-0.045750326925216696,0.0,-0.045750326925216696
0.5880000000000004,move_to_zero,-0.060529510880531774,-3.1110233176861994,3.0504938068056675,-54.11997161162971,-65.21806694638268,11.09809533475297,54.38148251572751,63.597742301698474,-9.216259785970962,17.792638389507793,38.96880770336119,-21.1761693138534,-0.04584793768443029,0.0,-0.04584793768443029
0.5900000000000004,move_to_zero,-0.06044670770385914,-3.1066230018195986,3.0461762941157393,-54.039434279658344,-65.12582074136658,11.086386461708237,54.27546817841851,63.50778792786297,-9.232319749444464,17.70940464943524,38.913689163469584,-21.204284514034345,-0.04594321492714019,0.0,-0.04594321492714019
0.5920000000000004,move_to_zero,-0.060365358885902484,-3.102222685952999,3.0418573270670968,-53.95884580838241,-65.03357453635049,11.074728727968079,54.16953828068742,63.41783355402748,-9.248295273340062,17.626297021387227,38.858570623578,-21.23227360219077,-0.04603711265925467,0.0,-0.04603711265925467
0.5940000000000004,move_to_zero,-0.0602860605795657,-3.0978223700863987,3.037536309506833,-53.8782058544018,-64.94132833133438,11.063122476932577,54.06368620390004,63.32787918019197,-9.26419297629193,17.543336685090267,38.80345208368639,-21.26011539859612,-0.04612755360912584,0.0,-0.04612755360912584
0.5960000000000004,move_to_zero,-0.060208073290940196,-3.093422054219799,3.033213980928859,-53.79750693813773,-64.84908212631828,11.05157518818055,53.95790891446476,63.23792480635648,-9.280015891891722,17.460541402826717,38.74833354379479,-21.287792140968076,-0.04621487639432748,0.0,-0.04621487639432748
0.5980000000000004,move_to_zero,-0.06013027022156572,-3.0890217383531984,3.028891468131633,-53.71676359441634,-64.75683592130217,11.040072326885827,53.852174400960386,63.147970432520964,-9.295796031560577,17.377931437504824,38.693215003903184,-21.31528356639836,-0.04629963453314884,0.0,-0.04629963453314884
0.6000000000000004,move_to_zero,-0.06005419122289183,-3.0846214224865993,3.0245672312637075,-53.63599448350522,-64.66458971628607,11.028595232780852,53.746466031700265,63.05801605868548,-9.311550026985216,17.295504115734346,38.63809646401159,-21.342592348277243,-0.04638057009461636,0.0,-0.04638057009461636
0.6020000000000004,move_to_zero,-0.0599788214455066,-3.0802211066199985,3.0202422851744917,-53.55521643658986,-64.57234351126998,11.017127074680118,53.64076761677398,62.968061684849964,-9.327294068075986,17.2132723999016,38.58297792411999,-21.369705524218386,-0.04645740735211111,0.0,-0.04645740735211111
0.6040000000000004,move_to_zero,-0.059902233818582167,-3.075820790753399,3.015918556934817,-53.474443494519846,-64.4800973062539,11.00565381173405,53.53507973741284,62.878107311014475,-9.343027573601631,17.13123987972799,38.52785938422839,-21.396619504500404,-0.046527648078847815,0.0,-0.046527648078847815
0.6060000000000004,move_to_zero,-0.05982380307855256,-3.0714204748867986,3.011596671808246,-53.39368864589706,-64.38785110123777,10.994162455340714,53.4294144326582,62.78815293717897,-9.358738504520772,17.049394418948257,38.47274084433679,-21.423346425388534,-0.04659214787821442,0.0,-0.04659214787821442
0.6080000000000004,move_to_zero,-0.059743790349535385,-3.067020159020199,3.007276368670664,-53.312955577654975,-64.29560489622169,10.982649318566715,53.323794477225604,62.698198563343475,-9.37440408611787,16.967740021862085,38.417622304445196,-21.44988228258311,-0.04665234439416015,0.0,-0.04665234439416015
0.6100000000000004,move_to_zero,-0.05966399436960603,-3.0626198431535987,3.0029558487839925,-53.232232252623916,-64.20335869120557,10.97112643858165,53.21822802038205,62.60824418950797,-9.390016169125921,16.88626687531096,38.36250376455359,-21.476236889242628,-0.04670911434521949,0.0,-0.04670911434521949
0.6120000000000004,move_to_zero,-0.05958461097091979,-3.0582195272869988,2.998634916316079,-53.15153307923416,-64.11111248618948,10.95957940695532,53.11271987880561,62.51828981567248,-9.405569936866868,16.804944972298426,38.30738522466199,-21.502440252363566,-0.04676286757627809,0.0,-0.04676286757627809
0.6140000000000004,move_to_zero,-0.05950610813786101,-3.0538192114203984,2.994313103282537,-53.07085326052761,-64.01886628117337,10.94801302064576,53.0072475525479,62.42833544183697,-9.421087889289069,16.723786760328828,38.25226668477038,-21.528479924441555,-0.046813549939594995,0.0,-0.046813549939594995
0.6160000000000004,move_to_zero,-0.05942999795732985,-3.0494188955537993,2.9899888975964695,-52.990209821806005,-63.926620076157285,10.93641025435128,52.901813072329816,62.33838106800148,-9.436567995671666,16.642779690942763,38.197148144878796,-21.554368453936032,-0.04686075517655023,0.0,-0.04686075517655023
0.6180000000000004,move_to_zero,-0.05935498160670347,-3.045018579687199,2.9856635980804955,-52.909581997901284,-63.83437387114118,10.924791873239897,52.79640558377302,62.248426694165964,-9.452021110392941,16.561909333940044,38.14202960498719,-21.580120271047143,-0.04690269781584764,0.0,-0.04690269781584764
0.6200000000000004,move_to_zero,-0.05927994043422595,-3.040618263820599,2.981338323386373,-52.82897376775495,-63.742127666125086,10.913153898370133,52.6910338849978,62.15847232033048,-9.467438435332681,16.481190573377944,38.08691106509559,-21.605720491717648,-0.046938492053492986,0.0,-0.046938492053492986
0.6220000000000004,move_to_zero,-0.05920476191846197,-3.0362179479539986,2.9770131860355367,-52.7483844747978,-63.649881461108976,10.901496986311173,52.5856938782025,62.068517946494964,-9.482824068292466,16.400640636590833,38.03179252520398,-21.63115188861315,-0.046969413555961986,0.0,-0.046969413555961986
0.6240000000000004,move_to_zero,-0.05912990059004535,-3.031817632087399,2.972687731497354,-52.66780260109276,-63.55763525609289,10.889832655000127,52.48037762474935,61.978563572659475,-9.498185947910123,16.320257120723056,37.97667398531239,-21.656416864589332,-0.04699255774091475,0.0,-0.04699255774091475
0.6260000000000004,move_to_zero,-0.059056943973423086,-3.0274173162207987,2.9683603722473757,-52.58724021245453,-63.46538905107678,10.878148838622245,52.37507529622663,61.888609198823964,-9.513533902597331,16.24007517223034,37.921555445420786,-21.681480273190445,-0.04700856146472874,0.0,-0.04700856146472874
0.6280000000000004,move_to_zero,-0.05898686081718027,-3.0230170003541987,2.9640301395370185,-52.50669650523389,-63.37314284606068,10.86644634082679,52.269788236682054,61.798654824988475,-9.528866588306421,16.160121367646237,37.86643690552919,-21.706315537882954,-0.04701941264020481,0.0,-0.04701941264020481
0.6300000000000004,move_to_zero,-0.05891904998948943,-3.0186166844875983,2.959697634498109,-52.42618653974832,-63.28089664104458,10.854710101296256,52.16451357499868,61.70870045115297,-9.544186876154292,16.080390938370243,37.81131836563759,-21.730927427267346,-0.04702926445243381,0.0,-0.04702926445243381
0.6320000000000005,move_to_zero,-0.05885278257924811,-3.0142163686209993,2.9553635860417513,-52.345715738035004,-63.18865043602848,10.842934697993478,52.05922950365668,61.618746077317475,-9.559516573660794,16.000906657447366,37.756199825745995,-21.75529316829863,-0.04703735233547156,0.0,-0.04703735233547156
0.6340000000000005,move_to_zero,-0.058786580016380666,-3.009816052754399,2.951029472738018,-52.26529330233289,-63.09640423101237,10.831110928679479,51.95394354708397,61.52879170348197,-9.574848156397998,15.921661918873273,37.701081285854386,-21.779419366981113,-0.047043583093483776,0.0,-0.047043583093483776
0.6360000000000005,move_to_zero,-0.05872075649951045,-3.005415736887799,2.9466949803882887,-52.18490555555525,-63.00415802599628,10.819252470441036,51.84865149789735,61.43883732964648,-9.590185831749132,15.842651536292935,37.64596274596279,-21.803311209669857,-0.047048216947648804,0.0,-0.047048216947648804
0.6380000000000005,move_to_zero,-0.05865650001174185,-3.0010154210211986,2.9423589210094567,-52.104560038392,-62.91191182098017,10.80735178258817,51.7433503804956,61.348882955810964,-9.605532575315365,15.763865165506074,37.59084420607118,-21.826979040565107,-0.04705121034440966,0.0,-0.04705121034440966
0.6400000000000005,move_to_zero,-0.058591745186711126,-2.996615105154599,2.9380233599678878,-52.02424125211671,-62.81966561596408,10.795424363847367,51.63803989489827,61.25892858197548,-9.620888687077212,15.685299263955558,37.535725666179594,-21.850426402224038,-0.047048934804709015,0.0,-0.047048934804709015
0.6420000000000005,move_to_zero,-0.058527049711764964,-2.9922147892879987,2.9336877395762335,-51.94394823521487,-62.727419410947974,10.783471175733105,51.53271842821792,61.168974208139964,-9.636255779922045,15.606973220159457,37.480607126287985,-21.87363390612853,-0.04704201664546522,0.0,-0.04704201664546522
0.6440000000000005,move_to_zero,-0.05846369812744602,-2.987814473421399,2.929350775293953,-51.86367296027809,-62.63517320593189,10.771500245653804,51.42736729733575,61.079019834304475,-9.651652536968726,15.528912620227592,37.42548858639639,-21.896575966168797,-0.047031478767236845,0.0,-0.047031478767236845
0.6460000000000005,move_to_zero,-0.058400837264195954,-2.9834141575547983,2.9250133202906023,-51.78339933993683,-62.54292700091577,10.75952766097894,51.32196850065161,60.989065460468964,-9.667096959817357,15.451108679712785,37.37037004650478,-21.919261366791996,-0.04701981196109769,0.0,-0.04701981196109769
0.6480000000000005,move_to_zero,-0.058338867037923445,-2.9790138416881993,2.920674974650276,-51.703133755836454,-62.450680795899686,10.747547040063232,51.216513029965924,60.899111086633475,-9.682598056667551,15.373552627687896,37.31525150661319,-21.94169887892529,-0.047007964105055006,0.0,-0.047007964105055006
0.6500000000000005,move_to_zero,-0.05827643224668751,-2.9746135258215984,2.916337093574911,-51.62290398958417,-62.35843459088357,10.735530601299402,51.11100214136863,60.80915671279797,-9.698154571429342,15.29623568537369,37.260132966721585,-21.963897281347897,-0.04699473252092911,0.0,-0.04699473252092911
