GerardoFJ/TE3001B_TEAM_3/src/s0s1_gazebo/scripts/results/P5/state.csv
t,phase,shoulder_pan_actual_deg,shoulder_pan_desired_deg,shoulder_pan_error_deg,shoulder_lift_actual_deg,shoulder_lift_desired_deg,shoulder_lift_error_deg,elbow_flex_actual_deg,elbow_flex_desired_deg,elbow_flex_error_deg,wrist_flex_actual_deg,wrist_flex_desired_deg,wrist_flex_error_deg,wrist_roll_actual_deg,wrist_roll_desired_deg,wrist_roll_error_deg
0.002,move_to_zero,-4.376474382407018,-4.4003158666,0.02384148419298171,-92.21682027023317,-92.2462050161,0.02938474586683526,89.9402674989065,89.9543738355,-0.014106336593499691,55.09939055982472,55.1185398916,-0.019149331775281553,0.0017248340730163765,0.0,0.0017248340730163765
0.004,move_to_zero,-4.329910553206487,-4.3959155507334,0.06600499752691302,-92.1586926738121,-92.15395881108391,-0.004733862728187432,89.91210836409316,89.86441946166448,0.04768890242867485,55.061711662111776,55.0634213517084,-0.0017096895966233205,0.0045075892703035116,0.0,0.0045075892703035116
0.006,move_to_zero,-4.262050704514499,-4.3915152348668,0.1294645303523012,-92.0726609053856,-92.0617126060678,-0.01094829931780339,89.8700523948768,89.77446508782899,0.09558730704780771,55.0061430779399,55.008302811816804,-0.002159733876901271,0.007672556007311098,0.0,0.007672556007311098
0.008,move_to_zero,-4.174568751507903,-4.3871149190002,0.21254616749229704,-91.9597777682005,-91.9694664010517,0.009688632851208467,89.81432530947072,89.68451071399349,0.12981459547722807,54.933373077116045,54.953184271925196,-0.019811194809150834,0.010655570352218074,0.0,0.010655570352218074
0.01,move_to_zero,-4.069332148428582,-4.382714603133599,0.31338245470501747,-91.82127763590854,-91.8772201960356,0.055942560127050456,89.74522445764576,89.594556340158,0.15066811748776843,54.84414992077373,54.8980657320336,-0.053915811259869884,0.013076571653864073,0.0,0.013076571653864073
0.012,move_to_zero,-3.9483879725426307,-4.378314287266999,0.4299263147243684,-91.6585271994197,-91.7849739910195,0.126446791599804,89.66311271226168,89.50460196632248,0.15851074593919634,54.73927377012721,54.842947192142,-0.10367342201478635,0.015011507581596166,0.0,0.015011507581596166
0.014,move_to_zero,-3.8139044994404547,-4.373913971400399,0.5600094719599444,-91.4730263650718,-91.69272778600339,0.2197014209315853,89.5684285924189,89.41464759248699,0.15378099993191086,54.6195597481983,54.787828652250404,-0.16826890405210548,0.016528908479662957,0.0,0.016528908479662957
0.016,move_to_zero,-3.668167571348843,-4.369513655533799,0.7013460841849564,-91.26636725168046,-91.6004815809873,0.3341143293068427,89.46165098498287,89.32469321865149,0.13695776633137768,54.485860902551906,54.7327101123588,-0.2468492098068964,0.017647484457729203,0.0,0.017647484457729203
0.018000000000000002,move_to_zero,-3.513504937266838,-4.3651133396672,0.8516084024003621,-91.04025620872946,-91.5082353759712,0.4679791672417366,89.3433206961685,89.234738844816,0.1085818513525112,54.3390394208873,54.6775915724672,-0.33855215157989704,0.01826917621297047,0.0,0.01826917621297047
0.020000000000000004,move_to_zero,-3.352298410952471,-4.3607130238006,1.0084146128481293,-90.79650121407651,-91.4159891709551,0.6194879568785865,89.21405225026403,89.1447844709805,0.06926777928353545,54.1799941416614,54.6224730325756,-0.44247889091419523,0.01836774415323783,0.0,0.01836774415323783
0.022000000000000006,move_to_zero,-3.1869459136024476,-4.356312707934,1.1693667943315527,-90.53697391881543,-91.323742965939,0.7867690471235704,89.07448198668939,89.05483009714499,0.019651889544405776,54.00960665058633,54.567354492684,-0.5577478420976689,0.018003222521475574,0.0,0.018003222521475574
0.024000000000000007,move_to_zero,-3.0197877789897083,-4.351912392067399,1.3321246130776911,-90.26361950815605,-91.2314967609229,0.96787725276684,88.92529051582243,88.96487572330949,-0.03958520748706462,53.82878640398463,54.5122359527924,-0.6834495488077721,0.017258595770570054,0.0,0.017258595770570054
0.02600000000000001,move_to_zero,-2.8531172818192365,-4.3475120762007995,1.494394794381563,-89.97837983149323,-91.1392505559068,1.16087072441357,88.76720838424603,88.874921349474,-0.10771296522796092,53.63843014877474,54.4571174129008,-0.8186872641260621,0.01627639783930038,0.0,0.01627639783930038
0.02800000000000001,move_to_zero,-2.6891093515808153,-4.3431117603341995,1.6540024087533842,-89.68323870823005,-91.0470043508907,1.3637656426606526,88.60098103897522,88.78496697563848,-0.18398593666326235,53.4394473252936,54.401998873009205,-0.9625515477156057,0.015203831901047586,0.0,0.015203831901047586
0.030000000000000013,move_to_zero,-2.529856012700853,-4.3387114444676,1.8088554317667467,-89.38017467622457,-90.9547581458746,1.5745834696500367,88.42737218630452,88.695012601803,-0.2676404154984766,53.232756234943075,54.3468803331176,-1.1141240981745284,0.014179283259171845,0.0,0.014179283259171845
0.032000000000000015,move_to_zero,-2.3772768790661973,-4.334311128601,1.9570342495348023,-89.07115726232803,-90.8625119408585,1.7913546785304675,88.24718111751564,88.60505822796749,-0.35787711045185233,53.01924881131857,54.291761793225994,-1.2725129819074255,0.01330201706824707,0.0,0.01330201706824707
0.034000000000000016,move_to_zero,-2.2331295732911496,-4.3299108127344,2.09678123944325,-88.7581425434009,-90.7702657358424,2.012123192441507,88.06117880503629,88.51510385413198,-0.4539250490956874,52.79980525644023,54.2366432533344,-1.4368379968941696,0.012562030605961763,0.0,0.012562030605961763
0.03600000000000002,move_to_zero,-2.0989595206443252,-4.3255104968678,2.2265509762234745,-88.4430306024608,-90.67801953082629,2.234988928365496,87.8701580115463,88.4251494802965,-0.5549914687502024,52.57529879642444,54.1815247134428,-1.6062259170183566,0.011938340667392843,0.0,0.011938340667392843
0.03800000000000002,move_to_zero,-1.9761491474784976,-4.3211101810012,2.3449610335227025,-88.12764207746766,-90.5857733258102,2.4581312483425393,87.674924711435,88.33519510646099,-0.6602703950259894,52.34656585496088,54.1264061735512,-1.779840318590324,0.0114117526165116,0.0,0.0114117526165116
0.04000000000000002,move_to_zero,-1.8658817918021338,-4.316709865134599,2.450828073332465,-87.813734498829,-90.4935271207941,2.679792621965092,87.47626005549732,88.24524073262549,-0.7689806771281695,52.1144560652457,54.0712876336596,-1.9568315684139037,0.010966086795215454,0.0,0.010966086795215454
0.04200000000000002,move_to_zero,-1.7691142279740601,-4.312309549267999,2.543195321293939,-87.50298877902709,-90.401280915778,2.8982921367509107,87.274922649115,88.15528635879,-0.8803637096749952,51.87976570402582,54.016169093768006,-2.136403389742185,0.010587629536746811,0.0,0.010587629536746811
0.044000000000000025,move_to_zero,-1.6865583147321421,-4.307909233401399,2.6213509186692567,-87.19702161180065,-90.3090347107619,3.112013098961256,87.0716927490798,88.06533198495448,-0.9936392358746815,51.64327031227147,53.9610505538764,-2.317780241604929,0.010265203151550975,0.0,0.010265203151550975
0.04600000000000003,move_to_zero,-1.6187355169464284,-4.3035089175348,2.6847734005883717,-86.89730605890273,-90.2167885057458,3.319482446843068,86.86733553605056,87.97537761111899,-1.1080420750684254,51.40572997677894,53.905932013984796,-2.5002020372058524,0.009987506763348338,0.0,0.009987506763348338
0.04800000000000003,move_to_zero,-1.565185940350954,-4.2991086016682,2.733922661317246,-86.60520892263617,-90.1245423007297,3.5193333780935347,86.66256748796924,87.88542323728349,-1.222855749314249,51.16787920331359,53.8508134740932,-2.6829342707796116,0.00974424388192745,0.0,0.00974424388192745
0.05000000000000003,move_to_zero,-1.5260227248550462,-4.2947082858016,2.7686855609465537,-86.32198199790497,-90.03229609571359,3.71031409780862,86.45808161071592,87.795468863448,-1.3373872527320714,50.930436878730546,53.7956949342016,-2.8652580554710525,0.009527929531797322,0.0,0.009527929531797322
0.05200000000000003,move_to_zero,-1.501141901233637,-4.290307969935,2.789166068701363,-86.0487845392703,-89.9400498906975,3.8912653514271938,86.25454543375,87.70551448961248,-1.4509690558624868,50.694069917369674,53.740576394310004,-3.04650647694033,0.009331769803596072,0.0,0.009331769803596072
0.054000000000000034,move_to_zero,-1.4902529313539685,-4.285907654068399,2.795654722714431,-85.78661851285163,-89.8478036856814,4.0611851728297665,86.05258275969221,87.61556011577699,-1.5629773560847724,50.459402281164266,53.6854578544184,-3.2260555732541363,0.00915109359239938,0.0,0.00915109359239938
0.056000000000000036,move_to_zero,-1.492892401648234,-4.281507338201799,2.7886149365535653,-85.53638698464034,-89.7555574806653,4.219170496024958,85.85278450301126,87.52560574194149,-1.6728212389302257,50.227014796562436,53.6303393145268,-3.4033245179643643,0.008982601563810554,0.0,0.008982601563810554
0.05800000000000004,move_to_zero,-1.5084061727299232,-4.2771070223351995,2.7687008496052763,-85.29887323983132,-89.66331127564919,4.364438035817869,85.65571655380958,87.43565136810598,-1.7799348142963964,49.997472687655346,53.5752207746352,-3.5777480869798524,0.008822145818783059,0.0,0.008822145818783059
0.06000000000000004,move_to_zero,-1.5360062429927293,-4.2727067064685995,2.73670046347587,-85.07469895265847,-89.5710650706331,4.496366117974631,85.46188930982545,87.3456969942705,-1.8838076844450455,49.77131884607803,53.5201022347436,-3.748783388665565,0.008666499870103234,0.0,0.008666499870103234
0.06200000000000004,move_to_zero,-1.5747583244447436,-4.268306390602,2.693548066157256,-84.86436711374947,-89.478818865617,4.614451751867534,85.27177523502401,87.25574262043499,-1.9839673854109776,49.54905338261845,53.464983694852,-3.9159303122335487,0.008513133044749068,0.0,0.008513133044749068
0.06400000000000004,move_to_zero,-1.623593745037482,-4.2639060747354,2.6403123296979176,-84.66825531043901,-89.38657266060089,4.7183173501618825,85.0858018018362,87.16578824659948,-2.0799864447632785,49.3311219087543,53.4098651549604,-4.078743246206102,0.008361456394204393,0.0,0.008361456394204393
0.06600000000000004,move_to_zero,-1.681358173940829,-4.2595057588688,2.5781475849279705,-84.48661447887343,-89.29432645558481,4.807711976711374,84.9043675743906,87.075833872764,-2.171466298373389,49.11796688046866,53.354746615068805,-4.236779734600148,0.008210930349035358,0.0,0.008210930349035358
0.06800000000000005,move_to_zero,-1.7467955730844829,-4.2551054430022,2.508309869917717,-84.31959797860645,-89.2020802505687,4.882482271962246,84.72782919998228,86.98587949892848,-2.258050298946202,48.90998905164108,53.299628075177196,-4.38963902353612,0.008061034288489193,0.0,0.008061034288489193
0.07000000000000005,move_to_zero,-1.8185936822832998,-4.250705127135599,2.432111444852299,-84.16723425118883,-89.1098340455526,4.9425997943637725,84.55646558353745,86.89592512509299,-2.3394595415555415,48.70755923971982,53.2445095352856,-4.536950295565781,0.0079084020404542,0.0,0.0079084020404542
0.07200000000000005,move_to_zero,-1.8954129784024867,-4.246304811268999,2.3508918328665125,-84.02944207658864,-89.01758784053649,4.9881457639478555,84.39050741155053,86.80597075125749,-2.4154633397069603,48.51100323004211,53.189390995394,-4.678387765351893,0.007752054888427147,0.0,0.007752054888427147
0.07400000000000005,move_to_zero,-1.9759082983922174,-4.241904495402399,2.265996197010182,-83.90601796662621,-88.9253416355204,5.019323668894188,84.23014911940385,86.71601637742198,-2.485867258018132,48.32060321546046,53.1342724555024,-4.813669240041939,0.0075896833862780155,0.0,0.0075896833862780155
0.07600000000000005,move_to_zero,-2.058729388834394,-4.2375041795358,2.178774790701406,-83.796643575057,-88.83309543050429,5.036451855447282,84.0755661713492,86.62606200358648,-2.5504958322372886,48.13659156235066,53.0791539156108,-4.9425623532601435,0.007420032038699463,0.0,0.007420032038699463
0.07800000000000006,move_to_zero,-2.142566096933721,-4.2331038636692,2.090537766735479,-83.70089812289507,-88.74084922548819,5.039951102593122,83.92687473439342,86.53610762975099,-2.6092328953575645,47.959187683491706,53.0240353757192,-5.064847692227495,0.007243755497600976,0.0,0.007243755497600976
0.08000000000000006,move_to_zero,-2.2261520277767723,-4.2287035478026,2.0025515200258277,-83.61826074380278,-88.6486030204721,5.030342276669316,83.78415813970373,86.44615325591549,-2.661995116211756,47.78856997676767,52.9689168358276,-5.180346859059931,0.007058671169936117,0.0,0.007058671169936117
0.08200000000000006,move_to_zero,-2.3082425718651853,-4.224303231936,1.9160606600708148,-83.54814203907752,-88.556356815456,5.00821477637848,83.64746297848963,86.35619888207998,-2.7087359035903518,47.62487934731944,52.913798295936,-5.288918948616555,0.006867228119637172,0.0,0.006867228119637172
0.08400000000000006,move_to_zero,-2.387703520102787,-4.219902916069399,1.832199395966612,-83.48988284592865,-88.4641106104399,4.974227764511255,83.51677453611389,86.26624450824448,-2.7494699721305977,47.468181326684935,52.858679756044396,-5.390498429359461,0.006667580925855189,0.0,0.006667580925855189
0.08600000000000006,move_to_zero,-2.4634481475328927,-4.215502600202799,1.7520544526699067,-83.44276573230447,-88.37186440542379,4.929098673119327,83.39205181363717,86.17629013440899,-2.78423832077182,47.318577696359455,52.8035612161528,-5.484983519793346,0.006455021796471418,0.0,0.006455021796471418
0.08800000000000006,move_to_zero,-2.5344841708748813,-4.211102284336199,1.676618113461318,-83.40524016323654,-88.2796182004077,4.874378037171155,83.27318751279877,86.08633576057349,-2.81314824777472,47.176111094605986,52.7484426762612,-5.572331581655213,0.006228380540405441,0.0,0.006228380540405441
0.09000000000000007,move_to_zero,-2.5999136095901827,-4.206701968469599,1.6067883588794167,-83.37650720103899,-88.18737199539159,4.810864794352597,83.16010410730567,85.996381386738,-2.8362772794323234,47.040784972673784,52.693324136369604,-5.65253916369582,0.00598298370102523,0.0,0.00598298370102523
0.09200000000000007,move_to_zero,-2.6589757700866397,-4.2023016526029995,1.5433258825163598,-83.35569503389665,-88.0951257903755,4.739430756478853,83.05269450320472,85.90642701290248,-2.853732509697764,46.91258651384267,52.638205596477995,-5.725619082635326,0.005731698082574798,0.0,0.005731698082574798
0.09400000000000007,move_to_zero,-2.7110444632301687,-4.1979013367363995,1.4868568735062309,-83.34192278277762,-88.0028795853594,4.660956802581779,82.95080479322701,85.81647263906699,-2.8656678458399796,46.79148619884682,52.5830870565864,-5.791600857739581,0.005456148716283821,0.0,0.005456148716283821
0.09600000000000007,move_to_zero,-2.7555782899917878,-4.1935010208698,1.4379227308780118,-83.33427452916283,-87.9106333803433,4.576358851180473,82.85425935533621,85.72651826523149,-2.8722589098952795,46.67742652236565,52.5279685166948,-5.850541994329149,0.005185997488819342,0.0,0.005185997488819342
0.09800000000000007,move_to_zero,-2.7921626585251453,-4.1891007050032,1.3969380464780543,-83.33186593418057,-87.81838717532719,4.486521241146619,82.76287665184532,85.63656389139598,-2.8736872395506623,46.57033994498184,52.4728499768032,-5.9025100318213575,0.004925387010384052,0.0,0.004925387010384052
0.10000000000000007,move_to_zero,-2.8212435104858846,-4.184700389136599,1.3634568786507142,-83.3337726039889,-87.72614097031109,4.392368366322188,82.67642878793232,85.5466095175605,-2.8701807296281743,46.47011748150238,52.4177314369116,-5.947613955409224,0.0046720817085640735,0.0,0.0046720817085640735
0.10200000000000008,move_to_zero,-2.842603452588598,-4.180300073269999,1.3376966206814007,-83.33907486748933,-87.633894765295,4.294819897805667,82.59466617161418,85.45665514372499,-2.861988972110808,46.376622679669005,52.36261289702,-5.985990217350995,0.004426692902725941,0.0,0.004426692902725941
0.10400000000000008,move_to_zero,-2.8561460125645888,-4.1758997574034,1.319753744838811,-83.34686465822641,-87.5416485602789,4.194783902052492,82.51731635259789,85.36670076988948,-2.8493844172915885,46.28970801915291,52.3074943571284,-6.017786337975487,0.004188426846819901,0.0,0.004188426846819901
0.10600000000000008,move_to_zero,-2.861889571929147,-4.1714994415368,1.309609869607653,-83.35624726288587,-87.4494023552628,4.093155092376932,82.444109934812,85.276746396054,-2.8326364612419894,46.2091825693039,52.252375817236796,-6.043193247932898,0.003954802298899208,0.0,0.003954802298899208
0.10800000000000008,move_to_zero,-2.859942740066686,-4.1670991256702,1.307156385603514,-83.36635820374006,-87.3571561502467,3.990797946506632,82.37476961741059,85.18679202221848,-2.812022404807891,46.13488580172525,52.1972572773452,-6.062371475619955,0.0037236504196877197,0.0,0.0037236504196877197
0.11000000000000008,move_to_zero,-2.8505252055423114,-4.1626988098036,1.3121736042612886,-83.37634620922971,-87.2649099452306,3.88856373600089,82.30898907791044,85.09683764838299,-2.7878485704725477,46.06662465463868,52.1421387374536,-6.0755140828149194,0.0034968233639874925,0.0,0.0034968233639874925
0.11200000000000009,move_to_zero,-2.833956212046245,-4.158298493937,1.3243422818907549,-83.38540838558407,-87.17266374021449,3.7872553546304175,82.24647453142045,85.00688327454749,-2.7604087431270443,46.00416409423712,52.087020197562,-6.082856103324879,0.003270841255657193,0.0,0.003270841255657193
0.11400000000000009,move_to_zero,-2.8106507343175404,-4.153898178070399,1.3432474437528588,-83.39274968802928,-87.0804175351984,3.6876678471691093,82.18693867415577,84.91692890071198,-2.729990226556211,45.94727763614942,52.031901657670396,-6.084624021520973,0.003045508217995276,0.0,0.003045508217995276
0.11600000000000009,move_to_zero,-2.7810897833240293,-4.149497862203799,1.36840807887977,-83.39839471253605,-86.9881713301823,3.589776617646251,82.13011088369663,84.82697452687648,-2.696863643179853,45.895743172553956,51.976783117778794,-6.081039945224838,0.0028220849114724417,0.0,0.0028220849114724417
0.11800000000000009,move_to_zero,-2.7458327773042908,-4.145097546337199,1.3992647690329085,-83.40162834611293,-86.8959251251662,3.494296779053272,82.07567267205164,84.73702015304099,-2.661347480989349,45.84931273655028,51.9216645778872,-6.072351841336918,0.002598900651101557,0.0,0.002598900651101557
0.12000000000000009,move_to_zero,-2.7054784089041757,-4.140697230470599,1.4352188215664237,-83.40177313791729,-86.80367892015009,3.4019057822328023,82.02331191467167,84.64706577920549,-2.6237538645338248,45.80772691365618,51.8665460379956,-6.058819124339415,0.0023721691702292946,0.0,0.0023721691702292946
0.1220000000000001,move_to_zero,-2.6606504113484055,-4.136296914603999,1.4756465032555939,-83.39818744107677,-86.711432715134,3.3132452740572234,81.9727210912155,84.55711140536998,-2.5843903141544757,45.77068921269604,51.811427498104,-6.040738285407961,0.002139139516082597,0.0,0.002139139516082597
0.1240000000000001,move_to_zero,-2.6120569987873328,-4.1318965987373995,1.5198395999500667,-83.390279890232,-86.6191865101179,3.2289066198859047,81.92360358748233,84.46715703153448,-2.543553444052151,45.73792049411007,51.7563089582124,-6.01838846410233,0.0018657424001172907,0.0,0.0018657424001172907
0.12600000000000008,move_to_zero,-2.560420791400751,-4.1274962828707995,1.5670754914700487,-83.37751962234891,-86.52694030510179,3.1494206827528757,81.8756878339673,84.37720265769899,-2.501514823731682,45.709140950657364,51.70119041832079,-5.992049467663428,0.0015459684396649793,0.0,0.0015459684396649793
0.12800000000000009,move_to_zero,-2.5064700928128874,-4.1230959670042,1.6166258741913122,-83.35944133336704,-86.4346941000857,3.0752527667186484,81.82866697581204,84.28724828386348,-2.4585813080514356,45.68406850888906,51.6460718784292,-5.962003369540135,0.001175962502720743,0.0,0.001175962502720743
0.1300000000000001,move_to_zero,-2.450921728481951,-4.118695651137599,1.6677739226556478,-83.33562100214465,-86.3424478950696,3.0068268929249484,81.78225050589978,84.197293910028,-2.4150434041282125,45.66242332495937,51.590953338537595,-5.928530013578225,0.0007757715427509107,0.0,0.0007757715427509107
0.1320000000000001,move_to_zero,-2.3945075054402145,-4.114295335270999,1.7197878298307843,-83.30572855710356,-86.2502016900535,2.9444731329499376,81.73614863153472,84.10733953619248,-2.371190904657766,45.64392948306159,51.535834798646,-5.89190531558441,0.0003641650211647283,0.0,0.0003641650211647283
0.1340000000000001,move_to_zero,-2.3379246863257106,-4.1098950194044,1.7719703330786891,-83.26950000220884,-86.15795548503739,2.8884554828285474,81.69009287915156,84.01738516235697,-2.3272922832054093,45.628300215822456,51.4807162587544,-5.852416042931942,-3.3592379180662746e-05,0.0,-3.3592379180662746e-05
0.1360000000000001,move_to_zero,-2.281846538807499,-4.1054947035378,1.823648164730301,-83.22670141635027,-86.0657092800213,2.8390078636710285,81.64382100295907,83.92743078852149,-2.283609785562419,45.615232280286605,51.425597718862804,-5.8103654385761985,-0.0003960116470724496,0.0,-0.0003960116470724496
0.1380000000000001,move_to_zero,-2.226955838590074,-4.1010943876712,1.8741385490811258,-83.17714496631373,-85.97346307500518,2.7963181086914517,81.5971041456083,83.83747641468598,-2.2403722690776817,45.604457373941464,51.370479178971195,-5.76602180502973,-0.0007299054974665284,0.0,-0.0007299054974665284
0.1400000000000001,move_to_zero,-2.17388247331446,-4.0966940718046,1.92281159849014,-83.12068465071526,-85.88121686998909,2.760532219273827,81.54971623961475,83.74752204085048,-2.197805801235731,45.59571303771638,51.31536063907959,-5.719647601363214,-0.0010414870934361815,0.0,-0.0010414870934361815
0.1420000000000001,move_to_zero,-2.12321551983834,-4.092293755938,1.96907823609966,-83.05727626943661,-85.788970664973,2.7316943955363797,81.50146616188431,83.65756766701499,-2.156101505130678,45.58869597190869,51.260242099188,-5.671546127279306,-0.0013333203117550407,0.0,-0.0013333203117550407
0.1440000000000001,move_to_zero,-2.07548012212789,-4.087893440071399,2.0124133179435093,-82.98693049872472,-85.6967244599569,2.7097939612321795,81.45216182480249,83.56761329317948,-2.115451468376989,45.58306383797358,51.205123559296396,-5.622059721322813,-0.0016102237641121924,0.0,-0.0016102237641121924
0.1460000000000001,move_to_zero,-2.0311311041438094,-4.083493124204799,2.0523620200609898,-82.90971946673788,-85.6044782549408,2.6947587882029183,81.40161359987776,83.47765891934398,-2.0760453194662176,45.57853741760467,51.1500050194048,-5.57146760180013,-0.0018740138024643225,0.0,-0.0018740138024643225
0.1480000000000001,move_to_zero,-1.9905555762414295,-4.079092808338199,2.08853723209677,-82.82576189608878,-85.51223204992469,2.686470153835913,81.34964896478704,83.38770454550848,-2.0380555807214478,45.5748902679868,51.0948864795132,-5.519996211526397,-0.0021284964817954036,0.0,-0.0021284964817954036
0.1500000000000001,move_to_zero,-1.9540856655880885,-4.074692492471599,2.1206068268835105,-82.73521060279144,-85.4199858449086,2.684775242117155,81.29611967589456,83.29775017167299,-2.0016304957784286,45.57190770231215,51.0397679396216,-5.467860237309445,-0.0023750932313191357,0.0,-0.0023750932313191357
0.1520000000000001,move_to_zero,-1.9219653386206923,-4.070292176604999,2.148326837984307,-82.63826860322419,-85.32773963989249,2.6894710366682943,81.24088582286122,83.20779579783748,-1.9669099749762609,45.56933805549243,50.984649399729996,-5.4153113442375655,-0.0026158707807033945,0.0,-0.0026158707807033945
0.1540000000000001,move_to_zero,-1.8943914143061824,-4.065891860738399,2.171500446432217,-82.53518071236418,-85.23549343487639,2.7003127225122086,81.18381525170595,83.11784142400198,-1.9340261722960292,45.566949807928054,50.929530859838394,-5.36258105191034,-0.002866276846628298,0.0,-0.002866276846628298
0.1560000000000001,move_to_zero,-1.8714791405019662,-4.061491544871799,2.190012404369833,-82.42621386152103,-85.1432472298603,2.7170333683392585,81.12479518371255,83.02788705016648,-1.9030918664539342,45.56449275962019,50.8744123199468,-5.3099195603266125,-0.003140217902862552,0.0,-0.003140217902862552
0.1580000000000001,move_to_zero,-1.8531873966475805,-4.0570912290051995,2.2039038323576188,-82.31170017436425,-85.0510010248442,2.7393008504799496,81.06373978633349,82.93793267633099,-1.8741928899975022,45.56175203720549,50.8192937800552,-5.25754174284971,-0.003444911860147225,0.0,-0.003444911860147225
0.16000000000000011,move_to_zero,-1.838855493795235,-4.052690913138599,2.2138354193433636,-82.19200809648696,-84.95875481982809,2.7667467233411287,81.00056440243712,82.84797830249549,-1.8474139000583705,45.55854278889547,50.7641752401636,-5.20563245126813,-0.003773534455323858,0.0,-0.003773534455323858
0.16200000000000012,move_to_zero,-1.8284390902959131,-4.048290597272,2.2198515069760862,-82.067514655161,-84.86650861481199,2.7989939596509856,80.93522187898638,82.75802392865998,-1.822802049673598,45.5546868139228,50.709056700271994,-5.154369886349194,-0.004129791818891504,0.0,-0.004129791818891504
0.16400000000000012,move_to_zero,-1.8218558515204248,-4.0438902814054,2.2220344298849746,-81.9386423675823,-84.7742624097959,2.8356200422135913,80.86769060142154,82.66806955482448,-1.8003789534029409,45.54999826334464,50.6539381603804,-5.103939897035758,-0.004511248440000221,0.0,-0.004511248440000221
0.16600000000000012,move_to_zero,-1.818964794996282,-4.0394899655388,2.2205251705425177,-81.80578913966004,-84.68201620477979,2.8762270651197497,80.7979150003804,82.57811518098899,-1.7802001806085883,45.54429904917204,50.5988196204888,-5.054520571316758,-0.0049140196853453945,0.0,-0.0049140196853453945
0.16800000000000012,move_to_zero,-1.8195898838585904,-4.0350896496722,2.2154997658136093,-81.66939471086191,-84.5897699997637,2.920375288901795,80.72587370294256,82.48816080715348,-1.7622871042109125,45.53739809223304,50.543701080597195,-5.006302988364155,-0.005293614372986653,0.0,-0.005293614372986653
0.17000000000000012,move_to_zero,-1.8235040252185477,-4.0306893338056,2.207185308587052,-81.5299186267567,-84.4975237947476,2.9676051679908966,80.65155384410423,82.398206433318,-1.7466525892137668,45.529125428416826,50.4885825407056,-4.959457112288774,-0.005641545286836699,0.0,-0.005641545286836699
0.17200000000000013,move_to_zero,-1.8304393297459831,-4.026289017939,2.1958496881930167,-81.38783334566051,-84.4052775897315,3.0174442440709868,80.57497810275451,82.30825205948248,-1.7332739567279702,45.51932646168602,50.433464000814,-4.914137539127978,-0.005961244100370095,0.0,-0.005961244100370095
0.17400000000000013,move_to_zero,-1.8400973228964965,-4.021888702072399,2.1817913791759027,-81.24360905340585,-84.31303138471539,3.0694223313095392,80.49618029239527,82.21829768564697,-1.7221173932517075,45.50784930246402,50.3783454609224,-4.87049615845838,-0.006259002988906055,0.0,-0.006259002988906055
0.17600000000000013,move_to_zero,-1.8521663625110638,-4.017488386205799,2.1653220236947353,-81.09769594802427,-84.22078517969929,3.1230892316750243,80.41520176566509,82.12834331181149,-1.713141546146403,45.49456658373166,50.323226921030795,-4.828660337299134,-0.0065392472492997135,0.0,-0.0065392472492997135
0.17800000000000013,move_to_zero,-1.8663121426965223,-4.013088070339199,2.1467759276426768,-80.95055286116714,-84.12853897468318,3.1779861135160417,80.33208880410783,82.03838893797598,-1.7063001338681545,45.47936269887708,50.2681083811392,-4.7887456822621175,-0.006805453449148918,0.0,-0.006805453449148918
0.18000000000000013,move_to_zero,-1.8821701614657114,-4.008687754472599,2.126517593006888,-80.80264731842036,-84.0362927696671,3.233645451246744,80.24689739897936,81.94843456414048,-1.7015371651611275,45.46212576492887,50.2129898412476,-4.750864076318727,-0.007070292901715906,0.0,-0.007070292901715906
0.18200000000000013,move_to_zero,-1.899365126025551,-4.004287438605999,2.104922312580448,-80.65441894651303,-83.944046564651,3.2896276181379704,80.15969278608489,81.85848019030499,-1.6987874042200986,45.442753786356626,50.157871301355996,-4.7151175149993705,-0.007349618610368084,0.0,-0.007349618610368084
0.18400000000000014,move_to_zero,-1.9175275804082683,-3.9998871227393993,2.082359542331131,-80.50628990895646,-83.8518003596349,3.3455104506784323,80.07053687571899,81.76852581646948,-1.6979889407504913,45.42116619475938,50.1027527614644,-4.681586566705022,-0.007636078001284493,0.0,-0.007636078001284493
0.18600000000000014,move_to_zero,-1.9362871718512706,-3.995486806872799,2.0591996350215283,-80.35865955574917,-83.7595541546188,3.400894598869627,79.97949204881601,81.67857144263398,-1.6990793938179678,45.39729706094898,50.04763422157279,-4.650337160623813,-0.00792140981923524,0.0,-0.00792140981923524
0.18800000000000014,move_to_zero,-1.9552677292976228,-3.991086491006199,2.035818761708576,-80.21192819204971,-83.66730794960269,3.4553797575529757,79.88664579548286,81.58861706879848,-1.7019712733156211,45.371092948403785,49.9925156816812,-4.621422733277413,-0.008196437954588241,0.0,-0.008196437954588241
0.19000000000000014,move_to_zero,-1.974131185080827,-3.986686175139599,2.012554990058772,-80.06645933934797,-83.57506174458659,3.5086024052386193,79.7921066393483,81.49866269496299,-1.7065560556146835,45.34251480195511,49.937397141789596,-4.594882339834484,-0.00846097839512568,0.0,-0.00846097839512568
0.19200000000000014,move_to_zero,-1.9925191218073128,-3.9822858592729995,1.9897667374656867,-79.92259967293866,-83.48281553957048,3.5602158666318218,79.69594145977682,81.40870832112748,-1.7127668613506586,45.31152730969917,49.882278601897994,-4.570751292198821,-0.008738452057885305,0.0,-0.008738452057885305
0.19400000000000014,move_to_zero,-2.0101155329005476,-3.9778855434063995,1.967770010505852,-79.78065314502618,-83.3905693345544,3.609916189528221,79.59824718919567,81.31875394729198,-1.720506758096306,45.27810115608275,49.8271600620064,-4.549058905923651,-0.00900442285892881,0.0,-0.00900442285892881
0.19600000000000015,move_to_zero,-2.026619735627258,-3.9734852275397996,1.9468654919125417,-79.64091901113152,-83.29832312953829,3.657404118406774,79.49911478680893,81.22879957345648,-1.729684786647553,45.242203528675006,49.7720415221148,-4.529837993439791,-0.009260600968259062,0.0,-0.009260600968259062
0.19800000000000015,move_to_zero,-2.0417544083116232,-3.9690849116731997,1.9273305033615764,-79.50365200090312,-83.2060769245222,3.702424923619077,79.39864177146298,81.13884519962097,-1.7402034281579972,45.2038207115023,49.716922982223196,-4.513102270720893,-0.0095080095286965,0.0,-0.0095080095286965
0.20000000000000015,move_to_zero,-2.0552579773623165,-3.9646845958065993,1.9094266184442827,-79.369088409201,-83.1138307195061,3.7447423103050994,79.29693325452142,81.04889082578549,-1.7519575712640716,45.16295462164718,49.661804442331594,-4.498849820684413,-0.009750285538116498,0.0,-0.009750285538116498
0.20200000000000015,move_to_zero,-2.066908213343733,-3.9602842799399993,1.8933760665962662,-79.23744215377786,-83.02158451448999,3.7841423607121243,79.19410486863676,80.95893645194998,-1.7648315833132244,45.1195844845696,49.60668590244,-4.487101417870399,-0.009992172087780441,0.0,-0.009992172087780441
0.20400000000000015,move_to_zero,-2.0765371292323382,-3.9558839640733994,1.8793468348410611,-79.10892908406896,-82.92933830947389,3.82040922540493,79.09026376558246,80.86898207811447,-1.778718312532007,45.07374012908085,49.5515673625484,-4.4778272334675435,-0.010231149747775892,0.0,-0.010231149747775892
0.20600000000000016,move_to_zero,-2.08422574832436,-3.9514836482067994,1.8672578998824396,-78.98368700438941,-82.8370921044578,3.853405100068386,78.98548353128974,80.77902770427899,-1.7935441729892432,45.02544455481942,49.496448822656795,-4.4710042678373725,-0.010466948849499495,0.0,-0.010466948849499495
0.20800000000000016,move_to_zero,-2.090327515396625,-3.947083332340199,1.8567558169435738,-78.86182214384476,-82.7448458994417,3.8830237555969376,78.87987541900175,80.68907333044348,-1.8091979114417285,44.974732284012575,49.4413302827652,-4.466597998752626,-0.01069948904851695,0.0,-0.01069948904851695
0.21000000000000016,move_to_zero,-2.094741852145982,-3.942683016473599,1.847941164327617,-78.74341681386089,-82.65259969442559,3.9091828805646998,78.77357019992098,80.59911895660798,-1.8255487566869988,44.92163738104425,49.38621174287359,-4.464574361829342,-0.010929994546033403,0.0,-0.010929994546033403
0.21200000000000016,move_to_zero,-2.0973630856255427,-3.938282700606999,1.8409196149814564,-78.6285370457294,-82.5603534894095,3.9318164436800913,78.66669084697668,80.50916458277248,-1.8424737357958065,44.866189954398415,49.331093202982,-4.464903248583582,-0.011162226185890096,0.0,-0.011162226185890096
0.21400000000000016,move_to_zero,-2.0981221893627997,-3.933882384740399,1.8357601953775995,-78.5172012981323,-82.46810728439338,3.950905986261077,78.5593181742222,80.41921020893697,-1.8598920347147754,44.8084307724625,49.275974663090395,-4.467543890627894,-0.011395234630411673,0.0,-0.011395234630411673
0.21600000000000016,move_to_zero,-2.0970109482159174,-3.929482068873799,1.8324711206578814,-78.40940361731148,-82.37586107937729,3.9664574620658044,78.45155437669254,80.32925583510148,-1.8777014584089358,44.74842724881004,49.2208561231988,-4.472428874388761,-0.011640897576430196,0.0,-0.011640897576430196
0.21800000000000017,move_to_zero,-2.0940288945157395,-3.925081753007199,1.8310528584914594,-78.3051090886749,-82.28361487436119,3.978505785686295,78.34348146304076,80.23930146126598,-1.895819998225221,44.68623328779702,49.1657375833072,-4.479504295510175,-0.01189592523362777,0.0,-0.01189592523362777
0.22000000000000017,move_to_zero,-2.08918833699889,-3.9206814371406,1.8314931001417096,-78.20427027380703,-82.1913686693451,3.9870983955380694,78.23517809514821,80.14934708743048,-1.9141689922822707,44.621923272684725,49.110619043415596,-4.488695770730871,-0.012165089844997966,0.0,-0.012165089844997966
0.22200000000000017,move_to_zero,-2.0825331791213735,-3.9162811212739994,1.833747942152626,-78.10680639667714,-82.099122464329,3.9923160676518563,78.12672274680486,80.05939271359497,-1.9326699667901153,44.555568384297636,49.055500503523994,-4.499932119226358,-0.012425746714215988,0.0,-0.012425746714215988
0.22400000000000017,move_to_zero,-2.07410547084167,-3.9118808054073995,1.8377753345657295,-78.01262828328389,-82.00687625931289,3.9942479760290013,78.01819991132236,79.96943833975948,-1.9512384284371223,44.487274178788894,49.00038196363239,-4.513107784843498,-0.012682430648503717,0.0,-0.012682430648503717
0.22600000000000017,move_to_zero,-2.063996829510679,-3.9074804895407995,1.8434836600301203,-77.92161773156201,-81.9146300542968,3.993012322734785,77.90967883838701,79.87948396592398,-1.9698051275369721,44.41710188512106,48.9452634237408,-4.5281615386197345,-0.012959602523728036,0.0,-0.012959602523728036
0.22800000000000017,move_to_zero,-2.0523307540253812,-3.9030801736741996,1.8507494196488183,-77.83364761274599,-81.82238384928068,3.9887362365346917,77.80123630308758,79.78952959208848,-1.9882932890009073,44.345151249865836,48.890144883849196,-4.54499363398336,-0.013255961966213927,0.0,-0.013255961966213927
0.23000000000000018,move_to_zero,-2.0392492392328903,-3.898679857807599,1.859430618574709,-77.74857468422952,-81.73013764426459,3.9815629600350633,77.69292870777396,79.69957521825299,-2.0066465104790296,44.27153372875717,48.8350263439576,-4.563492615200431,-0.013562954091189286,0.0,-0.013562954091189286
0.23200000000000018,move_to_zero,-2.024900759773463,-3.8942795419409992,1.8693787821675363,-77.66623835955589,-81.63789143924849,3.971653079692601,77.58483204729264,79.60962084441748,-2.0247887971248417,44.196319886404574,48.77990780406599,-4.5835879176614185,-0.013888122816815101,0.0,-0.013888122816815101
0.23400000000000018,move_to_zero,-2.0094048900514663,-3.8898792260743993,1.880474336022933,-77.58644650600789,-81.5456452342324,3.959198728224507,77.47700368230987,79.51966647058198,-2.0426627882721107,44.11961923457564,48.72478926417439,-4.605170029598753,-0.014192352961760538,0.0,-0.014192352961760538
0.23600000000000018,move_to_zero,-1.992933647611037,-3.8854789102077993,1.8925452625967623,-77.50899218473829,-81.45339902921629,3.944406844477996,77.3695036699252,79.42971209674648,-2.0602084268212906,44.04154148933387,48.669670724282796,-4.628129234948922,-0.014480125932011848,0.0,-0.014480125932011848
0.23800000000000018,move_to_zero,-1.9756367820175231,-3.881078594341199,1.9054418123236758,-77.43366747096688,-81.36115282420019,3.9274853532333083,77.26239256734272,79.33975772291097,-2.077365155568259,43.96215668728436,48.614552184391194,-4.652395497106831,-0.01475343540099088,0.0,-0.01475343540099088
0.24000000000000019,move_to_zero,-1.9576879492798636,-3.876678278474599,1.9189903291947354,-77.36025364647381,-81.2689066191841,3.9086529727102857,77.15571249196633,79.24980334907549,-2.0940908571091654,43.88154355794691,48.5594336444996,-4.6778900865526865,-0.01501448999770956,0.0,-0.01501448999770956
0.2420000000000002,move_to_zero,-1.9392740875619923,-3.872277962607999,1.9330038750460068,-77.28854421046557,-81.17666041416798,3.8881162037024097,77.04950292960694,79.15984897523998,-2.1103460456330367,43.799773934402914,48.504315104608,-4.704541170205083,-0.015263893616622509,0.0,-0.015263893616622509
0.2440000000000002,move_to_zero,-1.9205613029449224,-3.867877646741399,1.9473163437964767,-77.21829122219408,-81.08441420915189,3.866122986957805,76.94380004184649,79.06989460140447,-2.126094559557984,43.716928411675326,48.449196564716395,-4.732268153041069,-0.015505574073752684,0.0,-0.015505574073752684
0.2460000000000002,move_to_zero,-1.9017364554808251,-3.8634773308747987,1.9617408753939736,-77.14927099892292,-80.99216800413579,3.842897005212876,76.83861055483538,78.97994022756899,-2.1413296727336046,43.63312385527002,48.39407802482479,-4.760954169554772,-0.01574370382820133,0.0,-0.01574370382820133
0.2480000000000002,move_to_zero,-1.8829754918550903,-3.8590770150081988,1.9761015231531085,-77.0812665997758,-80.8999217991197,3.818655199343894,76.7339633050441,78.88998585373348,-2.1560225486893785,43.54846154904066,48.33895948493319,-4.790497935892532,-0.01599089942771455,0.0,-0.01599089942771455
0.25000000000000017,move_to_zero,-1.8644458414441583,-3.8546766991415997,1.9902308576974415,-77.0140335803159,-80.80767559410359,3.7936420137876894,76.62990463624797,78.80003147989798,-2.17012684365001,43.46306823926995,48.2838409450416,-4.820772705771645,-0.016235421818513833,0.0,-0.016235421818513833
0.25200000000000017,move_to_zero,-1.8462849927178642,-3.8502763832749993,2.003991390557135,-76.94735548216957,-80.71542938908749,3.7680739069179197,76.52645399914643,78.71007710606249,-2.183623106916059,43.37704672552041,48.228722405149995,-4.851675679629587,-0.016478049038877087,0.0,-0.016478049038877087
0.25400000000000017,move_to_zero,-1.8286419870651371,-3.8458760674083994,2.017234080343262,-76.88103494419713,-80.62318318407138,3.742148239874254,76.42362211848942,78.62012273222697,-2.1965006137375553,43.290538053527506,48.1736038652584,-4.883065811730894,-0.01672208798736767,0.0,-0.01672208798736767
0.25600000000000017,move_to_zero,-1.811644754132255,-3.8414757515417994,2.0298309974095448,-76.8148520303778,-80.53093697905528,3.7160849486774765,76.32140725012565,78.53016835839148,-2.2087611082658327,43.20364210759579,48.11848532536679,-4.914843217771001,-0.016961322686050037,0.0,-0.016961322686050037
0.2580000000000002,move_to_zero,-1.7954136451673839,-3.8370754356751995,2.0416617905078156,-76.74858267786325,-80.43869077403919,3.6901080961759334,76.21980910945625,78.44021398455598,-2.2204048750997316,43.1164604678637,48.063366785475196,-4.946906317611493,-0.017200087492515136,0.0,-0.017200087492515136
0.2600000000000002,move_to_zero,-1.7800833260397124,-3.832675119808599,2.0525917937688867,-76.68204419130736,-80.34644456902309,3.6644003777157366,76.11882851925792,78.35025961072049,-2.231431091462568,43.02910151201194,48.008248245583594,-4.979146733571653,-0.017435386641099695,0.0,-0.017435386641099695
0.2620000000000002,move_to_zero,-1.7657658393359925,-3.828274803941999,2.062508964606007,-76.6150422843514,-80.254198364007,3.639156079655592,76.01846608073599,78.26030523688497,-2.241839156148984,42.94164957881496,47.95312970569199,-5.011480126877032,-0.017667324059451425,0.0,-0.017667324059451425
0.2640000000000002,move_to_zero,-1.752562304591832,-3.823874488075399,2.0713121834835673,-76.54740821182386,-80.16195215899089,3.6145439471670215,75.91870598740441,78.17035086304948,-2.25164487564507,42.854188158215365,47.8980111658004,-5.043823007585033,-0.01789628449520614,0.0,-0.01789628449520614
0.2660000000000002,move_to_zero,-1.7405034517220268,-3.8194741722087993,2.0789707204867724,-76.47898187172848,-80.06970595397479,3.590724082246311,75.81953007922519,78.08039648921398,-2.260866409988793,42.766796308663764,47.842892625908796,-5.076096317245032,-0.018128104156882895,0.0,-0.018128104156882895
0.2680000000000002,move_to_zero,-1.729619797488419,-3.815073856342199,2.08545405885378,-76.4096214535104,-79.97745974895868,3.567838295448283,75.72091232632212,77.99044211537847,-2.2695297890563495,42.67957262608331,47.787774086017194,-5.1082014599338805,-0.018366263426797088,0.0,-0.018366263426797088
0.2700000000000002,move_to_zero,-1.719929580304669,-3.810673540475599,2.09074396017093,-76.33918168529235,-79.8852135439426,3.5460318586502524,75.62284888640194,77.90048774154299,-2.277638855141049,42.59261741122007,47.73265554612559,-5.140038134905524,-0.018604070721947145,0.0,-0.018604070721947145
0.2720000000000002,move_to_zero,-1.711430074805492,-3.806273224608999,2.094843149803507,-76.26755999186238,-79.79296733892649,3.525407347064103,75.52533522488099,77.81053336770748,-2.285198142826488,42.50600438427581,47.677537006234,-5.171532621958185,-0.018839682224868193,0.0,-0.018839682224868193
0.2740000000000002,move_to_zero,-1.7040856064152747,-3.801872908742399,2.0977873023271245,-76.19464247645652,-79.70072113391039,3.5060786574538696,75.42835143299564,77.72057899387197,-2.292227560876327,42.41978192172431,47.622418466342396,-5.2026365446180876,-0.019079422474688648,0.0,-0.019079422474688648
0.2760000000000002,move_to_zero,-1.6978794829054034,-3.7974725928757986,2.099593109970395,-76.12033077918394,-79.60847492889428,3.4881441497103367,75.33188168623813,77.63062462003649,-2.2987429337983514,42.33402920726376,47.567299926450794,-5.233270719187033,-0.019334375344071796,0.0,-0.019334375344071796
0.2780000000000002,move_to_zero,-1.6927565365481965,-3.7930722770091996,2.100315740461003,-76.04450467925352,-79.51622872387819,3.471724044624665,75.23590264319434,77.54067024620097,-2.3047676030066384,42.24880494000478,47.5121813865592,-5.2633764465544175,-0.019612485549326836,0.0,-0.019612485549326836
0.2800000000000002,move_to_zero,-1.6886454247384046,-3.7886719611425996,2.100026536404195,-75.96710464087498,-79.42398251886209,3.456877877987111,75.14040651205377,77.45071587236548,-2.310309360311706,42.16415615775233,47.45706284666759,-5.292906688915259,-0.019918230865792256,0.0,-0.019918230865792256
0.2820000000000002,move_to_zero,-1.6853536159391924,-3.7842716452759992,2.098918029336807,-75.88809876387106,-79.331736313846,3.4436375499749374,75.04537963597598,77.36076149852998,-2.3153818625540055,42.08014400686809,47.401944306775995,-5.321800299907906,-0.020238739251021744,0.0,-0.020238739251021744
0.2840000000000002,move_to_zero,-1.6827227166603513,-3.7798713294093993,2.0971486127490477,-75.8074372232662,-79.2394901088299,3.4320528855636923,74.95081710730452,77.27080712469449,-2.3199900173899692,41.9968200167174,47.34682576688439,-5.350005750166993,-0.020572847334649563,0.0,-0.020572847334649563
0.2860000000000002,move_to_zero,-1.6806239617546768,-3.7754710135427993,2.094847051788123,-75.72511139563356,-79.14724390381379,3.4221325081802263,74.85669677593225,77.18085275085897,-2.3241559749267253,41.91425619871233,47.29170722699279,-5.377451028280461,-0.02090036270924758,0.0,-0.02090036270924758
0.2880000000000002,move_to_zero,-1.6789524805047644,-3.7710706976761994,2.0921182171714348,-75.64109499851308,-79.05499769879769,3.413902700284609,74.7629975348962,77.09089837702348,-2.3279008421272778,41.83249367817333,47.2365886871012,-5.404095008927868,-0.021203440398267406,0.0,-0.021203440398267406
0.2900000000000002,move_to_zero,-1.6776229770965492,-3.766670381809599,2.0890474047130496,-75.5553914954681,-78.96275149378158,3.4073599983134812,74.66970942897679,77.00094400318798,-2.3312345742111944,41.75158929579918,47.181470147209595,-5.429880851410417,-0.02148692598576983,0.0,-0.02148692598576983
0.2920000000000002,move_to_zero,-1.676565834711305,-3.762270065942999,2.085704231231694,-75.46801510283943,-78.87050528876549,3.4024901859260552,74.57681879098276,76.91098962935247,-2.3341708383697153,41.67159615410923,47.12635160731799,-5.454755453208762,-0.02175367687303388,0.0,-0.02175367687303388
0.2940000000000002,move_to_zero,-1.6757252867624355,-3.757869750076399,2.0821444633139636,-75.37898191722773,-78.77825908374939,3.3992771665216566,74.48433557033259,76.82103525551699,-2.3366996851843993,41.59255154321066,47.07123306742639,-5.47868152421573,-0.02200629001784438,0.0,-0.02200629001784438
0.2960000000000002,move_to_zero,-1.6750529680381452,-3.753469434209799,2.078416466171654,-75.28834266443234,-78.6860128787333,3.397670214300959,74.39224288697375,76.73108088168148,-2.338837994707731,41.51448550943946,47.016114527534796,-5.501629018095336,-0.02224625627533473,0.0,-0.02224625627533473
0.2980000000000002,move_to_zero,-1.674511123772774,-3.749069118343199,2.0745579945704247,-75.19614884831338,-78.59376667371718,3.397617825403799,74.30052589539096,76.64112650784598,-2.3406006124550203,41.437413845173246,46.960995987643194,-5.523582142469948,-0.022477867228835477,0.0,-0.022477867228835477
0.3000000000000002,move_to_zero,-1.6740684806268844,-3.744668802476599,2.0706003218497147,-75.1024711823531,-78.50152046870109,3.3990492863479886,74.20916466474753,76.55117213401049,-2.3420074692629527,41.36136060722436,46.90587744775159,-5.54451684052723,-0.022704514801508792,0.0,-0.022704514801508792
0.3020000000000002,move_to_zero,-1.673701657553448,-3.740268486609999,2.066566829056551,-75.0073621361166,-78.40927426368499,3.4019121275683943,74.11816702181127,76.46121776017497,-2.3430507383637007,41.28636264023436,46.85075890786,-5.564396267625639,-0.022927617705287177,0.0,-0.022927617705287177
0.3040000000000002,move_to_zero,-1.673390426571706,-3.735868170743399,2.062477744171693,-74.91089563429028,-78.31702805866888,3.4061324243785975,74.02753380394485,76.37126338633948,-2.34372958239463,41.21240160557138,46.79564036796839,-5.583238762397009,-0.023146355874802037,0.0,-0.023146355874802037
0.3060000000000002,move_to_zero,-1.6731170310474737,-3.7314678548767994,2.0583508238293255,-74.81314959802638,-78.22478185365279,3.411632255626401,73.93723521491755,76.28130901250398,-2.3440737975864323,41.13948224749578,46.740521828076794,-5.601039580581016,-0.02336063380064261,0.0,-0.02336063380064261
0.3080000000000002,move_to_zero,-1.6728486826143734,-3.7270675390101995,2.054218856395826,-74.71421717615532,-78.13253564863669,3.418318472481374,73.84722344869255,76.19135463866847,-2.3441311899759256,41.06761601801242,46.68540328818519,-5.617787270172769,-0.023570487905333868,0.0,-0.023570487905333868
0.3100000000000002,move_to_zero,-1.6725076159631649,-3.7226672231435995,2.0501596071804347,-74.6141762597499,-78.0402894436206,3.4261131838706973,73.75747200260263,76.10140026483299,-2.3439282622303637,40.996783454947675,46.6302847482936,-5.6335012933459225,-0.023777377827382234,0.0,-0.023777377827382234
0.3120000000000002,move_to_zero,-1.672040489387915,-3.718266907276999,2.046226417889084,-74.51310768850644,-77.94804323860448,3.4349355500980465,73.66795227516398,76.01144589099748,-2.343493615833495,40.92695608772307,46.575166208401996,-5.648210120678925,-0.023980239595560976,0.0,-0.023980239595560976
0.3140000000000002,move_to_zero,-1.6713964294260173,-3.713866591410399,2.042470161984382,-74.4111216539226,-77.85579703358839,3.4446753796657816,73.57865517362777,75.92149151716198,-2.3428363435342163,40.858136592457946,46.520047668510394,-5.661911076052448,-0.024180907992768758,0.0,-0.024180907992768758
0.3160000000000002,move_to_zero,-1.670500777703104,-3.7094662755437993,2.038965497840695,-74.30833401255447,-77.76355082857228,3.45521681601781,73.48956520543747,75.83153714332649,-2.3419719378890136,40.79030556384939,46.46492912861879,-5.674623564769405,-0.02438101935374421,0.0,-0.02438101935374421
0.3180000000000002,move_to_zero,-1.6692943865958523,-3.7050659596771993,2.0357715730813473,-74.20485142113947,-77.67130462355618,3.466453202416716,73.40065454124078,75.74158276949098,-2.340928228250192,40.72343511435811,46.40981058872719,-5.686375474369079,-0.024579298654317527,0.0,-0.024579298654317527
0.32000000000000023,move_to_zero,-1.6677132814446274,-3.700665643810599,2.0329523623659718,-74.10076735791169,-77.57905841854009,3.4782910606283934,73.31190614748564,75.65162839565548,-2.339722248169835,40.65753413950552,46.354692048835595,-5.697157909330073,-0.024777770117695587,0.0,-0.024777770117695587
0.32200000000000023,move_to_zero,-1.6657180706015693,-3.696265327943999,2.0305472573424295,-73.99616714627666,-77.48681221352399,3.4906450672473284,73.22331960692604,75.56167402181998,-2.338354414893942,40.592541955906476,46.29957350894399,-5.707031553037517,-0.024978242406770833,0.0,-0.024978242406770833
0.32400000000000023,move_to_zero,-1.6632610859447372,-3.691865012077399,2.0286039261326616,-73.89115153803569,-77.3945660085079,3.503414470472208,73.13487065829239,75.47171964798449,-2.3368489896921005,40.52843534549471,46.2444549690524,-5.716019623557692,-0.02517957591247058,0.0,-0.02517957591247058
0.32600000000000023,move_to_zero,-1.6602996128366228,-3.687464696210799,2.027165083374176,-73.78586357853243,-77.30231980349178,3.516456224959356,73.04654867552411,75.38176527414898,-2.335216598624868,40.46516616774957,46.1893364291608,-5.724170261411224,-0.025380370128797132,0.0,-0.025380370128797132
0.32800000000000024,move_to_zero,-1.6568264379358217,-3.6830643803441987,2.026237942408377,-73.68040366986193,-77.21007359847569,3.5296699286137567,72.95831991636483,75.29181090031348,-2.33349098394865,40.40268729033325,46.13421788926919,-5.73153059893594,-0.02558344761887065,0.0,-0.02558344761887065
0.33000000000000024,move_to_zero,-1.6528222700259354,-3.6786640644775987,2.0258417944516633,-73.57486226539427,-77.11782739345958,3.5429651280653047,72.87015821435794,75.20185652647798,-2.3316983121200394,40.340979119367965,46.07909934937759,-5.738120230009628,-0.025788520128862156,0.0,-0.025788520128862156
0.33200000000000024,move_to_zero,-1.648274900571739,-3.674263748610999,2.02598884803926,-73.46932615085325,-77.02558118844348,3.5562550375902333,72.78203634471947,75.11190215264247,-2.3298658079229995,40.28000016523897,46.02398080948599,-5.743980644247024,-0.025995594085940245,0.0,-0.025995594085940245
0.33400000000000024,move_to_zero,-1.6432007158153183,-3.669863432744399,2.0266627169290805,-73.36387966788044,-76.93333498342739,3.5694553155469464,72.69392618472449,75.02194777880699,-2.3280215940825,40.219718328055315,45.968862269594396,-5.7491439415390815,-0.026205666302041603,0.0,-0.026205666302041603
0.33600000000000024,move_to_zero,-1.6376046393272705,-3.6654631168777994,2.027858477550529,-73.25862696786469,-76.84108877841129,3.5824618105466044,72.60583211136691,74.93199340497148,-2.326161293604571,40.16009676144261,45.913743729702794,-5.753646968260185,-0.02641541340417966,0.0,-0.02641541340417966
0.33800000000000024,move_to_zero,-1.631513404957264,-3.6610628010111994,2.0295493960539357,-73.15366435274609,-76.74884257339518,3.595178220649089,72.51773811833942,74.84203903113597,-2.324300912796545,40.10109400839532,45.85862518981119,-5.757531181415871,-0.02662489139384818,0.0,-0.02662489139384818
0.34000000000000025,move_to_zero,-1.6249755478998684,-3.6566624851445995,2.0316869372447313,-73.0490772028603,-76.65659636837908,3.607519165518781,72.42959468983841,74.75208465730049,-2.322489967462076,40.04267461198261,45.80350664991959,-5.760832037936979,-0.026835341819380458,0.0,-0.026835341819380458
0.34200000000000025,move_to_zero,-1.618021694013624,-3.652262169277999,2.034240475264375,-72.94493844284443,-76.56435016336299,3.6194117205185563,72.341364961638,74.66213028346498,-2.3207653218269684,39.98476898247731,45.74838811002799,-5.763619127550676,-0.02704823996418319,0.0,-0.02704823996418319
0.34400000000000025,move_to_zero,-1.6106975493127433,-3.647861853411399,2.037164304098656,-72.84129781502654,-76.47210395834688,3.630806143320342,72.25301424862327,74.57217590962948,-2.3191616610062056,39.927343803654054,45.693269570136394,-5.76592576648234,-0.027280495653164667,0.0,-0.027280495653164667
0.34600000000000025,move_to_zero,-1.603043096118013,-3.643461537544799,2.040418441426786,-72.73822559191055,-76.3798577533308,3.6416321614202474,72.16453046159104,74.48222153579398,-2.3176910742029406,39.87038066548635,45.63815103024479,-5.767770364758441,-0.027521207644605826,0.0,-0.027521207644605826
0.34800000000000025,move_to_zero,-1.5951105851327394,-3.6390612216781992,2.0439506365454596,-72.63577505056794,-76.28761154831469,3.651836497746743,72.07589190334616,74.39226716195847,-2.316375258612311,39.81384616426438,45.5830324903532,-5.769186326088814,-0.027764372799403744,0.0,-0.027764372799403744
0.35000000000000026,move_to_zero,-1.5869682377767653,-3.634660905811599,2.0476926680348333,-72.53400660030847,-76.19536534329859,3.6613587429901173,71.9870939436106,74.30231278812298,-2.3152188445123727,39.75768756582224,45.52791395046159,-5.770226384639351,-0.028016515259889345,0.0,-0.028016515259889345
0.35200000000000026,move_to_zero,-1.5786761395281181,-3.630260589944999,2.0515844504168808,-72.43296998655941,-76.10311913828248,3.6701491517230664,71.89814972350766,74.21235841428748,-2.3142086907798216,39.70187372935407,45.472795410569994,-5.770921681215924,-0.028286070170885785,0.0,-0.028286070170885785
0.35400000000000026,move_to_zero,-1.5702806286157887,-3.625860274078399,2.0555796454626103,-72.33269089925648,-76.01087293326638,3.6781820340099074,71.80903182494878,74.12240404045198,-2.3133722155032075,39.64634794709131,45.41767687067839,-5.771328923587085,-0.028546428075906575,0.0,-0.028546428075906575
0.35600000000000026,move_to_zero,-1.5618275189492663,-3.621459958211799,2.0596324392625327,-72.23321801242604,-75.91862672825027,3.685408715824238,71.71970753153612,74.03244966661647,-2.312742135080356,39.591055630242565,45.36255833078679,-5.771502700544225,-0.028825432158846545,0.0,-0.028825432158846545
0.35800000000000026,move_to_zero,-1.5533653683324151,-3.6170596423451986,2.0636942740127835,-72.13457453869728,-75.82638052323418,3.6918059845368987,71.63018459167807,73.94249529278098,-2.312310701102902,39.535968047629716,45.307439790895195,-5.771471743265479,-0.029125401095828805,0.0,-0.029125401095828805
0.36000000000000026,move_to_zero,-1.5449163392151435,-3.6126593264785987,2.067742987263455,-72.03679054132331,-75.7341343182181,3.697343776894783,71.54043822475799,73.85254091894548,-2.3121026941874874,39.48103997071906,45.25232125100359,-5.7712812802845335,-0.029451844850455364,0.0,-0.029451844850455364
0.36200000000000027,move_to_zero,-1.536551433689827,-3.6082590106119987,2.071707576922172,-71.93989469533464,-75.64188811320199,3.7019934178673424,71.4504539880599,73.76258654510997,-2.312132557050063,39.42622478017481,45.19720271111199,-5.770977930937178,-0.029777574970301056,0.0,-0.029777574970301056
0.36400000000000027,move_to_zero,-1.5283074244508226,-3.603858694745399,2.075551270294577,-71.84387446151105,-75.54964190818589,3.705767446674841,71.36019228401824,73.67263217127449,-2.3124398872562466,39.37148146230486,45.14208417122039,-5.770602708915533,-0.030095178106648333,0.0,-0.030095178106648333
0.36600000000000027,move_to_zero,-1.520212187141156,-3.5994583788787993,2.079246191737643,-71.74874283443583,-75.45739570316978,3.7086528687339495,71.26963624734708,73.58267779743898,-2.3130415500918957,39.31678137045067,45.086965631328795,-5.770184260878125,-0.03039286711968548,0.0,-0.03039286711968548
0.36800000000000027,move_to_zero,-1.5122655867484305,-3.5950580630121993,2.082792476263769,-71.65445950214809,-75.36514949815368,3.7106899960055983,71.17875683939984,73.49272342360348,-2.3139665842036408,39.26208879892139,45.03184709143719,-5.769758292515803,-0.030669288433446705,0.0,-0.030669288433446705
0.3700000000000003,move_to_zero,-1.5045107556142219,-3.5906577471455994,2.0861469915313773,-71.56101076064235,-75.27290329313757,3.711892532495227,71.08754612987993,73.40276904976798,-2.3152229198880576,39.20735590111488,44.97672855154559,-5.769372650430711,-0.030927913397905394,0.0,-0.030927913397905394
0.3720000000000003,move_to_zero,-1.4969598882656583,-3.586257431278999,2.0892975430133407,-71.46838595367554,-75.18065708812149,3.712271134445956,70.99599600944917,73.31281467593247,-2.3168186664833,39.15252716498686,44.921610011653996,-5.769082846667139,-0.03117147397416121,0.0,-0.03117147397416121
0.3740000000000003,move_to_zero,-1.4896351422831768,-3.581857115412399,2.092221973129222,-71.3765503099341,-75.08841088310538,3.711860573171279,70.90410655763972,73.22286030209698,-2.318753744457254,39.09757426655035,44.86649147176239,-5.768917205212034,-0.03140170566413721,0.0,-0.03140170566413721
0.3760000000000003,move_to_zero,-1.4825542554595859,-3.577456799545799,2.0949025440862132,-71.28548402945728,-74.99616467808929,3.7106806486320068,70.81188700262584,73.13290592826148,-2.3210189256356415,39.042446303146114,44.81137293187079,-5.768926628724678,-0.031618629728885364,0.0,-0.031618629728885364
0.3780000000000003,move_to_zero,-1.4757398632195398,-3.573056483679199,2.0973166204596594,-71.19516389234892,-74.90391847307319,3.7087545807242748,70.71932855767288,73.04295155442597,-2.3236229967530875,38.987115234800065,44.75625439197919,-5.769139157179126,-0.031825649219646014,0.0,-0.031825649219646014
0.3800000000000003,move_to_zero,-1.4692107618543373,-3.5686561678125988,2.0994454059582615,-71.1055867814465,-74.81167226805708,3.7060854866105757,70.62642742483916,72.95299718059049,-2.326569755751322,38.93152251129468,44.70113585208759,-5.769613340792908,-0.03202452758469945,0.0,-0.03202452758469945
0.3820000000000003,move_to_zero,-1.4629614779170281,-3.564255851945999,2.1012943740289707,-71.01673237668876,-74.71942606304098,3.7026936863522195,70.53317621977241,72.86304280675498,-2.329866586982561,38.87567006362935,44.646017312195994,-5.770347248566644,-0.03221620208716148,0.0,-0.03221620208716148
0.3840000000000003,move_to_zero,-1.4569993699380293,-3.559855536079399,2.1028561661413696,-70.92854609484918,-74.62717985802489,3.6986337631757067,70.43960669966121,72.77308843291948,-2.3334817332582674,38.81954948242483,44.59089877230439,-5.771349289879559,-0.03240178474534936,0.0,-0.03240178474534936
0.3860000000000003,move_to_zero,-1.451312194158213,-3.5554552202127994,2.1041430260545866,-70.84098969781255,-74.53493365300879,3.6939439551962465,70.34571012804963,72.68313405908398,-2.337423931034351,38.763138384920985,44.53578023241279,-5.772641847491805,-0.03258391570888848,0.0,-0.03258391570888848
0.3880000000000003,move_to_zero,-1.445892028207254,-3.551054904346199,2.105162876138945,-70.75398074362805,-74.44268744799268,3.688706704364634,70.25147856220488,72.59317968524847,-2.341701123043592,38.70641254168928,44.48066169252119,-5.774249150831906,-0.032763496323878795,0.0,-0.032763496323878795
0.3900000000000003,move_to_zero,-1.4407146708921164,-3.546654588479599,2.1059399175874827,-70.66747596037848,-74.35044124297659,3.6829652825981043,70.15691108443497,72.50322531141298,-2.3463142269780093,38.64932772877082,44.425543152629594,-5.776215423858773,-0.032942441438875654,0.0,-0.032942441438875654
0.3920000000000003,move_to_zero,-1.4357677494070835,-3.542254272612999,2.1064865232059153,-70.58143879330424,-74.25819503796048,3.6767562446562323,70.06201295178883,72.41327093757748,-2.3512579857886493,38.59186806125992,44.37042461273799,-5.778556551478069,-0.033120031200905495,0.0,-0.033120031200905495
0.3940000000000003,move_to_zero,-1.4310405730806681,-3.537853956746399,2.106813383665731,-70.49584170568237,-74.16594883294438,3.670107127262014,69.96678056067203,72.32331656374198,-2.356536003069948,38.53404462243732,44.31530607284639,-5.781261450409069,-0.033299885910962224,0.0,-0.033299885910962224
0.3960000000000003,move_to_zero,-1.4265136066308803,-3.5334536408797987,2.106940034248918,-70.41063476683028,-74.07370262792828,3.663067861098,69.87121598445076,72.23336218990647,-2.3621462054557156,38.47584303056313,44.260187532954795,-5.784344502391669,-0.033481412096317865,0.0,-0.033481412096317865
0.3980000000000003,move_to_zero,-1.422194675733141,-3.529053325013199,2.106858649280058,-70.32576398770303,-73.98145642291219,3.6556924352091613,69.77532234493766,72.14340781607098,-2.3680854711333126,38.41724350144175,44.205068993063186,-5.787825491621433,-0.033663738650309166,0.0,-0.033663738650309166
0.4000000000000003,move_to_zero,-1.4180500417965263,-3.524653009146599,2.1066029673500726,-70.24118299283404,-73.88921021789609,3.6480272250620516,69.67912526770098,72.05345344223548,-2.3743281745344973,38.358253238519914,44.14995045317159,-5.791697214651677,-0.03384472555108075,0.0,-0.03384472555108075
0.4020000000000003,move_to_zero,-1.414059680596853,-3.520252693279999,2.106193012683146,-70.15683980883168,-73.79696401287998,3.6401242040483055,69.5826514965563,71.96349906839997,-2.380847571843674,38.29884212245974,44.09483191327999,-5.795989790820251,-0.03402412801217849,0.0,-0.03402412801217849
0.4040000000000003,move_to_zero,-1.4102055091694654,-3.515852377413399,2.1056468682439338,-70.07270325890687,-73.70471780786389,3.6320145489570166,69.48590745993738,71.87354469456449,-2.387637234627107,38.239005494898564,44.039713373388395,-5.800707878489831,-0.03420070123892807,0.0,-0.03420070123892807
0.4060000000000003,move_to_zero,-1.4064644964050743,-3.511452061546799,2.104987565141725,-69.98872041176611,-73.61247160284778,3.6237511910816664,69.38889912579222,71.78359032072898,-2.3946911949367546,38.178746420182996,43.98459483349679,-5.805848413313797,-0.034375252293720786,0.0,-0.034375252293720786
0.4080000000000003,move_to_zero,-1.4027878067363257,-3.507051745680199,2.1042639389438733,-69.90483614710591,-73.52022539783168,3.6153892507257694,69.29162631127049,71.69363594689347,-2.4020096356229743,38.118050920886446,43.92947629360519,-5.811425372718745,-0.03455030823264817,0.0,-0.03455030823264817
0.4100000000000003,move_to_zero,-1.399134130229324,-3.5026514298135987,2.103517299584275,-69.82099388770281,-73.42797919281558,3.6069853051127723,69.19408833430884,71.60368157305798,-2.4095932387491388,38.05693027008415,43.87435775371359,-5.817427483629437,-0.034723608326687805,0.0,-0.034723608326687805
0.4120000000000003,move_to_zero,-1.395491154718506,-3.4982511139469987,2.102759959228493,-69.73714939166247,-73.33573298779949,3.5985835961370185,69.09630922649713,71.51372719922247,-2.417417972725346,37.995395253562876,43.81923921382199,-5.823843960259111,-0.03489350021191654,0.0,-0.03489350021191654
0.4140000000000003,move_to_zero,-1.3918213068695509,-3.493850798080399,2.102029491210848,-69.65323634544858,-73.24348678278338,3.5902504373348023,68.99831799127153,71.42377282538698,-2.425454834115442,37.93342418340512,43.76412067393039,-5.83069649052527,-0.035060750792655325,0.0,-0.035060750792655325
0.4160000000000003,move_to_zero,-1.3881108114999825,-3.4894504822137993,2.1013396707138168,-69.56919707144563,-73.15124057776728,3.5820435063216536,68.90013107706544,71.33381845155148,-2.433687374486041,37.871008491071166,43.70900213403879,-5.837993642967625,-0.03522353895626854,0.0,-0.03522353895626854
0.4180000000000003,move_to_zero,-1.384338777829034,-3.485050166347199,2.1007113885181647,-69.48497935293535,-73.05899437275119,3.574015019815832,68.80178205955897,71.24386407771597,-2.442082018156995,37.808159849023866,43.653883594147196,-5.84572374512333,-0.03538654330736026,0.0,-0.03538654330736026
0.4200000000000003,move_to_zero,-1.3804954643461886,-3.480649850480599,2.1001543861344105,-69.40056049361276,-72.96674816773508,3.566187674122318,68.70329518494644,71.15390970388047,-2.4506145189340316,37.74490556090188,43.598765054255594,-5.853859493353717,-0.03555036591717333,0.0,-0.03555036591717333
0.4220000000000003,move_to_zero,-1.3765382701899678,-3.476249534613999,2.099711264424031,-69.31591071951257,-72.87450196271898,3.5585912432064077,68.6046771179079,71.06395533004498,-2.459278212137079,37.681260134216735,43.543646514363985,-5.8623863801472496,-0.0357140280313429,0.0,-0.0357140280313429
0.4240000000000003,move_to_zero,-1.372445250196726,-3.471849218747399,2.099403968550673,-69.23100414947018,-72.78225575770288,3.551251608232704,68.50593916515076,70.97400095620948,-2.468061791058716,37.617237954048356,43.48852797447239,-5.871290020424034,-0.0358762046369842,0.0,-0.0358762046369842
0.4260000000000003,move_to_zero,-1.368203739986768,-3.4674489028807987,2.0992451628940305,-69.14581686257118,-72.69000955268679,3.544192690115608,68.4071399477439,70.88404658237397,-2.476906634630069,37.552837533614195,43.43340943458079,-5.8805719009665935,-0.03603489914284768,0.0,-0.03603489914284768
0.4280000000000003,move_to_zero,-1.3638101172231851,-3.4630485870141987,2.099238469791014,-69.06031472864748,-72.59776334767068,3.537448619023195,68.30830950617565,70.79409220853847,-2.485782702362826,37.48809068308908,43.378290894689194,-5.890200211600117,-0.03619021120687289,0.0,-0.03619021120687289
0.4300000000000003,move_to_zero,-1.3592688057125903,-3.458648271147599,2.0993794654350086,-68.97447001578759,-72.50551714265458,3.5310471268669943,68.20947345401811,70.70413783470298,-2.494664380684867,37.42303172394374,43.32317235479759,-5.900140630853855,-0.036342112243402225,0.0,-0.036342112243402225
0.43200000000000033,move_to_zero,-1.3545578462208714,-3.454247955280999,2.0996901090601274,-68.88826017130435,-72.41327093763847,3.5250107663341197,68.11063384973838,70.61418346086747,-2.5035496111290882,37.35765787324067,43.268053814906,-5.910395941665328,-0.0364934947732414,0.0,-0.0364934947732414
0.43400000000000033,move_to_zero,-1.3496913736779879,-3.449847639414399,2.100156265736411,-68.80165497555831,-72.32102473262238,3.5193697570640694,68.01181476660447,70.52422908703198,-2.51241432042751,37.292009618243604,43.21293527501439,-5.920925656770784,-0.03664283749136059,0.0,-0.03664283749136059
0.43600000000000033,move_to_zero,-1.344676265948579,-3.445447323547799,2.10077105759922,-68.71464329270877,-72.22877852760628,3.514135234897509,67.9130379889719,70.43427471319647,-2.521236724224579,37.226093700874586,43.157816735122786,-5.931723034248201,-0.03679056001479977,0.0,-0.03679056001479977
0.43800000000000033,move_to_zero,-1.3395420690258655,-3.441047007681199,2.1015049386553333,-68.6272139203884,-72.13653232259018,3.509318402201785,67.81431018967004,70.34432033936098,-2.5300101496909377,37.1599297206528,43.10269819523119,-5.9427684745783935,-0.03693564361706162,0.0,-0.03693564361706162
0.44000000000000034,move_to_zero,-1.3342846476511223,-3.4366466918145986,2.1023620441634763,-68.53938748225136,-72.04428611757409,3.504898635322732,67.71566594038603,70.25436596552548,-2.5387000251394483,37.09352449558865,43.04757965533959,-5.954055159750936,-0.03707763784799911,0.0,-0.03707763784799911
0.44200000000000034,move_to_zero,-1.3289483289865998,-3.4322463759479986,2.103298046961399,-68.45117444925283,-71.95203991255798,3.5008654633051464,67.61712415223786,70.16441159168997,-2.5472874394521057,37.026919011113016,42.992461115447995,-5.965542104334979,-0.03721674154965716,0.0,-0.03721674154965716
0.44400000000000034,move_to_zero,-1.3235606433429443,-3.427846060081399,2.104285416738455,-68.3625587361725,-71.85979370754188,3.49723497136938,67.51872102854715,70.07445721785447,-2.555736189307325,36.96012827963558,42.937342575556386,-5.9772142959208026,-0.03735392179764217,0.0,-0.03735392179764217
0.44600000000000034,move_to_zero,-1.318117188704352,-3.423445744214799,2.1053285555104475,-68.27350926482647,-71.76754750252577,3.4940382376993,67.4204746396298,69.98450284401898,-2.5640282043891744,36.89318707051588,42.88222403566479,-5.989036965148912,-0.03748876169260514,0.0,-0.03748876169260514
0.44800000000000034,move_to_zero,-1.3126084818963673,-3.419045428348199,2.1064369464518315,-68.18405305623894,-71.67530129750969,3.4912482412707533,67.32239629636304,69.89454847018347,-2.5721521738204274,36.826116677035984,42.82710549577319,-6.000988818737206,-0.03762041675507289,0.0,-0.03762041675507289
0.45000000000000034,move_to_zero,-1.3070397509581118,-3.414645112481599,2.107605361523487,-68.0942109437527,-71.58305509249358,3.4888441487408812,67.22448235562297,69.80459409634798,-2.580111740725016,36.75893577080129,42.77198695588159,-6.0130511850803,-0.037750728327483635,0.0,-0.037750728327483635
0.45200000000000035,move_to_zero,-1.3014399057657065,-3.410244796614999,2.1088048908492922,-68.00400084973374,-71.49080888747748,3.4868080377437423,67.12672256915761,69.71463972251247,-2.5879171533548657,36.6916419793352,42.71686841598999,-6.0252264366547905,-0.03788259100096843,0.0,-0.03788259100096843
0.45400000000000035,move_to_zero,-1.2958142325544417,-3.405844480748399,2.110030248193957,-67.91340870680007,-71.39856268246137,3.485153975661305,67.02910706595145,69.62468534867698,-2.5955782827255263,36.624242827591225,42.66174987609839,-6.037507048507166,-0.0380142788300582,0.0,-0.0380142788300582
0.45600000000000035,move_to_zero,-1.2901785593749677,-3.4014441648817986,2.111265605506831,-67.82242961843988,-71.30631647744528,3.483886859005395,66.93164109123134,69.53473097484148,-2.6030898836101386,36.556738076780306,42.60663133620679,-6.049893259426483,-0.03814787954247858,0.0,-0.03814787954247858
0.45800000000000035,move_to_zero,-1.2845396639211586,-3.397043849015199,2.1125041850940405,-67.73110460361616,-71.21407027242918,3.482965668813023,66.83432353143228,69.44477660100597,-2.610453069573694,36.48915544396853,42.55151279631519,-6.062357352346659,-0.03828204235864003,0.0,-0.03828204235864003
0.46000000000000035,move_to_zero,-1.2789000522273637,-3.392643533148599,2.1137434809212357,-67.63944725487005,-71.12182406741309,3.4823768125430377,66.73714102958844,69.35482222717047,-2.61768119758203,36.42150924631307,42.49639425642359,-6.0748850101105205,-0.03841592187006273,0.0,-0.03841592187006273
0.46200000000000035,move_to_zero,-1.2733004270157955,-3.3882432172819987,2.1149427902662032,-67.54748901061113,-71.02957786239699,3.4820888517858606,66.6401111088126,69.26486785333498,-2.6247567445223723,36.35384028834461,42.44127571653199,-6.0874354281873835,-0.03855289038092861,0.0,-0.03855289038092861
0.46400000000000036,move_to_zero,-1.267765524826376,-3.383842901415399,2.116077376589023,-67.4552454902646,-70.93733165738088,3.482086167116279,66.54325487504116,69.17491347949948,-2.6316586044583232,36.286178023438495,42.38615717664039,-6.099979153201893,-0.038691896878956515,0.0,-0.038691896878956515
0.46600000000000036,move_to_zero,-1.2622942387646703,-3.379442585548799,2.1171483467841288,-67.36275290813727,-70.84508545236478,3.4823325442275177,66.44654569893059,69.08495910566397,-2.6384134067333775,36.21858271039256,42.331038636748794,-6.112455926356233,-0.03883118494311218,0.0,-0.03883118494311218
0.46800000000000036,move_to_zero,-1.2569061491828493,-3.375042269682199,2.11813612049935,-67.270022537063,-70.75283924734867,3.4828167102856753,66.35000680976579,68.99500473182847,-2.644997922062686,36.15108800268331,42.275920096857185,-6.124832094173875,-0.03897047719292,0.0,-0.03897047719292
0.47000000000000036,move_to_zero,-1.2516089968016293,-3.3706419538155985,2.119032957013969,-67.17711338609791,-70.66059304233258,3.483479656234664,66.25362498071301,68.90505035799298,-2.6514253772799634,36.08370788585772,42.22080155696559,-6.13709367110787,-0.039111037756175415,0.0,-0.039111037756175415
0.47200000000000036,move_to_zero,-1.2464083425307815,-3.3662416379489986,2.119833295418217,-67.0840298305386,-70.56834683731647,3.4843170067778715,66.1574186512176,68.81509598415747,-2.657677332939869,36.01644935430571,42.16568301707399,-6.149233662768275,-0.039250398286770675,0.0,-0.039250398286770675
0.47400000000000037,move_to_zero,-1.241311613681357,-3.361841322082399,2.120529708401042,-66.99078835108901,-70.47610063230039,3.485312281211378,66.06137468261386,68.72514161032198,-2.6637669277081244,35.949317972615965,42.11056447718239,-6.161246504566428,-0.039390539020205444,0.0,-0.039390539020205444
0.47600000000000037,move_to_zero,-1.236297651543772,-3.357441006215799,2.121143354672027,-66.89743101584506,-70.38385442728428,3.486423411439219,65.96550060737627,68.63518723648647,-2.6696866291102026,35.882308628306106,42.05544593729079,-6.1731373089846855,-0.03953271570754942,0.0,-0.03953271570754942
0.47800000000000037,move_to_zero,-1.23134787460985,-3.3530406903491987,2.1216928157393484,-66.80395625440731,-70.29160822226818,3.48765196786087,65.86980162108921,68.54523286265096,-2.6754312415617534,35.81541774124666,42.00032739739919,-6.184909656152527,-0.039674979027619565,0.0,-0.039674979027619565
0.48000000000000037,move_to_zero,-1.2264528556044005,-3.3486403744825988,2.1221875188781985,-66.71039260579397,-70.19936201725208,3.4889694114581147,65.77428079423866,68.45527848881548,-2.680997694576817,35.748662584644755,41.94520885750759,-6.196546272862832,-0.039817762193862516,0.0,-0.039817762193862516
0.4820000000000004,move_to_zero,-1.2216377733197892,-3.344240058615999,2.1226022852962094,-66.6167758967875,-70.10711581223597,3.490339915448473,65.67892058412346,68.36532411497997,-2.6864035308565093,35.682049679595245,41.890090317615986,-6.208040638020741,-0.039961965729849176,0.0,-0.039961965729849176
0.4840000000000004,move_to_zero,-1.2168959543977913,-3.339839742749399,2.1229437883516074,-66.52315522279083,-70.01486960721988,3.491714384429045,65.58371278318907,68.27536974114447,-2.691656957955402,35.61557254097767,41.83497177772439,-6.219399236746725,-0.040105597792538104,0.0,-0.040105597792538104
0.4860000000000004,move_to_zero,-1.2122148120270362,-3.3354394268827985,2.1232246148557623,-66.42956577711628,-69.92262340220378,3.493057625087502,65.48867589416811,68.18541536730898,-2.696739473140866,35.54921359735798,41.77985323783279,-6.230639640474806,-0.04024589719766108,0.0,-0.04024589719766108
0.4880000000000004,move_to_zero,-1.2076316694772198,-3.331039111016199,2.123407441538979,-66.33599980216204,-69.83037719718769,3.4943773950256514,65.39382352554773,68.09546099347347,-2.7016374679257353,35.48296210994238,41.72473469794119,-6.24177258799881,-0.040382785353521744,0.0,-0.040382785353521744
0.4900000000000004,move_to_zero,-1.2031414389099582,-3.326638795149599,2.123497356239641,-66.24250480364424,-69.73813099217158,3.495626188527339,65.29914371034025,68.00550661963797,-2.7063629092977237,35.41683379713569,41.66961615804959,-6.252782360913905,-0.04051613761113545,0.0,-0.04051613761113545
0.4920000000000004,move_to_zero,-1.1987386124413446,-3.3222384792829986,2.1234998668416543,-66.14907268762495,-69.64588478715548,3.49681209953053,65.20461851986853,67.91555224580247,-2.710933725933941,35.35083895755693,41.61449761815798,-6.2636586606010525,-0.04064921052717435,0.0,-0.04064921052717435
0.4940000000000004,move_to_zero,-1.1943997530941841,-3.3178381634163987,2.1234384103222146,-66.05574274190894,-69.55363858213937,3.497895840230427,65.11024997132505,67.82559787196698,-2.7153479006419303,35.28498213066559,41.55937907826639,-6.274396947600799,-0.04078319415164438,0.0,-0.04078319415164438
0.4960000000000004,move_to_zero,-1.1901270969446767,-3.3134378475497988,2.123310750605122,-65.96254615232678,-69.46139237712327,3.4988462247964947,65.0160404118112,67.73564349813147,-2.7196030863202623,35.21927772314948,41.50426053837479,-6.284982815225305,-0.04091826392599229,0.0,-0.04091826392599229
0.4980000000000004,move_to_zero,-1.1859111475668025,-3.309037531683199,2.1231263841163965,-65.86950759111079,-69.36914617210718,3.4996385809963897,64.92199209520383,67.64568912429597,-2.7236970290921363,35.153768986589064,41.44914199848319,-6.295373011894128,-0.04105230420179715,0.0,-0.04105230420179715
0.5000000000000003,move_to_zero,-1.1817485316390992,-3.3046372158165984,2.122888684177499,-65.7766563580634,-69.27689996709108,3.5002436090276774,64.82808644438025,67.55573475046047,-2.7276483060802263,35.08844310825508,41.39402345859159,-6.305580350336513,-0.041185560489652474,0.0,-0.041185560489652474
0.5020000000000003,move_to_zero,-1.1776229445888742,-3.300236899949999,2.1226139553611247,-65.6840138898413,-69.18465376207499,3.500639872233691,64.73431293370012,67.46578037662498,-2.7314674429248527,35.02328322762848,41.33890491869999,-6.315621691071506,-0.04131503737184267,0.0,-0.04131503737184267
0.5040000000000003,move_to_zero,-1.173504179493567,-3.2958365840833994,2.1223324045898324,-65.59158540546687,-69.09240755705889,3.5008221515920184,64.640678892705,67.37582600278948,-2.7351471100844833,34.95828552696297,41.283786378808394,-6.325500851845426,-0.04143984257709715,0.0,-0.04143984257709715
0.5060000000000003,move_to_zero,-1.1694047615979695,-3.291436268216799,2.1220315066188293,-65.49936967279716,-69.00016135204278,3.500791679245623,64.54719178441185,67.28587162895397,-2.738679844542119,34.89345570143676,41.228667838916785,-6.335212137480028,-0.04155924814992163,0.0,-0.04155924814992163
0.5080000000000003,move_to_zero,-1.1653290248645527,-3.287035952350199,2.121706927485646,-65.40737078317218,-68.90791514702669,3.5005443638545017,64.45382766720233,67.19591725511847,-2.7420895879161407,34.828784439881936,41.1735492990252,-6.344764859143261,-0.041674907580752464,0.0,-0.041674907580752464
0.5100000000000003,move_to_zero,-1.161269723187358,-3.2826356364835987,2.1213659132962404,-65.31559080708176,-68.81566894201057,3.5000781349288133,64.36055311192517,67.10596288128298,-2.7454097693578063,34.76430398389124,41.11843075913359,-6.354126775242349,-0.04178533318085777,0.0,-0.04178533318085777
0.5120000000000003,move_to_zero,-1.1572269740776655,-3.278235320616999,2.121008346539334,-65.22404019399426,-68.7234227369945,3.4993825430002374,64.2673625486582,67.01600850744748,-2.7486459587892824,34.70001837813485,41.06331221924199,-6.363293841107144,-0.041893923781235465,0.0,-0.041893923781235465
0.5140000000000003,move_to_zero,-1.1531548780224616,-3.273835004750399,2.120680126727937,-65.13275296374457,-68.63117653197838,3.498423568233818,64.17425807074318,66.92605413361197,-2.7517960628687916,34.63593033793242,41.00819367935039,-6.37226334141797,-0.04200085952624254,0.0,-0.04200085952624254
0.5160000000000003,move_to_zero,-1.1490677332005717,-3.2694346888837993,2.1203669556832274,-65.0417317389279,-68.53893032696229,3.4971985880343937,64.08124456160981,66.83609975977649,-2.7548551981666805,34.57203181818859,40.95307513945879,-6.381043321270198,-0.04210677968491912,0.0,-0.04210677968491912
0.5180000000000003,move_to_zero,-1.1449692784026086,-3.265034373017199,2.1200650946145903,-64.95095465488585,-68.44668412194618,3.495729467060329,63.98829278681034,66.74614538594096,-2.757852599130622,34.50833290882358,40.89795659956719,-6.389623690743605,-0.04221351033515561,0.0,-0.04221351033515561
0.5200000000000004,move_to_zero,-1.1408585919926837,-3.2606340571505994,2.1197754651579155,-64.86045841690435,-68.35443791693008,3.4939795000257305,63.8953932004435,66.65619101210548,-2.7607978116619805,34.44481282011921,40.84283805967559,-6.398025239556382,-0.042321162447913147,0.0,-0.042321162447913147
0.5220000000000004,move_to_zero,-1.1367494064636094,-3.2562337412839986,2.119484334820389,-64.77025696957405,-68.26219171191397,3.4919347423399216,63.80255113656347,66.56623663826997,-2.7636855017064974,34.381467613694355,40.78771951978399,-6.406251906089636,-0.042426609754359634,0.0,-0.042426609754359634
0.5240000000000004,move_to_zero,-1.1326517464517805,-3.251833425417399,2.1191816789656186,-64.68034744654403,-68.16994550689789,3.489598060353856,63.70976619603242,66.47628226443447,-2.766516068402055,34.31830563434345,40.732600979892396,-6.414295345548943,-0.042529854855920424,0.0,-0.042529854855920424
0.5260000000000004,move_to_zero,-1.1285644187413317,-3.2474331095507987,2.118868690809467,-64.59073297996535,-68.07769930188178,3.4869663219164266,63.61704794534808,66.38632789059898,-2.7692799452509007,34.255319164847535,40.677482440000794,-6.42216327515326,-0.04263271549509271,0.0,-0.04263271549509271
0.5280000000000004,move_to_zero,-1.1244745982067177,-3.2430327936841996,2.118558195477482,-64.50139405377422,-67.9854530968657,3.4840590430914773,63.5243773922813,66.29637351676348,-2.771996124482179,34.19249126855595,40.62236390010919,-6.429872631553245,-0.04273475696195285,0.0,-0.04273475696195285
0.5300000000000004,move_to_zero,-1.1203987661142465,-3.2386324778175983,2.118233711703352,-64.41230773623792,-67.89320689184957,3.4808991556116524,63.431730191206924,66.20641914292797,-2.7746889517210462,34.12982171790415,40.56724536021758,-6.4374236423134334,-0.042833715898831566,0.0,-0.042833715898831566
0.5320000000000004,move_to_zero,-1.1163341396202089,-3.2342321619509993,2.1178980223307904,-64.32343297724091,-67.80096068683349,3.4775277095925787,63.33909609996008,66.11646476909249,-2.7773686691324073,34.06729683560708,40.512126820325996,-6.444829984718915,-0.042928601586215906,0.0,-0.042928601586215906
0.5340000000000004,move_to_zero,-1.1122904099191577,-3.229831846084399,2.117541436165241,-64.23475648873007,-67.70871448181737,3.4739579930872964,63.246458804357836,66.02651039525698,-2.7800515908991414,34.00487947097548,40.45700828043439,-6.452128809458905,-0.04302011610758141,0.0,-0.04302011610758141
0.5360000000000004,move_to_zero,-1.1082708493902704,-3.2254315302177994,2.1171606808275287,-64.14628896315635,-67.61646827680129,3.470179313644934,63.15380055635586,65.93655602142148,-2.7827554650656197,33.9425646037681,40.4018897405428,-6.4593251367747015,-0.04310839955744304,0.0,-0.04310839955744304
0.5380000000000004,move_to_zero,-1.1042634326273428,-3.2210312143511985,2.1167677817238557,-64.05803378781965,-67.52422207178519,3.4661882839655362,63.06110395248901,65.84660164758597,-2.785497695096957,33.880367732604086,40.34677120065119,-6.466403468047105,-0.04319485376797299,0.0,-0.04319485376797299
0.5400000000000004,move_to_zero,-1.1002505464160028,-3.216630898484599,2.116380352068596,-63.9699805294125,-67.4319758667691,3.4619953373565906,62.968351187152265,65.75664727375049,-2.7882960865982227,33.81828608102691,40.29165266075959,-6.4733665797326765,-0.04327780210635482,0.0,-0.04327780210635482
0.5420000000000004,move_to_zero,-1.096242327446301,-3.2122305826179987,2.1159882551716978,-63.88212515804782,-67.33972966175298,3.457604503705163,62.87551709593206,65.66669289991496,-2.7911758039829024,33.75630075653874,40.23653412086799,-6.480233364329244,-0.04335896970979069,0.0,-0.04335896970979069
0.5440000000000004,move_to_zero,-1.0922494504119686,-3.207830266751399,2.1155808163394303,-63.794448721697876,-67.24748345673689,3.4530347350390116,62.78259493454318,65.57673852607948,-2.7941435915363044,33.69439356110204,40.18141558097639,-6.4870220198743525,-0.04343817130313215,0.0,-0.04343817130313215
0.5460000000000004,move_to_zero,-1.088265160440039,-3.2034299508847988,2.1151647904447595,-63.70694191630798,-67.15523725172078,3.4482953354127943,62.68957382761353,65.48678415224397,-2.7972103246304414,33.63254472299596,40.12629704108479,-6.493752318088831,-0.043515039565544006,0.0,-0.043515039565544006
0.5480000000000004,move_to_zero,-1.0842990270372308,-3.1990296350181993,2.1147306079809685,-63.61959047551267,-67.06299104670468,3.443400571192008,62.596457586086416,65.39682977840847,-2.800372192322058,33.57074046063822,40.071178501193195,-6.500438040554975,-0.04358942872305193,0.0,-0.04358942872305193
0.5500000000000004,move_to_zero,-1.0803601345790284,-3.194629319151599,2.1142691845725707,-63.53238541246514,-66.97074484168859,3.4383594292234463,62.50326342388927,65.30687540457298,-2.803611980683705,33.508968209340246,40.01605996130159,-6.507091751961347,-0.04366235859758901,0.0,-0.04366235859758901
0.5520000000000004,move_to_zero,-1.0764478688489458,-3.190229003284999,2.113781134436053,-63.445298970148315,-66.87849863667249,3.4331996665241746,62.40997956015834,65.21692103073748,-2.8069414705791402,33.44725476826502,39.96094142140999,-6.513686653144973,-0.04373347230529782,0.0,-0.04373347230529782
0.5540000000000004,move_to_zero,-1.0725554906827128,-3.1858286874183985,2.113273196735686,-63.35830156129284,-66.78625243165638,3.4279508703635386,62.316576964469824,65.12696665690197,-2.810389692432146,33.38559391616134,39.90582288151839,-6.520228965357049,-0.04380292872089217,0.0,-0.04380292872089217
0.5560000000000004,move_to_zero,-1.068709610957506,-3.1814283715517995,2.1127187605942934,-63.271361977224316,-66.69400622664028,3.422644249415967,62.22304137150689,65.03701228306649,-2.8139709115596006,33.32397374890714,39.850704341626795,-6.526730592719652,-0.043871146450786117,0.0,-0.043871146450786117
0.5580000000000004,move_to_zero,-1.0649003132238726,-3.1770280556851986,2.1121277424613263,-63.184479167487225,-66.60176002162417,3.4172808541369477,62.129355371110336,64.94705790923096,-2.8177025381206278,33.26239508065391,39.795585801735186,-6.533190721081276,-0.043937820460153404,0.0,-0.043937820460153404
0.5600000000000004,move_to_zero,-1.0611311929481366,-3.172627739818599,2.1114965468704625,-63.09764735811274,-66.50951381660808,3.4118664584953393,62.03551239826819,64.85710353539548,-2.8215911371272924,33.20087106294329,39.7404672618436,-6.5395961989003055,-0.044004580931736544,0.0,-0.044004580931736544
0.5620000000000004,move_to_zero,-1.0573860608448449,-3.1682274239519987,2.110841363107154,-63.0108558590434,-66.41726761159198,3.4064117525485784,61.9415193183969,64.76714916155997,-2.825629843163071,33.13937309014309,39.68534872195198,-6.5459756318088935,-0.04407373112060151,0.0,-0.04407373112060151
0.5640000000000004,move_to_zero,-1.0536663859499265,-3.1638271080853992,2.110160722135473,-62.9240911923187,-66.3250214065759,3.400930214257201,61.84736571807843,64.67719478772447,-2.8298290696460455,33.077898732174035,39.630230182060394,-6.55233144988636,-0.04414765455282926,0.0,-0.04414765455282926
0.5660000000000004,move_to_zero,-1.0499871676421264,-3.159426792218799,2.1094396245766722,-62.837344721385136,-66.23277520155978,3.395430480174639,61.75304534828699,64.58724041388896,-2.8341950656019748,33.016426629078495,39.575111642168785,-6.55868501309029,-0.04422694405335923,0.0,-0.04422694405335923
0.5680000000000004,move_to_zero,-1.046343253034393,-3.155026476352199,2.108683223317806,-62.75059252559746,-66.1405289965437,3.389936470946232,61.65856330145127,64.49728604005348,-2.8387227386022147,32.95493764248336,39.51999310227719,-6.565055459793832,-0.04431105211632886,0.0,-0.04431105211632886
0.5700000000000004,move_to_zero,-1.0427230892171766,-3.1506261604855985,2.1079030712684217,-62.663848986757635,-66.04828279152757,3.384433804769934,61.56393693372601,64.40733166621797,-2.8433947324919586,32.89342170583298,39.46487456238559,-6.571452856552611,-0.04439942932710475,0.0,-0.04439942932710475
0.5720000000000004,move_to_zero,-1.0391076151931005,-3.1462258446189995,2.107118229425899,-62.577095222056904,-65.95603658651149,3.378941364454583,61.46917739421868,64.31737729238247,-2.8481998981637915,32.83187821802189,39.409756022493994,-6.577877804472102,-0.044488414192347364,0.0,-0.044488414192347364
0.5740000000000004,move_to_zero,-1.0354941689486332,-3.141825528752399,2.106331359803766,-62.49029704377975,-65.86379038149538,3.3734933377156295,61.37428363865621,64.22742291854698,-2.853139279890769,32.770306580950134,39.354637482602385,-6.584330901652251,-0.044578424551644805,0.0,-0.044578424551644805
0.5760000000000004,move_to_zero,-1.0318683769719545,-3.137425212885799,2.105556835913845,-62.403460638809285,-65.7715441764793,3.3680835376700102,61.279265173854675,64.13746854471148,-2.858203370856806,32.70871092130671,39.29951894271079,-6.590808021404079,-0.04466787727557548,0.0,-0.04466787727557548
0.5780000000000004,move_to_zero,-1.0282288888423095,-3.1330248970191987,2.1047960081768893,-62.316563366022734,-65.67929797146319,3.362734605440451,61.18411176733312,64.04751417087597,-2.8634024035428496,32.64709211826911,39.24440040281919,-6.597308284550081,-0.04475963212522911,0.0,-0.04475963212522911
0.5800000000000004,move_to_zero,-1.0245823876493476,-3.1286245811525992,2.1040421935032514,-62.22957980592371,-65.58705176644709,3.3574719605233767,61.08880019913018,63.95755979704048,-2.868759597910298,32.585461238289234,39.189281862927594,-6.6038206246383595,-0.04485255033327773,0.0,-0.04485255033327773
0.5820000000000004,move_to_zero,-1.020939085844925,-3.1242242652859984,2.103285179441073,-62.14251210524028,-65.49480556143098,3.3522934561907007,60.9933634201643,63.867605423204964,-2.8742420030406635,32.52380266135316,39.134163323035985,-6.610360661682826,-0.04494641344551485,0.0,-0.04494641344551485
0.5840000000000004,move_to_zero,-1.017310255492261,-3.119823949419399,2.102513693927138,-62.05533756398913,-65.40255935641488,3.3472217924257563,60.89782468027001,63.777651049369474,-2.8798263690994617,32.462103603098356,39.0790447831444,-6.616941180046041,-0.045042588746489,0.0,-0.045042588746489
0.5860000000000004,move_to_zero,-1.0136777249457847,-3.1154236335527985,2.101745908607014,-61.96803954749607,-65.31031315139877,3.3422736039027043,60.802200615383335,63.68769667553397,-2.8854960601506363,32.40035046523073,39.02392624325278,-6.623575778022051,-0.04513966094076142,0.0,-0.04513966094076142
0.5880000000000004,move_to_zero,-1.0100586641008193,-3.1110233176861994,2.10096465358538,-61.88059937718924,-65.21806694638268,3.3374675691934357,60.706481978855756,63.597742301698474,-2.8912603228427187,32.338579987664566,38.96880770336119,-6.630227715696627,-0.04523609359789903,0.0,-0.04523609359789903
0.5900000000000004,move_to_zero,-1.0064394582896126,-3.1066230018195986,2.100183543529986,-61.792989703993065,-65.12582074136658,3.3328310373735164,60.610677117341595,63.50778792786297,-2.897110810521376,32.276773127561704,38.913689163469584,-6.6369160359078805,-0.04533018534852314,0.0,-0.04533018534852314
0.5920000000000004,move_to_zero,-1.002824752369801,-3.102222685952999,2.099397933583198,-61.70522205999028,-65.03357453635049,3.328352476360209,60.51480370113412,63.41783355402748,-2.9030298528933614,32.214933036696884,38.858570623578,-6.643637586881113,-0.045422890616196095,0.0,-0.045422890616196095
0.5940000000000004,move_to_zero,-0.9992226999178545,-3.0978223700863987,2.0985996701685443,-61.617293150216305,-64.94132833133438,3.32403518111807,60.41886548627048,63.32787918019197,-2.9090136939214943,32.15307883857964,38.80345208368639,-6.650373245106749,-0.04551213326408931,0.0,-0.04551213326408931
0.5960000000000004,move_to_zero,-0.9956253696951015,-3.093422054219799,2.0977966845246976,-61.529193409704796,-64.84908212631828,3.319888716613484,60.32287020724352,63.23792480635648,-2.9150545991129633,32.09122666987111,38.74833354379479,-6.657106873923681,-0.045598251587592654,0.0,-0.045598251587592654
0.5980000000000004,move_to_zero,-0.9920181982202577,-3.0890217383531984,2.0970035401329405,-61.4409380624606,-64.75683592130217,3.3158978588415664,60.22679621050718,63.147970432520964,-2.921174222013782,32.02939510284036,38.693215003903184,-6.663819901062823,-0.04568179870753761,0.0,-0.04568179870753761
0.6000000000000004,move_to_zero,-0.9884191581564501,-3.0846214224865993,2.0962022643301492,-61.35254746390126,-64.66458971628607,3.3120422523848134,60.13063739997624,63.05801605868548,-2.9273786587092445,31.967580019820968,38.63809646401159,-6.670516444190621,-0.045761520941352496,0.0,-0.045761520941352496
0.6020000000000004,move_to_zero,-0.9848163746627195,-3.0802211066199985,2.095404731957279,-61.264040816798335,-64.57234351126998,3.3083026944716423,60.03438846562513,62.968061684849964,-2.9336732192248363,31.905793184646992,38.58297792411999,-6.677184739472995,-0.045837143066725476,0.0,-0.045837143066725476
0.6040000000000004,move_to_zero,-0.981183946991897,-3.075820790753399,2.094636843761502,-61.175434872674074,-64.4800973062539,3.3046624335798214,59.93806122079149,62.878107311014475,-2.9400460902229852,31.844037281511415,38.52785938422839,-6.683822102716977,-0.04590616631604879,0.0,-0.04590616631604879
0.6060000000000004,move_to_zero,-0.9775090644864416,-3.0714204748867986,2.093911410400357,-61.08674579052017,-64.38785110123777,3.3011053107176025,59.841679102289476,62.78815293717897,-2.9464738348894954,31.78229949422028,38.47274084433679,-6.690441350116512,-0.04596944872868865,0.0,-0.04596944872868865
0.6080000000000004,move_to_zero,-0.9737896253577614,-3.067020159020199,2.093230533662438,-60.99798011034895,-64.29560489622169,3.297624785872742,59.745276592206885,62.698198563343475,-2.9529219711365897,31.720583465300653,38.417622304445196,-6.697038839144543,-0.046028432291198886,0.0,-0.046028432291198886
0.6100000000000004,move_to_zero,-0.9700447607072802,-3.0626198431535987,2.0925750824463183,-60.909128981198464,-64.20335869120557,3.2942297100071016,59.648873541332776,62.60824418950797,-2.959370648175195,31.658879290817634,38.36250376455359,-6.703624473735953,-0.046084000564440286,0.0,-0.046084000564440286
0.6120000000000004,move_to_zero,-0.9662770997937048,-3.0582195272869988,2.091942427493294,-60.82021187597023,-64.11111248618948,3.2909006102192535,59.55248562482619,62.51828981567248,-2.965804190846292,31.597156825738548,38.30738522466199,-6.710228398923444,-0.0461365673524735,0.0,-0.0461365673524735
0.6140000000000004,move_to_zero,-0.9624935921386985,-3.0538192114203984,2.0913256192817,-60.731228828165875,-64.01886628117337,3.2876374530074983,59.45610122758639,62.42833544183697,-2.9722342142505838,31.535428712725427,38.25226668477038,-6.7168379720449565,-0.046186082562582734,0.0,-0.046186082562582734
0.6160000000000004,move_to_zero,-0.958716089489041,-3.0494188955537993,2.0907028060647583,-60.64220250568649,-63.926620076157285,3.2844175704707936,59.35973261496243,62.33838106800148,-2.9786484530390496,31.473682741409508,38.197148144878796,-6.723465403469287,-0.046232145333643074,0.0,-0.046232145333643074
0.6180000000000004,move_to_zero,-0.954933232736095,-3.045018579687199,2.090085346951104,-60.55311680289204,-63.83437387114118,3.2812570682491398,59.2633794715087,62.248426694165964,-2.985047222657265,31.411905432999195,38.14202960498719,-6.730124171987992,-0.046272970742908884,0.0,-0.046272970742908884
0.6200000000000004,move_to_zero,-0.9511331761368991,-3.040618263820599,2.0894850876837,-60.46398077411204,-63.742127666125086,3.278146892013048,59.16706051857934,62.15847232033048,-2.9914118017511413,31.350112730929027,38.08691106509559,-6.736798334166565,-0.04630767399352702,0.0,-0.04630767399352702
0.6220000000000004,move_to_zero,-0.9473148927964029,-3.0362179479539986,2.0889030551575956,-60.374799107670135,-63.649881461108976,3.2750823534388402,59.07078115426008,62.068517946494964,-2.997736792234882,31.288323144382435,38.03179252520398,-6.743469380821548,-0.04633753367589989,0.0,-0.04633753367589989
0.6240000000000004,move_to_zero,-0.9434847139450092,-3.031817632087399,2.08833291814239,-60.28556561229881,-63.55763525609289,3.272069643794076,58.97454258918482,61.978563572659475,-3.0040209834746534,31.22653583436396,37.97667398531239,-6.750138150948427,-0.04635964896495111,0.0,-0.04635964896495111
0.6260000000000004,move_to_zero,-0.9396648668599895,-3.0274173162207987,2.087752449360809,-60.19629838728083,-63.46538905107678,3.26909066379595,58.878343332156064,61.888609198823964,-3.0102658666679005,31.164787398355006,37.921555445420786,-6.75676804706578,-0.046374662716020615,0.0,-0.046374662716020615
0.6280000000000004,move_to_zero,-0.9358730031249294,-3.0230170003541987,2.087143997229269,-60.10700195147167,-63.37314284606068,3.2661408945890074,58.78219289983765,61.798654824988475,-3.0164619251508213,31.103106117997438,37.86643690552919,-6.763330787531753,-0.04638456790581252,0.0,-0.04638456790581252
0.6300000000000004,move_to_zero,-0.9321082434909996,-3.0186166844875983,2.0865084409965986,-60.01769782501868,-63.28089664104458,3.2631988160258985,58.68609565829331,61.70870045115297,-3.02260479285966,31.04148875485486,37.81131836563759,-6.769829610782729,-0.04639351985809958,0.0,-0.04639351985809958
0.6320000000000005,move_to_zero,-0.9283664148221221,-3.0142163686209993,2.0858499537988773,-59.9283975152594,-63.18865043602848,3.2602529207690836,58.59003669347819,61.618746077317475,-3.028709383839285,30.97995959789725,37.756199825745995,-6.776240227848746,-0.04640075483480695,0.0,-0.04640075483480695
0.6340000000000005,move_to_zero,-0.9246317147467158,-3.009816052754399,2.085184338007683,-59.839115828204534,-63.09640423101237,3.2572884028078377,58.49402997624176,61.52879170348197,-3.034761727240209,30.918513584087737,37.701081285854386,-6.782567701766649,-0.04640617852415588,0.0,-0.04640617852415588
0.6360000000000005,move_to_zero,-0.9209082714240701,-3.005415736887799,2.084507465463729,-59.749843707624784,-63.00415802599628,3.254314318371499,58.398077605553574,61.43883732964648,-3.040759724092908,30.85714716989287,37.64596274596279,-6.788815576069922,-0.04641005239869508,0.0,-0.04641005239869508
0.6380000000000005,move_to_zero,-0.917212143835294,-3.0010154210211986,2.0838032771859045,-59.66059398089804,-62.91191182098017,3.2513178400821303,58.30218195966645,61.348882955810964,-3.0467009961445157,30.79585136726027,37.59084420607118,-6.794992838810913,-0.04641233503432445,0.0,-0.04641233503432445
0.6400000000000005,move_to_zero,-0.9135194781304953,-2.996615105154599,2.083095627024104,-59.57135505843318,-62.81966561596408,3.2483105575308997,58.20634808151689,61.25892858197548,-3.052580500458589,30.734624223607955,37.535725666179594,-6.801101442571639,-0.046409394362165075,0.0,-0.046409394362165075
0.6420000000000005,move_to_zero,-0.9098358315463437,-2.9922147892879987,2.082378957741655,-59.48212999206817,-62.727419410947974,3.245289418879807,58.110578935937966,61.168974208139964,-3.0583952722019987,30.67348649083943,37.480607126287985,-6.807120635448555,-0.046401857805940624,0.0,-0.046401857805940624
0.6440000000000005,move_to_zero,-0.9061773678674473,-2.987814473421399,2.081637105553952,-59.39291457782693,-62.63517320593189,3.2422586281049632,58.01485993941464,61.079019834304475,-3.0641598948898334,30.612465019803533,37.42548858639639,-6.813023566592857,-0.0463907507070755,0.0,-0.0463907507070755
0.6460000000000005,move_to_zero,-0.9025351237091932,-2.9834141575547983,2.080879033845605,-59.3036963977412,-62.54292700091577,3.239230603174569,57.91917678838496,60.989065460468964,-3.069888672084005,30.551552250394497,37.37037004650478,-6.8188177961102845,-0.04637856272468806,0.0,-0.04637856272468806
0.6480000000000005,move_to_zero,-0.8989143284959716,-2.9790138416881993,2.0800995131922275,-59.21448602997705,-62.450680795899686,3.236194765922633,57.82352338417455,60.899111086633475,-3.0755877024589253,30.490740281240125,37.31525150661319,-6.824511225373062,-0.04636624212077941,0.0,-0.04636624212077941
0.6500000000000005,move_to_zero,-0.8952980976440565,-2.9746135258215984,2.0793154281775417,-59.12531588717604,-62.35843459088357,3.2331187037075253,57.72790317708824,60.80915671279797,-3.0812535357097346,30.43002091131885,37.260132966721585,-6.830112055402736,-0.046352583159654785,0.0,-0.046352583159654785
0.6520000000000005,move_to_zero,-0.8916928662079343,-2.970213209954999,2.0785203437470647,-59.036206081451695,-62.26618838586749,3.229982304415792,57.63232749109689,60.719202338962475,-3.0868748478655874,30.36939289402185,37.20501442682999,-6.83562153280814,-0.04633764805084011,0.0,-0.04633764805084011
0.6540000000000005,move_to_zero,-0.8881062085490342,-2.9658128940883985,2.0777066855393644,-58.94718230345551,-62.17394218085137,3.226759877395857,57.536806249302664,60.62924796512697,-3.0924417158243074,30.308858016950115,37.14989588693839,-6.8410378699882735,-0.04632146741180632,0.0,-0.04632146741180632
