GerardoFJ/TE3001B_TEAM_3/src/s0s1_gazebo/scripts/results/PD1/state.csv
t,phase,shoulder_pan_actual_deg,shoulder_pan_desired_deg,shoulder_pan_error_deg,shoulder_lift_actual_deg,shoulder_lift_desired_deg,shoulder_lift_error_deg,elbow_flex_actual_deg,elbow_flex_desired_deg,elbow_flex_error_deg,wrist_flex_actual_deg,wrist_flex_desired_deg,wrist_flex_error_deg,wrist_roll_actual_deg,wrist_roll_desired_deg,wrist_roll_error_deg
0.002,move_to_zero,-4.376474382407018,-4.4003158666,0.02384148419298171,-92.21682027023317,-92.2462050161,0.02938474586683526,89.9402674989065,89.9543738355,-0.014106336593499691,55.09939055982472,55.1185398916,-0.019149331775281553,0.0017248340730163765,0.0,0.0017248340730163765
0.004,move_to_zero,-4.330909248851258,-4.3959155507334,0.06500630188214185,-92.1570303665419,-92.15395881108391,-0.0030715554579927584,89.9113391449888,89.86441946166448,0.04691968332431884,55.061239154007296,55.0634213517084,-0.0021821977011029503,0.00446245053350109,0.0,0.00446245053350109
0.006,move_to_zero,-4.265879797707559,-4.3915152348668,0.1256354371592412,-92.06898220419802,-92.0617126060678,-0.007269598130221766,89.86832526897898,89.77446508782899,0.09386018114999217,55.00511720019171,55.008302811816804,-0.003185611625092122,0.0075307223824093664,0.0,0.0075307223824093664
0.008,move_to_zero,-4.183463475441107,-4.3871149190002,0.20365144355909326,-91.95472707743004,-91.9694664010517,0.014739323621668632,89.81192365379835,89.68451071399349,0.1274129398048558,54.93201028016466,54.953184271925196,-0.02117399176053425,0.010387988153810045,0.0,0.010387988153810045
0.01,move_to_zero,-4.085548453269227,-4.382714603133599,0.2971661498643723,-91.8162092799783,-91.8772201960356,0.061010916057298914,89.74280103187843,89.594556340158,0.14824469172043564,54.84287641478786,54.8980657320336,-0.055189317245741165,0.012706991800021774,0.0,0.012706991800021774
0.012,move_to_zero,-3.9738683826159567,-4.378314287266999,0.40444590465104246,-91.65523911274909,-91.7849739910195,0.12973487827041197,89.66159291652356,89.50460196632248,0.15699095020107734,54.738644454955974,54.842947192142,-0.10430273718602479,0.01456229614463365,0.0,0.01456229614463365
0.014,move_to_zero,-3.8499912235072653,-4.373913971400399,0.5239227478931339,-91.47351725923532,-91.69272778600339,0.21921052676806596,89.5689198929699,89.41464759248699,0.15427230048291563,54.62018364392993,54.787828652250404,-0.16764500832047702,0.016020742959697243,0.0,0.016020742959697243
0.016,move_to_zero,-3.7153638671471128,-4.369513655533799,0.6541497883866865,-91.27261675052718,-91.6004815809873,0.32786483046012904,89.46535843116797,89.32469321865149,0.14066521251648112,54.48833342322471,54.7327101123588,-0.24437668913409283,0.017140852344114398,0.0,0.017140852344114398
0.018000000000000002,move_to_zero,-3.571282179293603,-4.3651133396672,0.793831160373597,-91.0540285308449,-91.5082353759712,0.4542068451262935,89.35146904117565,89.234738844816,0.11673019635965431,54.34388089593531,54.6775915724672,-0.33371067653189357,0.01784451414790996,0.0,0.01784451414790996
0.020000000000000004,move_to_zero,-3.4189498370201092,-4.3607130238006,0.941763186780491,-90.81917100253915,-91.4159891709551,0.5968181684159504,89.22781431699653,89.1447844709805,0.08302984601603214,54.187594778531036,54.6224730325756,-0.4348782540445626,0.018091096680806707,0.0,0.018091096680806707
0.022000000000000006,move_to_zero,-3.2594824273963496,-4.356312707934,1.0968302805376506,-90.5693739086661,-91.323742965939,0.7543690572729105,89.09491324355507,89.05483009714499,0.04008314641008326,54.02017729244265,54.567354492684,-0.5471772002413431,0.017920582078651087,0.0,0.017920582078651087
0.024000000000000007,move_to_zero,-3.0938743923324106,-4.351912392067399,1.2580379997349889,-90.3059103513282,-91.2314967609229,0.9255864095947004,88.9532704413244,88.96487572330949,-0.011605281985083593,53.842315611225494,54.5122359527924,-0.6699203415669075,0.01739213398707627,0.0,0.01739213398707627
0.02600000000000001,move_to_zero,-2.9230501644640268,-4.3475120762007995,1.4244619117367727,-90.0299407769999,-91.1392505559068,1.1093097789069049,88.80338823047414,88.874921349474,-0.07153311899985226,53.65464662579134,54.4571174129008,-0.8024707871094634,0.016624407286246413,0.0,0.016624407286246413
0.02800000000000001,move_to_zero,-2.7478281817903984,-4.3431117603341995,1.595283578543801,-89.74258022709868,-91.0470043508907,1.3044241237920176,88.64573796043797,88.78496697563848,-0.13922901520051312,53.45778809302974,54.401998873009205,-0.9442107799794641,0.015742586623933248,0.0,0.015742586623933248
0.030000000000000013,move_to_zero,-2.5689910952574286,-4.3387114444676,1.769720349210171,-89.44487040598163,-90.9547581458746,1.5098877398929744,88.48076991661661,88.695012601803,-0.21424268518639167,53.25233979299224,54.3468803331176,-1.0945405401253652,0.014867586567410067,0.0,0.014867586567410067
0.032000000000000015,move_to_zero,-2.3872241614596055,-4.334311128601,1.9470869671413942,-89.1377954329619,-90.8625119408585,1.724716507896602,88.30893700274216,88.60505822796749,-0.2961212252253347,53.038853147671404,54.291761793225994,-1.2529086455545908,0.014087489515861938,0.0,0.014087489515861938
0.034000000000000016,move_to_zero,-2.2031540892546544,-4.3299108127344,2.1267567234797453,-88.82229560041324,-90.7702657358424,1.9479701354291592,88.13063677699509,88.51510385413198,-0.38446707713688966,52.81785092926409,54.2366432533344,-1.41879232407031,0.013420655066715005,0.0,0.013420655066715005
0.03600000000000002,move_to_zero,-2.017321734487022,-4.3255104968678,2.308188762380778,-88.4992418410842,-90.67801953082629,2.178777689742091,87.94626797690728,88.4251494802965,-0.47888150338921776,52.589836471878776,54.1815247134428,-1.5916882415640217,0.012849661239624229,0.0,0.012849661239624229
0.03800000000000002,move_to_zero,-1.8302520753103009,-4.3211101810012,2.490858105690899,-88.16942901597561,-90.5857733258102,2.416344309834585,87.75622750619118,88.33519510646099,-0.5789676002698059,52.35526799316235,54.1264061735512,-1.7711381803888528,0.012358483211744509,0.0,0.012358483211744509
0.04000000000000002,move_to_zero,-1.6424314693797195,-4.316709865134599,2.6742783957548797,-87.83360802821487,-90.4935271207941,2.65991909257923,87.56087785386477,88.24524073262549,-0.684362878760723,52.11461287514747,54.0712876336596,-1.9566747585121291,0.011933746206988487,0.0,0.011933746206988487
0.04200000000000002,move_to_zero,-1.4542917254578294,-4.312309549267999,2.8580178238101697,-87.49248599193861,-90.401280915778,2.9087949238393946,87.36055492870112,88.15528635879,-0.7947314300888735,51.868284269393534,54.016169093768006,-2.147884824374472,0.011564200046718934,0.0,0.011564200046718934
0.044000000000000025,move_to_zero,-1.2662008002490341,-4.307909233401399,3.041708433152365,-87.14675122035156,-90.3090347107619,3.1622834904103456,87.15561732451033,88.06533198495448,-0.909714660444152,51.616677619106305,53.9610505538764,-2.3443729347700923,0.011240814844464394,0.0,0.011240814844464394
0.04600000000000003,move_to_zero,-1.0785233151743476,-4.3035089175348,3.2249856023604524,-86.79700455826465,-90.2167885057458,3.41978394748115,86.94641385717084,87.97537761111899,-1.0289637539481475,51.36017898824568,53.905932013984796,-2.545753025739117,0.010954147320572982,0.0,0.010954147320572982
0.04800000000000003,move_to_zero,-0.8915777798105982,-4.2991086016682,3.407530821857602,-86.44380812111747,-90.1245423007297,3.68073417961223,86.73325409916511,87.88542323728349,-1.1521691381183814,51.0991570521914,53.8508134740932,-2.7516564219017994,0.01069540430864343,0.0,0.01069540430864343
0.05000000000000003,move_to_zero,-0.7056529891793275,-4.2947082858016,3.5890552966222726,-86.08768560626773,-90.03229609571359,3.9446104894458642,86.51643893788491,87.795468863448,-1.27902992556308,50.83397695819533,53.7956949342016,-2.9617179760062697,0.010458494981513222,0.0,0.010458494981513222
0.05200000000000003,move_to_zero,-0.5209925276774751,-4.290307969935,3.769315442257525,-85.7291520995413,-89.9400498906975,4.210897791156199,86.29626176561621,87.70551448961248,-1.4092527239962749,50.5649654190292,53.740576394310004,-3.1756109752808044,0.010237804923185313,0.0,0.010237804923185313
0.054000000000000034,move_to_zero,-0.33781940680314326,-4.285907654068399,3.948088247265256,-85.36865485462373,-89.8478036856814,4.479148831057671,86.0729934994162,87.61556011577699,-1.5425666163607872,50.29242217612573,53.6854578544184,-3.3930356782926694,0.010029653303910426,0.0,0.010029653303910426
0.056000000000000036,move_to_zero,-0.16949810256974726,-4.281507338201799,4.112009235632052,-85.00663446423299,-89.7555574806653,4.748923016432315,85.84688880088166,87.52560574194149,-1.6787169410598324,50.016611139457474,53.6303393145268,-3.613728175069326,0.009829862044716309,0.0,0.009829862044716309
0.05800000000000004,move_to_zero,-0.03336438766429678,-4.2771070223351995,4.243742634670903,-84.64350862279409,-89.66331127564919,5.019802652855105,85.61820390206415,87.43565136810598,-1.817447466041827,49.73780012706432,53.5752207746352,-3.8374206475708803,0.009633104331524582,0.0,0.009633104331524582
0.06000000000000004,move_to_zero,0.06279975064275144,-4.2727067064685995,4.335506457111351,-84.27963649130884,-89.5710650706331,5.291428579324261,85.3871765329425,87.3456969942705,-1.9585204613279927,49.45626620386393,53.5201022347436,-4.0638360308796635,0.009436508585623319,0.0,0.009436508585623319
0.06200000000000004,move_to_zero,0.11794056899690268,-4.268306390602,4.386246959598902,-83.91536402268618,-89.478818865617,5.563454842930824,85.15404179086853,87.25574262043499,-2.101700829566454,49.17227064208685,53.464983694852,-4.292713052765151,0.009238745765710472,0.0,0.009238745765710472
0.06400000000000004,move_to_zero,0.13614513018187308,-4.2639060747354,4.400051204917273,-83.55101710047829,-89.38657266060089,5.8355555601226,84.9190244888134,87.16578824659948,-2.24676375778607,48.886045381860555,53.4098651549604,-4.523819773099845,0.009040881329872604,0.0,0.009040881329872604
0.06600000000000004,move_to_zero,0.12505625533648493,-4.2595057588688,4.384562014205285,-83.1868991358575,-89.29432645558481,6.107427319727307,84.68235525940955,87.075833872764,-2.3934786133544463,48.59784381478816,53.354746615068805,-4.756902800280642,0.008844165383805443,0.0,0.008844165383805443
0.06800000000000005,move_to_zero,0.09411602934555847,-4.2551054430022,4.349221472347758,-82.8233178013061,-89.2020802505687,6.378762449262595,84.44425759872384,86.98587949892848,-2.541621900204646,48.30790142016413,53.299628075177196,-4.991726655013068,0.008649722074428842,0.0,0.008649722074428842
0.07000000000000005,move_to_zero,0.0527158225975119,-4.250705127135599,4.303420949733111,-82.46055373544513,-89.1098340455526,6.649280310107471,84.20491202987499,86.89592512509299,-2.691013095217997,48.01644746760262,53.2445095352856,-5.228062067682984,0.008455459412006712,0.0,0.008455459412006712
0.07200000000000005,move_to_zero,0.009009057662695675,-4.246304811268999,4.255313868931695,-82.09887228958864,-89.01758784053649,6.9187155509478515,83.96448598311173,86.80597075125749,-2.8414847681457616,47.72368990155345,53.189390995394,-5.465701093840551,0.008261218129361583,0.0,0.008261218129361583
0.07400000000000005,move_to_zero,-0.030788232196869145,-4.241904495402399,4.21111626320553,-81.73850650930063,-88.9253416355204,7.186835126219762,83.7231453707247,86.71601637742198,-2.9928710066972855,47.42981693119617,53.1342724555024,-5.704455524306226,0.008065040768402337,0.0,0.008065040768402337
0.07600000000000005,move_to_zero,-0.06263989355469561,-4.2375041795358,4.174864285981104,-81.37966010405333,-88.83309543050429,7.453435326450958,83.48107117495793,86.62606200358648,-3.1449908286285506,47.134990851070576,53.0791539156108,-5.944163064540227,0.007865618725538917,0.0,0.007865618725538917
0.07800000000000006,move_to_zero,-0.085378309564791,-4.2331038636692,4.147725554104409,-81.02251444075195,-88.74084922548819,7.718334784736243,83.2384177055535,86.53610762975099,-3.297689924197485,46.83938448525138,53.0240353757192,-6.184650890467822,0.0076631444980295215,0.0,0.0076631444980295215
0.08000000000000006,move_to_zero,-0.09857106716953473,-4.2287035478026,4.1301324806330655,-80.66722583804686,-88.6486030204721,7.981377182425234,82.99533971627896,86.44615325591549,-3.4508135396365276,46.54315417861442,52.9689168358276,-6.425762657213177,0.007449638203693439,0.0,0.007449638203693439
0.08200000000000006,move_to_zero,-0.10308151464769326,-4.224303231936,4.121221717288307,-80.31395050909303,-88.556356815456,8.242406306362966,82.75198689816239,86.35619888207998,-3.604211983917594,46.246442644181755,52.913798295936,-6.667355651754242,0.007233399336713121,0.0,0.007233399336713121
0.08400000000000006,move_to_zero,-0.10067938100764132,-4.219902916069399,4.119223535061758,-79.96283606042667,-88.4641106104399,8.501274550013235,82.5084783102794,86.26624450824448,-3.7577661979650827,45.94934111370105,52.858679756044396,-6.909338642343343,0.006995094281896741,0.0,0.006995094281896741
0.08600000000000006,move_to_zero,-0.09349633666868166,-4.215502600202799,4.122006263534118,-79.614025891078,-88.37186440542379,8.757838514345792,82.26493633395236,86.17629013440899,-3.9113538004566237,45.65200137811879,52.8035612161528,-7.151559838034011,0.0067321913530135145,0.0,0.0067321913530135145
0.08800000000000006,move_to_zero,-0.08369166101406784,-4.211102284336199,4.127410623322132,-79.26763406598397,-88.2796182004077,9.011984134423727,82.02149813076853,86.08633576057349,-4.0648376298049556,45.35455590315885,52.7484426762612,-7.393886773102352,0.006446966982817338,0.0,0.006446966982817338
0.09000000000000007,move_to_zero,-0.07316244898066235,-4.206701968469599,4.133539519488937,-78.9237734571387,-88.18737199539159,9.263598538252893,81.77829980108328,85.996381386738,-4.218081585654716,45.05710229069824,52.693324136369604,-7.636221845671365,0.006139147916206967,0.0,0.006139147916206967
0.09200000000000007,move_to_zero,-0.06340915488681917,-4.2023016526029995,4.1388924977161805,-78.58251158647734,-88.0951257903755,9.512614203898167,81.53547178420519,85.90642701290248,-4.370955228697298,44.759744261849285,52.638205596477995,-7.87846133462871,0.005826553404481535,0.0,0.005826553404481535
0.09400000000000007,move_to_zero,-0.05544598363456558,-4.1979013367363995,4.142455353101834,-78.2439278866868,-88.0028795853594,9.75895169867259,81.29311998721964,85.81647263906699,-4.523352651847347,44.46259020055193,52.5830870565864,-8.120496856034471,0.005495221641421582,0.0,0.005495221641421582
0.09600000000000007,move_to_zero,-0.04911779937140602,-4.1935010208698,4.144383221498393,-77.90808015750477,-87.9106333803433,10.002553222838529,81.05134936434467,85.72651826523149,-4.675168900886817,44.165741164426876,52.5279685166948,-8.362227352267922,0.005180316171274491,0.0,0.005180316171274491
0.09800000000000007,move_to_zero,-0.04463559641459976,-4.1891007050032,4.1444651085886,-77.57506336660734,-87.81838717532719,10.24332380871985,80.81027656361493,85.63656389139598,-4.826287327781046,43.869306665497845,52.4728499768032,-8.603543311305351,0.0048849918705927324,0.0,0.0048849918705927324
0.10000000000000007,move_to_zero,-0.04202019671134731,-4.184700389136599,4.142680192425251,-77.24493040474736,-87.72614097031109,10.481210565563728,80.56998779651691,85.5466095175605,-4.9766217210435855,43.573373063160936,52.4177314369116,-8.844358373750666,0.004605376349100167,0.0,0.004605376349100167
0.10200000000000008,move_to_zero,-0.041045477126110064,-4.180300073269999,4.139254596143889,-76.9177303962338,-87.633894765295,10.716164369061204,80.33056098095291,85.45665514372499,-5.126094162772077,43.278015596855816,52.36261289702,-9.084597300164184,0.004340623524598085,0.0,0.004340623524598085
0.10400000000000008,move_to_zero,-0.041346926875130335,-4.1758997574034,4.1345528305282695,-76.59350916990392,-87.5416485602789,10.948139390374976,80.09206264787032,85.36670076988948,-5.274638122019155,42.98331422256305,52.3074943571284,-9.324180134565346,0.004088723275734106,0.0,0.004088723275734106
0.10600000000000008,move_to_zero,-0.042502199301729375,-4.1714994415368,4.12899724223507,-76.27230468336617,-87.4494023552628,11.177097671896632,79.85457157882311,85.276746396054,-5.422174817230882,42.689319824425695,52.252375817236796,-9.563055992811101,0.0038461779743482055,0.0,0.0038461779743482055
0.10800000000000008,move_to_zero,-0.044079972926384776,-4.1670991256702,4.123019152743815,-75.95415788146671,-87.3571561502467,11.402998268779982,79.61816532458761,85.18679202221848,-5.568626697630876,42.39612715288761,52.1972572773452,-9.801130124457593,0.0036099692433196546,0.0,0.0036099692433196546
0.11000000000000008,move_to_zero,-0.04572219247167119,-4.1626988098036,4.116976617331929,-75.6390898127119,-87.2649099452306,11.625820132518697,79.3828970197263,85.09683764838299,-5.713940628656687,42.103809928697586,52.1421387374536,-10.038328808756013,0.00338123396881932,0.0,0.00338123396881932
0.11200000000000009,move_to_zero,-0.047164938549601305,-4.158298493937,4.111133555387399,-75.32713210985733,-87.17266374021449,11.845531630357158,79.14883507917195,85.00688327454749,-5.858048195375545,41.81241040272829,52.087020197562,-10.274609794833708,0.003155878307559868,0.0,0.003155878307559868
0.11400000000000009,move_to_zero,-0.048337823564359214,-4.153898178070399,4.10556035450604,-75.0182815146544,-87.0804175351984,12.062136020543988,78.91605447160809,84.91692890071198,-6.000874429103888,41.52198897997007,52.031901657670396,-10.509912677700328,0.0029331811419906835,0.0,0.0029331811419906835
0.11600000000000009,move_to_zero,-0.04928299148772558,-4.149497862203799,4.100214870716074,-74.71255197589934,-86.9881713301823,12.275619354282952,78.68459138115335,84.82697452687648,-6.14238314572313,41.23260181772076,51.976783117778794,-10.744181300058031,0.0027139529647639766,0.0,0.0027139529647639766
0.11800000000000009,move_to_zero,-0.0500367323382473,-4.145097546337199,4.095060813998952,-74.4099574899286,-86.8959251251662,12.4859676352376,78.45448968394805,84.73702015304099,-6.282530469092933,40.94430437562627,51.9216645778872,-10.977360202260932,0.002496152497985586,0.0,0.002496152497985586
0.12000000000000009,move_to_zero,-0.05062828984786162,-4.140697230470599,4.0900689406227375,-74.11049977620887,-86.80367892015009,12.693179143941222,78.22579505567315,84.64706577920549,-6.421270723532345,40.65714640537103,51.8665460379956,-11.209399632624567,0.002278335099756903,0.0,0.002278335099756903
0.1220000000000001,move_to_zero,-0.051080715163986275,-4.136296914603999,4.085216199440013,-73.81416344177448,-86.711432715134,12.897269273359512,77.99855146901302,84.55711140536998,-6.558559936356957,40.371145155357986,51.811427498104,-11.440282342746016,0.002060092667405504,0.0,0.002060092667405504
0.1240000000000001,move_to_zero,-0.05141700289364871,-4.1318965987373995,4.080479595843751,-73.52092806346027,-86.6191865101179,13.098258446657624,77.77280579001811,84.46715703153448,-6.694351241516372,40.08633905264988,51.7563089582124,-11.669969905562517,0.001812866575916868,0.0,0.001812866575916868
0.12600000000000008,move_to_zero,-0.05165419914834345,-4.1274962828707995,4.075842083722456,-73.23077606556386,-86.52694030510179,13.29616423953793,77.54862039812458,84.37720265769899,-6.828582259574404,39.80276799568441,51.70119041832079,-11.89842242263638,0.0015259991509972977,0.0,0.0015259991509972977
0.12800000000000009,move_to_zero,-0.051747517486460406,-4.1230959670042,4.071348449517739,-72.94369523277481,-86.4346941000857,13.490998867310878,77.3260117325477,84.28724828386348,-6.961236551315778,39.52047078032508,51.6460718784292,-12.12560109810412,0.0011914406325051192,0.0,0.0011914406325051192
0.1300000000000001,move_to_zero,-0.051666556212080585,-4.118695651137599,4.067029094925518,-72.65965356706307,-86.3424478950696,13.682794328006523,77.10500068182267,84.197293910028,-7.092293228205321,39.23948820436152,51.590953338537595,-12.351465134176074,0.0008257003707786763,0.0,0.0008257003707786763
0.1320000000000001,move_to_zero,-0.05143064092958339,-4.114295335270999,4.062864694341416,-72.37865089414528,-86.2502016900535,13.87155079590822,76.8855961633075,84.10733953619248,-7.221743372884987,38.959863760919305,51.535834798646,-12.575971037726696,0.0004443573141533821,0.0,0.0004443573141533821
0.1340000000000001,move_to_zero,-0.05105455249535016,-4.1098950194044,4.058840466909049,-72.10069017980841,-86.15795548503739,14.05726530522898,76.66781448259121,84.01738516235697,-7.349570679765762,38.68162769162306,51.4807162587544,-12.799088567131335,7.027365000176077e-05,0.0,7.027365000176077e-05
0.1360000000000001,move_to_zero,-0.050566458290155526,-4.1054947035378,4.054928245247644,-71.82574197130229,-86.0657092800213,14.239967308719002,76.45166301260969,83.92743078852149,-7.475767775911805,38.40479061710612,51.425597718862804,-13.02080710175668,-0.0002741449809608922,0.0,-0.0002741449809608922
0.1380000000000001,move_to_zero,-0.050042069634012296,-4.1010943876712,4.051052318037187,-71.55376215661768,-85.97346307500518,14.419700918387505,76.2371664547359,83.83747641468598,-7.600309959950081,38.129394207049984,51.370479178971195,-13.241084971921211,-0.0005949427877083454,0.0,-0.0005949427877083454
0.1400000000000001,move_to_zero,-0.04953049736501106,-4.0966940718046,4.047163574439589,-71.28468874169782,-85.88121686998909,14.596528128291268,76.02433571124527,83.74752204085048,-7.723186329605213,37.85548082904673,51.31536063907959,-13.45987981003286,-0.0009038313417579251,0.0,-0.0009038313417579251
0.1420000000000001,move_to_zero,-0.049073654575450036,-4.092293755938,4.04322010136255,-71.01850301156436,-85.788970664973,14.77046765340863,75.81320019764318,83.65756766701499,-7.844367469371804,37.58304638843591,51.260242099188,-13.677195710752088,-0.001194506510285148,0.0,-0.001194506510285148
0.1440000000000001,move_to_zero,-0.048680642528010264,-4.087893440071399,4.039212797543389,-70.75518463549146,-85.6967244599569,14.941539824465437,75.60376733808343,83.56761329317948,-7.963845955096048,37.31210587872914,51.205123559296396,-13.893017680567255,-0.001471541985571042,0.0,-0.001471541985571042
0.1460000000000001,move_to_zero,-0.04833906880908763,-4.083493124204799,4.0351540553957115,-70.49471794225971,-85.6044782549408,15.10976031268109,75.39603294942017,83.47765891934398,-8.081625969923806,37.04267347940979,51.1500050194048,-14.107331539995009,-0.0017365314682628373,0.0,-0.0017365314682628373
0.1480000000000001,move_to_zero,-0.04803832013237206,-4.079092808338199,4.031054488205827,-70.23708041809499,-85.51223204992469,15.2751516318297,75.18999413758178,83.38770454550848,-8.197710407926706,36.774774833433945,51.0948864795132,-14.320111646079255,-0.0019930904617860056,0.0,-0.0019930904617860056
0.1500000000000001,move_to_zero,-0.04777043046689846,-4.074692492471599,4.026922062004701,-69.98223357735421,-85.4199858449086,15.437752267554387,74.98565617453829,83.29775017167299,-8.312093997134696,36.50840770371738,51.0397679396216,-14.531360235904216,-0.002242471832213558,0.0,-0.002242471832213558
0.1520000000000001,move_to_zero,-0.0475245064889219,-4.070292176604999,4.022767670116077,-69.73014394012155,-85.32773963989249,15.597595699770935,74.78301179993247,83.20779579783748,-8.42478399790501,36.24357993927765,50.984649399729996,-14.741069460452344,-0.0024866038635546687,0.0,-0.0024866038635546687
0.1540000000000001,move_to_zero,-0.04729666597244158,-4.065891860738399,4.0185951947659575,-69.48077673794738,-85.23549343487639,15.754716696929009,74.58204404688908,83.11784142400198,-8.5357973771129,35.98030995390313,50.929530859838394,-14.949220905935263,-0.002747888417430342,0.0,-0.002747888417430342
0.1560000000000001,move_to_zero,-0.047070073092363274,-4.061491544871799,4.014421471779436,-69.23408015713731,-85.1432472298603,15.90916707272298,74.38273805135906,83.02788705016648,-8.645148998807429,35.71858714010163,50.8744123199468,-15.155825179845166,-0.0030368769742758666,0.0,-0.0030368769742758666
0.1580000000000001,move_to_zero,-0.04682617892675659,-4.0570912290051995,4.010265050078443,-68.99003189076564,-85.0510010248442,16.06096913407856,74.18508902690569,82.93793267633099,-8.752843649425301,35.458425863128824,50.8192937800552,-15.360867916926374,-0.0033576927478347653,0.0,-0.0033576927478347653
0.16000000000000011,move_to_zero,-0.04657238489159939,-4.052690913138599,4.006118528246999,-68.7486129976687,-84.95875481982809,16.210141822159386,73.98907642067606,82.84797830249549,-8.858901881819435,35.19985907904884,50.7641752401636,-15.56431616111476,-0.003702200845946276,0.0,-0.003702200845946276
0.16200000000000012,move_to_zero,-0.04630233674596754,-4.048290597272,4.001988260526032,-68.50978582403006,-84.86650861481199,16.35672279078193,73.79470097906291,82.75802392865998,-8.963322949597071,34.94291512940906,50.709056700271994,-15.766141570862935,-0.004072168551538395,0.0,-0.004072168551538395
0.16400000000000012,move_to_zero,-0.04602706536600969,-4.0438902814054,3.99786321603939,-68.27353408784367,-84.7742624097959,16.500728321952224,73.60197341757127,82.66806955482448,-9.066096137253211,34.6876029349155,50.6539381603804,-15.966335225464896,-0.00446408599206071,0.0,-0.00446408599206071
0.16600000000000012,move_to_zero,-0.04574629922917631,-4.0394899655388,3.9937436663096233,-68.03979670534748,-84.68201620477979,16.6422194994323,73.41085504407174,82.57811518098899,-9.16726013691725,34.433927707854316,50.5988196204888,-16.16489191263448,-0.004873930151619552,0.0,-0.004873930151619552
0.16800000000000012,move_to_zero,-0.04547051572617237,-4.0350896496722,3.9896191339460274,-67.80853919633203,-84.5897699997637,16.78123080343167,73.2213275877585,82.48816080715348,-9.266833219394982,34.18186981086592,50.543701080597195,-16.361831269731276,-0.005257817210891566,0.0,-0.005257817210891566
0.17000000000000012,move_to_zero,-0.04519750548077568,-4.0306893338056,3.985491828324824,-67.57973484616709,-84.4975237947476,16.917788948580508,73.03336762480473,82.398206433318,-9.36483880851327,33.93141918034673,50.4885825407056,-16.55716336035887,-0.005609413892979735,0.0,-0.005609413892979735
0.17200000000000013,move_to_zero,-0.044921118424576155,-4.026289017939,3.9813678995144235,-67.35336209056302,-84.4052775897315,17.051915499168473,72.84697408696213,82.30825205948248,-9.46127797252035,33.68256908740639,50.433464000814,-16.750894913407606,-0.005932431681455821,0.0,-0.005932431681455821
0.17400000000000013,move_to_zero,-0.04463797853761642,-4.021888702072399,3.9772507235347825,-67.1293929218286,-84.31303138471539,17.18363846288679,72.66214449860134,82.21829768564697,-9.556153187045638,33.43530345280495,50.3783454609224,-16.943042008117445,-0.006233377744618515,0.0,-0.006233377744618515
0.17600000000000013,move_to_zero,-0.04435907117363417,-4.017488386205799,3.973129315032165,-66.90777954555504,-84.22078517969929,17.313005634144247,72.4788719713479,82.12834331181149,-9.649471340463592,33.18961873968815,50.323226921030795,-17.133608181342645,-0.006516831027265179,0.0,-0.006516831027265179
0.17800000000000013,move_to_zero,-0.04409064315838928,-4.013088070339199,3.9689974271808097,-66.68848637011848,-84.12853897468318,17.4400526045647,72.29714412542,82.03838893797598,-9.741244812555976,32.94551108076754,50.2681083811392,-17.322597300371662,-0.006786375822410727,0.0,-0.006786375822410727
0.18000000000000013,move_to_zero,-0.04382204244676596,-4.008687754472599,3.964865712025833,-66.47149311014797,-84.0362927696671,17.564799659519124,72.1169488152511,81.94843456414048,-9.831485748889378,32.70296826028711,50.2129898412476,-17.51002158096049,-0.007061480760720739,0.0,-0.007061480760720739
0.18200000000000013,move_to_zero,-0.04354444117866805,-4.004287438605999,3.960742997427331,-66.25676189886994,-83.944046564651,17.687284665781064,71.93827393885846,81.85848019030499,-9.92020625144653,32.46197598728353,50.157871301355996,-17.695895314072466,-0.0073561975145768265,0.0,-0.0073561975145768265
0.18400000000000014,move_to_zero,-0.04326225683483309,-3.9998871227393993,3.9566248659045664,-66.04425083848763,-83.8518003596349,17.807549521147266,71.76109602599603,81.76852581646948,-10.007429790473452,32.2225296964599,50.1027527614644,-17.8802230650045,-0.007660747048963831,0.0,-0.007660747048963831
0.18600000000000014,move_to_zero,-0.042977822544152625,-3.995486806872799,3.952508984328646,-65.83391172146757,-83.7595541546188,17.925642433151225,71.58538497496704,81.67857144263398,-10.09318646766694,31.984627716442176,50.04763422157279,-18.063006505130616,-0.007964908302526798,0.0,-0.007964908302526798
0.18800000000000014,move_to_zero,-0.04268186404932985,-3.991086491006199,3.948404626956869,-65.62571634526894,-83.66730794960269,18.041591604333746,71.41112972487437,81.58861706879848,-10.177487343924113,31.748269205229658,49.9925156816812,-18.24424647645154,-0.008258157369086555,0.0,-0.008258157369086555
0.19000000000000014,move_to_zero,-0.04239526054512357,-3.986686175139599,3.9442909145944753,-65.41962137290558,-83.57506174458659,18.15544037168101,71.23833416303657,81.49866269496299,-10.260328531926419,31.513456200641432,49.937397141789596,-18.423940941148164,-0.00853746575605381,0.0,-0.00853746575605381
0.19200000000000014,move_to_zero,-0.042098522868739476,-3.9822858592729995,3.94018733640426,-65.21558896087855,-83.48281553957048,18.267226578691933,71.0669563086844,81.40870832112748,-10.34175201244308,31.28018372078737,49.882278601897994,-18.602094881110624,-0.00882882629943958,0.0,-0.00882882629943958
0.19400000000000014,move_to_zero,-0.04180035732721949,-3.9778855434063995,3.93608518607918,-65.01356470706064,-83.3905693345544,18.37700462749376,70.89698007123022,81.31875394729198,-10.421773876061764,31.048441819671346,49.8271600620064,-18.778718242335053,-0.009105942029939817,0.0,-0.009105942029939817
0.19600000000000015,move_to_zero,-0.04150016935748276,-3.9734852275397996,3.931985058182317,-64.81351579180377,-83.29832312953829,18.484807337734523,70.72838078737726,81.22879957345648,-10.500418786079223,30.81820688932882,49.7720415221148,-18.953834632785977,-0.009371071091122158,0.0,-0.009371071091122158
0.19800000000000015,move_to_zero,-0.041194969536102806,-3.9690849116731997,3.9278899421370967,-64.61539325945428,-83.2060769245222,18.590683665067914,70.5611375663852,81.13884519962097,-10.577707633235775,30.589464523027164,49.716922982223196,-19.12745845919603,-0.00962569088573814,0.0,-0.00962569088573814
0.20000000000000015,move_to_zero,-0.04087012876469835,-3.9646845958065993,3.923814467041901,-64.41915885160782,-83.1138307195061,18.69467186789828,70.39523547955585,81.04889082578549,-10.653655346229641,30.362206318563743,49.661804442331594,-19.29959812376785,-0.009873813991389053,0.0,-0.009873813991389053
0.20200000000000015,move_to_zero,-0.0405242565497571,-3.9602842799399993,3.9197600233902423,-64.22478146020258,-83.02158451448999,18.79680305428741,70.23066922222185,80.95893645194998,-10.728267229728132,30.13639175990951,49.60668590244,-19.470294142530488,-0.01012284086106642,0.0,-0.01012284086106642
0.20400000000000015,move_to_zero,-0.04017883731346541,-3.9558839640733994,3.915705126759934,-64.03226101955808,-82.92933830947389,18.897077289915813,70.06742481357527,80.86898207811447,-10.801557264539198,29.912022615375655,49.5515673625484,-19.639544747172742,-0.010369899575404571,0.0,-0.010369899575404571
0.20600000000000016,move_to_zero,-0.039838155617525274,-3.9514836482067994,3.9116454925892743,-63.84154977449282,-82.8370921044578,18.995542329964977,69.90545461169141,80.77902770427899,-10.873573092587577,29.68908518398458,49.496448822656795,-19.807363638672214,-0.010612182656090288,0.0,-0.010612182656090288
0.20800000000000016,move_to_zero,-0.03948142435086602,-3.947083332340199,3.907601907989333,-63.652600638282124,-82.7448458994417,19.092245261159576,69.7447494322295,80.68907333044348,-10.94432389821398,29.467569022839935,49.4413302827652,-19.973761259925265,-0.010849867059982846,0.0,-0.010849867059982846
0.21000000000000016,move_to_zero,-0.0391193975487729,-3.942683016473599,3.903563618924826,-63.465373268747044,-82.65259969442559,19.187226425678546,69.58532041113222,80.59911895660798,-11.013798545475765,29.24745493702091,49.38621174287359,-20.138756805852683,-0.011084461898323914,0.0,-0.011084461898323914
0.21200000000000016,move_to_zero,-0.03874188665906861,-3.938282700606999,3.8995408139479304,-63.27984050756596,-82.5603534894095,19.280512981843536,69.42717276765187,80.50916458277248,-11.081991815120617,29.028712648543816,49.331093202982,-20.30238055443818,-0.011321259020860945,0.0,-0.011321259020860945
0.21400000000000016,move_to_zero,-0.03835119398263381,-3.933882384740399,3.895531190757765,-63.0959563903325,-82.46810728439338,19.37215089406088,69.27027175091654,80.41921020893697,-11.148938458020439,28.811316076963102,49.275974663090395,-20.464658586127292,-0.011559198582347035,0.0,-0.011559198582347035
0.21600000000000016,move_to_zero,-0.03798237955959043,-3.929482068873799,3.8914996893142084,-62.91367995250759,-82.37586107937729,19.462181126869694,69.11460664859749,80.32925583510148,-11.21464918650399,28.595259264532952,49.2208561231988,-20.625596858665848,-0.011809998527011178,0.0,-0.011809998527011178
0.21800000000000017,move_to_zero,-0.037641135752325354,-3.925081753007199,3.8874406172548737,-62.73296841279409,-82.28361487436119,19.550646461567105,68.9601499605417,80.23930146126598,-11.279151500724282,28.38051662610509,49.1657375833072,-20.785220957202107,-0.012069850670577968,0.0,-0.012069850670577968
0.22000000000000017,move_to_zero,-0.03731593234771652,-3.9206814371406,3.8833655047928834,-62.55379256711978,-82.1913686693451,19.637576102225317,68.80687456159815,80.14934708743048,-11.342472525832335,28.1670776375909,49.110619043415596,-20.943541405824696,-0.012343234697130346,0.0,-0.012343234697130346
0.22200000000000017,move_to_zero,-0.03700277800591283,-3.9162811212739994,3.8792783432680866,-62.376114888174754,-82.099122464329,19.723007576154245,68.65475674335129,80.05939271359497,-11.404635970243689,27.954923212523514,49.055500503523994,-21.10057729100048,-0.01260722491214535,0.0,-0.01260722491214535
0.22400000000000017,move_to_zero,-0.03667310787117414,-3.9118808054073995,3.8752076975362253,-62.199912862052116,-82.00687625931289,19.806963397260773,68.50378271618455,79.96943833975948,-11.465655623574932,27.744063973108613,49.00038196363239,-21.25631799052378,-0.01286682121270035,0.0,-0.01286682121270035
0.22600000000000017,move_to_zero,-0.036333905440139154,-3.9074804895407995,3.8711465841006603,-62.025156042168675,-81.9146300542968,19.88947401212812,68.35392776506693,79.87948396592398,-11.525556200857054,27.53446158633526,48.9452634237408,-21.410801837405536,-0.013146727914602307,0.0,-0.013146727914602307
0.22800000000000017,move_to_zero,-0.03600348037995622,-3.9030801736741996,3.8670766932942433,-61.85182526730235,-81.82238384928068,19.97055858197833,68.20517877919455,79.78952959208848,-11.58435081289393,27.326112802562424,48.890144883849196,-21.564032081286772,-0.01344518756678906,0.0,-0.01344518756678906
0.23000000000000018,move_to_zero,-0.0356961536501066,-3.898679857807599,3.8629837041574926,-61.67990285432224,-81.73013764426459,20.050234789942344,68.05750670828496,79.69957521825299,-11.642068509968027,27.119022690118403,48.8350263439576,-21.7160036538392,-0.01375342650856398,0.0,-0.01375342650856398
0.23200000000000018,move_to_zero,-0.03541248561323859,-3.8942795419409992,3.8588670563277607,-61.509370389058816,-81.63789143924849,20.128521050189676,67.91090660692694,79.60962084441748,-11.698714237490535,26.913152041730296,48.77990780406599,-21.866755762335696,-0.014079160294852303,0.0,-0.014079160294852303
0.23400000000000018,move_to_zero,-0.035110844468510746,-3.8898792260743993,3.8547683816058886,-61.34019285631037,-81.5456452342324,20.20545237792203,67.76535873718024,79.51966647058198,-11.754307733401745,26.708498611675818,48.72478926417439,-22.016290652498572,-0.014383708319737372,0.0,-0.014383708319737372
0.23600000000000018,move_to_zero,-0.034802503318812204,-3.8854789102077993,3.850676406888987,-61.17233367451779,-81.45339902921629,20.281065354698498,67.6208504933159,79.42971209674648,-11.808861603430586,26.505058106163915,48.669670724282796,-22.16461261811888,-0.014671705743042131,0.0,-0.014671705743042131
0.23800000000000018,move_to_zero,-0.03446853722510514,-3.881078594341199,3.8466100571160937,-61.00576583796052,-81.36115282420019,20.355386986239672,67.47737470665695,79.33975772291097,-11.862383016254029,26.302784859561957,48.614552184391194,-22.311767324829237,-0.014945252142323825,0.0,-0.014945252142323825
0.24000000000000019,move_to_zero,-0.03411570882565378,-3.876678278474599,3.8425625696489454,-60.8404601126113,-81.2689066191841,20.428446506572797,67.33491020962737,79.24980334907549,-11.914893139448125,26.10164133838464,48.5594336444996,-22.45779230611496,-0.015206631458825155,0.0,-0.015206631458825155
0.2420000000000002,move_to_zero,-0.03376185117201651,-3.872277962607999,3.8385161114359825,-60.676405747276675,-81.17666041416798,20.50025466689131,67.19343815193139,79.15984897523998,-11.966410823308593,25.90158270748069,48.504315104608,-22.60273239712731,-0.015456496963980743,0.0,-0.015456496963980743
0.2440000000000002,move_to_zero,-0.03340089629955561,-3.867877646741399,3.8344767504418433,-60.513556592365326,-81.08441420915189,20.57085761678656,67.0529398784386,79.06989460140447,-12.016954722965878,25.702572573844748,48.449196564716395,-22.746623990871647,-0.015698808884069586,0.0,-0.015698808884069586
0.2460000000000002,move_to_zero,-0.033051323694373164,-3.8634773308747987,3.8304260071804257,-60.35189301216943,-80.99216800413579,20.640274991966365,66.91337229938364,78.97994022756899,-12.06656792818535,25.504611298382056,48.39407802482479,-22.889466726442738,-0.01594014175553088,0.0,-0.01594014175553088
0.2480000000000002,move_to_zero,-0.03272021408078597,-3.8590770150081988,3.826356800927413,-60.19140353492955,-80.8999217991197,20.708518264190147,66.77471882507646,78.88998585373348,-12.115267028657016,25.30768335087054,48.33895948493319,-23.03127613406265,-0.01619280467468948,0.0,-0.01619280467468948
0.25000000000000017,move_to_zero,-0.032409596562164016,-3.8546766991415997,3.8222671025794357,-60.032050193790454,-80.80767559410359,20.77562540031313,66.63698322657964,78.80003147989798,-12.163048253318337,25.111798875668384,48.2838409450416,-23.172042069373212,-0.016443726595236238,0.0,-0.016443726595236238
0.25200000000000017,move_to_zero,-0.03209875291560228,-3.8502763832749993,3.818177630359397,-59.873819389396786,-80.71542938908749,20.841609999690704,66.50014711045209,78.71007710606249,-12.209929995610395,24.9169449744485,48.228722405149995,-23.311777430701493,-0.016692894670402608,0.0,-0.016692894670402608
0.25400000000000017,move_to_zero,-0.031793291515766396,-3.8458760674083994,3.814082775892633,-59.71671214200766,-80.62318318407138,20.90647104206372,66.3641872216057,78.62012273222697,-12.25593551062127,24.7231484578398,48.1736038652584,-23.4504554074186,-0.016943012266248152,0.0,-0.016943012266248152
0.25600000000000017,move_to_zero,-0.03148857729669311,-3.8414757515417994,3.8099871742451064,-59.560701587335615,-80.53093697905528,20.97023539171967,66.22907127685187,78.53016835839148,-12.30109708153961,24.5303959090452,48.11848532536679,-23.58808941632159,-0.017187174055219964,0.0,-0.017187174055219964
0.2580000000000002,move_to_zero,-0.031186870692768334,-3.8370754356751995,3.805888564982431,-59.405750958149596,-80.43869077403919,21.03293981588959,66.0947716993179,78.44021398455598,-12.345442285238079,24.338677609993567,48.063366785475196,-23.72468917548163,-0.01743002243225631,0.0,-0.01743002243225631
0.2600000000000002,move_to_zero,-0.03091705420931678,-3.832675119808599,3.8017580655992824,-59.25185625956695,-80.34644456902309,21.094588309456142,65.96126595548166,78.35025961072049,-12.38899365523882,24.147993215264588,48.008248245583594,-23.860255030319006,-0.01766863998782204,0.0,-0.01766863998782204
0.2620000000000002,move_to_zero,-0.030674151501843723,-3.828274803941999,3.7976006524401553,-59.09899311309385,-80.254198364007,21.15520525091315,65.82853393787585,78.26030523688497,-12.431771299009128,23.95832068927225,47.95312970569199,-23.994809016419744,-0.01790329263963382,0.0,-0.01790329263963382
0.2640000000000002,move_to_zero,-0.03045448968354357,-3.823874488075399,3.7934199983918555,-58.94715169785062,-80.16195215899089,21.214800461140264,65.69654242480397,78.17035086304948,-12.473808438245513,23.769640501348608,47.8980111658004,-24.12837066445179,-0.018134502363595675,0.0,-0.018134502363595675
0.2660000000000002,move_to_zero,-0.03025113079504795,-3.8194741722087993,3.7892230414137513,-58.79631960234863,-80.06970595397479,21.273386351626158,65.56525845375506,78.08039648921398,-12.515138035458918,23.581931913678552,47.842892625908796,-24.260960712230244,-0.01836844300127077,0.0,-0.01836844300127077
0.2680000000000002,move_to_zero,-0.03005964511024495,-3.815073856342199,3.785014211231954,-58.646490522073385,-79.97745974895868,21.330969226885294,65.43464370133223,77.99044211537847,-12.555798414046237,23.39519734963484,47.787774086017194,-24.392576736382352,-0.0186087278712485,0.0,-0.0186087278712485
0.2700000000000002,move_to_zero,-0.029866596185471626,-3.810673540475599,3.780806944290127,-58.49764335008489,-79.8852135439426,21.387570193857705,65.304683607561,77.90048774154299,-12.595804133981986,23.209444003723917,47.73265554612559,-24.523211542401675,-0.018848689739996812,0.0,-0.018848689739996812
0.2720000000000002,move_to_zero,-0.02965823730279264,-3.806273224608999,3.7766149873062065,-58.349785339700716,-79.79296733892649,21.44318199922577,65.1753656039913,77.81053336770748,-12.635167763716183,23.024656253981192,47.677537006234,-24.652880752252806,-0.019086722211927327,0.0,-0.019086722211927327
0.2740000000000002,move_to_zero,-0.029410000376831974,-3.801872908742399,3.772462908365567,-58.20289878863984,-79.70072113391039,21.49782234527055,65.04666309646213,77.72057899387197,-12.673915897409842,22.840797138313146,47.622418466342396,-24.78162132802925,-0.019329379132832065,0.0,-0.019329379132832065
0.2760000000000002,move_to_zero,-0.029140408797411872,-3.7974725928757986,3.7683321840783868,-58.056968325172505,-79.60847492889428,21.551506603721776,64.91855493949919,77.63062462003649,-12.712069680537297,22.657865028031505,47.567299926450794,-24.90943489841929,-0.019587732986144097,0.0,-0.019587732986144097
0.2780000000000002,move_to_zero,-0.028843092935760074,-3.7930722770091996,3.7642291840734394,-57.91194401437787,-79.51622872387819,21.604284709500313,64.79101330611142,77.54067024620097,-12.749656940089551,22.475841647939664,47.5121813865592,-25.036339738619535,-0.019869412015864923,0.0,-0.019869412015864923
0.2800000000000002,move_to_zero,-0.02854543811615722,-3.7886719611425996,3.7601265230264422,-57.767821865103116,-79.42398251886209,21.656160653758974,64.66402828057716,77.45071587236548,-12.786687591788322,22.29470172852833,47.45706284666759,-25.16236111813926,-0.020178571646851964,0.0,-0.020178571646851964
0.2820000000000002,move_to_zero,-0.028278933956246834,-3.7842716452759992,3.7559927113197524,-57.62461038442365,-79.331736313846,21.707125929422347,64.53758524325573,77.36076149852998,-12.823176255274248,22.114438794560332,47.401944306775995,-25.287505512215663,-0.02050231086485588,0.0,-0.02050231086485588
0.2840000000000002,move_to_zero,-0.02803769350603716,-3.7798713294093993,3.751833635903362,-57.48228729972608,-79.2394901088299,21.757202809103816,64.41167847302819,77.27080712469449,-12.859128651666296,21.935040831687008,47.34682576688439,-25.411784935197385,-0.020839713538409313,0.0,-0.020839713538409313
0.2860000000000002,move_to_zero,-0.02781694197208294,-3.7754710135427993,3.7476540715707163,-57.34085666799178,-79.14724390381379,21.806387235822008,64.28628656367454,77.18085275085897,-12.894566187184438,21.756521241985144,47.29170722699279,-25.535185985007647,-0.021170769499999305,0.0,-0.021170769499999305
0.2880000000000002,move_to_zero,-0.027612611094160352,-3.7710706976761994,3.7434580865820393,-57.200292296639226,-79.05499769879769,21.854705402158466,64.16138949521797,77.09089837702348,-12.929508881805504,21.57886645988016,47.2365886871012,-25.657722227221036,-0.021476856997571764,0.0,-0.021476856997571764
0.2900000000000002,move_to_zero,-0.02742135549493851,-3.766670381809599,3.7392490263146607,-57.06058507103589,-78.96275149378158,21.902166422745694,64.03697936203582,77.00094400318798,-12.96396464115216,21.402083402309067,47.181470147209595,-25.779386744900528,-0.021763038281102022,0.0,-0.021763038281102022
0.2920000000000002,move_to_zero,-0.027240181066307403,-3.762270065942999,3.735029884876692,-56.92172409299601,-78.87050528876549,21.948781195769477,63.91304514910723,76.91098962935247,-12.997944480245245,21.22617967104085,47.12635160731799,-25.900171936277143,-0.02203232702853742,0.0,-0.02203232702853742
0.2940000000000002,move_to_zero,-0.02706748509782581,-3.757869750076399,3.7308022649785735,-56.783689556809804,-78.77825908374939,21.994569526939586,63.78959960433295,76.82103525551699,-13.03143565118404,21.051151215826085,47.07123306742639,-26.020081851600306,-0.022287432948758682,0.0,-0.022287432948758682
0.2960000000000002,move_to_zero,-0.02688109564089254,-3.753469434209799,3.7265883385689067,-56.646483358926666,-78.6860128787333,22.039529519806628,63.66662994407459,76.73108088168148,-13.064450937606885,20.876991815239993,47.016114527534796,-26.139122712294803,-0.022529922778786883,0.0,-0.022529922778786883
0.2980000000000002,move_to_zero,-0.02667299815545238,-3.749069118343199,3.7223961201877462,-56.51009773450991,-78.59376667371718,22.08366893920727,63.544125805846086,76.64112650784598,-13.097000701999896,20.703685480907392,46.960995987643194,-26.257310506735802,-0.02276414135609702,0.0,-0.02276414135609702
0.3000000000000002,move_to_zero,-0.026432394838140773,-3.744668802476599,3.718236407638458,-56.3745339262578,-78.50152046870109,22.12698654244329,63.42207249822579,76.55117213401049,-13.129099635784698,20.531229312068433,46.90587744775159,-26.37464813568316,-0.022993506776939527,0.0,-0.022993506776939527
0.3020000000000002,move_to_zero,-0.02618130686660468,-3.740268486609999,3.714087179743394,-56.239768071382926,-78.40927426368499,22.169506192302066,63.30048247654041,76.46121776017497,-13.160735283634565,20.35963713367156,46.85075890786,-26.49112177418844,-0.023219449965958597,0.0,-0.023219449965958597
0.3040000000000002,move_to_zero,-0.025921657423169223,-3.735868170743399,3.70994651332023,-56.10578873913452,-78.31702805866888,22.211239319534364,63.179362365915715,76.37126338633948,-13.191901020423764,20.18887186540451,46.79564036796839,-26.606768502563877,-0.023441151050450273,0.0,-0.023441151050450273
0.3060000000000002,move_to_zero,-0.025638904726470204,-3.7314678548767994,3.7058289501503294,-55.972580821870615,-78.22478185365279,22.25220103178217,63.05868866917998,76.28130901250398,-13.222620343324003,20.018924537961357,46.740521828076794,-26.721597290115437,-0.023658511690192972,0.0,-0.023658511690192972
0.3080000000000002,move_to_zero,-0.025337596359054873,-3.7270675390101995,3.7017299426511445,-55.84013738734288,-78.13253564863669,22.292398261293812,62.938420984294744,76.19135463866847,-13.252933654373727,19.84979723532946,46.68540328818519,-26.83560605285573,-0.023871568162348752,0.0,-0.023871568162348752
0.3100000000000002,move_to_zero,-0.02502918282656238,-3.7226672231435995,3.6976380403170372,-55.70843214000036,-78.0402894436206,22.331857303620232,62.818540391030254,76.10140026483299,-13.282859873802735,19.681464543775057,46.6302847482936,-26.94882020451854,-0.02408178400485167,0.0,-0.02408178400485167
0.3120000000000002,move_to_zero,-0.0247426396295813,-3.718266907276999,3.693524267647418,-55.57743758639723,-77.94804323860448,22.370605652207253,62.69902635335386,76.01144589099748,-13.31241953764362,19.513896200061925,46.575166208401996,-27.06127000834007,-0.024288091162552285,0.0,-0.024288091162552285
0.3140000000000002,move_to_zero,-0.024485693217541286,-3.713866591410399,3.6893808981928577,-55.44715213674825,-77.85579703358839,22.408644896840137,62.57987842812051,75.92149151716198,-13.341613089041473,19.347097216751152,46.520047668510394,-27.17295045175924,-0.024492318356643592,0.0,-0.024492318356643592
0.3160000000000002,move_to_zero,-0.02425167038411828,-3.7094662755437993,3.685214605159681,-55.31757615054259,-77.76355082857228,22.445974678029685,62.46109016431759,75.83153714332649,-13.370446979008896,19.181053854809345,46.46492912861879,-27.283875273809446,-0.02469609119966528,0.0,-0.02469609119966528
0.3180000000000002,move_to_zero,-0.02403576071504004,-3.7050659596771993,3.6810301989621594,-55.18869864544847,-77.67130462355618,22.482605978107713,62.342642849595954,75.74158276949098,-13.398939919895021,19.015747301441372,46.40981058872719,-27.394063287285817,-0.024898118407968326,0.0,-0.024898118407968326
0.32000000000000023,move_to_zero,-0.02382012861031345,-3.700665643810599,3.6768455152002857,-55.06049598221323,-77.57905841854009,22.518562436326853,62.224528100362605,75.65162839565548,-13.427100295292874,18.8511986322949,46.354692048835595,-27.503493416540696,-0.02510041209406451,0.0,-0.02510041209406451
0.32200000000000023,move_to_zero,-0.023607354369477963,-3.696265327943999,3.672657973574521,-54.93293665562696,-77.48681221352399,22.55387555789703,62.106754428451396,75.56167402181998,-13.454919593368587,18.687361622361056,46.29957350894399,-27.612211886582937,-0.025304764377950022,0.0,-0.025304764377950022
0.32400000000000023,move_to_zero,-0.023384404313119934,-3.691865012077399,3.668480607764279,-54.80600445708979,-77.3945660085079,22.588561551418103,61.98930693553619,75.47171964798449,-13.482412712448294,18.52423130488707,46.2444549690524,-27.720223664165328,-0.025510016245470054,0.0,-0.025510016245470054
0.32600000000000023,move_to_zero,-0.023139827274837797,-3.687464696210799,3.664324868935961,-54.67972481328005,-77.30231980349178,22.62259499021173,61.87218574900289,75.38176527414898,-13.509579525146087,18.3617805545162,46.1893364291608,-27.827555874644595,-0.02571475417598573,0.0,-0.02571475417598573
0.32800000000000024,move_to_zero,-0.02289348891500721,-3.6830643803441987,3.6601708914291913,-54.554082787750744,-77.21007359847569,22.655990810724944,61.75536699314111,75.29181090031348,-13.53644390717237,18.199985615470876,46.13421788926919,-27.93423227379831,-0.025921793370923416,0.0,-0.025921793370923416
0.33000000000000024,move_to_zero,-0.022642074552071925,-3.6786640644775987,3.656021989925527,-54.429057432295785,-77.11782739345958,22.688769961163793,61.63883419522271,75.20185652647798,-13.563022331255276,18.038852440357655,46.07909934937759,-28.040246909019938,-0.026130830773202936,0.0,-0.026130830773202936
0.33200000000000024,move_to_zero,-0.022382943087801473,-3.674263748610999,3.6518808055231973,-54.30462753594561,-77.02558118844348,22.72095365249787,61.52257015762769,75.11190215264247,-13.589331995014781,17.87836670946569,46.02398080948599,-28.1456141000203,-0.026341861458104174,0.0,-0.026341861458104174
0.33400000000000024,move_to_zero,-0.02213485171980916,-3.669863432744399,3.6477285810245896,-54.18077365650667,-76.93333498342739,22.752561326920713,61.40655684248062,75.02194777880699,-13.61539093632637,17.71852530793961,45.968862269594396,-28.250336961654785,-0.026558576738994883,0.0,-0.026558576738994883
0.33600000000000024,move_to_zero,-0.021893361480558128,-3.6654631168777994,3.643569755397241,-54.05750064358937,-76.84108877841129,22.78358813482192,61.29080901491388,74.93199340497148,-13.641184390057596,17.55932176806834,45.913743729702794,-28.354421961634454,-0.026774341368326706,0.0,-0.026774341368326706
0.33800000000000024,move_to_zero,-0.02166861697934708,-3.6610628010111994,3.639394184031852,-53.9348093147761,-76.74884257339518,22.814033258619077,61.175320815282234,74.84203903113597,-13.666718215853734,17.400746437283825,45.85862518981119,-28.457878752527368,-0.02698930623446567,0.0,-0.02698930623446567
0.34000000000000025,move_to_zero,-0.02146174022428644,-3.6566624851445995,3.635200744920313,-53.81269392019282,-76.65659636837908,22.843902448186263,61.060052944214675,74.75208465730049,-13.692031713085811,17.242797022113887,45.80350664991959,-28.560709627805704,-0.027204791098224206,0.0,-0.027204791098224206
0.34200000000000025,move_to_zero,-0.021269186415926723,-3.652262169277999,3.630992982862072,-53.69114241942606,-76.56435016336299,22.87320774393693,60.944978789047454,74.66213028346498,-13.717151494417521,17.085437682006944,45.74838811002799,-28.662950428021045,-0.027424867516241874,0.0,-0.027424867516241874
0.34400000000000025,move_to_zero,-0.021088802522784444,-3.647861853411399,3.6267730508886147,-53.57012729914514,-76.47210395834688,22.901976659201736,60.83007299525026,74.57217590962948,-13.742102914379217,16.928669822126107,45.693269570136394,-28.764599748010287,-0.027668689939900324,0.0,-0.027668689939900324
0.34600000000000025,move_to_zero,-0.020918099284579467,-3.643461537544799,3.6225434382602195,-53.44964799489884,-76.3798577533308,22.930209758431957,60.715332919352086,74.48222153579398,-13.766888616441896,16.772510227032207,45.63815103024479,-28.865640803212585,-0.027922580384726118,0.0,-0.027922580384726118
0.34800000000000025,move_to_zero,-0.020755705748201528,-3.6390612216781992,3.6183055159299977,-53.32969322590547,-76.28761154831469,22.957918322409213,60.600745612845536,74.39226716195847,-13.791521549112936,16.61696064945609,45.5830324903532,-28.966071840897108,-0.028178542448387276,0.0,-0.028178542448387276
0.35000000000000026,move_to_zero,-0.02060151297320464,-3.634660905811599,3.6140593928383944,-53.210265237495975,-76.19536534329859,22.985100105802616,60.48631496838637,74.30231278812298,-13.815997819736609,16.46200364741888,45.52791395046159,-29.06591030304271,-0.02844180846032251,0.0,-0.02844180846032251
0.35200000000000026,move_to_zero,-0.020454731075042268,-3.630260589944999,3.6098058588699566,-53.09136323004122,-76.10311913828248,23.011755908241263,60.37206136261226,74.21235841428748,-13.840297051675222,16.307643467645747,45.472795410569994,-29.165151942924247,-0.028719937643786858,0.0,-0.028719937643786858
0.35400000000000026,move_to_zero,-0.020313657179917503,-3.625860274078399,3.6055466168984815,-52.97296812613094,-76.01087293326638,23.037904807135448,60.25796390991011,74.12240404045198,-13.864440130541873,16.15385866208312,45.41767687067839,-29.26381820859527,-0.028987002513099668,0.0,-0.028987002513099668
0.35600000000000026,move_to_zero,-0.020176870205732837,-3.621459958211799,3.601283088006066,-52.8550893134951,-75.91862672825027,23.063537414755174,60.14399690626208,74.03244966661647,-13.88845276035439,16.0006302565407,45.36255833078679,-29.36192807424609,-0.02927001747835447,0.0,-0.02927001747835447
0.35800000000000026,move_to_zero,-0.020043479966103426,-3.6170596423451986,3.597016162379095,-52.7377200243159,-75.82638052323418,23.08866049891828,60.030173380766634,73.94249529278098,-13.912321912014342,15.84796434135622,45.307439790895195,-29.459475449538974,-0.029571480601004528,0.0,-0.029571480601004528
0.36000000000000026,move_to_zero,-0.01991090449044119,-3.6126593264785987,3.5927484219881576,-52.62086494447829,-75.7341343182181,23.113269373739804,59.91647378651761,73.85254091894548,-13.936067132427873,15.695850127850289,45.25232125100359,-29.556471123153305,-0.02989741434216213,0.0,-0.02989741434216213
0.36200000000000027,move_to_zero,-0.019780810048602,-3.6082590106119987,3.588478200563397,-52.504533965731625,-75.64188811320199,23.13735414747036,59.8028883426963,73.76258654510997,-13.95969820241367,15.5442747785046,45.19720271111199,-29.65292793260739,-0.030221108387261962,0.0,-0.030221108387261962
0.36400000000000027,move_to_zero,-0.01965221983625698,-3.603858694745399,3.5842064749091422,-52.38870302791447,-75.54964190818589,23.160938880271424,59.689380569097736,73.67263217127449,-13.98325160217675,15.393230066389474,45.14208417122039,-29.748854104830915,-0.03053651948989404,0.0,-0.03053651948989404
0.36600000000000027,move_to_zero,-0.01952390568529842,-3.5994583788787993,3.579934473193501,-52.273379798688225,-75.45739570316978,23.184015904481555,59.57593675409461,73.58267779743898,-14.006741043344363,15.242719358994398,45.086965631328795,-29.844246272334395,-0.03083253330533346,0.0,-0.03083253330533346
0.36800000000000027,move_to_zero,-0.019393024664333527,-3.5950580630121993,3.5756650383478656,-52.15852646527453,-75.36514949815368,23.206623032879158,59.462528880831194,73.49272342360348,-14.030194542772286,15.092737230212684,45.03184709143719,-29.93910986122451,-0.03110783542516021,0.0,-0.03110783542516021
0.3700000000000003,move_to_zero,-0.019260725413348254,-3.5906577471455994,3.5713970217322513,-52.04413731104546,-75.27290329313757,23.228765982092114,59.34915005014075,73.40276904976798,-14.053618999627233,14.943265182399696,44.97672855154559,-30.033463369145895,-0.031365914255877474,0.0,-0.031365914255877474
0.3720000000000003,move_to_zero,-0.019125933451030697,-3.586257431278999,3.5671314978279685,-51.93021436822611,-75.18065708812149,23.250442719895382,59.23579225564645,73.31281467593247,-14.07702242028602,14.794276033217546,44.921610011653996,-30.12733397843645,-0.03160949753742252,0.0,-0.03160949753742252
0.3740000000000003,move_to_zero,-0.01898606506646878,-3.581857115412399,3.5628710503459304,-51.81674213200025,-75.08841088310538,23.271668751105132,59.122453616573864,73.22286030209698,-14.100406685523112,14.645768411317619,44.86649147176239,-30.22072306044477,-0.03184029715290848,0.0,-0.03184029715290848
0.3760000000000003,move_to_zero,-0.018837876044521293,-3.577456799545799,3.5586189235012777,-51.70372383155854,-74.99616467808929,23.292440846530745,59.00914079957104,73.13290592826148,-14.123765128690437,14.497716895192012,44.81137293187079,-30.31365603667878,-0.032058300806401055,0.0,-0.032058300806401055
0.3780000000000003,move_to_zero,-0.018688284847981677,-3.573056483679199,3.5543681988312175,-51.591162834819,-74.90391847307319,23.31275563825419,58.895841175626586,73.04295155442597,-14.147110378799383,14.350117753078392,44.75625439197919,-30.406136638900797,-0.03226687548582273,0.0,-0.03226687548582273
0.3800000000000003,move_to_zero,-0.01853987910522432,-3.5686561678125988,3.5501162887073745,-51.47908467643978,-74.81167226805708,23.332587591617298,58.78254686175025,72.95299718059049,-14.170450318840238,14.202935158481933,44.70113585208759,-30.498200693605654,-0.03246773783710191,0.0,-0.03246773783710191
0.3820000000000003,move_to_zero,-0.018382370682151473,-3.564255851945999,3.5458734812638473,-51.36750204900642,-74.71942606304098,23.351924014034566,58.669244366262234,72.86304280675498,-14.193798440492742,14.056192258435994,44.646017312195994,-30.589825053760002,-0.03266177689378233,0.0,-0.03266177689378233
0.3840000000000003,move_to_zero,-0.01822134327921515,-3.559855536079399,3.5416341928001835,-51.256399415818215,-74.62717985802489,23.370780442206673,58.555956977274136,72.77308843291948,-14.217131455645344,13.909898790388684,44.59089877230439,-30.680999981915708,-0.0328500574337785,0.0,-0.0328500574337785
0.3860000000000003,move_to_zero,-0.018046753860701766,-3.5554552202127994,3.5374084663520975,-51.14577786703958,-74.53493365300879,23.389155785969216,58.44266729935353,72.68313405908398,-14.240466759730452,13.764049023606994,44.53578023241279,-30.771731208805797,-0.03303517360750083,0.0,-0.03303517360750083
0.3880000000000003,move_to_zero,-0.017859831948569892,-3.551054904346199,3.533195072397629,-51.03559909331638,-74.44268744799268,23.407088354676304,58.3293566204633,72.59317968524847,-14.263823064785171,13.618632983018177,44.48066169252119,-30.86202870950301,-0.03321797927774818,0.0,-0.03321797927774818
0.3900000000000003,move_to_zero,-0.017650638499320945,-3.546654588479599,3.529003949980278,-50.925864381430884,-74.35044124297659,23.424576861545702,58.21601373875281,72.50322531141298,-14.28721157266017,13.473619364169775,44.425543152629594,-30.95192378845982,-0.0334003459479051,0.0,-0.0334003459479051
0.3920000000000003,move_to_zero,-0.017427744527074518,-3.542254272612999,3.5248265280859243,-50.81658319216639,-74.25819503796048,23.441611845794085,58.10263254336101,72.41327093757748,-14.310638394216468,13.32900374455248,44.37042461273799,-31.04142086818551,-0.03358151223000998,0.0,-0.03358151223000998
0.3940000000000003,move_to_zero,-0.01720325405069678,-3.537853956746399,3.5206507026957023,-50.707774165166,-74.16594883294438,23.45817466777838,57.98919720379585,72.32331656374198,-14.334119359946136,13.184806890151995,44.31530607284639,-31.130499182694393,-0.033765065269711896,0.0,-0.033765065269711896
0.3960000000000003,move_to_zero,-0.016980480980783853,-3.5334536408797987,3.516473159899015,-50.59943486870007,-74.07370262792828,23.474267759228212,57.875696083176,72.23336218990647,-14.35766610673047,13.041021387559539,44.260187532954795,-31.219166145395256,-0.03395037426441258,0.0,-0.03395037426441258
0.3980000000000003,move_to_zero,-0.01677474358963746,-3.529053325013199,3.5122785814235615,-50.49155942868492,-73.98145642291219,23.489896994227266,57.76211757314249,72.14340781607098,-14.381290242928486,12.897632550163804,44.205068993063186,-31.30743644289938,-0.034136537371381365,0.0,-0.034136537371381365
0.4000000000000003,move_to_zero,-0.016581887698373203,-3.524653009146599,3.508071121448226,-50.38415053675902,-73.88921021789609,23.50505968113707,57.648471438540334,72.05345344223548,-14.404982003695146,12.754650912918278,44.14995045317159,-31.395299540253312,-0.03432139490754921,0.0,-0.03432139490754921
0.4020000000000003,move_to_zero,-0.016399606225991795,-3.520252693279999,3.503853087054007,-50.277204600948835,-73.79696401287998,23.519759411931147,57.53476755260437,71.96349906839997,-14.428731515795597,12.612047522337356,44.09483191327999,-31.482784390942633,-0.03450469002704139,0.0,-0.03450469002704139
0.4040000000000003,move_to_zero,-0.016226217293784453,-3.515852377413399,3.4996261601196146,-50.17073654243064,-73.70471780786389,23.533981265433248,57.42099518234296,71.87354469456449,-14.452549512221523,12.469817934445507,44.039713373388395,-31.569895438942886,-0.0346851681917707,0.0,-0.0346851681917707
0.4060000000000003,move_to_zero,-0.016060020416646854,-3.511452061546799,3.495392041130152,-50.06473963810621,-73.61247160284778,23.547731964741565,57.3071417314184,71.78359032072898,-14.476448589310579,12.327963289741438,43.98459483349679,-31.656631543755353,-0.034863631974266944,0.0,-0.034863631974266944
0.4080000000000003,move_to_zero,-0.01589329372506663,-3.507051745680199,3.4911584519551324,-49.959203578478224,-73.52022539783168,23.561021819353456,57.19318799853584,71.69363594689347,-14.500447948357625,12.18646581216731,43.92947629360519,-31.74301048143788,-0.03504260467875765,0.0,-0.03504260467875765
0.4100000000000003,move_to_zero,-0.015709661160456186,-3.5026514298135987,3.4869417686531423,-49.85411588499148,-73.42797919281558,23.573863307824105,57.079113594617375,71.60368157305798,-14.524567978440608,12.045331473406375,43.87435775371359,-31.829026280307215,-0.035219813624035916,0.0,-0.035219813624035916
0.4120000000000003,move_to_zero,-0.015524988273870605,-3.4982511139469987,3.4827261256731283,-49.749475139129714,-73.33573298779949,23.586257848669774,56.96492247393099,71.51372719922247,-14.548804725291482,11.90456390752946,43.81923921382199,-31.91467530629253,-0.03539360331646083,0.0,-0.03539360331646083
0.4140000000000003,move_to_zero,-0.01532719235740311,-3.493850798080399,3.478523605722996,-49.64525681684984,-73.24348678278338,23.59822996593354,56.850622326440764,71.42377282538698,-14.573150498946212,11.764132195166905,43.76412067393039,-31.999988478763488,-0.03556474169245409,0.0,-0.03556474169245409
0.4160000000000003,move_to_zero,-0.015129516574321492,-3.4894504822137993,3.474320965639478,-49.54144241673689,-73.15124057776728,23.60979816103039,56.736207997808194,71.33381845155148,-14.597610453743286,11.624017674281507,43.70900213403879,-32.08498445975728,-0.03573140609929484,0.0,-0.03573140609929484
0.4180000000000003,move_to_zero,-0.01493418638803091,-3.485050166347199,3.470115979959168,-49.438017380565405,-73.05899437275119,23.62097699218578,56.62169094113603,71.24386407771597,-14.622173136579939,11.484220564023108,43.653883594147196,-32.169663030124084,-0.03589827750577872,0.0,-0.03589827750577872
0.4200000000000003,move_to_zero,-0.014749252070093383,-3.480649850480599,3.4659005984105056,-49.33499209448238,-72.96674816773508,23.631756073252696,56.507073749395126,71.15390970388047,-14.646835954485347,11.344755672683355,43.598765054255594,-32.25400938157224,-0.03606594652673693,0.0,-0.03606594652673693
0.4220000000000003,move_to_zero,-0.014552047644164618,-3.476249534613999,3.4616974869698343,-49.23236605692422,-72.87450196271898,23.64213590579476,56.39234121422448,71.06395533004498,-14.671614115820496,11.205623320757727,43.543646514363985,-32.33802319360626,-0.036233424418273284,0.0,-0.036233424418273284
0.4240000000000003,move_to_zero,-0.014341174004285232,-3.471849218747399,3.457508044743114,-49.130139548008,-72.78225575770288,23.65211620969488,56.27748284534968,70.97400095620948,-14.696518110859799,11.066822385927631,43.48852797447239,-32.42170558854476,-0.03639938140573333,0.0,-0.03639938140573333
0.4260000000000003,move_to_zero,-0.014123419558365024,-3.4674489028807987,3.4533254833224336,-49.028313233091254,-72.69000955268679,23.661696319595535,56.16253510160313,70.88404658237397,-14.721511480770836,10.92833431208938,43.43340943458079,-32.505075122491405,-0.036561820760789385,0.0,-0.036561820760789385
0.4280000000000003,move_to_zero,-0.013910903153418867,-3.4630485870141987,3.44913768386078,-48.92687431901523,-72.59776334767068,23.670889028655445,56.04750526834719,70.79409220853847,-14.746586940191285,10.790173122916903,43.378290894689194,-32.58811777177229,-0.03672084668303297,0.0,-0.03672084668303297
0.4300000000000003,move_to_zero,-0.013712519493577149,-3.458648271147599,3.444935751654022,-48.82581296688007,-72.50551714265458,23.67970417577451,55.93239668888819,70.70413783470298,-14.771741145814786,10.65235422306873,43.32317235479759,-32.670818131728865,-0.03687643206903923,0.0,-0.03687643206903923
0.43200000000000033,move_to_zero,-0.013517040082409101,-3.454247955280999,3.4407309151985896,-48.72511956512302,-72.41327093763847,23.68815137251545,55.81719019424979,70.61418346086747,-14.796993266617676,10.514854969567038,43.268053814906,-32.75319884533896,-0.037031471119858356,0.0,-0.037031471119858356
0.43400000000000033,move_to_zero,-0.013332569315122013,-3.449847639414399,3.436515070099277,-48.62477600969501,-72.32102473262238,23.696248722927365,55.70188852841882,70.52422908703198,-14.822340558613163,10.377695304999174,43.21293527501439,-32.835239970015216,-0.03718443402151329,0.0,-0.03718443402151329
0.43600000000000033,move_to_zero,-0.013157492533279056,-3.445447323547799,3.43228983101452,-48.524778511211366,-72.22877852760628,23.704000016394914,55.586493504341995,70.43427471319647,-14.847781208854478,10.24086067835617,43.157816735122786,-32.916956056766615,-0.03733573750320652,0.0,-0.03733573750320652
0.43800000000000033,move_to_zero,-0.012992015354847295,-3.441047007681199,3.4280549923263517,-48.42511963372042,-72.13653232259018,23.711412688869764,55.47099243749551,70.34432033936098,-14.873327901865466,10.104349164174177,43.10269819523119,-32.99834903105702,-0.03748435682226986,0.0,-0.03748435682226986
0.44000000000000034,move_to_zero,-0.012833644901241078,-3.4366466918145986,3.4238130469133576,-48.32581962598269,-72.04428611757409,23.7184664915914,55.35540208115706,70.25436596552548,-14.89896388436842,9.968145777824454,43.04757965533959,-33.079433877515136,-0.0376298436201553,0.0,-0.0376298436201553
0.44200000000000034,move_to_zero,-0.012683845577997063,-3.4322463759479986,3.4195625303700017,-48.226885645443716,-71.95203991255798,23.725154267114263,55.23972360331934,70.16441159168997,-14.924687988370628,9.832269507261426,42.992461115447995,-33.160191608186565,-0.03777239365701592,0.0,-0.03777239365701592
0.44400000000000034,move_to_zero,-0.012542480305119688,-3.427846060081399,3.4153035797762796,-48.12829730110991,-71.85979370754188,23.731496406431972,55.12397541676916,70.07445721785447,-14.95048180108531,9.696712141499914,42.937342575556386,-33.24063043405647,-0.03791297299358611,0.0,-0.03791297299358611
0.44600000000000034,move_to_zero,-0.012406987442760477,-3.423445744214799,3.411038756772039,-48.03001752461918,-71.76754750252577,23.73752997790659,55.00815820382185,69.98450284401898,-14.976344640197127,9.56148508306592,42.88222403566479,-33.32073895259887,-0.03805116536121988,0.0,-0.03805116536121988
0.44800000000000034,move_to_zero,-0.012274831433192216,-3.419045428348199,3.4067705969150066,-47.93206122539014,-71.67530129750969,23.743240072119548,54.89226907635617,69.89454847018347,-15.002279393827294,9.426586918523352,42.82710549577319,-33.40051857724984,-0.03818612866983981,0.0,-0.03818612866983981
0.45000000000000034,move_to_zero,-0.012144984439485782,-3.414645112481599,3.402500128042113,-47.83443393024585,-71.58305509249358,23.74862116224773,54.77629122547976,69.80459409634798,-15.028302870868224,9.292013614701114,42.77198695588159,-33.479973341180475,-0.03831970659972037,0.0,-0.03831970659972037
0.45200000000000035,move_to_zero,-0.01201834470142933,-3.410244796614999,3.3982264519135694,-47.73713543389821,-71.49080888747748,23.753673453579275,54.660202603635966,69.71463972251247,-15.054437118876507,9.157740191629838,42.71686841598999,-33.55912822436015,-0.038454787961618386,0.0,-0.038454787961618386
0.45400000000000035,move_to_zero,-0.011893867185019183,-3.405844480748399,3.39395061356338,-47.64013383608247,-71.39856268246137,23.758428846378905,54.543981711986945,69.62468534867698,-15.080703636690032,9.02375153754679,42.66174987609839,-33.6379983385516,-0.038589638185558266,0.0,-0.038589638185558266
0.45600000000000035,move_to_zero,-0.011771484900431709,-3.4014441648817986,3.389672679981367,-47.543405185764875,-71.30631647744528,23.762911291680403,54.4276236831403,69.53473097484148,-15.107107291701183,8.8900251860753,42.60663133620679,-33.71660615013149,-0.03872634236017739,0.0,-0.03872634236017739
0.45800000000000035,move_to_zero,-0.011650480315541438,-3.397043849015199,3.3853933686996576,-47.44696724600172,-71.21407027242918,23.767103026427463,54.311119710144126,69.44477660100597,-15.133656890861843,8.75656794187905,42.55151279631519,-33.79494485443614,-0.03886354424124667,0.0,-0.03886354424124667
0.46000000000000035,move_to_zero,-0.011529964729087707,-3.392643533148599,3.3811135684195115,-47.35080922961388,-71.12182406741309,23.771014837799207,54.19444902433772,69.35482222717047,-15.160373202832751,8.623372898475623,42.49639425642359,-33.87302135794797,-0.03900039934603334,0.0,-0.03900039934603334
0.46200000000000035,move_to_zero,-0.011412112123916188,-3.3882432172819987,3.3768311051580824,-47.25493766502905,-71.02957786239699,23.774640197367944,54.077623017939814,69.26486785333498,-15.187244835395163,8.490460146254472,42.44127571653199,-33.95081557027752,-0.039140279207292065,0.0,-0.039140279207292065
0.46400000000000036,move_to_zero,-0.011297573169334389,-3.383842901415399,3.3725453282460642,-47.159342752794345,-70.93733165738088,23.777988904586536,53.96065693789533,69.17491347949948,-15.21425654160415,8.35783820854889,42.38615717664039,-34.0283189680915,-0.03928212647939646,0.0,-0.03928212647939646
0.46600000000000036,move_to_zero,-0.011185021723622937,-3.379442585548799,3.3682575638251757,-47.064031482577974,-70.84508545236478,23.78105396978681,53.843520101285776,69.08495910566397,-15.241439004378194,8.225547533117638,42.331038636748794,-34.10549110363115,-0.039424187158899504,0.0,-0.039424187158899504
0.46800000000000036,move_to_zero,-0.011075005914619976,-3.375042269682199,3.363967263767579,-46.968988345603556,-70.75283924734867,23.78385090174512,53.726231850248,68.99500473182847,-15.268772881580475,8.093601204653023,42.275920096857185,-34.182318892204165,-0.03956618913326201,0.0,-0.03956618913326201
0.47000000000000036,move_to_zero,-0.010967182854362037,-3.3706419538155985,3.3596747709612367,-46.87424002507419,-70.66059304233258,23.786353017258392,53.6087778663991,68.90505035799298,-15.296272491593875,7.961994342043947,42.22080155696559,-34.258807214921646,-0.03970940374352143,0.0,-0.03970940374352143
0.47200000000000036,move_to_zero,-0.010861208171282784,-3.3662416379489986,3.355380429777716,-46.77976259353587,-70.56834683731647,23.788584243780598,53.49117443016115,68.81509598415747,-15.323921553996314,7.830714899928781,42.16568301707399,-34.33496811714521,-0.03985136627709717,0.0,-0.03985136627709717
0.47400000000000037,move_to_zero,-0.010757044181031827,-3.361841322082399,3.3510842779013674,-46.68554240452064,-70.47610063230039,23.790558227779748,53.37340780745941,68.72514161032198,-15.351733802862576,7.699751004738579,42.11056447718239,-34.41081347244381,-0.03999406682086131,0.0,-0.03999406682086131
0.47600000000000037,move_to_zero,-0.010652614351313486,-3.357441006215799,3.3467883918644854,-46.59159064696374,-70.38385442728428,23.79226378032054,53.25548675426507,68.63518723648647,-15.379700482221402,7.569081469856985,42.05544593729079,-34.48636446743381,-0.0401387677718144,0.0,-0.0401387677718144
0.47800000000000037,move_to_zero,-0.010546491918045816,-3.3530406903491987,3.3424941984311527,-46.497877682180416,-70.29160822226818,23.793730540087765,53.137417025318186,68.54523286265096,-15.407815837332777,7.438687164740755,42.00032739739919,-34.56164023265843,-0.04028352236832112,0.0,-0.04028352236832112
0.48000000000000037,move_to_zero,-0.010438264998528499,-3.3486403744825988,3.33820210948407,-46.404403201096144,-70.19936201725208,23.79495881615594,53.01920412497297,68.45527848881548,-15.436074363842508,7.308571563562796,41.94520885750759,-34.636637293944794,-0.040428770575647456,0.0,-0.040428770575647456
0.4820000000000004,move_to_zero,-0.010330265328695451,-3.344240058615999,3.333909793287303,-46.31117294356168,-70.10711581223597,23.795942868674295,52.90083433571945,68.36532411497997,-15.464489779260518,7.178728461127434,41.890090317615986,-34.71136185648855,-0.040575413357759445,0.0,-0.040575413357759445
0.4840000000000004,move_to_zero,-0.010222087313400949,-3.339839742749399,3.3296176554359977,-46.21820558907274,-70.01486960721988,23.79666401814714,52.78230469783315,68.27536974114447,-15.493065043311326,7.049139711805917,41.83497177772439,-34.78583206591848,-0.04072146127636489,0.0,-0.04072146127636489
0.4860000000000004,move_to_zero,-0.010113019176270638,-3.3354394268827985,3.3253264077065277,-46.12550824723844,-69.92262340220378,23.79711515496534,52.66363907931099,68.18541536730898,-15.521776287997987,6.919776753070858,41.77985323783279,-34.86007648476193,-0.04086416144345957,0.0,-0.04086416144345957
0.4880000000000004,move_to_zero,-0.010006297082431065,-3.331039111016199,3.3210328139337677,-46.03304891418913,-69.83037719718769,23.797328282998556,52.544855604258956,68.09546099347347,-15.55060538921451,6.790618441300033,41.72473469794119,-34.934116256641154,-0.041003442782248115,0.0,-0.041003442782248115
0.4900000000000004,move_to_zero,-0.009901467964768098,-3.326638795149599,3.316737327184831,-45.94084812547867,-69.73813099217158,23.79728286669291,52.425949574001464,68.00550661963797,-15.579557045636506,6.661672302161702,41.66961615804959,-35.00794385588789,-0.041139191206185255,0.0,-0.041139191206185255
0.4920000000000004,move_to_zero,-0.00979820059509129,-3.3222384792829986,3.3124402786879075,-45.8488750990111,-69.64588478715548,23.797009688144378,52.30690945618433,67.91555224580247,-15.608642789618145,6.5329400450997115,41.61449761815798,-35.08155757305827,-0.04127467121777976,0.0,-0.04127467121777976
0.4940000000000004,move_to_zero,-0.009694936837461334,-3.3178381634163987,3.3081432265789372,-45.75714588870606,-69.55363858213937,23.796492693433308,52.187746167922505,67.82559787196698,-15.637851704044472,6.404419002623096,41.55937907826639,-35.154960075643295,-0.04141107223429112,0.0,-0.04141107223429112
0.4960000000000004,move_to_zero,-0.00959237939096008,-3.3134378475497988,3.3038454681588387,-45.665670167574945,-69.46139237712327,23.79572220954833,52.06847120517795,67.73564349813147,-15.667172292953516,6.276117016397862,41.50426053837479,-35.228143521976925,-0.04154856292301143,0.0,-0.04154856292301143
0.4980000000000004,move_to_zero,-0.009490266095808664,-3.309037531683199,3.2995472655873903,-45.57445334210997,-69.36914617210718,23.79469282999721,51.94909620300508,67.64568912429597,-15.696592921290893,6.14807131543616,41.44914199848319,-35.30107068304703,-0.041685023414102546,0.0,-0.041685023414102546
0.5000000000000003,move_to_zero,-0.00938887585983617,-3.3046372158165984,3.2952483399567623,-45.48350450874863,-69.27689996709108,23.793395458342452,51.829613256124446,67.55573475046047,-15.726121494336027,6.020263467689183,41.39402345859159,-35.37375999090241,-0.041820700688608076,0.0,-0.041820700688608076
0.5020000000000003,move_to_zero,-0.009287489644843935,-3.300236899949999,3.290949410305155,-45.39282731401572,-69.18465376207499,23.79182644805927,51.71002292558033,67.46578037662498,-15.755757451044644,5.892671920323347,41.33890491869999,-35.446232998376644,-0.04195260121310104,0.0,-0.04195260121310104
0.5040000000000003,move_to_zero,-0.009184477587885036,-3.2958365840833994,3.2866521064955143,-45.30241318417301,-69.09240755705889,23.78999437288588,51.59034343332333,67.37582600278948,-15.785482569466147,5.765288887028317,41.283786378808394,-35.518497491780074,-0.04207984322029374,0.0,-0.04207984322029374
0.5060000000000003,move_to_zero,-0.009081716358761621,-3.291436268216799,3.2823545518580373,-45.21224980816475,-69.00016135204278,23.78791154387803,51.47059331576851,67.28587162895397,-15.815278313185459,5.638116892589383,41.228667838916785,-35.590550946327404,-0.042201703073495675,0.0,-0.042201703073495675
0.5080000000000003,move_to_zero,-0.00898012587718755,-3.287035952350199,3.2780558264730115,-45.1223300782845,-68.90791514702669,23.785585068742186,51.35076069142025,67.19591725511847,-15.845156563698225,5.511144414099731,41.1735492990252,-35.662404884925465,-0.04231983913119076,0.0,-0.04231983913119076
0.5100000000000003,move_to_zero,-0.008879585980701491,-3.2826356364835987,3.273756050502897,-45.03264732778966,-68.81566894201057,23.783021614220914,51.23082468101155,67.10596288128298,-15.87513820027143,5.384402391819827,41.11843075913359,-35.73402836731376,-0.042432763254989674,0.0,-0.042432763254989674
0.5120000000000003,move_to_zero,-0.00878054427162317,-3.278235320616999,3.269454776345376,-44.94320520704776,-68.7234227369945,23.780217529946732,51.110793123355215,67.01600850744748,-15.905215384092266,5.257893696409585,41.06331221924199,-35.80541852283241,-0.04254387557709356,0.0,-0.04254387557709356
0.5140000000000003,move_to_zero,-0.008679876427423568,-3.273835004750399,3.2651551283229754,-44.85403095989164,-68.63117653197838,23.777145572086745,50.99068239223449,66.92605413361197,-15.93537174137748,5.131620914480121,41.00819367935039,-35.87657276487027,-0.04265335284136269,0.0,-0.04265335284136269
0.5160000000000003,move_to_zero,-0.008579518125527881,-3.2694346888837993,3.2608551707582714,-44.76512370730059,-68.53893032696229,23.7738066196617,50.87051057911154,66.83609975977649,-15.96558918066495,5.005575974824305,40.95307513945879,-35.947499164634486,-0.04276182318749694,0.0,-0.04276182318749694
0.5180000000000003,move_to_zero,-0.00848022659367229,-3.265034373017199,3.2565541464235266,-44.67646037698124,-68.44668412194618,23.770223744964937,50.75026106280662,66.74614538594096,-15.99588432313434,4.879769571058894,40.89795659956719,-36.018187028508294,-0.04287110301066169,0.0,-0.04287110301066169
0.5200000000000004,move_to_zero,-0.008382239100300398,-3.2606340571505994,3.252251818050299,-44.58807457120929,-68.35443791693008,23.76636334572079,50.629939373252604,66.65619101210548,-16.026251638852877,4.754182930993404,40.84283805967559,-36.08865512868219,-0.042981291339322734,0.0,-0.042981291339322734
0.5220000000000004,move_to_zero,-0.00828682753262459,-3.2562337412839986,3.247946913751374,-44.4999806468268,-68.26219171191397,23.762211065087172,50.50956477518789,66.56623663826997,-16.05667186308208,4.628814529248688,40.78771951978399,-36.158904990535305,-0.043089250731218415,0.0,-0.043089250731218415
0.5240000000000004,move_to_zero,-0.008194735517348287,-3.251833425417399,3.2436386899000507,-44.412178645336695,-68.16994550689789,23.757766861561194,50.389149999276825,66.47628226443447,-16.08713226515765,4.503675448564428,40.732600979892396,-36.22892553132797,-0.04319498372603858,0.0,-0.04319498372603858
0.5260000000000004,move_to_zero,-0.0081057110526317,-3.2474331095507987,3.2393273984981668,-44.32467585313216,-68.07769930188178,23.753023448749616,50.268717887699545,66.38632789059898,-16.117610002899433,4.378761113903392,40.677482440000794,-36.2987213260974,-0.0433003091832813,0.0,-0.0433003091832813
0.5280000000000004,move_to_zero,-0.008018650047166702,-3.2430327936841996,3.235014143637033,-44.23745838814473,-67.9854530968657,23.747994708720967,50.14826200244027,66.29637351676348,-16.14811151432321,4.254058068653394,40.62236390010919,-36.3683058314558,-0.04340478996536921,0.0,-0.04340478996536921
0.5300000000000004,move_to_zero,-0.007934842555447852,-3.2386324778175983,3.2306976352621506,-44.15051114675075,-67.89320689184957,23.74269574509882,50.02777057540381,66.20641914292797,-16.178648567524164,4.129570246198437,40.56724536021758,-36.43767511401914,-0.04350615856758428,0.0,-0.04350615856758428
0.5320000000000004,move_to_zero,-0.00785388006393997,-3.2342321619509993,3.2263782818870594,-44.06380425059655,-67.80096068683349,23.737156436236944,49.907245366864416,66.11646476909249,-16.209219402228072,4.005288012256939,40.512126820325996,-36.506838808069055,-0.04360342920544694,0.0,-0.04360342920544694
0.5340000000000004,move_to_zero,-0.007776361229076472,-3.229831846084399,3.2220554848553222,-43.97733435154958,-67.70871448181737,23.731380130267787,49.786683076553494,66.02651039525698,-16.239827318703483,3.8811793306268103,40.45700828043439,-36.57582894980758,-0.04369730844081007,0.0,-0.04369730844081007
0.5360000000000004,move_to_zero,-0.007702291602265663,-3.2254315302177994,3.217729238615534,-43.89112168282643,-67.61646827680129,23.725346593974855,49.666079377818086,65.93655602142148,-16.270476643603395,3.7572455226944412,40.4018897405428,-36.64464421784836,-0.04378793825015271,0.0,-0.04378793825015271
0.5380000000000004,move_to_zero,-0.0076305166620169,-3.2210312143511985,3.2134006976891816,-43.805180345802555,-67.52422207178519,23.719041725982635,49.54542951088731,65.84660164758597,-16.30117213669866,3.6335083873982135,40.34677120065119,-36.713262813252975,-0.04387672295310881,0.0,-0.04387672295310881
0.5400000000000004,move_to_zero,-0.007559653143594361,-3.216630898484599,3.2090712453410046,-43.719511577169854,-67.4319758667691,23.71246428959924,49.42472747350429,65.75664727375049,-16.331919800246197,3.509970948599579,40.29165266075959,-36.78168171216001,-0.043961984563733986,0.0,-0.043961984563733986
0.5420000000000004,move_to_zero,-0.007490646442800881,-3.2122305826179987,3.204739936175198,-43.63412243524721,-67.33972966175298,23.705607226505776,49.3039597939877,65.66669289991496,-16.362733105927262,3.3866203985490038,40.23653412086799,-36.84991372231898,-0.04404544777256357,0.0,-0.04404544777256357
0.5440000000000004,move_to_zero,-0.007424303197587642,-3.207830266751399,3.2004059635538114,-43.54900750223868,-67.24748345673689,23.698475954498207,49.18313022143519,65.57673852607948,-16.39360830464429,3.2634445352151653,40.18141558097639,-36.91797104576123,-0.04412692197727571,0.0,-0.04412692197727571
0.5460000000000004,move_to_zero,-0.007359960172502506,-3.2034299508847988,3.1960699907122962,-43.46417052183382,-67.15523725172078,23.691066729886955,49.06223800177509,65.48678415224397,-16.424546150468878,3.140430037244999,40.12629704108479,-36.98586700383979,-0.04420603811262839,0.0,-0.04420603811262839
0.5480000000000004,move_to_zero,-0.0072983027751247894,-3.1990296350181993,3.1917313322430743,-43.37961171903134,-67.06299104670468,23.683379327673343,48.94129599946721,65.39682977840847,-16.455533778941266,3.0175695839714964,40.071178501193195,-37.0536089172217,-0.044282647835665406,0.0,-0.044282647835665406
0.5500000000000004,move_to_zero,-0.007239858183290291,-3.194629319151599,3.1873894609683084,-43.29533699780289,-66.97074484168859,23.675407843885694,48.82032966611562,65.30687540457298,-16.48654573845736,2.8948571285851914,40.01605996130159,-37.1212028327164,-0.04435776916982704,0.0,-0.04435776916982704
0.5520000000000004,move_to_zero,-0.007184331138436445,-3.190229003284999,3.1830446721465626,-43.21133428638063,-66.87849863667249,23.667164350291863,48.699333831194075,65.21692103073748,-16.517587199543406,2.772325804892202,39.96094142140999,-37.18861561651779,-0.04443104225526745,0.0,-0.04443104225526745
0.5540000000000004,move_to_zero,-0.007131018358023042,-3.1858286874183985,3.1786976690603757,-43.12758849121524,-66.78625243165638,23.658663940441137,48.578285756088654,65.12696665690197,-16.548680900813316,2.6499751054893963,39.90582288151839,-37.25584777602899,-0.04450262535930447,0.0,-0.04450262535930447
0.5560000000000004,move_to_zero,-0.0070818779319665875,-3.1814283715517995,3.174346493619833,-43.044083862354285,-66.69400622664028,23.649922364286,48.457176888734814,65.03701228306649,-16.579835394331674,2.5277986576104263,39.850704341626795,-37.32290568401637,-0.04457293215384815,0.0,-0.04457293215384815
0.5580000000000004,move_to_zero,-0.007035768955881888,-3.1770280556851986,3.169992286729317,-42.96083247160382,-66.60176002162417,23.64092755002035,48.335995828738305,64.94705790923096,-16.61106208049266,2.405803414626875,39.795585801735186,-37.38978238710831,-0.04464165720603156,0.0,-0.04464165720603156
0.5600000000000004,move_to_zero,-0.006992795405247367,-3.172627739818599,3.165634944413352,-42.877842071340076,-66.50951381660808,23.631671745268,48.214740859591494,64.85710353539548,-16.642362675803987,2.2840082649151823,39.7404672618436,-37.45645899692842,-0.04471042974911152,0.0,-0.04471042974911152
0.5620000000000004,move_to_zero,-0.006951554676574892,-3.1682274239519987,3.161275869275424,-42.795114850133906,-66.41726761159198,23.622152761458075,48.093422608375214,64.76714916155997,-16.673726553184757,2.162389678327563,39.68534872195198,-37.52295904362442,-0.044781550818416956,0.0,-0.044781550818416956
0.5640000000000004,move_to_zero,-0.0069122411394144274,-3.1638271080853992,3.1569148669459848,-42.71264955223249,-66.3250214065759,23.612371854343408,47.97203322846779,64.67719478772447,-16.705161559256688,2.0409506361118295,39.630230182060394,-37.589279545948564,-0.044857394855538954,0.0,-0.044857394855538954
0.5660000000000004,move_to_zero,-0.006876050200101228,-3.159426792218799,3.152550742018698,-42.630448589518515,-66.23277520155978,23.60232661204126,47.85056842415558,64.58724041388896,-16.73667198973338,1.9196749940236604,39.575111642168785,-37.65543664814513,-0.04493854108988895,0.0,-0.04493854108988895
0.5680000000000004,move_to_zero,-0.0068424497591320285,-3.155026476352199,3.148184026593067,-42.548500191368596,-66.1405289965437,23.592028805175097,47.729033663254114,64.49728604005348,-16.768252376799367,1.798548454474387,39.51999310227719,-37.721444647802805,-0.045024434201589456,0.0,-0.045024434201589456
0.5700000000000004,move_to_zero,-0.006810528823471212,-3.1506261604855985,3.1438156316621275,-42.46682811558003,-66.04828279152757,23.58145467594754,47.607446983159065,64.40733166621797,-16.799884683058906,1.6775664445419833,39.46487456238559,-37.78730811784361,-0.04511452296618288,0.0,-0.04511452296618288
0.5720000000000004,move_to_zero,-0.006778968829447546,-3.1462258446189995,3.139446875789552,-42.385424071683055,-65.95603658651149,23.570612514828433,47.4858178542238,64.31737729238247,-16.831559438158678,1.5567329097905904,39.409756022493994,-37.853023112703404,-0.04520514891887743,0.0,-0.04520514891887743
0.5740000000000004,move_to_zero,-0.006747920281878005,-3.141825528752399,3.135077608470521,-42.30426454211742,-65.86379038149538,23.559525839377955,47.36414228323902,64.22742291854698,-16.86328063530796,1.4360511454635991,39.354637482602385,-37.918586337138784,-0.04529674143927625,0.0,-0.04529674143927625
0.5760000000000004,move_to_zero,-0.006716601553257137,-3.137425212885799,3.130708611332542,-42.22336341080882,-65.7715441764793,23.548180765670473,47.242427649049034,64.13746854471148,-16.895040895662447,1.3155295479882303,39.29951894271079,-37.98398939472256,-0.04538772786879354,0.0,-0.04538772786879354
0.5780000000000004,move_to_zero,-0.006685333744080958,-3.1330248970191987,3.126339563275118,-42.142705757502014,-65.67929797146319,23.53659221396117,47.12065987153973,64.04751417087597,-16.92685429933624,1.1951722731074652,39.24440040281919,-38.04922812971172,-0.04548097955639955,0.0,-0.04548097955639955
0.5800000000000004,move_to_zero,-0.006654966350583484,-3.1286245811525992,3.121969614802016,-42.06227315400992,-65.58705176644709,23.524778612437167,46.998811401538624,63.95755979704048,-16.958748395501857,1.0749933018076823,39.189281862927594,-38.11428856111991,-0.04557535913573747,0.0,-0.04557535913573747
0.5820000000000004,move_to_zero,-0.0066264462842915,-3.1242242652859984,3.117597819001707,-41.98207412954307,-65.49480556143098,23.512731431887907,46.87691129351267,63.867605423204964,-16.990694129692294,0.9549796404736438,39.134163323035985,-38.17918368256234,-0.04567065267572156,0.0,-0.04567065267572156
0.5840000000000004,move_to_zero,-0.006600619641031267,-3.119823949419399,3.113223329778368,-41.90209261359562,-65.40255935641488,23.500466742819263,46.75497695964326,63.777651049369474,-17.022674089726216,0.8351205809886723,39.0790447831444,-38.243924202155725,-0.045768232144019434,0.0,-0.045768232144019434
0.5860000000000004,move_to_zero,-0.006575933269620483,-3.1154236335527985,3.108847700283178,-41.8223169429914,-65.31031315139877,23.487996208407374,46.63301878088498,63.68769667553397,-17.05467789464899,0.7154045863991944,39.02392624325278,-38.308521656853586,-0.04586668672115286,0.0,-0.04586668672115286
0.5880000000000004,move_to_zero,-0.0065537875118061506,-3.1110233176861994,3.104469530174393,-41.74273257400364,-65.21806694638268,23.475334372379038,46.511020667488296,63.597742301698474,-17.08672163421018,0.5958704460649383,38.96880770336119,-38.37293725729626,-0.04596448357407961,0.0,-0.04596448357407961
0.5900000000000004,move_to_zero,-0.006532980514118085,-3.1066230018195986,3.1000900213054807,-41.66331567449449,-65.12582074136658,23.46250506687209,46.38898377053858,63.50778792786297,-17.11880415732439,0.47649982219216885,38.913689163469584,-38.43718934127742,-0.04605993226478853,0.0,-0.04605993226478853
0.5920000000000004,move_to_zero,-0.006513903507573678,-3.102222685952999,3.0957087824454255,-41.584078327637854,-65.03357453635049,23.44949620871263,46.26691953309218,63.41783355402748,-17.150914020935303,0.35729739916955394,38.858570623578,-38.50127322440844,-0.04615399784775727,0.0,-0.04615399784775727
0.5940000000000004,move_to_zero,-0.006497136601560146,-3.0978223700863987,3.0913252334848385,-41.50501706472821,-64.94132833133438,23.436311266606168,46.14482444601738,63.32787918019197,-17.18305473417459,0.2382831912156835,38.80345208368639,-38.5651688924707,-0.04624460919600796,0.0,-0.04624460919600796
0.5960000000000004,move_to_zero,-0.006481839859255921,-3.093422054219799,3.0869402143605433,-41.42675859006562,-64.84908212631828,23.422323536252662,46.02172427393783,63.23792480635648,-17.216200532418654,0.13504227171164196,38.74833354379479,-38.61329127208315,-0.04633212090292013,0.0,-0.04633212090292013
0.5980000000000004,move_to_zero,-0.00646685447883457,-3.0890217383531984,3.082554883874364,-41.34966119179658,-64.75683592130217,23.40717472950559,45.897056053190056,63.147970432520964,-17.250914379330908,0.05678499366455107,38.693215003903184,-38.636430010238634,-0.04641709582581327,0.0,-0.04641709582581327
0.6000000000000004,move_to_zero,-0.00645372310864531,-3.0846214224865993,3.078167699377954,-41.27387572610147,-64.66458971628607,23.3907139901846,45.77059286355804,63.05801605868548,-17.287423195127438,0.007945312215451495,38.63809646401159,-38.630151151796134,-0.04649827985127222,0.0,-0.04649827985127222
0.6020000000000004,move_to_zero,-0.00644145780937573,-3.0802211066199985,3.0737796488106226,-41.19933795833026,-64.57234351126998,23.373005552939716,45.6424307550608,62.968061684849964,-17.325630929789163,-0.012027424354533021,38.58297792411999,-38.59500534847452,-0.04657540136975351,0.0,-0.04657540136975351
0.6040000000000004,move_to_zero,-0.006428175285705286,-3.075820790753399,3.069392615467694,-41.125829204639814,-64.4800973062539,23.354268101614082,45.51291244207787,62.878107311014475,-17.365194868936605,-0.007425733221208631,38.52785938422839,-38.535285117449604,-0.04664596411924542,0.0,-0.04664596411924542
0.6060000000000004,move_to_zero,-0.006413297315926183,-3.0714204748867986,3.0650071775708723,-41.05304570965501,-64.38785110123777,23.334805391582762,45.38252033031684,62.78815293717897,-17.405632606862135,0.01517998027425144,38.47274084433679,-38.457560864062536,-0.04671083039213861,0.0,-0.04671083039213861
0.6080000000000004,move_to_zero,-0.006397122268670441,-3.067020159020199,3.0606230367515286,-40.980654650465425,-64.29560489622169,23.314950245756265,45.251781028202,62.698198563343475,-17.446417535141478,0.048397731778479544,38.417622304445196,-38.36922457266672,-0.04677143954714672,0.0,-0.04677143954714672
0.6100000000000004,move_to_zero,-0.0063814670465386315,-3.0626198431535987,3.05623837610706,-40.90833772646609,-64.20335869120557,23.29502096473948,45.12116396729134,62.60824418950797,-17.487080222216633,0.08517104923229786,38.36250376455359,-38.277332715321286,-0.04682866495617407,0.0,-0.04682866495617407
0.6120000000000004,move_to_zero,-0.006366525812905108,-3.0582195272869988,3.0518530014740937,-40.835866601769,-64.11111248618948,23.275245884420485,44.991041283184146,62.51828981567248,-17.527248532488336,0.1196369995336319,38.30738522466199,-38.18774822512836,-0.04688291105128958,0.0,-0.04688291105128958
0.6140000000000004,move_to_zero,-0.0063527515601612536,-3.0538192114203984,3.047466459860237,-40.76307668147372,-64.01886628117337,23.255789599699654,44.8616353140463,62.42833544183697,-17.566700127790668,0.14768665824598926,38.25226668477038,-38.104580026524395,-0.046934118202795166,0.0,-0.046934118202795166
0.6160000000000004,move_to_zero,-0.006341622347404635,-3.0494188955537993,3.0430772732063947,-40.68994154693642,-63.926620076157285,23.236678529220868,44.733018590845134,62.33838106800148,-17.605362477156348,0.16782563733169215,38.197148144878796,-38.0293225075471,-0.04698187629141786,0.0,-0.04698187629141786
0.6180000000000004,move_to_zero,-0.006331804327413326,-3.045018579687199,3.0386867753597855,-40.6164428830981,-63.83437387114118,23.21793098804308,44.60518204903148,62.248426694165964,-17.643244645134487,0.17959019326312134,38.14202960498719,-37.96243941172406,-0.04702439774705354,0.0,-0.04702439774705354
0.6200000000000004,move_to_zero,-0.006322149842884768,-3.040618263820599,3.0342961139777143,-40.54262300767482,-63.742127666125086,23.199504658450266,44.478082651916964,62.15847232033048,-17.680389668413518,0.18340718539469283,38.08691106509559,-37.9035038797009,-0.04706079970917364,0.0,-0.04706079970917364
0.6220000000000004,move_to_zero,-0.0063125222648785445,-3.0362179479539986,3.0299054256891202,-40.468536952387666,-63.649881461108976,23.18134450872131,44.35163658809226,62.068517946494964,-17.716881358402702,0.18017401403356822,38.03179252520398,-37.851618511170415,-0.04709236211898441,0.0,-0.04709236211898441
0.6240000000000004,move_to_zero,-0.006303348884082929,-3.031817632087399,3.025514283203316,-40.394275469620595,-63.55763525609289,23.16335978647229,44.22568503595879,61.978563572659475,-17.752878536700685,0.17195150244793836,37.97667398531239,-37.80472248286445,-0.04711618006958861,0.0,-0.04711618006958861
0.6260000000000004,move_to_zero,-0.006296189562947937,-3.0274173162207987,3.021121126657851,-40.319954972902906,-63.46538905107678,23.14543407817387,44.10006277050507,61.888609198823964,-17.788546428318895,0.16101301295569193,37.921555445420786,-37.760542432465094,-0.04713289740881868,0.0,-0.04713289740881868
0.6280000000000004,move_to_zero,-0.006291986330835663,-3.0230170003541987,3.016725014023363,-40.2456672268926,-63.37314284606068,23.12747561916808,43.97463278776228,61.798654824988475,-17.824022037226193,0.14944409474069384,37.86643690552919,-37.7169928107885,-0.047144504978661995,0.0,-0.047144504978661995
0.6300000000000004,move_to_zero,-0.006290117939745528,-3.0186166844875983,3.012326566547853,-40.17149702743536,-63.28089664104458,23.10939961360922,43.84928538872554,61.70870045115297,-17.85941506242743,0.1388854903822617,37.81131836563759,-37.672432875255325,-0.04715515192655898,0.0,-0.04715515192655898
0.6320000000000005,move_to_zero,-0.006289846270782051,-3.0142163686209993,3.007926522350217,-40.09749192677736,-63.18865043602848,23.091158509251123,43.72393231583324,61.618746077317475,-17.894813761484237,0.13042220937996613,37.756199825745995,-37.62577761636603,-0.04716405836442106,0.0,-0.04716405836442106
0.6340000000000005,move_to_zero,-0.006289696366465432,-3.009816052754399,3.0035263563879333,-40.02365044872681,-63.09640423101237,23.07275378228556,43.598593936895995,61.52879170348197,-17.930197766585977,0.12388516679742909,37.701081285854386,-37.57719611905696,-0.04717112022708351,0.0,-0.04717112022708351
0.6360000000000005,move_to_zero,-0.006289985358373516,-3.005415736887799,2.9991257515294256,-39.94997104310023,-63.00415802599628,23.054186982896056,43.47324519914951,61.43883732964648,-17.965592130496972,0.11962966340893207,37.64596274596279,-37.52633308255386,-0.04717658931059498,0.0,-0.04717658931059498
0.6380000000000005,move_to_zero,-0.006291901421357299,-3.0010154210211986,2.9947235195998414,-39.876455782437894,-62.91191182098017,23.03545603854228,43.347887950977565,61.348882955810964,-18.0009950048334,0.1176156064712757,37.59084420607118,-37.473228599599906,-0.04718041440242376,0.0,-0.04718041440242376
0.6400000000000005,move_to_zero,-0.006293382522009914,-2.996615105154599,2.990321722632589,-39.80307290378214,-62.81966561596408,23.01659271218194,43.222544164313476,61.25892858197548,-18.036384417662006,0.11751874972326336,37.535725666179594,-37.418206916456334,-0.04717896096493517,0.0,-0.04717896096493517
0.6420000000000005,move_to_zero,-0.006294992728138292,-2.9922147892879987,2.9859197965598603,-39.72979839274467,-62.727419410947974,22.997621018203304,43.097245059844276,61.168974208139964,-18.071729148295688,0.11885904445126497,37.480607126287985,-37.36174808183672,-0.04717286027347564,0.0,-0.04717286027347564
0.6440000000000005,move_to_zero,-0.00629801726246202,-2.987814473421399,2.9815164561589373,-39.656598980459634,-62.63517320593189,22.978574225472258,42.97200802922941,61.079019834304475,-18.107011805075068,0.1210861556899551,37.42548858639639,-37.30440243070644,-0.04716313728440663,0.0,-0.04716313728440663
0.6460000000000005,move_to_zero,-0.0063016014729778465,-2.9834141575547983,2.9771125560818206,-39.58343529078317,-62.54292700091577,22.959491710132596,42.84684881746075,60.989065460468964,-18.14221664300821,0.12362963197108139,37.37037004650478,-37.2467404145337,-0.04715228151491739,0.0,-0.04715228151491739
0.6480000000000005,move_to_zero,-0.006306143703413299,-2.9790138416881993,2.972707697984786,-39.51029501764302,-62.450680795899686,22.94038577825667,42.721785568281454,60.899111086633475,-18.17732551835202,0.12601348957708233,37.31525150661319,-37.189238017036104,-0.047141233042577516,0.0,-0.047141233042577516
