GerardoFJ/TE3001B_TEAM_3/src/s0s1_gazebo/scripts/results/PD2/state.csv
t,phase,shoulder_pan_actual_deg,shoulder_pan_desired_deg,shoulder_pan_error_deg,shoulder_lift_actual_deg,shoulder_lift_desired_deg,shoulder_lift_error_deg,elbow_flex_actual_deg,elbow_flex_desired_deg,elbow_flex_error_deg,wrist_flex_actual_deg,wrist_flex_desired_deg,wrist_flex_error_deg,wrist_roll_actual_deg,wrist_roll_desired_deg,wrist_roll_error_deg
0.002,move_to_zero,-4.376474382407018,-4.4003158666,0.02384148419298171,-92.21682027023317,-92.2462050161,0.02938474586683526,89.9402674989065,89.9543738355,-0.014106336593499691,55.09939055982472,55.1185398916,-0.019149331775281553,0.0017248340730163765,0.0,0.0017248340730163765
0.004,move_to_zero,-4.330949804675434,-4.3959155507334,0.06496574605796557,-92.15695291138753,-92.15395881108391,-0.0029941003036242364,89.91127268716185,89.86441946166448,0.046853225497372364,55.0612197132036,55.0634213517084,-0.002201638504800485,0.0044616636415857934,0.0,0.0044616636415857934
0.006,move_to_zero,-4.266082988122292,-4.3915152348668,0.12543224674450748,-92.0687144503435,-92.0617126060678,-0.007001844275706048,89.86807687256248,89.77446508782899,0.09361178473349696,55.00505192319761,55.008302811816804,-0.003250888619191983,0.0075273872293740015,0.0,0.0075273872293740015
0.008,move_to_zero,-4.184064675452182,-4.3871149190002,0.20305024354801748,-91.95415737505154,-91.9694664010517,0.015309026000167592,89.81134464196107,89.68451071399349,0.12683392796758142,54.93187696169855,54.953184271925196,-0.021307310226646337,0.01037966100587729,0.0,0.01037966100587729
0.01,move_to_zero,-4.086920077018165,-4.382714603133599,0.2957945261154338,-91.81525868787462,-91.8772201960356,0.061961508160976564,89.7417238566331,89.594556340158,0.14716751647510762,54.842666932839556,54.8980657320336,-0.05539879919404456,0.012694347937817999,0.0,0.012694347937817999
0.012,move_to_zero,-3.97653671833088,-4.378314287266999,0.40177756893611916,-91.65388825910004,-91.7849739910195,0.13108573191945538,89.65984407754299,89.50460196632248,0.15524211122050247,54.738373488495384,54.842947192142,-0.104573703646615,0.014545815425082386,0.0,0.014545815425082386
0.014,move_to_zero,-3.854647289797931,-4.373913971400399,0.5192666816024682,-91.47182897479813,-91.69272778600339,0.22089881120525945,89.56633154343805,89.41464759248699,0.15168395095106746,54.61989629007942,54.787828652250404,-0.16793236217098695,0.01600076130062779,0.0,0.01600076130062779
0.016,move_to_zero,-3.7228692009312048,-4.369513655533799,0.6466444546025945,-91.27075485213155,-91.6004815809873,0.3297267288557606,89.46177874354693,89.32469321865149,0.1370855248954399,54.48811180461119,54.7327101123588,-0.2445983077476157,0.01711760240291379,0.0,0.01711760240291379
0.018000000000000002,move_to_zero,-3.582670306515843,-4.3651133396672,0.782443033151357,-91.05227313770354,-91.5082353759712,0.45596223826765936,89.34677142939306,89.234738844816,0.11203258457706511,54.34384982640513,54.6775915724672,-0.3337417460620671,0.017812948280919155,0.0,0.017812948280919155
0.020000000000000004,move_to_zero,-3.435424141009221,-4.3607130238006,0.9252888827913792,-90.81793069494917,-91.4159891709551,0.5980584760059315,89.22190557995393,89.1447844709805,0.07712110897342939,54.18792656674027,54.6224730325756,-0.4345464658353251,0.018047969895602676,0.0,0.018047969895602676
0.022000000000000006,move_to_zero,-3.2824110176818295,-4.356312707934,1.0739016902521707,-90.56919501181407,-91.323742965939,0.7545479541249307,89.0877406783232,89.05483009714499,0.032910581178214215,54.02109574025024,54.567354492684,-0.5462587524337579,0.017864634188045847,0.0,0.017864634188045847
0.024000000000000007,move_to_zero,-3.124782472807462,-4.351912392067399,1.2271299192599376,-90.30748363520216,-91.2314967609229,0.9240131257207338,88.94482801048424,88.96487572330949,-0.020047712825245867,53.84409928840453,54.5122359527924,-0.6681366643878732,0.017323941082841642,0.0,0.017323941082841642
0.02600000000000001,move_to_zero,-2.9636104407615265,-4.3475120762007995,1.383901635439273,-90.0341058098807,-91.1392505559068,1.1051447460260988,88.79372183997299,88.874921349474,-0.08119950950100474,53.65763146978675,54.4571174129008,-0.7994859431140497,0.016545998424291226,0.0,0.016545998424291226
0.02800000000000001,move_to_zero,-2.799849695379756,-4.3431117603341995,1.5432620649544435,-89.75032767225039,-91.0470043508907,1.2966766786403099,88.63494989550074,88.78496697563848,-0.15001708013774362,53.462369402974204,54.401998873009205,-0.9396294700350012,0.0156569131397439,0.0,0.0156569131397439
0.030000000000000013,move_to_zero,-2.6344069127672856,-4.3387114444676,1.704304531700314,-89.45734245972977,-90.9547581458746,1.4974156861448336,88.46902250175884,88.695012601803,-0.22599010004415732,53.25897366313363,54.3468803331176,-1.0879066699839726,0.014777951049014132,0.0,0.014777951049014132
0.032000000000000015,move_to_zero,-2.468078164890075,-4.334311128601,1.8662329637109245,-89.15628462432358,-90.8625119408585,1.706227316534921,88.2964555429279,88.60505822796749,-0.3086026850395882,53.048057383127855,54.291761793225994,-1.2437044100981396,0.013997024455721893,0.0,0.013997024455721893
0.034000000000000016,move_to_zero,-2.301587221220748,-4.3299108127344,2.0283235915136517,-88.84824214072161,-90.7702657358424,1.9220235951207911,88.11771181386584,88.51510385413198,-0.3973920402661406,52.83020550536903,54.2366432533344,-1.40643774796537,0.013329917327922002,0.0,0.013329917327922002
0.03600000000000002,move_to_zero,-2.1355579229654333,-4.3255104968678,2.1899525739023664,-88.5342296895697,-90.67801953082629,2.1437898412565914,87.93325694111297,88.4251494802965,-0.4918925391835245,52.605983579549786,54.1815247134428,-1.5755411338930116,0.01275911146722765,0.0,0.01275911146722765
0.03800000000000002,move_to_zero,-1.9705841235587365,-4.3211101810012,2.3505260574424636,-88.21518084437739,-90.5857733258102,2.3705924814328085,87.74355579902893,88.33519510646099,-0.591639307432061,52.375911710179814,54.1264061735512,-1.750494463371389,0.01226849721141492,0.0,0.01226849721141492
0.04000000000000002,move_to_zero,-1.8072070044479298,-4.316709865134599,2.509502860686669,-87.89197926527342,-90.4935271207941,2.6015478555206784,87.54903939124556,88.24524073262549,-0.6962013413799326,52.140518513736744,54.0712876336596,-1.9307691199228572,0.011844625793630381,0.0,0.011844625793630381
0.04200000000000002,move_to_zero,-1.645899340555458,-4.312309549267999,2.666410208712541,-87.56545808298334,-90.401280915778,2.835822832794662,87.35011220574142,88.15528635879,-0.8051741530485685,51.900277415097065,54.016169093768006,-2.115891678670941,0.011476183199341575,0.0,0.011476183199341575
0.044000000000000025,move_to_zero,-1.4870565425486608,-4.307909233401399,2.820852690852738,-87.23642422637808,-90.3090347107619,3.07261048438383,87.14720105213057,88.06533198495448,-0.9181309328239138,51.65564291417746,53.9610505538764,-2.3054076396989345,0.01115408506577824,0.0,0.01115408506577824
0.04600000000000003,move_to_zero,-1.3310576760150155,-4.3035089175348,2.9724512415197846,-86.90558918231746,-90.2167885057458,3.3111993234283403,86.94072217601425,87.97537761111899,-1.0346554351047388,51.40705869036292,53.905932013984796,-2.498873323621872,0.010868842130241727,0.0,0.010868842130241727
0.04800000000000003,move_to_zero,-1.1782231993572443,-4.2991086016682,3.1208854023109556,-86.57361732694417,-90.1245423007297,3.550924973785527,86.73105140429833,87.88542323728349,-1.1543718329851629,51.154949387978434,53.8508134740932,-2.695864086114767,0.010611622943023109,0.0,0.010611622943023109
0.05000000000000003,move_to_zero,-1.028831970635371,-4.2947082858016,3.265876315166229,-86.24112592396847,-90.03229609571359,3.7911701717451223,86.51855437578678,87.795468863448,-1.276914487661216,50.899734297592595,53.7956949342016,-2.8959606366090043,0.010376305323471986,0.0,0.010376305323471986
0.05200000000000003,move_to_zero,-0.8831064121006403,-4.290307969935,3.4072015578343597,-85.90871471019756,-89.9400498906975,4.031335180499937,86.30358742841956,87.70551448961248,-1.4019270611929215,50.64179228553341,53.740576394310004,-3.0987841087765915,0.01015724960635743,0.0,0.01015724960635743
0.054000000000000034,move_to_zero,-0.7412378813454903,-4.285907654068399,3.544669772722909,-85.57690650049824,-89.8478036856814,4.270897185183159,86.08648234562436,87.61556011577699,-1.5290777701526252,50.381473128882696,53.6854578544184,-3.303984725535706,0.009950755053731478,0.0,0.009950755053731478
0.056000000000000036,move_to_zero,-0.6033913528469017,-4.281507338201799,3.6781159853548977,-85.24621157089717,-89.7555574806653,4.509345909768129,85.86756016876406,87.52560574194149,-1.6580455731774322,50.11909924637617,53.6303393145268,-3.5112400681506273,0.009754327925945976,0.0,0.009754327925945976
0.05800000000000004,move_to_zero,-0.46967634187430013,-4.2771070223351995,3.8074306804608993,-84.91710971353638,-89.66331127564919,4.746201562112816,85.64714139506819,87.43565136810598,-1.7885099730377902,49.854994849187676,53.5752207746352,-3.7202259254475223,0.009564481183760739,0.0,0.009564481183760739
0.06000000000000004,move_to_zero,-0.3401924069668973,-4.2727067064685995,3.9325142995017024,-84.59001091015742,-89.5710650706331,4.981054160475679,85.42551748694027,87.3456969942705,-1.9201795073302321,49.589480216641725,53.5201022347436,-3.9306220181018716,0.009378528299080318,0.0,0.009378528299080318
0.06200000000000004,move_to_zero,-0.2186571196133234,-4.268306390602,4.049649270988676,-84.26529980932982,-89.478818865617,5.213519056287183,85.20296829951262,87.25574262043499,-2.0527743209223672,49.32284927928525,53.464983694852,-4.142134415566751,0.009193901316752793,0.0,0.009193901316752793
0.06400000000000004,move_to_zero,-0.1185483913711411,-4.2639060747354,4.145357683364258,-83.9433272081126,-89.38657266060089,5.443245452488284,84.97975308049274,87.16578824659948,-2.186035166106734,49.05535471495587,53.4098651549604,-4.354510440004532,0.009008718965850097,0.0,0.009008718965850097
0.06600000000000004,move_to_zero,-0.046169347248718066,-4.2595057588688,4.213336411620082,-83.62441321428697,-89.29432645558481,5.669913241297834,84.75613883655326,87.075833872764,-2.3196950362107316,48.787275425491345,53.354746615068805,-4.567471189577461,0.00882236062143349,0.0,0.00882236062143349
0.06800000000000005,move_to_zero,-0.003248128194126163,-4.2551054430022,4.251857314808073,-83.30887442563322,-89.2020802505687,5.893205824935478,84.53238516510221,86.98587949892848,-2.4534943338262707,48.51887409514845,53.299628075177196,-4.780753980028749,0.008634851073287571,0.0,0.008634851073287571
0.07000000000000005,move_to_zero,0.012759193047074862,-4.250705127135599,4.263464320182674,-82.99699369274671,-89.1098340455526,6.11284035280589,84.3087080657517,86.89592512509299,-2.5872170593412847,48.250408338096896,53.2445095352856,-4.994101197188705,0.008443827932408872,0.0,0.008443827932408872
0.07200000000000005,move_to_zero,0.00716712024353018,-4.246304811268999,4.25347193151253,-82.68903217095689,-89.01758784053649,6.3285556695796,84.08530889800288,86.80597075125749,-2.7206618532546116,47.98211426908982,53.189390995394,-5.20727672630418,0.008249484485491348,0.0,0.008249484485491348
0.07400000000000005,move_to_zero,-0.01338183430134932,-4.241904495402399,4.228522661101049,-82.38521230791258,-88.9253416355204,6.540129327607815,83.8623854191935,86.71601637742198,-2.8536309582284787,47.714207325534815,53.1342724555024,-5.420065129967583,0.008050610991628137,0.0,0.008050610991628137
0.07600000000000005,move_to_zero,-0.04211711839797477,-4.2375041795358,4.195387061137825,-82.0857206993117,-88.83309543050429,6.747374731192593,83.64014805207148,86.62606200358648,-2.985913951515002,47.44687564827936,53.0791539156108,-5.6322782673314435,0.007843117548410683,0.0,0.007843117548410683
0.07800000000000006,move_to_zero,-0.07307389432141094,-4.2331038636692,4.160029969347789,-81.79071527651367,-88.74084922548819,6.950133948974525,83.41877832040241,86.53610762975099,-3.1173293093485768,47.18031674532918,53.0240353757192,-5.843718630390022,0.007632755498864135,0.0,0.007632755498864135
0.08000000000000006,move_to_zero,-0.10162933950538793,-4.2287035478026,4.127074208297212,-81.5003218767394,-88.6486030204721,7.148281143732689,83.19845445519974,86.44615325591549,-3.247698800715753,46.91470863488794,52.9689168358276,-6.054208200939662,0.007400011192918642,0.0,0.007400011192918642
0.08200000000000006,move_to_zero,-0.12469498024746098,-4.224303231936,4.099608251688539,-81.21465972223072,-88.556356815456,7.341697093225278,82.97934619343087,86.35619888207998,-3.376852688649109,46.65021309313915,52.913798295936,-6.263585202796847,0.007167844011871633,0.0,0.007167844011871633
0.08400000000000006,move_to_zero,-0.14151274887289866,-4.219902916069399,4.078390167196501,-80.93383282077797,-88.4641106104399,7.5302777896619375,82.7615884140484,86.26624450824448,-3.504656094196079,46.38693686926603,52.858679756044396,-6.471742886778365,0.006922253005713411,0.0,0.006922253005713411
0.08600000000000006,move_to_zero,-0.15155861835696818,-4.215502600202799,4.063943981845831,-80.65793538460754,-88.37186440542379,7.713929020816252,82.54531608188724,86.17629013440899,-3.6309740525217507,46.12504496288816,52.8035612161528,-6.67851625326464,0.006664925089922652,0.0,0.006664925089922652
0.08800000000000006,move_to_zero,-0.15532275727239314,-4.211102284336199,4.055779527063806,-80.3870265638121,-88.2796182004077,7.892591636595597,82.3306749823691,86.08633576057349,-3.755660778204387,45.86467984793909,52.7484426762612,-6.883762828322112,0.006397559345962401,0.0,0.006397559345962401
0.09000000000000007,move_to_zero,-0.15396165922793523,-4.206701968469599,4.052740309241664,-80.12115901630104,-88.18737199539159,8.066212979090551,82.11780591458,85.996381386738,-3.8785754721579906,45.60594603038787,52.693324136369604,-7.087378105981735,0.006115920911411578,0.0,0.006115920911411578
0.09200000000000007,move_to_zero,-0.14900269189956275,-4.2023016526029995,4.053298960703437,-79.86033515427268,-88.0951257903755,8.23479063610283,81.90684029039338,85.90642701290248,-3.9995867225091075,45.34895127109124,52.638205596477995,-7.289254325386757,0.005832208130700157,0.0,0.005832208130700157
0.09400000000000007,move_to_zero,-0.1420395097220926,-4.1979013367363995,4.055861827014307,-79.60456495490358,-88.0028795853594,8.398314630455815,81.69788145474847,85.81647263906699,-4.118591184318518,45.093805412934344,52.5830870565864,-7.489281643652056,0.005526793470975462,0.0,0.005526793470975462
0.09600000000000007,move_to_zero,-0.1344566189456808,-4.1935010208698,4.059044401924119,-79.35383253941114,-87.9106333803433,8.556800840932155,81.4910281109473,85.72651826523149,-4.235490154284193,44.84060819692597,52.5279685166948,-7.687360319768828,0.005229096526849854,0.0,0.005229096526849854
0.09800000000000007,move_to_zero,-0.12734629394685618,-4.1891007050032,4.061754411056343,-79.10815619985385,-87.81838717532719,8.710230975473337,81.28638818810548,85.63656389139598,-4.350175703290503,44.58946641390511,52.4728499768032,-7.883383562898089,0.004946710211187401,0.0,0.004946710211187401
0.10000000000000007,move_to_zero,-0.1214377546009268,-4.184700389136599,4.063262634535672,-78.86750918187518,-87.72614097031109,8.858631788435915,81.0840364333191,85.5466095175605,-4.462573084241399,44.34046192914901,52.4177314369116,-8.077269507762594,0.004676389604007771,0.0,0.004676389604007771
0.10200000000000008,move_to_zero,-0.11672738960440805,-4.180300073269999,4.0635726836655905,-78.6318585143926,-87.633894765295,9.002036250902393,80.88403683987694,85.45665514372499,-4.572618303848046,44.093664008832846,52.36261289702,-8.268948888187154,0.004417898519440684,0.0,0.004417898519440684
0.10400000000000008,move_to_zero,-0.11307661221173601,-4.1758997574034,4.062823145191664,-78.4011655550796,-87.5416485602789,9.1404830051993,80.68643933386727,85.36670076988948,-4.680261436022207,43.849144819421056,52.3074943571284,-8.458349537707342,0.004169750697568848,0.0,0.004169750697568848
0.10600000000000008,move_to_zero,-0.11061755606836038,-4.1714994415368,4.060881885468439,-78.17538152949307,-87.4494023552628,9.274020825769739,80.49130332752416,85.276746396054,-4.78544306852983,43.606945466086934,52.252375817236796,-8.645430351149862,0.003928854573618696,0.0,0.003928854573618696
0.10800000000000008,move_to_zero,-0.10927851894394604,-4.1670991256702,4.057820606726254,-77.95445900755358,-87.3571561502467,9.402697142693114,80.2986847054882,85.18679202221848,-4.888107316730284,43.36714941176481,52.1972572773452,-8.830107865580395,0.0036925674198772275,0.0,0.0036925674198772275
0.11000000000000008,move_to_zero,-0.10887389483907849,-4.1626988098036,4.053824914964522,-77.73832930568483,-87.2649099452306,9.52658063954577,80.10861270885569,85.09683764838299,-4.988224939527299,43.12981760519457,52.1421387374536,-9.012321132259032,0.0034623717821380033,0.0,0.0034623717821380033
0.11200000000000009,move_to_zero,-0.10915437801384482,-4.158298493937,4.049144115923156,-77.52693323597235,-87.17266374021449,9.645730504242138,79.92112972862874,85.00688327454749,-5.085753545918749,42.89497808632798,52.087020197562,-9.192042111234016,0.0032344871765673986,0.0,0.0032344871765673986
0.11400000000000009,move_to_zero,-0.1098603038455486,-4.153898178070399,4.04403787422485,-77.3201758400815,-87.0804175351984,9.760241695116889,79.73628279137085,84.91692890071198,-5.180646109341126,42.66267571516104,52.031901657670396,-9.369225942509352,0.003008482343806071,0.0,0.003008482343806071
0.11600000000000009,move_to_zero,-0.1107376889848828,-4.149497862203799,4.0387601732189164,-77.11797887878309,-86.9881713301823,9.870192451399205,79.55407813341982,84.82697452687648,-5.272896393456662,42.43294972356729,51.976783117778794,-9.543833394211504,0.002785422346005826,0.0,0.002785422346005826
0.11800000000000009,move_to_zero,-0.11158965234028911,-4.145097546337199,4.0335078939969105,-76.92026370762088,-86.8959251251662,9.975661417545325,79.37452774915914,84.73702015304099,-5.362492403881845,42.20583722464017,51.9216645778872,-9.715827353247029,0.0025634666138380025,0.0,0.0025634666138380025
0.12000000000000009,move_to_zero,-0.11229562203483258,-4.140697230470599,4.028401608435766,-76.72693915325074,-86.80367892015009,10.076739766899351,79.19764361688499,84.64706577920549,-5.449422162320502,41.981368252330036,51.8665460379956,-9.885177785665562,0.0023413231440079624,0.0,0.0023413231440079624
0.1220000000000001,move_to_zero,-0.1128734583558842,-4.136296914603999,4.023423456248115,-76.53789686529629,-86.711432715134,10.173535849837705,79.02343426599433,84.55711140536998,-5.533677139375655,41.75953899006706,51.811427498104,-10.051888508036946,0.0021182831866921265,0.0,0.0021182831866921265
0.1240000000000001,move_to_zero,-0.11334196100874178,-4.1318965987373995,4.018554637728657,-76.35302372213539,-86.6191865101179,10.266162787982509,78.85190961189753,84.46715703153448,-5.615247419636958,41.540365645510825,51.7563089582124,-10.215943312701576,0.0018585975816597796,0.0,0.0018585975816597796
0.12600000000000008,move_to_zero,-0.11371629194346258,-4.1274962828707995,4.013779990927337,-76.1722099216662,-86.52694030510179,10.354730383435594,78.68309367483845,84.37720265769899,-5.694108982860541,41.32386481751884,51.70119041832079,-10.377325600801953,0.0015553810811320273,0.0,0.0015553810811320273
0.12800000000000009,move_to_zero,-0.11400870928610321,-4.1230959670042,4.009087257718097,-75.99535180131251,-86.4346941000857,10.439342298773184,78.51696309163302,84.28724828386348,-5.77028519223046,41.110050897493515,51.6460718784292,-10.536020980935682,0.001203824623827866,0.0,0.001203824623827866
0.1300000000000001,move_to_zero,-0.11422854087832374,-4.118695651137599,4.004467110259275,-75.82232673310057,-86.3424478950696,10.52012116196903,78.35349780057471,84.197293910028,-5.8437961094532795,40.89893933125672,51.590953338537595,-10.692014007280875,0.0008229948820117743,0.0,0.0008229948820117743
0.1320000000000001,move_to_zero,-0.1143853381007623,-4.114295335270999,3.9999099971702363,-75.65304513930762,-86.2502016900535,10.59715655074588,78.19266464493623,84.10733953619248,-5.914674891256254,40.690547365386685,51.535834798646,-10.845287433259315,0.00043022659701583594,0.0,0.00043022659701583594
0.1340000000000001,move_to_zero,-0.1144858733436127,-4.1098950194044,3.995409146060787,-75.48742177662287,-86.15795548503739,10.670533708414524,78.03443687572113,84.01738516235697,-5.982948286635846,40.48487813411393,51.4807162587544,-10.995838124640471,4.918916543142967e-05,0.0,4.918916543142967e-05
0.1360000000000001,move_to_zero,-0.11452644964522114,-4.1054947035378,3.9909682538925786,-75.32534023151659,-86.0657092800213,10.740369048504704,77.87877800972863,83.92743078852149,-6.048652778792857,40.28191436280796,51.425597718862804,-11.143683356054844,-0.0002999576005183886,0.0,-0.0002999576005183886
0.1380000000000001,move_to_zero,-0.11449404704592556,-4.1010943876712,3.9866003406252744,-75.16667079854231,-85.97346307500518,10.806792276462872,77.72566828681342,83.83747641468598,-6.111808127872564,40.08166914412517,51.370479178971195,-11.288810034846023,-0.0006235731823005853,0.0,-0.0006235731823005853
0.1400000000000001,move_to_zero,-0.11437749943957047,-4.0966940718046,3.9823165723650296,-75.01126742266267,-85.88121686998909,10.86994944732642,77.57507351910233,83.74752204085048,-6.1724485217481515,39.88415554740821,51.31536063907959,-11.43120509167138,-0.0009302191856705308,0.0,-0.0009302191856705308
0.1420000000000001,move_to_zero,-0.11418690988357924,-4.092293755938,3.9781068460544207,-74.85902919125398,-85.788970664973,10.929941473719012,77.42697737070013,83.65756766701499,-6.230590296314858,39.689339518061324,51.260242099188,-11.570902581126674,-0.0012187022794426404,0.0,-0.0012187022794426404
0.1440000000000001,move_to_zero,-0.1139302255020941,-4.087893440071399,3.973963214569305,-74.7098554434942,-85.6967244599569,10.986869016462691,77.28134102633635,83.56761329317948,-6.2862722668431275,39.497205467198526,51.205123559296396,-11.70791809209787,-0.0014936036522706889,0.0,-0.0014936036522706889
0.1460000000000001,move_to_zero,-0.11361129803677561,-4.083493124204799,3.9698818261680238,-74.56365214248348,-85.6044782549408,11.040826112457324,77.13811366205601,83.47765891934398,-6.339545257287966,39.30773644302047,51.1500050194048,-11.842268576384335,-0.0017565250422589824,0.0,-0.0017565250422589824
0.1480000000000001,move_to_zero,-0.11323660995218114,-4.079092808338199,3.965856198386018,-74.42032034320081,-85.51223204992469,11.091911706723877,76.99724552237424,83.38770454550848,-6.390459023134241,39.12092648940743,51.0948864795132,-11.973959990105769,-0.0020110880242939413,0.0,-0.0020110880242939413
0.1500000000000001,move_to_zero,-0.11282906964000641,-4.074692492471599,3.961863422831593,-74.27974706494558,-85.4199858449086,11.140238779963013,76.85869488880535,83.29775017167299,-6.439055282867642,38.93674135363111,51.0397679396216,-12.103026585990484,-0.0022585514341797977,0.0,-0.0022585514341797977
0.1520000000000001,move_to_zero,-0.11239031021620326,-4.070292176604999,3.957901866388796,-74.14182652539759,-85.32773963989249,11.185913114494895,76.72240743019314,83.20779579783748,-6.485388367644333,38.755156498794236,50.984649399729996,-12.22949290093576,-0.0025008451212733514,0.0,-0.0025008451212733514
0.1540000000000001,move_to_zero,-0.11194679601887635,-4.065891860738399,3.953945064719523,-74.00645383113792,-85.23549343487639,11.229039603738471,76.58831912004999,83.11784142400198,-6.5295223039519925,38.57615761077552,50.929530859838394,-12.353373249062876,-0.00275776342878888,0.0,-0.00275776342878888
0.1560000000000001,move_to_zero,-0.11150671291706159,-4.061491544871799,3.9499848319547377,-73.87350917599792,-85.1432472298603,11.269738053862369,76.45636818468952,83.02788705016648,-6.5715188654769605,38.399701097015786,50.8744123199468,-12.474711222931013,-0.003041045564123041,0.0,-0.003041045564123041
0.1580000000000001,move_to_zero,-0.11106954978867535,-4.0570912290051995,3.946021679216524,-73.74290465253668,-85.0510010248442,11.308096372307517,76.3265030915031,82.93793267633099,-6.611429584827889,38.22576811560743,50.8192937800552,-12.593525664447768,-0.0033558582617978605,0.0,-0.0033558582617978605
0.16000000000000011,move_to_zero,-0.11065355352896812,-4.052690913138599,3.9420373596096305,-73.6145580989009,-84.95875481982809,11.344196720927187,76.19865680201089,82.84797830249549,-6.649321500484604,38.05435821348797,50.7641752401636,-12.70981702667563,-0.0036948562008513167,0.0,-0.0036948562008513167
0.16200000000000012,move_to_zero,-0.11025632088772981,-4.048290597272,3.9380342763842697,-73.48837072300041,-84.86650861481199,11.378137891811576,76.07278404558436,82.75802392865998,-6.685239883075624,37.885466210926616,50.709056700271994,-12.823590489345378,-0.0040603040508881165,0.0,-0.0040603040508881165
0.16400000000000012,move_to_zero,-0.10988749677370105,-4.0438902814054,3.9340027846316987,-73.36426754397316,-84.7742624097959,11.409994865822739,75.94884986505991,82.66806955482448,-6.7192196897645715,37.71906738356801,50.6539381603804,-12.934870776812389,-0.004448904549017996,0.0,-0.004448904549017996
0.16600000000000012,move_to_zero,-0.10954146412621425,-4.0394899655388,3.9299485014125852,-73.2421310294999,-84.68201620477979,11.439885175279883,75.82677042413175,82.57811518098899,-6.751344756857236,37.55513317664121,50.5988196204888,-13.043686443847584,-0.004856611324771585,0.0,-0.004856611324771585
0.16800000000000012,move_to_zero,-0.10922129659865688,-4.0350896496722,3.9258683530735428,-73.12187270813978,-84.5897699997637,11.467897291623927,75.70648277675248,82.48816080715348,-6.781678030400997,37.393610146134066,50.543701080597195,-13.15009093446313,-0.005239349200650629,0.0,-0.005239349200650629
0.17000000000000012,move_to_zero,-0.10891660925096804,-4.0306893338056,3.9217727245546317,-73.00341429802405,-84.4975237947476,11.494109496723539,75.58791940503028,82.398206433318,-6.810287028287718,37.234454404731224,50.4885825407056,-13.254128135974376,-0.005590076212171254,0.0,-0.005590076212171254
0.17200000000000013,move_to_zero,-0.10861361180388489,-4.026289017939,3.917675406135115,-72.8866849109735,-84.4052775897315,11.518592678757997,75.47103585453645,82.30825205948248,-6.837216204946031,37.07762546645735,50.433464000814,-13.35583853435665,-0.0059124424241544585,0.0,-0.0059124424241544585
0.17400000000000013,move_to_zero,-0.10830270431576247,-4.021888702072399,3.9135859977566367,-72.77160949026629,-84.31303138471539,11.541421894449101,75.35578698722396,82.21829768564697,-6.862510698423009,36.923073577283056,50.3783454609224,-13.455271883639341,-0.006212904667186539,0.0,-0.006212904667186539
0.17600000000000013,move_to_zero,-0.10799057998147006,-4.017488386205799,3.909497806224329,-72.65809531772373,-84.22078517969929,11.562689861975556,75.24212410413016,82.12834331181149,-6.886219207681336,36.77076165557402,50.323226921030795,-13.552465265456775,-0.006496000782296342,0.0,-0.006496000782296342
0.17800000000000013,move_to_zero,-0.10768097994323515,-4.013088070339199,3.905407090395964,-72.54606429432702,-84.12853897468318,11.582474680356157,75.12999373661283,82.03838893797598,-6.908395201363149,36.620652423093695,50.2681083811392,-13.647455958045505,-0.006765281702281376,0.0,-0.006765281702281376
0.18000000000000013,move_to_zero,-0.10736224638553253,-4.008687754472599,3.9013255080870666,-72.43545603171984,-84.0362927696671,11.600836737947262,75.01934338923587,81.94843456414048,-6.929091174904613,36.4727004232519,50.2129898412476,-13.740289417995697,-0.007040303969780554,0.0,-0.007040303969780554
0.18200000000000013,move_to_zero,-0.10702594847526603,-4.004287438605999,3.897261490130733,-72.32619461409578,-83.944046564651,11.61785195055522,74.91012155523326,81.85848019030499,-6.9483586350717275,36.32685836021798,50.157871301355996,-13.831012941138013,-0.007334972112147946,0.0,-0.007334972112147946
0.18400000000000014,move_to_zero,-0.10667800939119244,-3.9998871227393993,3.893209113348207,-72.2182023067028,-83.8518003596349,11.633598052932086,74.80226626432268,81.76852581646948,-6.966259552146795,36.183088898855345,50.1027527614644,-13.919663862609056,-0.007639386379488516,0.0,-0.007639386379488516
0.18600000000000014,move_to_zero,-0.10632274564933927,-3.995486806872799,3.8891640612234597,-72.11139720635363,-83.7595541546188,11.648156948265168,74.69570987201215,81.67857144263398,-6.982861570621836,36.04135787047706,50.04763422157279,-14.006276351095735,-0.007943244712018393,0.0,-0.007943244712018393
0.18800000000000014,move_to_zero,-0.1059528693133916,-3.991086491006199,3.885133621692807,-72.00571962577968,-83.66730794960269,11.661588323823011,74.59040469708644,81.58861706879848,-6.998212371712043,35.90163224317287,49.9925156816812,-14.090883438508328,-0.008235986627286682,0.0,-0.008235986627286682
0.19000000000000014,move_to_zero,-0.10559143607920257,-3.986686175139599,3.8810947390603965,-71.901096572852,-83.57506174458659,11.673965171734594,74.48631913913673,81.49866269496299,-7.012343555826263,35.76388222692102,49.937397141789596,-14.173514914868576,-0.008514859886924553,0.0,-0.008514859886924553
0.19200000000000014,move_to_zero,-0.10522022345171293,-3.9822858592729995,3.8770656358212867,-71.79746303201237,-83.48281553957048,11.685352507558108,74.38337655513531,81.40870832112748,-7.0253317659921635,35.628071261847815,49.882278601897994,-14.25420734005018,-0.008805514982315035,0.0,-0.008805514982315035
0.19400000000000014,move_to_zero,-0.10484914063898691,-3.9778855434063995,3.8730364027674127,-71.69473908330865,-83.3905693345544,11.695830251245752,74.2815274072911,81.31875394729198,-7.037226540000887,35.494158249094035,49.8271600620064,-14.333001812912364,-0.009082030923092734,0.0,-0.009082030923092734
0.19600000000000015,move_to_zero,-0.10447818094133852,-3.9734852275397996,3.869007046598461,-71.59286873824003,-83.29832312953829,11.705454391298261,74.18071447181995,81.22879957345648,-7.048085101636531,35.362088761949074,49.7720415221148,-14.409952760165723,-0.009346640870900858,0.0,-0.009346640870900858
0.19800000000000015,move_to_zero,-0.10410448819289805,-3.9690849116731997,3.8649804234803016,-71.49178159271345,-83.2060769245222,11.714295331808742,74.08088550586673,81.13884519962097,-7.057959693754242,35.231818008086194,49.716922982223196,-14.485104974137002,-0.00960080175760029,0.0,-0.00960080175760029
0.20000000000000015,move_to_zero,-0.10371311195042425,-3.9646845958065993,3.860971483856175,-71.39141993274316,-83.1138307195061,11.722410786762936,73.98199528911702,81.04889082578549,-7.0668955366684685,35.103307619681644,49.661804442331594,-14.55849682264995,-0.009848509526395016,0.0,-0.009848509526395016
0.20200000000000015,move_to_zero,-0.10330236527564805,-3.9602842799399993,3.856981914664351,-71.291735152109,-83.02158451448999,11.729849362380989,73.8840092574074,80.95893645194998,-7.074927194542582,34.97648756886707,49.60668590244,-14.630198333572928,-0.010096668601296039,0.0,-0.010096668601296039
0.20400000000000015,move_to_zero,-0.1028936303403613,-3.9558839640733994,3.8529903337330382,-71.1927118958476,-82.92933830947389,11.736626413626297,73.78688511482251,80.86898207811447,-7.08209696329196,34.8513305071221,49.5515673625484,-14.700236855426297,-0.01034253781111822,0.0,-0.01034253781111822
0.20600000000000016,move_to_zero,-0.10249070670715486,-3.9514836482067994,3.8489929414996444,-71.09428856140694,-82.8370921044578,11.742803543050854,73.69054817750117,80.77902770427899,-7.088479526777817,34.72779411040983,49.496448822656795,-14.768654712246963,-0.010583829471466119,0.0,-0.010583829471466119
0.20800000000000016,move_to_zero,-0.10207198573028972,-3.947083332340199,3.845011346609909,-70.99640555749886,-82.7448458994417,11.748440341942839,73.594963472572,80.68907333044348,-7.094109857871473,34.60583988385504,49.4413302827652,-14.83549039891016,-0.010820683119903297,0.0,-0.010820683119903297
0.21000000000000016,move_to_zero,-0.10164802031278228,-3.942683016473599,3.841034996160817,-70.89901162843627,-82.65259969442559,11.75358806598932,73.50011748154448,80.59911895660798,-7.099001475063503,34.48542111567843,49.38621174287359,-14.900790627195164,-0.011054576131513281,0.0,-0.011054576131513281
0.21200000000000016,move_to_zero,-0.10120819958348815,-3.938282700606999,3.837074501023511,-70.8020705866273,-82.5603534894095,11.758282902782199,73.40599172969077,80.50916458277248,-7.103172853081716,34.366480497895964,49.331093202982,-14.964612705086033,-0.011290418023071003,0.0,-0.011290418023071003
0.21400000000000016,move_to_zero,-0.10075474633375163,-3.933882384740399,3.8331276384066477,-70.705529100434,-82.46810728439338,11.762578183959377,73.31252886078005,80.41921020893697,-7.1066813481569255,34.24896541085822,49.275974663090395,-15.027009252232176,-0.011527246980067966,0.0,-0.011527246980067966
0.21600000000000016,move_to_zero,-0.1003232116545797,-3.929482068873799,3.8291588572192192,-70.60934013396012,-82.37586107937729,11.76652094541717,73.21969673668087,80.32925583510148,-7.109559098420604,34.13284395206806,49.2208561231988,-15.088012171130742,-0.01177687427376106,0.0,-0.01177687427376106
0.21800000000000017,move_to_zero,-0.09991920093668905,-3.925081753007199,3.82516255207051,-70.51345649133584,-82.28361487436119,11.770158383025347,73.12744742279203,80.23930146126598,-7.11185403847395,34.01806512604311,49.1657375833072,-15.147672457264086,-0.012035564832607254,0.0,-0.012035564832607254
0.22000000000000017,move_to_zero,-0.09953081914650048,-3.9206814371406,3.8211506179940993,-70.41784613380115,-82.1913686693451,11.773522535543947,73.03573436389358,80.14934708743048,-7.113612723536903,33.904593542288154,49.110619043415596,-15.206025501127442,-0.012307847920443517,0.0,-0.012307847920443517
0.22200000000000017,move_to_zero,-0.09915392718984634,-3.9162811212739994,3.817127194084153,-70.3224699191626,-82.099122464329,11.7766525451664,72.94451556008173,80.05939271359497,-7.114877153513248,33.792385851690824,49.055500503523994,-15.26311465183317,-0.01257082094400654,0.0,-0.01257082094400654
0.22400000000000017,move_to_zero,-0.0987595160339001,-3.9118808054073995,3.813121289373499,-70.22730507552959,-82.00687625931289,11.779571183783304,72.85375997629086,79.96943833975948,-7.115678363468618,33.68142898048327,49.00038196363239,-15.318952983149124,-0.012829494059350684,0.0,-0.012829494059350684
0.22600000000000017,move_to_zero,-0.09835492571046446,-3.9074804895407995,3.809125563830335,-70.13232228534885,-81.9146300542968,11.782307768947945,72.76342663660688,79.87948396592398,-7.116057329317101,33.571661475069085,48.9452634237408,-15.373601948671713,-0.013108567900099549,0.0,-0.013108567900099549
0.22800000000000017,move_to_zero,-0.09795901527659664,-3.9030801736741996,3.805121158397603,-70.03750466155361,-81.82238384928068,11.784879187727071,72.67348724360306,79.78952959208848,-7.116042348485422,33.46305754553129,48.890144883849196,-15.427087338317904,-0.013406261343494598,0.0,-0.013406261343494598
0.23000000000000018,move_to_zero,-0.09758645053812212,-3.898679857807599,3.801093407269477,-69.94283809704814,-81.73013764426459,11.787299547216449,72.5838985358478,79.69957521825299,-7.115676682405194,33.35560026154824,48.8350263439576,-15.479426082409361,-0.013713766149334911,0.0,-0.013713766149334911
0.23200000000000018,move_to_zero,-0.09723775641656957,-3.8942795419409992,3.7970417855244296,-69.8483086608462,-81.63789143924849,11.789582778402291,72.49464237753698,79.60962084441748,-7.114978466880501,33.24922906317011,48.77990780406599,-15.53067874089588,-0.01403876363752239,0.0,-0.01403876363752239
0.23400000000000018,move_to_zero,-0.09687048923463895,-3.8898792260743993,3.7930087368397603,-69.75388657447701,-81.5456452342324,11.791758659755388,72.40568700191305,79.51966647058198,-7.11397946866893,33.14392094151741,48.72478926417439,-15.580868322656983,-0.01434270592520571,0.0,-0.01434270592520571
0.23600000000000018,move_to_zero,-0.09649629629869459,-3.8854789102077993,3.7889826139091047,-69.65954135013908,-81.45339902921629,11.793857679077206,72.31700880616282,79.42971209674648,-7.112703290583667,33.03965144371119,48.669670724282796,-15.630019280571602,-0.014630196923303756,0.0,-0.014630196923303756
0.23800000000000018,move_to_zero,-0.09609605843139049,-3.881078594341199,3.7849825359098084,-69.56525323865131,-81.36115282420019,11.79589958554888,72.2285904284134,79.33975772291097,-7.111167294497577,32.936355325686826,48.614552184391194,-15.678196858704368,-0.01490331081389045,0.0,-0.01490331081389045
0.24000000000000019,move_to_zero,-0.09567692918778561,-3.876678278474599,3.7810013492868135,-69.47100123315445,-81.2689066191841,11.79790538602964,72.14040143525459,79.24980334907549,-7.1094019138209035,32.83397604017178,48.5594336444996,-15.725457604327822,-0.01516431094535646,0.0,-0.01516431094535646
0.2420000000000002,move_to_zero,-0.09525727536555818,-3.872277962607999,3.777020687242441,-69.37678396988197,-81.17666041416798,11.799876444286014,72.05241445498027,79.15984897523998,-7.107434520259716,32.73245030295211,48.504315104608,-15.771864801655887,-0.015413834000271022,0.0,-0.015413834000271022
0.2440000000000002,move_to_zero,-0.09483093514067013,-3.867877646741399,3.773046711600729,-69.2825647234575,-81.08441420915189,11.80184948569439,71.96460356259563,79.06989460140447,-7.1052910388088435,32.63172399649745,48.449196564716395,-15.817472568218946,-0.0156558270466296,0.0,-0.0156558270466296
0.2460000000000002,move_to_zero,-0.09441672307465156,-3.8634773308747987,3.769060607800147,-69.18833470504133,-80.99216800413579,11.803833299094464,71.87691902610477,78.97994022756899,-7.103021201464216,32.53178023824406,48.39407802482479,-15.862297786580733,-0.015896390955469148,0.0,-0.015896390955469148
0.2480000000000002,move_to_zero,-0.09402165820492223,-3.8590770150081988,3.7650553568032765,-69.09409383093517,-80.8999217991197,11.80582796818453,71.78933848586338,78.88998585373348,-7.100647367870096,32.43258692083661,48.33895948493319,-15.906372564096579,-0.016147955659819538,0.0,-0.016147955659819538
0.25000000000000017,move_to_zero,-0.09364750944111021,-3.8546766991415997,3.7610291897004897,-68.99981524040348,-80.80767559410359,11.807860353700107,71.7018612071566,78.80003147989798,-7.098170272741385,32.334138348228834,48.2838409450416,-15.949702596812763,-0.016397580524192806,0.0,-0.016397580524192806
0.25200000000000017,move_to_zero,-0.09327283486231502,-3.8502763832749993,3.7570035484126842,-68.90549791691062,-80.71542938908749,11.80993147217687,71.61446472961862,78.71007710606249,-7.095612376443867,32.23640624725316,48.228722405149995,-15.992316157896838,-0.016645378104157577,0.0,-0.016645378104157577
0.25400000000000017,move_to_zero,-0.09290324131849524,-3.8458760674083994,3.7529728260899042,-68.81115619789155,-80.62318318407138,11.81202698617983,71.52712246673224,78.62012273222697,-7.093000265494737,32.139402563102784,48.1736038652584,-16.034201302155616,-0.01689415616731975,0.0,-0.01689415616731975
0.25600000000000017,move_to_zero,-0.09253391640978925,-3.8414757515417994,3.74894183513201,-68.71677669420677,-80.53093697905528,11.814160284848512,71.43979974090797,78.53016835839148,-7.090368617483506,32.043099647416106,48.11848532536679,-16.075385677950685,-0.01713723249867703,0.0,-0.01713723249867703
0.2580000000000002,move_to_zero,-0.09216717871195172,-3.8370754356751995,3.7449082569632477,-68.62233625241407,-80.43869077403919,11.816354521625115,71.35246749527346,78.44021398455598,-7.087746489282523,31.947474142327298,48.063366785475196,-16.115892643147898,-0.017379083618807772,0.0,-0.017379083618807772
0.2600000000000002,move_to_zero,-0.09183310910427643,-3.832675119808599,3.7408420107043225,-68.52784549954158,-80.34644456902309,11.818599069481508,71.26510218986718,78.35025961072049,-7.085157420853307,31.8525124982352,48.008248245583594,-16.155735747348395,-0.01761689571273759,0.0,-0.01761689571273759
0.2620000000000002,move_to_zero,-0.09153789008973222,-3.828274803941999,3.736736913852267,-68.43329462346891,-80.254198364007,11.820903740538085,71.17768361999401,78.26030523688497,-7.082621616890961,31.75818008014125,47.95312970569199,-16.19494962555074,-0.01785089770263846,0.0,-0.01785089770263846
0.2640000000000002,move_to_zero,-0.09127523731875238,-3.823874488075399,3.732599250756647,-68.33868920545905,-80.16195215899089,11.823262953531838,71.09017899960652,78.17035086304948,-7.080171863442956,31.664445201903263,47.8980111658004,-16.233565963897135,-0.018081578476104115,0.0,-0.018081578476104115
0.2660000000000002,move_to_zero,-0.09103176054773528,-3.8194741722087993,3.728442411661064,-68.2440324465986,-80.06970595397479,11.825673507376194,71.00255654665114,78.08039648921398,-7.077839942562846,31.571275503518013,47.842892625908796,-16.271617122390783,-0.018314963062177256,0.0,-0.018314963062177256
0.2680000000000002,move_to_zero,-0.09078513224952313,-3.815073856342199,3.7242887240926756,-68.14933400183438,-79.97745974895868,11.828125747124304,70.91477979832788,77.99044211537847,-7.075662317050586,31.478662264669683,47.787774086017194,-16.30911182134751,-0.01855461703603151,0.0,-0.01855461703603151
0.2700000000000002,move_to_zero,-0.09052401952018306,-3.810673540475599,3.720149520955416,-68.05458816220107,-79.8852135439426,11.830625381741527,70.82683701622277,77.90048774154299,-7.0736507253202205,31.386602144187346,47.73265554612559,-16.346053401938246,-0.018793885076417795,0.0,-0.018793885076417795
0.2720000000000002,move_to_zero,-0.0902378617413028,-3.806273224608999,3.716035362867696,-67.95981848593952,-79.79296733892649,11.833148852986966,70.73871875732863,77.81053336770748,-7.071814610378851,31.295069368870102,47.677537006234,-16.382467637363895,-0.019031180616677204,0.0,-0.019031180616677204
0.2740000000000002,move_to_zero,-0.08990542833791086,-3.801872908742399,3.711967480404488,-67.86502340245684,-79.70072113391039,11.83569773145355,70.65040236160903,77.72057899387197,-7.0701766322629425,31.204017365795547,47.622418466342396,-16.41840110054685,-0.019273079731456307,0.0,-0.019273079731456307
0.2760000000000002,move_to_zero,-0.08954952442729824,-3.7974725928757986,3.7079230684485003,-67.77020355704666,-79.60847492889428,11.838271371847625,70.56187133680723,77.63062462003649,-7.068753283229256,31.113435368247103,47.567299926450794,-16.45386455820369,-0.01953067243554754,0.0,-0.01953067243554754
0.2780000000000002,move_to_zero,-0.08916668823161922,-3.7930722770091996,3.7039055887775802,-67.6753244457332,-79.51622872387819,11.84090427814499,70.4731034404481,77.54067024620097,-7.067566805752875,31.02329656200252,47.5121813865592,-16.488884824556678,-0.019811592383006487,0.0,-0.019811592383006487
0.2800000000000002,move_to_zero,-0.08878718349214691,-3.7886719611425996,3.699884777650453,-67.58039847817032,-79.42398251886209,11.843584040691766,70.3840944627583,77.45071587236548,-7.06662140960718,30.93356746691357,47.45706284666759,-16.52349537975402,-0.020119987755252956,0.0,-0.020119987755252956
0.2820000000000002,move_to_zero,-0.08844599714219434,-3.7842716452759992,3.695825648133805,-67.48545087563144,-79.331736313846,11.84628543821455,70.29483592921825,77.36076149852998,-7.06592556931173,30.844233787170563,47.401944306775995,-16.557710519605433,-0.020442942702799134,0.0,-0.020442942702799134
0.2840000000000002,move_to_zero,-0.088141659980504,-3.7798713294093993,3.6917296694288955,-67.39047516301251,-79.2394901088299,11.849014945817387,70.20532918059492,77.27080712469449,-7.06547794409957,30.75527630114376,47.34682576688439,-16.591549465740634,-0.02077953014173295,0.0,-0.02077953014173295
0.2860000000000002,move_to_zero,-0.0878696325903752,-3.7754710135427993,3.687601380952424,-67.29549196378285,-79.14724390381379,11.851751940030937,70.11556005446319,77.18085275085897,-7.065292696395787,30.66670148120156,47.29170722699279,-16.62500574579123,-0.021109722171731706,0.0,-0.021109722171731706
0.2880000000000002,move_to_zero,-0.08762234022823974,-3.7710706976761994,3.6834483574479595,-67.20049092843844,-79.05499769879769,11.85450677035925,70.02551656134011,77.09089837702348,-7.0653818156833665,30.578489402922244,47.2365886871012,-16.658099284178952,-0.02141509642139493,0.0,-0.02141509642139493
0.2900000000000002,move_to_zero,-0.08739103956972066,-3.766670381809599,3.6792793422398784,-67.10547884934017,-78.96275149378158,11.857272644441409,69.93519918647189,77.00094400318798,-7.065744816716091,30.490640990953253,47.181470147209595,-16.690829156256342,-0.021700680479291128,0.0,-0.021700680479291128
0.2920000000000002,move_to_zero,-0.08716437020289933,-3.762270065942999,3.6751056957400996,-67.01046064898617,-78.87050528876549,11.860044639779318,69.84460574889266,76.91098962935247,-7.06638388045981,30.40315824989924,47.12635160731799,-16.723193357418754,-0.02196945937927052,0.0,-0.02196945937927052
0.2940000000000002,move_to_zero,-0.08694479847992634,-3.757869750076399,3.6709249515964726,-66.91543165210389,-78.77825908374939,11.8628274316455,69.7537584157016,76.82103525551699,-7.067276839815392,30.316032016901403,47.07123306742639,-16.755201050524988,-0.022224121225797606,0.0,-0.022224121225797606
0.2960000000000002,move_to_zero,-0.08669367967269682,-3.753469434209799,3.6667757545371025,-66.82040982620249,-78.6860128787333,11.865603052530801,69.6626537990512,76.73108088168148,-7.068427082630279,30.229251160247088,47.016114527534796,-16.786863367287708,-0.022466212719829095,0.0,-0.022466212719829095
0.2980000000000002,move_to_zero,-0.08640711758386968,-3.749069118343199,3.662662000759329,-66.72540304668097,-78.59376667371718,11.868363627036217,69.57129136880559,76.64112650784598,-7.069835139040393,30.14279518091359,46.960995987643194,-16.818200806729603,-0.022700065325849755,0.0,-0.022700065325849755
0.3000000000000002,move_to_zero,-0.08607902948701845,-3.744668802476599,3.6585897729895804,-66.6304282608253,-78.50152046870109,11.87109220787579,69.47966647917815,76.55117213401049,-7.071505654832336,30.056656958463712,46.90587744775159,-16.84922048928788,-0.022929086523779278,0.0,-0.022929086523779278
0.3020000000000002,move_to_zero,-0.0857369311283405,-3.740268486609999,3.6545315554816584,-66.53547585381503,-78.40927426368499,11.873798409869963,69.38780242050557,76.46121776017497,-7.07341533966941,29.970846633502003,46.85075890786,-16.879912274357995,-0.023154698685347457,0.0,-0.023154698685347457
0.3040000000000002,move_to_zero,-0.08538676370235089,-3.735868170743399,3.650481407041048,-66.44054923297236,-78.31702805866888,11.876478825696523,69.29571657946839,76.37126338633948,-7.075546806871088,29.885323704925295,46.79564036796839,-16.910316663043094,-0.023376075008898357,0.0,-0.023376075008898357
0.3060000000000002,move_to_zero,-0.08501647320150445,-3.7314678548767994,3.646451381675295,-66.34564819097024,-78.22478185365279,11.879133662682548,69.20339642443606,76.28130901250398,-7.0779125880679175,29.800076030040536,46.740521828076794,-16.940445798036258,-0.023593111618754915,0.0,-0.023593111618754915
0.3080000000000002,move_to_zero,-0.08463260669027796,-3.7270675390101995,3.6424349323199214,-66.25078094745263,-78.13253564863669,11.881754701184065,69.11081257714385,76.19135463866847,-7.080542061524625,29.715102744446856,46.68540328818519,-16.970300543738336,-0.0238058404344167,0.0,-0.0238058404344167
0.3100000000000002,move_to_zero,-0.08424769619508403,-3.7226672231435995,3.6384195269485153,-66.15593535816963,-78.0402894436206,11.884354085450965,69.01795764108894,76.10140026483299,-7.083442623744048,29.630375972435278,46.6302847482936,-16.99990877585832,-0.024015721615298895,0.0,-0.024015721615298895
0.3120000000000002,move_to_zero,-0.08389125107015463,-3.718266907276999,3.6343756562068443,-66.06109791426881,-77.94804323860448,11.88694532433567,68.92482280602252,76.01144589099748,-7.08662308497496,29.545863299189865,46.575166208401996,-17.02930290921213,-0.024221684502790594,0.0,-0.024221684502790594
0.3140000000000002,move_to_zero,-0.08357785176601483,-3.713866591410399,3.6302887396443846,-65.96628096118948,-77.85579703358839,11.889516072398905,68.83141937409816,75.92149151716198,-7.090072143063821,29.461567805740444,46.520047668510394,-17.05847986276995,-0.02442555695764943,0.0,-0.02442555695764943
0.3160000000000002,move_to_zero,-0.08329033288443692,-3.7094662755437993,3.6261759426593625,-65.8714988889037,-77.76355082857228,11.892051939668576,68.73775270642084,75.83153714332649,-7.093784436905651,29.377474108073745,46.46492912861879,-17.087455020545047,-0.024628961934983283,0.0,-0.024628961934983283
0.3180000000000002,move_to_zero,-0.08301947666181746,-3.7050659596771993,3.622046483015382,-65.77675442754322,-77.67130462355618,11.894550196012958,68.64381612697309,75.74158276949098,-7.0977666425178825,29.29356206100084,46.40981058872719,-17.11624852772635,-0.02483060702846348,0.0,-0.02483060702846348
0.32000000000000023,move_to_zero,-0.08274540165904462,-3.700665643810599,3.617920242151554,-65.68203657337726,-77.57905841854009,11.897021845162826,68.5496137436645,75.65162839565548,-7.102014651990984,29.209851780426167,46.354692048835595,-17.14484026840943,-0.02503250408169307,0.0,-0.02503250408169307
0.32200000000000023,move_to_zero,-0.08247059982353679,-3.696265327943999,3.613794728120462,-65.58732616557414,-77.48681221352399,11.89948604794985,68.4551666785116,75.56167402181998,-7.10650734330838,29.12629646625855,46.29957350894399,-17.17327704268544,-0.02523644536378127,0.0,-0.02523644536378127
0.32400000000000023,move_to_zero,-0.08218197260880065,-3.691865012077399,3.6096830394685986,-65.49261978673512,-77.3945660085079,11.901946221772775,68.36047251084332,75.47171964798449,-7.111247137141163,29.042890675694405,46.2444549690524,-17.201564293357993,-0.025441272157193887,0.0,-0.025441272157193887
0.32600000000000023,move_to_zero,-0.08186854205271492,-3.687464696210799,3.6055961541580843,-65.3979565734591,-77.30231980349178,11.904363230032686,68.26554333840704,75.38176527414898,-7.116221935741933,28.959606892622936,46.1893364291608,-17.22972953653786,-0.025645571399636812,0.0,-0.025645571399636812
0.32800000000000024,move_to_zero,-0.08155182816822798,-3.6830643803441987,3.6015125521759708,-65.30333423124986,-77.21007359847569,11.906739367225825,68.1703677792385,75.29181090031348,-7.121443121074975,28.8764213937999,46.13421788926919,-17.257796495469286,-0.025852158901259196,0.0,-0.025852158901259196
0.33000000000000024,move_to_zero,-0.08122927960090018,-3.6786640644775987,3.5974347848766985,-65.20874366341549,-77.11782739345958,11.909083730044088,68.07494209183393,75.20185652647798,-7.12691443464405,28.793340482363067,46.07909934937759,-17.285758867014525,-0.026060732139726143,0.0,-0.026060732139726143
0.33200000000000024,move_to_zero,-0.08089894210894104,-3.674263748610999,3.593364806502058,-65.11417544472546,-77.02558118844348,11.91140574371802,67.97926178794246,75.11190215264247,-7.132640364700009,28.710350449356977,46.02398080948599,-17.313630360129014,-0.026271286690614796,0.0,-0.026271286690614796
0.33400000000000024,move_to_zero,-0.08058071986930557,-3.669863432744399,3.5892827128750935,-65.01962170450544,-76.93333498342739,11.913713278921946,67.88332156902858,75.02194777880699,-7.138626209778408,28.627449015333088,45.968862269594396,-17.341413254261308,-0.026486544420019176,0.0,-0.026486544420019176
0.33600000000000024,move_to_zero,-0.08027021641235509,-3.6654631168777994,3.585192900465444,-64.92509879560586,-76.84108877841129,11.915989982805428,67.7871487446524,74.93199340497148,-7.14484466031908,28.544630741720454,45.913743729702794,-17.36911298798234,-0.026701054530812982,0.0,-0.026701054530812982
0.33800000000000024,move_to_zero,-0.07997787534113697,-3.6610628010111994,3.5810849256700625,-64.83061912470073,-76.74884257339518,11.918223448694448,67.69074994482526,74.84203903113597,-7.151289086310712,28.461887187819677,45.85862518981119,-17.396738001991515,-0.026914934245809794,0.0,-0.026914934245809794
0.34000000000000025,move_to_zero,-0.07971610155325769,-3.6566624851445995,3.5769463835913418,-64.73618866813551,-76.65659636837908,11.920407700243572,67.59409828772819,74.75208465730049,-7.157986369572299,28.37921741688976,45.80350664991959,-17.424289233029832,-0.02712947581017695,0.0,-0.02712947581017695
0.34200000000000025,move_to_zero,-0.07947859761091135,-3.652262169277999,3.5727835716670877,-64.6418066511492,-76.56435016336299,11.922543512213792,67.49717963402271,74.66213028346498,-7.164950649442261,28.296587256542114,45.74838811002799,-17.451800853485874,-0.027348062372097786,0.0,-0.027348062372097786
0.34400000000000025,move_to_zero,-0.07926093398483125,-3.647861853411399,3.5686009194265678,-64.5474557700481,-76.47210395834688,11.924648188298775,67.39998142638936,74.57217590962948,-7.172194483240119,28.214000076340028,45.693269570136394,-17.479269493796366,-0.027590098048516427,0.0,-0.027590098048516427
0.34600000000000025,move_to_zero,-0.0790587426614477,-3.643461537544799,3.5644027948833514,-64.45314576582109,-76.3798577533308,11.926711987509705,67.30251354764667,74.48222153579398,-7.179707988147314,28.131474714125996,45.63815103024479,-17.506676316118796,-0.027842122662539593,0.0,-0.027842122662539593
0.34800000000000025,move_to_zero,-0.0788691085752792,-3.6390612216781992,3.56019211310292,-64.35887542375308,-76.28761154831469,11.92873612456161,67.20477562109095,74.39226716195847,-7.187491540867526,28.04901519483325,45.5830324903532,-17.53401729551995,-0.028096309386420132,0.0,-0.028096309386420132
0.35000000000000026,move_to_zero,-0.07869065935665474,-3.634660905811599,3.5559702464549443,-64.26465708895302,-76.19536534329859,11.930708254345575,67.1067838970407,74.30231278812298,-7.195528891082276,27.966606483868134,45.52791395046159,-17.561307466593455,-0.028358004103099577,0.0,-0.028358004103099577
0.35200000000000026,move_to_zero,-0.07852157333258995,-3.630260589944999,3.5517390166124088,-64.17049921911338,-76.10311913828248,11.932619919169099,67.0085712321466,74.21235841428748,-7.203787182140886,27.88425545667524,45.472795410569994,-17.588539953894752,-0.028634820026607284,0.0,-0.028634820026607284
0.35400000000000026,move_to_zero,-0.07835930870316025,-3.625860274078399,3.5475009653752387,-64.07639223621872,-76.01087293326638,11.934480697047661,66.91012915082513,74.12240404045198,-7.212274889626855,27.801943445016402,45.41767687067839,-17.61573342566199,-0.028900836036302637,0.0,-0.028900836036302637
0.35600000000000026,move_to_zero,-0.07820176846676649,-3.621459958211799,3.5432581897450324,-63.98235583528457,-75.91862672825027,11.936270892965702,66.8114438189034,74.03244966661647,-7.221005847713073,27.719654196185147,45.36255833078679,-17.642904134601643,-0.029183025267764028,0.0,-0.029183025267764028
0.35800000000000026,move_to_zero,-0.07804752258482707,-3.6170596423451986,3.5390121197603714,-63.888391715890144,-75.82638052323418,11.937988807344034,66.71254054514007,73.94249529278098,-7.229954747640903,27.63739689342749,45.307439790895195,-17.670042897467706,-0.029483825332393406,0.0,-0.029483825332393406
0.36000000000000026,move_to_zero,-0.07787506190767311,-3.6126593264785987,3.5347842645709258,-63.79451405796866,-75.7341343182181,11.939620260249434,66.6134115911511,73.85254091894548,-7.239129327794373,27.5551638118162,45.25232125100359,-17.697157439187393,-0.029809147724736623,0.0,-0.029809147724736623
0.36200000000000027,move_to_zero,-0.07770822875333692,-3.6082590106119987,3.5305507818586617,-63.70074190497272,-75.64188811320199,11.941146208229263,66.51405881271747,73.76258654510997,-7.248527732392503,27.472945281247313,45.19720271111199,-17.72425742986468,-0.03013226297367132,0.0,-0.03013226297367132
0.36400000000000027,move_to_zero,-0.07753699619029872,-3.603858694745399,3.5263216985551007,-63.60705947555104,-75.54964190818589,11.94258243263485,66.41445769354982,73.67263217127449,-7.2581744777246655,27.390736540585575,45.14208417122039,-17.751347630634815,-0.03044704870264445,0.0,-0.03044704870264445
0.36600000000000027,move_to_zero,-0.07734729235158425,-3.5994583788787993,3.522111086527215,-63.51348299311731,-75.45739570316978,11.943912710052473,66.3146060231443,73.58267779743898,-7.2680717742946825,27.308544387495544,45.086965631328795,-17.77842124383325,-0.030742541816210712,0.0,-0.030742541816210712
0.36800000000000027,move_to_zero,-0.07710655728937284,-3.5950580630121993,3.5179515057228263,-63.41998176943436,-75.36514949815368,11.945167728719326,66.21448782433333,73.49272342360348,-7.278235599270147,27.226367228567256,45.03184709143719,-17.805479862869937,-0.031017397367887674,0.0,-0.031017397367887674
0.3700000000000003,move_to_zero,-0.076841241596668,-3.5906577471455994,3.5138165055489314,-63.3265577426647,-75.27290329313757,11.946345550472877,66.11410766363345,73.40276904976798,-7.288661386134535,27.144190307247694,44.97672855154559,-17.832538244297897,-0.03127508655545872,0.0,-0.03127508655545872
0.3720000000000003,move_to_zero,-0.0765477823173347,-3.586257431278999,3.5097096489616644,-63.23322080823553,-75.18065708812149,11.947436279885963,66.01346876933373,73.31281467593247,-7.299345906598745,27.061990244219682,44.921610011653996,-17.859619767434314,-0.03151831978316286,0.0,-0.03151831978316286
0.3740000000000003,move_to_zero,-0.07623988472971566,-3.581857115412399,3.5056172306826836,-63.13996210752567,-75.08841088310538,11.948448775579713,65.91258075496637,73.22286030209698,-7.310279547130605,26.979769703285193,44.86649147176239,-17.886721768477194,-0.0317487976921715,0.0,-0.0317487976921715
0.3760000000000003,move_to_zero,-0.07592892136413404,-3.577456799545799,3.501527878181665,-63.0467920414628,-74.99616467808929,11.949372636626485,65.81146133894708,73.13290592826148,-7.321444589314396,26.8975072975744,44.81137293187079,-17.913865634296393,-0.03196649899497018,0.0,-0.03196649899497018
0.3780000000000003,move_to_zero,-0.07563233193073551,-3.573056483679199,3.4974241517484637,-62.95372119839315,-74.90391847307319,11.950197274680043,65.71010878374629,73.04295155442597,-7.332842770679676,26.815203362129193,44.75625439197919,-17.941051029849998,-0.03217478325216741,0.0,-0.03217478325216741
0.3800000000000003,move_to_zero,-0.07536182019642086,-3.5686561678125988,3.4932943476161777,-62.860783081279926,-74.81167226805708,11.950889186777154,65.6085255442695,72.95299718059049,-7.344471636320989,26.732826101828365,44.70113585208759,-17.968309750259223,-0.032375361276853094,0.0,-0.032375361276853094
0.3820000000000003,move_to_zero,-0.07510355394479439,-3.564255851945999,3.4891522980012044,-62.76799720960822,-74.71942606304098,11.951428853432766,65.5067086714194,72.86304280675498,-7.3563341353355725,26.65040286280101,44.646017312195994,-17.995614449394985,-0.0325691160906364,0.0,-0.0325691160906364
0.3840000000000003,move_to_zero,-0.07486180391730074,-3.559855536079399,3.4849937321620983,-62.67535289037111,-74.62717985802489,11.95182696765378,65.40469243986584,72.77308843291948,-7.368395993053639,26.567948001759223,44.59089877230439,-18.02295077054517,-0.032757108225439334,0.0,-0.032757108225439334
0.3860000000000003,move_to_zero,-0.07462257117302812,-3.5554552202127994,3.480832649039771,-62.58285755037597,-74.53493365300879,11.952076102632823,65.3024697735122,72.68313405908398,-7.380664285571783,26.485460227610048,44.53578023241279,-18.050320004802742,-0.03294192845885091,0.0,-0.03294192845885091
0.3880000000000003,move_to_zero,-0.07438257172968872,-3.551054904346199,3.47667233261651,-62.49047760965354,-74.44268744799268,11.952209838339144,65.20003274654714,72.59317968524847,-7.393146938701335,26.402934372295626,44.48066169252119,-18.077727320225563,-0.03312442810475979,0.0,-0.03312442810475979
0.3900000000000003,move_to_zero,-0.07412675676453498,-3.546654588479599,3.472527831715064,-62.3982204236856,-74.35044124297659,11.952220819290986,65.09738010535956,72.50322531141298,-7.405845206053414,26.320343720255032,44.425543152629594,-18.10519943237456,-0.03330647683278213,0.0,-0.03330647683278213
0.3920000000000003,move_to_zero,-0.07385978828791749,-3.542254272612999,3.468394484325082,-62.30610125550581,-74.25819503796048,11.952093782454668,64.99451549081752,72.41327093757748,-7.41875544675996,26.237688440775703,44.37042461273799,-18.13273617196229,-0.03348731209761351,0.0,-0.03348731209761351
0.3940000000000003,move_to_zero,-0.07359071105823764,-3.537853956746399,3.4642632456881617,-62.21414465895218,-74.16594883294438,11.951804173992201,64.89143253518756,72.32331656374198,-7.431884028554421,26.15499383859209,44.31530607284639,-18.1603122342543,-0.03367052046386831,0.0,-0.03367052046386831
0.3960000000000003,move_to_zero,-0.07332034077112691,-3.5334536408797987,3.460133300108672,-62.1223532490128,-74.07370262792828,11.951349378915488,64.78812920779436,72.23336218990647,-7.445232982112117,26.072257283339674,44.260187532954795,-18.18793024961512,-0.033855470847220515,0.0,-0.033855470847220515
0.3980000000000003,move_to_zero,-0.07307556971647276,-3.529053325013199,3.455977755296726,-62.03072591225523,-73.98145642291219,11.95073051065696,64.68460338511917,72.14340781607098,-7.458804430951801,25.989468931165053,44.205068993063186,-18.215600061898133,-0.034041263111234725,0.0,-0.034041263111234725
0.4000000000000003,move_to_zero,-0.07284062972235325,-3.524653009146599,3.4518123794242457,-61.93926952150465,-73.88921021789609,11.949940696391444,64.58087418337323,72.05345344223548,-7.472579258862254,25.9066441951255,44.14995045317159,-18.24330625804609,-0.03422573607627959,0.0,-0.03422573607627959
0.4020000000000003,move_to_zero,-0.07261456035703305,-3.520252693279999,3.447638132922966,-61.84798461135301,-73.79696401287998,11.94897940152697,64.4769606590717,71.96349906839997,-7.486538409328276,25.823759089857774,44.09483191327999,-18.271072823422216,-0.03440863363591031,0.0,-0.03440863363591031
0.4040000000000003,move_to_zero,-0.07239875188053736,-3.515852377413399,3.4434536255328614,-61.75689099564561,-73.70471780786389,11.947826812218274,64.37286073989053,71.87354469456449,-7.50068395467396,25.740813941282394,44.039713373388395,-18.298899432106,-0.034588702310103206,0.0,-0.034588702310103206
0.4060000000000003,move_to_zero,-0.0721892781153912,-3.511452061546799,3.439262783431408,-61.66598577982674,-73.61247160284778,11.946485823021035,64.26857068841629,71.78359032072898,-7.515019632312686,25.657814868256352,43.98459483349679,-18.32677996524044,-0.03476674509442817,0.0,-0.03476674509442817
0.4080000000000003,move_to_zero,-0.07195789311144181,-3.507051745680199,3.435093852568757,-61.575262525639374,-73.52022539783168,11.944962872192306,64.16407998170503,71.69363594689347,-7.529555965188436,25.574749126254705,43.92947629360519,-18.354727167350486,-0.03494528349369315,0.0,-0.03494528349369315
0.4100000000000003,move_to_zero,-0.07169276553288403,-3.5026514298135987,3.430958664280715,-61.48471212253136,-73.42797919281558,11.943267070284222,64.0593768169649,71.60368157305798,-7.544304756093084,25.491627731835546,43.87435775371359,-18.382730021878043,-0.0351220468436368,0.0,-0.0351220468436368
0.4120000000000003,move_to_zero,-0.07141637979373995,-3.4982511139469987,3.4268347341532586,-61.39433625621184,-73.33573298779949,11.941396731587652,63.9544734884741,71.51372719922247,-7.559253710748372,25.408459353025144,43.81923921382199,-18.410779860796843,-0.0352953816880946,0.0,-0.0352953816880946
0.4140000000000003,move_to_zero,-0.07112182286283328,-3.493850798080399,3.4227289752175656,-61.30411273285695,-73.24348678278338,11.939374049926428,63.84938618942492,71.42377282538698,-7.574386635962057,25.32521834338674,43.76412067393039,-18.43890233054365,-0.035466057701166315,0.0,-0.035466057701166315
0.4160000000000003,move_to_zero,-0.07082772161644173,-3.4894504822137993,3.4186227605973576,-61.21402573636281,-73.15124057776728,11.937214841404476,63.74411796873609,71.33381845155148,-7.589700482815388,25.241891224312724,43.70900213403879,-18.467110909726067,-0.035632253806603606,0.0,-0.035632253806603606
0.4180000000000003,move_to_zero,-0.07053986302719417,-3.485050166347199,3.4145103033200046,-61.124062889263556,-73.05899437275119,11.934931483487631,63.638688351003495,71.24386407771597,-7.605175726712474,25.15848342647183,43.653883594147196,-18.495400167675367,-0.03579865226936494,0.0,-0.03579865226936494
0.4200000000000003,move_to_zero,-0.07027109882406858,-3.480649850480599,3.4103787516565305,-61.03423776366279,-72.96674816773508,11.93251040407229,63.53310737925335,71.15390970388047,-7.620802324627121,25.075014728645275,43.598765054255594,-18.52375032561032,-0.03596584494625124,0.0,-0.03596584494625124
0.4220000000000003,move_to_zero,-0.0699952692385858,-3.476249534613999,3.4062542653754133,-60.94455308882741,-72.87450196271898,11.929948873891568,63.427367191729914,71.06395533004498,-7.636588138315062,24.991490486858424,43.543646514363985,-18.55215602750556,-0.03613284305654729,0.0,-0.03613284305654729
0.4240000000000003,move_to_zero,-0.06971096367951746,-3.471849218747399,3.4021382550678814,-60.855012194650826,-72.78225575770288,11.927243563052059,63.32146446849639,70.97400095620948,-7.652536487713093,24.907914613526035,43.48852797447239,-18.580613360946355,-0.0362983172699195,0.0,-0.0362983172699195
0.4260000000000003,move_to_zero,-0.06942466241538815,-3.4674489028807987,3.3980242404654106,-60.76561775034469,-72.69000955268679,11.9243918023421,63.21544280445923,70.88404658237397,-7.66860377791474,24.824273722562186,43.43340943458079,-18.609135712018603,-0.03646027125847401,0.0,-0.03646027125847401
0.4280000000000003,move_to_zero,-0.0691478600197896,-3.4630485870141987,3.393900726994409,-60.67635874623562,-72.59776334767068,11.921404601435057,63.10931660837809,70.79409220853847,-7.6847756001603855,24.740587015350766,43.378290894689194,-18.637703879338428,-0.036618809672679525,0.0,-0.036618809672679525
0.4300000000000003,move_to_zero,-0.068893665289656,-3.458648271147599,3.3897546058579433,-60.58722727849855,-72.50551714265458,11.91828986415603,63.003096059727156,70.70413783470298,-7.70104177497582,24.656875014526925,43.32317235479759,-18.666297340270667,-0.03677390657318981,0.0,-0.03677390657318981
0.43200000000000033,move_to_zero,-0.06864152911829058,-3.454247955280999,3.3856064261627083,-60.4982166015683,-72.41327093763847,11.91505433607017,62.89676843305534,70.61418346086747,-7.717415027812123,24.573120127864627,43.268053814906,-18.69493368704137,-0.03692845550347677,0.0,-0.03692845550347677
0.43400000000000033,move_to_zero,-0.06840816804001304,-3.449847639414399,3.381439471374386,-60.40931004379521,-72.32102473262238,11.911714688827168,62.79034303758653,70.52422908703198,-7.733886049445452,24.489347430987642,43.21293527501439,-18.723587844026746,-0.037080928479447786,0.0,-0.037080928479447786
0.43600000000000033,move_to_zero,-0.06819287353923835,-3.445447323547799,3.3772544500085604,-60.320506232772345,-72.22877852760628,11.908272294833935,62.68382771236389,70.43427471319647,-7.75044700083258,24.405547356365815,43.157816735122786,-18.75226937875697,-0.03723174277479786,0.0,-0.03723174277479786
0.43800000000000033,move_to_zero,-0.06799379635884827,-3.441047007681199,3.373053211322351,-60.231800185980845,-72.13653232259018,11.90473213660934,62.57721563569665,70.34432033936098,-7.767104703664323,24.321722913541194,43.10269819523119,-18.780975281689997,-0.037379873749404685,0.0,-0.037379873749404685
0.44000000000000034,move_to_zero,-0.06780674678240531,-3.4366466918145986,3.3688399450321933,-60.14321510263738,-72.04428611757409,11.901071014936711,62.4705288190843,70.25436596552548,-7.783837146441179,24.237863850841556,43.04757965533959,-18.809715804498033,-0.03752487327657238,0.0,-0.03752487327657238
0.44200000000000034,move_to_zero,-0.06763180272798383,-3.4322463759479986,3.364614573220015,-60.0547604817543,-71.95203991255798,11.897279430803678,62.36377373731201,70.16441159168997,-7.80063785437796,24.15399391821442,42.992461115447995,-18.838467197233573,-0.03766693744918644,0.0,-0.03766693744918644
0.44400000000000034,move_to_zero,-0.0674676905478897,-3.427846060081399,3.3603783695335094,-59.96641692963082,-71.85979370754188,11.893376777911065,62.25697439973519,70.07445721785447,-7.817482818119281,24.070109949624932,42.937342575556386,-18.867232625931454,-0.037807032718296094,0.0,-0.037807032718296094
0.44600000000000034,move_to_zero,-0.06731091917135257,-3.423445744214799,3.356134825043447,-59.87814792896126,-71.76754750252577,11.88939957356451,62.15013713268843,69.98450284401898,-7.834365711330548,23.986228439391812,42.88222403566479,-18.89599559627298,-0.037944743207157704,0.0,-0.037944743207157704
0.44800000000000034,move_to_zero,-0.06715820213973007,-3.419045428348199,3.351887226208469,-59.789971396260675,-71.67530129750969,11.885329901249015,62.04326348826725,69.89454847018347,-7.851284981916216,23.90235250509655,42.82710549577319,-18.924752990676637,-0.038079227238575944,0.0,-0.038079227238575944
0.45000000000000034,move_to_zero,-0.0670079113936226,-3.414645112481599,3.3476372010879762,-59.701895777946056,-71.58305509249358,11.881159314547524,61.93634100505603,69.80459409634798,-7.868253091291955,23.818482646171137,42.77198695588159,-18.95350430971045,-0.03821232893394917,0.0,-0.03821232893394917
0.45200000000000035,move_to_zero,-0.06686047117313125,-3.410244796614999,3.3433843254418676,-59.6139238315624,-71.49080888747748,11.876885055915082,61.829351831260816,69.71463972251247,-7.885287891251657,23.734598415171597,42.71686841598999,-18.982270000818396,-0.03834693748263733,0.0,-0.03834693748263733
0.45400000000000035,move_to_zero,-0.0667144597911297,-3.405844480748399,3.339130020957269,-59.52602507998407,-71.39856268246137,11.872537602477301,61.722279086317485,69.62468534867698,-7.9024062623594915,23.650689494072658,42.66174987609839,-19.011060382025732,-0.03848131851230239,0.0,-0.03848131851230239
0.45600000000000035,move_to_zero,-0.06656952011469155,-3.4014441648817986,3.334874644767107,-59.43817701743644,-71.30631647744528,11.868139460008841,61.61512225568807,69.53473097484148,-7.919608719153409,23.566738137319124,42.60663133620679,-19.039893198887665,-0.03861755723814265,0.0,-0.03861755723814265
0.45800000000000035,move_to_zero,-0.0664247131398657,-3.397043849015199,3.330619135875333,-59.35040043427724,-71.21407027242918,11.863669838151942,61.50787601553945,69.44477660100597,-7.9369005854665176,23.4827553951681,42.55151279631519,-19.06875740114709,-0.038754297408297465,0.0,-0.038754297408297465
0.46000000000000035,move_to_zero,-0.0662692109926826,-3.392643533148599,3.3263743221559166,-59.26268677864124,-71.12182406741309,11.859137288771848,61.40052340089143,69.35482222717047,-7.954298826279043,23.39873883863242,42.49639425642359,-19.097655417791174,-0.03889069319407858,0.0,-0.03889069319407858
0.46200000000000035,move_to_zero,-0.06611696735905735,-3.3882432172819987,3.3221262499229414,-59.17504437946523,-71.02957786239699,11.854533482931764,61.29307931604601,69.26486785333498,-7.971788537288965,23.3147128847956,42.44127571653199,-19.12656283173639,-0.03903011786301037,0.0,-0.03903011786301037
0.46400000000000036,move_to_zero,-0.06596818900630355,-3.383842901415399,3.317874712409095,-59.08746459730471,-70.93733165738088,11.849867060076171,61.185562681814304,69.17491347949948,-7.9893507976851765,23.23069052093008,42.38615717664039,-19.15546665571031,-0.039171513672338745,0.0,-0.039171513672338745
0.46600000000000036,move_to_zero,-0.0658211922896925,-3.379442585548799,3.3136213932591065,-58.999957161192484,-70.84508545236478,11.845128291172301,61.077945938110645,69.08495910566397,-8.007013167553325,23.146716282730438,42.331038636748794,-19.184322354018356,-0.03931312619221985,0.0,-0.03931312619221985
0.46800000000000036,move_to_zero,-0.06567624691992016,-3.375042269682199,3.3093660227622785,-58.912507304495925,-70.75283924734867,11.84033194285275,60.97025195989545,68.99500473182847,-8.024752771933024,23.062807643167243,42.275920096857185,-19.21311245368994,-0.03945468291635681,0.0,-0.03945468291635681
0.47000000000000036,move_to_zero,-0.06553279236984916,-3.3706419538155985,3.3051091614457495,-58.82514542391675,-70.66059304233258,11.835447618415827,60.86246889669594,68.90505035799298,-8.04258146129704,22.978963500130646,42.22080155696559,-19.241838056834943,-0.0395974548574597,0.0,-0.0395974548574597
0.47200000000000036,move_to_zero,-0.06539031753856461,-3.3662416379489986,3.300851320410434,-58.73784827763291,-70.56834683731647,11.830498559683562,60.754616408149495,68.81509598415747,-8.060479576007971,22.895176108549865,42.16568301707399,-19.270506908524123,-0.039738976947965465,0.0,-0.039738976947965465
0.47400000000000037,move_to_zero,-0.06524866099722365,-3.361841322082399,3.2965926610851755,-58.65060419322132,-70.47610063230039,11.825496439079068,60.646683710013995,68.72514161032198,-8.078457900307988,22.811437616655446,42.11056447718239,-19.299126860526947,-0.03988123902475076,0.0,-0.03988123902475076
0.47600000000000037,move_to_zero,-0.06509837758391322,-3.357441006215799,3.2923426286318858,-58.56342695244461,-70.38385442728428,11.820427474839668,60.538681980110454,68.63518723648647,-8.09650525637602,22.72773059165029,42.05544593729079,-19.327715345640502,-0.040025502293097266,0.0,-0.040025502293097266
0.47800000000000037,move_to_zero,-0.06491976113949899,-3.3530406903491987,3.2881209292096996,-58.47628774751983,-70.29160822226818,11.815320474748354,60.43062003343528,68.54523286265096,-8.11461282921568,22.64404001468102,42.00032739739919,-19.35628738271817,-0.04016981752924305,0.0,-0.04016981752924305
0.48000000000000037,move_to_zero,-0.0647106697514967,-3.3486403744825988,3.283929704731102,-58.389188176789084,-70.19936201725208,11.810173840463001,60.32250577868825,68.45527848881548,-8.132772710127227,22.560373078244403,41.94520885750759,-19.384835779263184,-0.0403146249206639,0.0,-0.0403146249206639
0.4820000000000004,move_to_zero,-0.0645072984872667,-3.344240058615999,3.279732760128732,-58.30213673667371,-70.10711581223597,11.804979075562265,60.21432756285479,68.36532411497997,-8.150996552125179,22.476727113864815,41.890090317615986,-19.41336320375117,-0.04046083022317081,0.0,-0.04046083022317081
0.4840000000000004,move_to_zero,-0.06430678814118981,-3.339839742749399,3.275532954608209,-58.21515530974516,-70.01486960721988,11.799714297474722,60.10608416253154,68.27536974114447,-8.169285578612936,22.393087378263374,41.83497177772439,-19.441884399461017,-0.04060644298876689,0.0,-0.04060644298876689
0.4860000000000004,move_to_zero,-0.06410161153609381,-3.3354394268827985,3.2713378153467048,-58.128253026946126,-69.92262340220378,11.794370375257657,59.99780135517054,68.18541536730898,-8.18761401213844,22.30942887033794,41.77985323783279,-19.47042436749485,-0.040748708950577694,0.0,-0.040748708950577694
0.4880000000000004,move_to_zero,-0.06391069934128725,-3.331039111016199,3.2671284116749115,-58.04139815305768,-69.83037719718769,11.78897904413001,59.88949976376855,68.09546099347347,-8.205961229704918,22.225734363137295,41.72473469794119,-19.499000334803892,-0.04088755897034818,0.0,-0.04088755897034818
0.4900000000000004,move_to_zero,-0.0637312750851096,-3.326638795149599,3.2629075200644895,-57.95461421386372,-69.73813099217158,11.783516778307856,59.78117602942887,68.00550661963797,-8.2243305902091,22.142014638426613,41.66961615804959,-19.52760151962298,-0.041022878279743206,0.0,-0.041022878279743206
0.4920000000000004,move_to_zero,-0.06356107430539644,-3.3222384792829986,3.258677404977602,-57.86787127997506,-69.64588478715548,11.778013507180418,59.67282076905381,67.91555224580247,-8.242731476748666,22.058275182857543,41.61449761815798,-19.55622243530044,-0.041157930992815187,0.0,-0.041157930992815187
0.4940000000000004,move_to_zero,-0.06339693213318877,-3.3178381634163987,3.25444123128321,-57.781187875091526,-69.55363858213937,11.772450707047845,59.564446080542304,67.82559787196698,-8.261151791424673,21.974516618552496,41.55937907826639,-19.584862459713893,-0.04129390625595865,0.0,-0.04129390625595865
0.4960000000000004,move_to_zero,-0.06323822435388328,-3.3134378475497988,3.2501996231959156,-57.69457565903556,-69.46139237712327,11.766816718087718,59.45606465592042,67.73564349813147,-8.279578842211045,21.89075011304448,41.50426053837479,-19.613510425330308,-0.04143097249878177,0.0,-0.04143097249878177
0.4980000000000004,move_to_zero,-0.06308359008556519,-3.309037531683199,3.2459539415976337,-57.60804142291546,-69.36914617210718,11.761104749191716,59.34768932080647,67.64568912429597,-8.297999803489503,21.807016213834885,41.44914199848319,-19.642125784648307,-0.041567009628036146,0.0,-0.041567009628036146
0.5000000000000003,move_to_zero,-0.06293240417688413,-3.3046372158165984,3.2417048116397145,-57.52159702046919,-69.27689996709108,11.755302946621896,59.23931300364486,67.55573475046047,-8.316421746815614,21.723299694664792,41.39402345859159,-19.670723763926798,-0.04170226450271291,0.0,-0.04170226450271291
0.5020000000000003,move_to_zero,-0.06278320314015283,-3.300236899949999,3.237453696809846,-57.43524831206547,-69.18465376207499,11.749405450009519,59.13093709362137,67.46578037662498,-8.334843283003607,21.6395822407864,41.33890491869999,-19.69932267791359,-0.041833743528781824,0.0,-0.041833743528781824
0.5040000000000003,move_to_zero,-0.06262127838319795,-3.2958365840833994,3.2332153057002015,-57.3489876632117,-69.09240755705889,11.74341989384719,59.0225808229712,67.37582600278948,-8.35324517981828,21.555859437685037,41.283786378808394,-19.727926941123357,-0.041960563433224775,0.0,-0.041960563433224775
0.5060000000000003,move_to_zero,-0.062463183697887316,-3.291436268216799,3.2289730845189117,-57.26280334084122,-69.00016135204278,11.737358011201565,58.914263670724864,67.28587162895397,-8.371607958229106,21.47213716137432,41.228667838916785,-19.756530677542465,-0.0420820031746506,0.0,-0.0420820031746506
0.5080000000000003,move_to_zero,-0.062308972929479116,-3.287035952350199,3.22472697942072,-57.17669011233284,-68.90791514702669,11.731225034693843,58.80597435263688,67.19591725511847,-8.389942902481593,21.388407081680334,41.1735492990252,-19.785142217344863,-0.04219972135675195,0.0,-0.04219972135675195
0.5100000000000003,move_to_zero,-0.062157811248236605,-3.2826356364835987,3.220477825235362,-57.09064286841176,-68.81566894201057,11.725026073598812,58.697692485243486,67.10596288128298,-8.408270396039491,21.304703241524816,41.11843075913359,-19.813727517608772,-0.042312230177234254,0.0,-0.042312230177234254
0.5120000000000003,move_to_zero,-0.062009562127596236,-3.278235320616999,3.216225758489403,-57.004666846181074,-68.7234227369945,11.71875589081342,58.58942612222041,67.01600850744748,-8.426582385227071,21.221031527695295,41.06331221924199,-19.842280691546698,-0.042422930230431456,0.0,-0.042422930230431456
0.5140000000000003,move_to_zero,-0.06184524068922486,-3.273835004750399,3.211989764061174,-56.918791741516735,-68.63117653197838,11.712384790461648,58.481191313952465,66.92605413361197,-8.444862819659505,21.137397244101617,41.00819367935039,-19.870796435248774,-0.042531996687899136,0.0,-0.042531996687899136
0.5160000000000003,move_to_zero,-0.06168510721271767,-3.2694346888837993,3.2077495816710817,-56.83301774300804,-68.53893032696229,11.705912583954245,58.373006236836964,66.83609975977649,-8.463093522939523,21.053795298363106,40.95307513945879,-19.899279841095684,-0.042640060900992066,0.0,-0.042640060900992066
0.5180000000000003,move_to_zero,-0.06152903177688308,-3.265034373017199,3.203505341240316,-56.747322519799205,-68.44668412194618,11.699361602146972,58.264854609516206,66.74614538594096,-8.481290776424757,20.970239477766473,40.89795659956719,-19.927717121800715,-0.04274893930370717,0.0,-0.04274893930370717
0.5200000000000004,move_to_zero,-0.06137651996934658,-3.2606340571505994,3.1992575371812526,-56.66174285543524,-68.35443791693008,11.692695061494838,58.15674108915726,66.65619101210548,-8.499449922948223,20.886713451174817,40.84283805967559,-19.956124608500776,-0.04285873089019008,0.0,-0.04285873089019008
0.5220000000000004,move_to_zero,-0.061228243743716285,-3.2562337412839986,3.1950054975402824,-56.576294610084524,-68.26219171191397,11.685897101829447,58.04868440236892,66.56623663826997,-8.51755223590105,20.803218333403226,40.78771951978399,-19.984501186380765,-0.042966298102034575,0.0,-0.042966298102034575
0.5240000000000004,move_to_zero,-0.06108445372110028,-3.251833425417399,3.1907489716962987,-56.490978575952404,-68.16994550689789,11.678966930945485,57.9406969069322,66.47628226443447,-8.53558535750227,20.71976794237054,40.732600979892396,-20.012833037521855,-0.04307164342520235,0.0,-0.04307164342520235
0.5260000000000004,move_to_zero,-0.06094449381767421,-3.2474331095507987,3.1864886157331243,-56.40580300369813,-68.07769930188178,11.671896298183647,57.83280080437896,66.38632789059898,-8.553527086220015,20.63636032732446,40.677482440000794,-20.041122112676334,-0.04317658571628715,0.0,-0.04317658571628715
0.5280000000000004,move_to_zero,-0.0608069299194634,-3.2430327936841996,3.182225863764736,-56.32075483020678,-67.9854530968657,11.664698266658917,57.724989221226004,66.29637351676348,-8.571384295537477,20.552984791514152,40.62236390010919,-20.06937910859504,-0.043280687794072806,0.0,-0.043280687794072806
0.5300000000000004,move_to_zero,-0.0606727905662209,-3.2386324778175983,3.1779596872513776,-56.235819577678676,-67.89320689184957,11.657387314170897,57.617249858700696,66.20641914292797,-8.589169284227275,20.46964796638374,40.56724536021758,-20.097597393833844,-0.04338168210652828,0.0,-0.04338168210652828
0.5320000000000004,move_to_zero,-0.06054145439330862,-3.2342321619509993,3.173690707557691,-56.15096705705101,-67.80096068683349,11.649993629782479,57.50958413609005,66.11646476909249,-8.60688063300244,20.386343073891023,40.512126820325996,-20.125783746434973,-0.04347858289526804,0.0,-0.04347858289526804
0.5340000000000004,move_to_zero,-0.06041335374560146,-3.229831846084399,3.1694184923387976,-56.06619538579621,-67.70871448181737,11.642519096021154,57.40198773954713,66.02651039525698,-8.624522655709846,20.303040566901675,40.45700828043439,-20.15396771353271,-0.04357209686592302,0.0,-0.04357209686592302
0.5360000000000004,move_to_zero,-0.06028836269602983,-3.2254315302177994,3.1651431675217694,-55.981526945989884,-67.61646827680129,11.634941330811401,57.29445480939854,65.93655602142148,-8.642101212022943,20.219743921480568,40.4018897405428,-20.18214581906223,-0.04366236619576041,0.0,-0.04366236619576041
0.5380000000000004,move_to_zero,-0.06016522262965559,-3.2210312143511985,3.160865991721543,-55.8969773308504,-67.52422207178519,11.627244740934792,57.18697912337868,65.84660164758597,-8.659622524207293,20.136477129002905,40.34677120065119,-20.210294071648285,-0.04375079543011102,0.0,-0.04375079543011102
0.5400000000000004,move_to_zero,-0.0600424710539084,-3.216630898484599,3.1565884274306906,-55.81254885637185,-67.4319758667691,11.619427010397246,57.07955337996612,65.75664727375049,-8.677093893784367,20.053245532688237,40.29165266075959,-20.23840712807135,-0.04383570676695989,0.0,-0.04383570676695989
0.5420000000000004,move_to_zero,-0.05992100013481864,-3.2122305826179987,3.15230958248318,-55.72825031594676,-67.33972966175298,11.611479345806224,56.97216259804615,65.66669289991496,-8.694530301868816,19.970038521932953,40.23653412086799,-20.266495598935034,-0.043918825127312176,0.0,-0.043918825127312176
0.5440000000000004,move_to_zero,-0.059801579055477755,-3.207830266751399,3.1480286876959216,-55.64407681599733,-67.24748345673689,11.603406640739557,56.86480925362278,65.57673852607948,-8.7119292724567,19.886846238592348,40.18141558097639,-20.294569342384044,-0.043999960087477225,0.0,-0.043999960087477225
0.5460000000000004,move_to_zero,-0.05968351746587045,-3.2034299508847988,3.1437464334189285,-55.560033188618505,-67.15523725172078,11.595204063102273,56.75749107911261,65.48678415224397,-8.729293073131359,19.803657547996476,40.12629704108479,-20.322639493088314,-0.04407874272874911,0.0,-0.04407874272874911
0.5480000000000004,move_to_zero,-0.059567487640937236,-3.1990296350181993,3.139462147377262,-55.47612003641198,-67.06299104670468,11.586871010292704,56.650219486202715,65.39682977840847,-8.746610292205759,19.720467354582766,40.071178501193195,-20.35071114661043,-0.04415502484548266,0.0,-0.04415502484548266
0.5500000000000004,move_to_zero,-0.059454011887056776,-3.194629319151599,3.135175307264542,-55.39234351399521,-66.97074484168859,11.578401327693378,56.54301833466644,65.30687540457298,-8.763857069906535,19.637271765464543,40.01605996130159,-20.37878819583705,-0.04422982459318842,0.0,-0.04422982459318842
0.5520000000000004,move_to_zero,-0.059342794536496546,-3.190229003284999,3.1308862087485023,-55.3086912238426,-66.87849863667249,11.569807412829888,56.43588115098906,65.21692103073748,-8.78103987974842,19.554106183880204,39.96094142140999,-20.406835237529787,-0.04430278219060028,0.0,-0.04430278219060028
0.5540000000000004,move_to_zero,-0.05923313708786105,-3.1858286874183985,3.1265955503305376,-55.22514858749125,-66.78625243165638,11.561103844165132,56.32878383481184,65.12696665690197,-8.798182822090133,19.470972354594554,39.90582288151839,-20.434850526923835,-0.044374055958423364,0.0,-0.044374055958423364
0.5560000000000004,move_to_zero,-0.05912701269614071,-3.1814283715517995,3.1223013588556587,-55.14169999473742,-66.69400622664028,11.552306231902861,56.22171646794627,65.03701228306649,-8.815295815120216,19.387866147894773,39.850704341626795,-20.462838193732022,-0.04444405960416165,0.0,-0.04444405960416165
0.5580000000000004,move_to_zero,-0.05902329184054119,-3.1770280556851986,3.1180047638446573,-55.058358967337924,-66.60176002162417,11.54340105428625,56.114665707770534,64.94705790923096,-8.83239220146043,19.304796354294353,39.795585801735186,-20.490789447440832,-0.04451248768879528,0.0,-0.04451248768879528
0.5600000000000004,move_to_zero,-0.05892209536338857,-3.172627739818599,3.1137056444552105,-54.97513398341878,-66.50951381660808,11.534379833189298,56.00762800970519,64.85710353539548,-8.849475525690288,19.221783723718957,39.7404672618436,-20.51868353812464,-0.0445809694233655,0.0,-0.0445809694233655
0.5620000000000004,move_to_zero,-0.05882203650082193,-3.1682274239519987,3.1094053874511767,-54.8920278874766,-66.41726761159198,11.52523972411538,55.90061227000832,64.76714916155997,-8.866536891551654,19.13880665676713,39.68534872195198,-20.546542065184852,-0.04465180572990506,0.0,-0.04465180572990506
0.5640000000000004,move_to_zero,-0.05872333049536108,-3.1638271080853992,3.1051037775900383,-54.809040045131,-66.3250214065759,11.5159813614449,55.79360897497095,64.67719478772447,-8.883585812753523,19.055870013853966,39.630230182060394,-20.57436016820643,-0.044727370787683775,0.0,-0.044727370787683775
0.5660000000000004,move_to_zero,-0.058627196688546754,-3.159426792218799,3.100799595530252,-54.72617381783121,-66.23277520155978,11.506601383728565,55.68661207920777,64.58724041388896,-8.900628334681194,18.972959459034936,39.575111642168785,-20.60215218313385,-0.04480824334982793,0.0,-0.04480824334982793
0.5680000000000004,move_to_zero,-0.05853312292850161,-3.155026476352199,3.096493353423697,-54.64341730575495,-66.1405289965437,11.497111690788742,55.57962561436411,64.49728604005348,-8.91766042568937,18.89006266497117,39.51999310227719,-20.629930437306022,-0.04489386741604199,0.0,-0.04489386741604199
0.5700000000000004,move_to_zero,-0.05844021833336292,-3.1506261604855985,3.0921859421522355,-54.56079545913511,-66.04828279152757,11.487487332392462,55.472665481571184,64.40733166621797,-8.934666184646787,18.8071765597127,39.46487456238559,-20.657698002672888,-0.04498369097260103,0.0,-0.04498369097260103
0.5720000000000004,move_to_zero,-0.058347183416950284,-3.1462258446189995,3.087878661202049,-54.47829960364995,-65.95603658651149,11.477736982861536,55.3657396714135,64.31737729238247,-8.951637620968974,18.72430696440371,39.409756022493994,-20.685449058090285,-0.04507405469244196,0.0,-0.04507405469244196
0.5740000000000004,move_to_zero,-0.058254191153076736,-3.141825528752399,3.0835713375993223,-54.39590548667446,-65.86379038149538,11.46788489482092,55.25884299360661,64.22742291854698,-8.968579924940364,18.641459193198376,39.354637482602385,-20.71317828940401,-0.04516538721069375,0.0,-0.04516538721069375
0.5760000000000004,move_to_zero,-0.05816048067691032,-3.137425212885799,3.079264732208889,-54.313627826976955,-65.7715441764793,11.45791634950234,55.151980864817844,64.13746854471148,-8.985487679893637,18.558643157843765,39.29951894271079,-20.740875784867026,-0.045256115214924945,0.0,-0.045256115214924945
0.5780000000000004,move_to_zero,-0.05806639566513937,-3.1330248970191987,3.0749585013540592,-54.23145172200109,-65.67929797146319,11.447846249462096,55.04513781123011,64.04751417087597,-9.002376359645858,18.47586484170706,39.24440040281919,-20.768535561112127,-0.04534910953601402,0.0,-0.04534910953601402
0.5800000000000004,move_to_zero,-0.057972808472518,-3.1286245811525992,3.070651772680081,-54.14935886220808,-65.58705176644709,11.437692904239007,54.93828495824435,63.95755979704048,-9.019274838796129,18.393140028151784,39.189281862927594,-20.79614183477581,-0.04544323229185799,0.0,-0.04544323229185799
0.5820000000000004,move_to_zero,-0.05788068867522318,-3.1242242652859984,3.0663435766107754,-54.06735802982303,-65.49480556143098,11.427447531607946,54.83144954144487,63.867605423204964,-9.036155881760095,18.310457232281767,39.134163323035985,-20.823706090754218,-0.045538269093152464,0.0,-0.045538269093152464
0.5840000000000004,move_to_zero,-0.057790903021231105,-3.119823949419399,3.062033046398168,-53.98543246881718,-65.40255935641488,11.417126887597703,54.72464767285858,63.777651049369474,-9.053003376510894,18.227807520947277,39.0790447831444,-20.85123726219712,-0.04563559149797139,0.0,-0.04563559149797139
0.5860000000000004,move_to_zero,-0.05770191275997148,-3.1154236335527985,3.057721720792827,-53.903570370069254,-65.31031315139877,11.40674278132952,54.61788833157111,63.68769667553397,-9.069808343962862,18.145181027696367,39.02392624325278,-20.878745215556414,-0.045733788262270335,0.0,-0.045733788262270335
0.5880000000000004,move_to_zero,-0.057615138418433,-3.1110233176861994,3.0534081792677665,-53.82175701824544,-65.21806694638268,11.396309928137235,54.51115408388264,63.597742301698474,-9.086588217815837,18.062618146893527,38.96880770336119,-20.906189556467666,-0.045831326207163486,0.0,-0.045831326207163486
0.5900000000000004,move_to_zero,-0.05752939169097137,-3.1066230018195986,3.0490936101286272,-53.73996833310412,-65.12582074136658,11.385852408262458,54.40444492098666,63.50778792786297,-9.103343006876308,17.980102287126048,38.913689163469584,-20.933586876343536,-0.04592651464335565,0.0,-0.04592651464335565
0.5920000000000004,move_to_zero,-0.0574450809897072,-3.102222685952999,3.0447776049632918,-53.658217497167335,-65.03357453635049,11.37535703918315,54.29777040330801,63.41783355402748,-9.120063150719474,17.89763935735427,38.858570623578,-20.960931266223728,-0.04602031856038303,0.0,-0.04602031856038303
0.5940000000000004,move_to_zero,-0.057362802568253254,-3.0978223700863987,3.0404595675181456,-53.57650157507848,-64.94132833133438,11.364826756255894,54.191125475402835,63.32787918019197,-9.136753704789136,17.815250740426812,38.80345208368639,-20.988201343259576,-0.046110666853052255,0.0,-0.046110666853052255
0.5960000000000004,move_to_zero,-0.057281814522582346,-3.093422054219799,3.036140239697217,-53.49481049625966,-64.84908212631828,11.35427163005862,54.084508781065765,63.23792480635648,-9.153416025290717,17.732954118477586,38.74833354379479,-21.015379425317207,-0.04619790869317189,0.0,-0.04619790869317189
0.5980000000000004,move_to_zero,-0.05720099182399894,-3.0890217383531984,3.0318207465291995,-53.4131564489007,-64.75683592130217,11.343679472401469,53.97789005389257,63.147970432520964,-9.170080378628391,17.65076946833692,38.693215003903184,-21.042445535566262,-0.0462826048790826,0.0,-0.0462826048790826
0.6000000000000004,move_to_zero,-0.05712188105380899,-3.0846214224865993,3.0274995414327903,-53.33155536473098,-64.66458971628607,11.333034351555092,53.871254790942196,63.05801605868548,-9.186761267743286,17.56869354851943,38.63809646401159,-21.06940291549216,-0.04636350148079193,0.0,-0.04636350148079193
0.6020000000000004,move_to_zero,-0.0570434659080979,-3.0802211066199985,3.0231776407119004,-53.25002085116975,-64.57234351126998,11.322322660100227,53.76458905039344,62.968061684849964,-9.203472634456524,17.486738884772304,38.58297792411999,-21.096239039347683,-0.046440329065929306,0.0,-0.046440329065929306
0.6040000000000004,move_to_zero,-0.05696382299273515,-3.075820790753399,3.018856967760664,-53.168563308953516,-64.4800973062539,11.31153399730038,53.65789579407305,62.878107311014475,-9.220211516941426,17.404908499649757,38.52785938422839,-21.122950884578636,-0.04651059474979037,0.0,-0.04651059474979037
0.6060000000000004,move_to_zero,-0.05688233888007405,-3.0714204748867986,3.0145381360067245,-53.08719176382456,-64.38785110123777,11.300659337413208,53.55118933875426,62.78815293717897,-9.236963598424708,17.323189745254325,38.47274084433679,-21.149551099082466,-0.04657516473295171,0.0,-0.04657516473295171
0.6080000000000004,move_to_zero,-0.05679928691963848,-3.067020159020199,3.0102208721005606,-53.00590565081641,-64.29560489622169,11.28969924540528,53.44449447407313,62.698198563343475,-9.253704089270343,17.24158644451387,38.417622304445196,-21.176035859931325,-0.04663548209962466,0.0,-0.04663548209962466
0.6100000000000004,move_to_zero,-0.05671647423889426,-3.0626198431535987,3.0059033689147046,-52.924688674083114,-64.20335869120557,11.278670017122451,53.337821019324124,62.60824418950797,-9.270423170183847,17.160088666855415,38.36250376455359,-21.20241509769817,-0.04669242325289843,0.0,-0.04669242325289843
0.6120000000000004,move_to_zero,-0.05663409498611013,-3.0582195272869988,3.001585432300889,-52.843551503143,-64.11111248618948,11.267560983046486,53.23117535962472,62.51828981567248,-9.28711445604776,17.078666571024065,38.30738522466199,-21.228718653637927,-0.046746394693884245,0.0,-0.046746394693884245
0.6140000000000004,move_to_zero,-0.056552614772357936,-3.0538192114203984,2.9972665966480405,-52.76248531183021,-64.01886628117337,11.256380969343162,53.12453640451858,62.42833544183697,-9.303799037318392,16.997333349172543,38.25226668477038,-21.25493333559784,-0.04679733785741927,0.0,-0.04679733785741927
0.6160000000000004,move_to_zero,-0.056473541480797224,-3.0494188955537993,2.992945354073002,-52.6815034370855,-63.926620076157285,11.245116639071782,53.01790791976849,62.33838106800148,-9.320473148232992,16.916077021859575,38.197148144878796,-21.28107112301922,-0.04684484254741496,0.0,-0.04684484254741496
0.6180000000000004,move_to_zero,-0.05639556603326257,-3.045018579687199,2.9886230136539362,-52.60058105543662,-63.83437387114118,11.233792815704561,52.91128066928281,62.248426694165964,-9.337146024883154,16.834883992092237,38.14202960498719,-21.30714561289495,-0.04688712074736477,0.0,-0.04688712074736477
0.6200000000000004,move_to_zero,-0.05631756748760173,-3.040618263820599,2.984300696332997,-52.51971888865966,-63.742127666125086,11.222408777465425,52.80466525605719,62.15847232033048,-9.35380706427329,16.753770271755467,38.08691106509559,-21.333140793340124,-0.04692328902577703,0.0,-0.04692328902577703
0.6220000000000004,move_to_zero,-0.05623943663341408,-3.0362179479539986,2.9799785113205846,-52.43891301154012,-63.649881461108976,11.210968449568853,52.69805923665983,62.068517946494964,-9.370458709835134,16.672754003047398,38.03179252520398,-21.359038522156585,-0.046954626826587444,0.0,-0.046954626826587444
0.6240000000000004,move_to_zero,-0.05616163111162864,-3.031817632087399,2.9756560009757704,-52.358148786329636,-63.55763525609289,11.19948646976325,52.59145637767194,61.978563572659475,-9.387107194987536,16.591833449983,37.97667398531239,-21.38484053532939,-0.046978228492085966,0.0,-0.046978228492085966
0.6260000000000004,move_to_zero,-0.0560857387460746,-3.0274173162207987,2.971331577474724,-52.27743564608694,-63.46538905107678,11.187953404989834,52.48484866350664,61.888609198823964,-9.403760535317325,16.511044518484862,37.921555445420786,-21.410510926935924,-0.0469947374083083,0.0,-0.0469947374083083
0.6280000000000004,move_to_zero,-0.05601272125039522,-3.0230170003541987,2.9670042791038034,-52.19676989732892,-63.37314284606068,11.17637294873176,52.37823933628195,61.798654824988475,-9.420415488706524,16.430413986780888,37.86643690552919,-21.436022918748304,-0.047006144265152115,0.0,-0.047006144265152115
0.6300000000000004,move_to_zero,-0.055941967599285505,-3.0186166844875983,2.962674716888313,-52.11616386207154,-63.28089664104458,11.16473277897304,52.27162737829662,61.70870045115297,-9.43707307285635,16.349936924726627,37.81131836563759,-21.461381440910962,-0.04701659831440819,0.0,-0.04701659831440819
0.6320000000000005,move_to_zero,-0.05587274392991763,-3.0142163686209993,2.9583436246910817,-52.03561991536503,-63.18865043602848,11.15303052066345,52.164992762196086,61.618746077317475,-9.45375331512139,16.2696361064014,37.756199825745995,-21.486563719344595,-0.047025319870171,0.0,-0.047025319870171
0.6340000000000005,move_to_zero,-0.05580357123437441,-3.009816052754399,2.9540124815200244,-51.955144228367,-63.09640423101237,11.141260002645375,52.05834504277138,61.52879170348197,-9.470446660710593,16.189504612421434,37.701081285854386,-21.511576673432952,-0.04703220540965364,0.0,-0.04703220540965364
0.6360000000000005,move_to_zero,-0.05573477023611818,-3.005415736887799,2.949680966651681,-51.87471995697955,-63.00415802599628,11.129438069016736,51.95168184079488,61.43883732964648,-9.487155488851599,16.109537167639473,37.64596274596279,-21.536425578323318,-0.047037506934938626,0.0,-0.047037506934938626
0.6380000000000005,move_to_zero,-0.055667532719902026,-3.0010154210211986,2.9453478883012965,-51.79435205921938,-62.91191182098017,11.117559761760795,51.84500204960811,61.348882955810964,-9.503880906202852,16.0297235311243,37.59084420607118,-21.56112067494688,-0.04704117348816943,0.0,-0.04704117348816943
0.6400000000000005,move_to_zero,-0.05559979104502567,-2.996615105154599,2.941015314109573,-51.71402236206143,-62.81966561596408,11.105643253902649,51.73830718307069,61.25892858197548,-9.520621398904794,15.950060517533286,37.535725666179594,-21.585665148646306,-0.04703957075928226,0.0,-0.04703957075928226
0.6420000000000005,move_to_zero,-0.05553211050156336,-2.9922147892879987,2.9366826787864353,-51.63372782547617,-62.727419410947974,11.093691585471802,51.63159743526773,61.168974208139964,-9.537376772872236,15.870568018066004,37.480607126287985,-21.610039108221983,-0.047033330378800794,0.0,-0.047033330378800794
0.6440000000000005,move_to_zero,-0.05546577912413401,-2.987814473421399,2.932348694297265,-51.55345847339064,-62.63517320593189,11.08171473254125,51.52485590945134,61.079019834304475,-9.554163924853135,15.791271861920292,37.42548858639639,-21.634216724476097,-0.047023477678144354,0.0,-0.047023477678144354
0.6460000000000005,move_to_zero,-0.05539994068538249,-2.9834141575547983,2.928014216869416,-51.473196626742784,-62.54292700091577,11.069730374172984,51.41806663197625,60.989065460468964,-9.570998828492712,15.712163150242084,37.37037004650478,-21.658206896262698,-0.047012502471720605,0.0,-0.047012502471720605
0.6480000000000005,move_to_zero,-0.05533499650889102,-2.9790138416881993,2.923678845179308,-51.39294766880629,-62.450680795899686,11.057733127093393,51.31122282368507,60.899111086633475,-9.587888262948404,15.633233237445946,37.31525150661319,-21.68201826916724,-0.04700134496268889,0.0,-0.04700134496268889
0.6500000000000005,move_to_zero,-0.055269590755967345,-2.9746135258215984,2.919343935065631,-51.3127382763601,-62.35843459088357,11.045696314523468,51.20432794752278,60.80915671279797,-9.604828765275194,15.554473681739283,37.260132966721585,-21.705659284982303,-0.04698879381010244,0.0,-0.04698879381010244
