GerardoFJ/TE3001B_TEAM_3/src/s0s1_gazebo/scripts/results/PID4/state.csv
t,phase,shoulder_pan_actual_deg,shoulder_pan_desired_deg,shoulder_pan_error_deg,shoulder_lift_actual_deg,shoulder_lift_desired_deg,shoulder_lift_error_deg,elbow_flex_actual_deg,elbow_flex_desired_deg,elbow_flex_error_deg,wrist_flex_actual_deg,wrist_flex_desired_deg,wrist_flex_error_deg,wrist_roll_actual_deg,wrist_roll_desired_deg,wrist_roll_error_deg
0.002,move_to_zero,-4.376474382407018,-4.4003158666,0.02384148419298171,-92.21682027023317,-92.2462050161,0.02938474586683526,89.9402674989065,89.9543738355,-0.014106336593499691,55.09939055982472,55.1185398916,-0.019149331775281553,0.0017248340730163765,0.0,0.0017248340730163765
0.004,move_to_zero,-4.335985521402715,-4.3959155507334,0.05993002933068503,-92.14831566309655,-92.15395881108391,0.005643147987356656,89.90649005716469,89.86441946166448,0.04207059550020631,55.05883069936866,55.0634213517084,-0.004590652339736323,0.004260911785142975,0.0,0.004260911785142975
0.006,move_to_zero,-4.285087266493853,-4.3915152348668,0.10642796837294721,-92.04847702966038,-92.0617126060678,0.013235576407424787,89.85517753851863,89.77446508782899,0.08071245068964572,54.99947723568157,55.008302811816804,-0.008825576135237156,0.006904355569293144,0.0,0.006904355569293144
0.008,move_to_zero,-4.227925886567329,-4.3871149190002,0.15918903243287108,-91.92373459950856,-91.9694664010517,0.04573180154314116,89.78823917801695,89.68451071399349,0.1037284640234617,54.92366306774057,54.953184271925196,-0.02952120418462556,0.009208491590885742,0.0,0.009208491590885742
0.01,move_to_zero,-4.16723063886674,-4.382714603133599,0.21548396426685912,-91.77938065854892,-91.8772201960356,0.09783953748667784,89.7073919098968,89.594556340158,0.11283556973880593,54.83348501539298,54.8980657320336,-0.06458071664062004,0.011076888726702401,0.0,0.011076888726702401
0.012,move_to_zero,-4.104806600030706,-4.378314287266999,0.27350768723629315,-91.6197339182921,-91.7849739910195,0.16524007272739993,89.61418237332225,89.50460196632248,0.10958040699976834,54.7308271331843,54.842947192142,-0.11212005895770005,0.012573486405545023,0.0,0.012573486405545023
0.014,move_to_zero,-4.0418190988849965,-4.373913971400399,0.3320948725154027,-91.44832609209608,-91.69272778600339,0.2444016939073066,89.51002205921361,89.41464759248699,0.09537446672662497,54.61735249161788,54.787828652250404,-0.1704761606325249,0.013754866600513067,0.0,0.013754866600513067
0.016,move_to_zero,-3.979039027762237,-4.369513655533799,0.39047462777156206,-91.26801501996745,-91.6004815809873,0.3324665610198565,89.39617277613624,89.32469321865149,0.07147955748474999,54.49455469136343,54.7327101123588,-0.23815542099536913,0.014669764310818734,0.0,0.014669764310818734
0.018000000000000002,move_to_zero,-3.916934976465179,-4.3651133396672,0.4481783632020213,-91.08114137662542,-91.5082353759712,0.42709399934577164,89.27378915293161,89.234738844816,0.039050308115619714,54.36375247875897,54.6775915724672,-0.31383909370823204,0.015360716615246437,0.0,0.015360716615246437
0.020000000000000004,move_to_zero,-3.855822002302707,-4.3607130238006,0.504891021497893,-90.88962415785471,-91.4159891709551,0.5263650131003885,89.14394691363572,89.1447844709805,-0.0008375573447807483,54.22614037184624,54.6224730325756,-0.3963326607293567,0.015818763926871725,0.0,0.015818763926871725
0.022000000000000006,move_to_zero,-3.795910021929683,-4.356312707934,0.5604026860043172,-90.69501436021623,-91.323742965939,0.6287286057227703,89.00760494055632,89.05483009714499,-0.04722515658866655,54.082753070089524,54.567354492684,-0.4846014225944728,0.016024188654956542,0.0,0.016024188654956542
0.024000000000000007,move_to_zero,-3.7372990793050413,-4.351912392067399,0.6146133127623581,-90.49858721646218,-91.2314967609229,0.7329095444607105,88.8656437766803,88.96487572330949,-0.09923194662918888,53.934531174116444,54.5122359527924,-0.5777047786759582,0.01597171465687952,0.0,0.01597171465687952
0.02600000000000001,move_to_zero,-3.6800581493178224,-4.3475120762007995,0.6674539268829771,-90.30133159094576,-91.1392505559068,0.8379189649610339,88.71888406510202,88.874921349474,-0.15603728437197617,53.78229513339521,54.4571174129008,-0.6748222795055909,0.015719226906821357,0.0,0.015719226906821357
0.02800000000000001,move_to_zero,-3.624194321257688,-4.3431117603341995,0.7189174390765114,-90.10406226075222,-91.0470043508907,0.9429420901384873,88.56806311681963,88.78496697563848,-0.21690385881885277,53.62678718569309,54.401998873009205,-0.7752116873161157,0.01533517976429673,0.0,0.01533517976429673
0.030000000000000013,move_to_zero,-3.5697358150115464,-4.3387114444676,0.7689756294560532,-89.90742044028103,-90.9547581458746,1.047337705593577,88.41385057090392,88.695012601803,-0.28116203089908254,53.46867965198775,54.3468803331176,-0.8782006811298544,0.01489324234738827,0.0,0.01489324234738827
0.032000000000000015,move_to_zero,-3.5166606658237134,-4.334311128601,0.8176504627772863,-89.71191674626787,-90.8625119408585,1.1505951945906219,88.25687694760217,88.60505822796749,-0.34818128036532414,53.308550969414625,54.291761793225994,-0.983210823811369,0.014447114457591245,0.0,0.014447114457591245
0.034000000000000016,move_to_zero,-3.4649450967560997,-4.3299108127344,0.8649657159783,-89.51796534940073,-90.7702657358424,1.252300386441675,88.09767841078663,88.51510385413198,-0.41742544334535125,53.1469132158768,54.2366432533344,-1.089730037457599,0.01400829798472762,0.0,0.01400829798472762
0.03600000000000002,move_to_zero,-3.414532451900448,-4.3255104968678,0.9109780449673517,-89.32587370040487,-90.67801953082629,1.3521458304214207,87.9367591097385,88.4251494802965,-0.48839037055799395,52.9842267309541,54.1815247134428,-1.1972979824886991,0.013604864084146545,0.0,0.013604864084146545
0.03800000000000002,move_to_zero,-3.3654079753855597,-4.3211101810012,0.9557022056156401,-89.13585155888916,-90.5857733258102,1.4499217669210367,87.77459050697622,88.33519510646099,-0.5606045994847619,52.82087894264765,54.1264061735512,-1.3055272309035502,0.013237986334708476,0.0,0.013237986334708476
0.04000000000000002,move_to_zero,-3.3175608943299895,-4.316709865134599,0.9991489708046095,-88.94805710183212,-90.4935271207941,1.5454700189619786,87.61158102219733,88.24524073262549,-0.6336597104281623,52.65724443647157,54.0712876336596,-1.414043197188029,0.012901272710807854,0.0,0.012901272710807854
0.04200000000000002,move_to_zero,-3.2709642944492674,-4.312309549267999,1.0413452548187316,-88.76260448117608,-90.401280915778,1.6386764346019191,87.44808768394682,88.15528635879,-0.7071986748431698,52.49362279775594,54.016169093768006,-1.5225462960120666,0.012589566125429207,0.0,0.012589566125429207
0.044000000000000025,move_to_zero,-3.2255671642539157,-4.307909233401399,1.0823420691474834,-88.57959492932672,-90.3090347107619,1.7294397814351896,87.2844683290626,88.06533198495448,-0.7808636558918778,52.330280641376824,53.9610505538764,-1.6307699124995736,0.01229912816386753,0.0,0.01229912816386753
0.04600000000000003,move_to_zero,-3.181358267524746,-4.3035089175348,1.1221506500100542,-88.39904956994687,-90.2167885057458,1.8177389357989284,87.12104894690104,87.97537761111899,-0.8543286642179453,52.16746250484764,53.905932013984796,-1.738469509137154,0.012025083719513703,0.0,0.012025083719513703
0.04800000000000003,move_to_zero,-3.1383098628531902,-4.2991086016682,1.1607987388150098,-88.22096864746003,-90.1245423007297,1.9035736532696745,86.95809650843721,87.88542323728349,-0.9273267288462819,52.005384655415895,53.8508134740932,-1.8454288186773056,0.01176258673621166,0.0,0.01176258673621166
0.05000000000000003,move_to_zero,-3.0963962054069025,-4.2947082858016,1.1983120803946976,-88.04533416077672,-90.03229609571359,1.986961934936872,86.79585294809064,87.795468863448,-0.999615915357353,51.84425087281193,53.7956949342016,-1.9514440613896724,0.011508947270116454,0.0,0.011508947270116454
0.05200000000000003,move_to_zero,-3.055575194379831,-4.290307969935,1.2347327755551691,-87.87214142553074,-89.9400498906975,2.0679084651667523,86.63453779570135,87.70551448961248,-1.0709766939111347,51.68421844475703,53.740576394310004,-2.056357949552975,0.011261449348311662,0.0,0.011261449348311662
0.054000000000000034,move_to_zero,-3.0158151435501845,-4.285907654068399,1.2700925105182148,-87.70133736092188,-89.8478036856814,2.1464663247595155,86.47433419054285,87.61556011577699,-1.1412259252341386,51.52541276198607,53.6854578544184,-2.160045092432334,0.01101887302290879,0.0,0.01101887302290879
0.056000000000000036,move_to_zero,-2.9770937489660336,-4.281507338201799,1.3044135892357658,-87.53289078785654,-89.7555574806653,2.222666692808758,86.31540530402972,87.52560574194149,-1.210200437911766,51.367931352799374,53.6303393145268,-2.262407961727426,0.010780804617452894,0.0,0.010780804617452894
0.05800000000000004,move_to_zero,-2.9393639019307622,-4.2771070223351995,1.3377431204044372,-87.36677071735019,-89.66331127564919,2.296540558299,86.1579056518521,87.43565136810598,-1.2777457162538752,51.2118748377641,53.5752207746352,-2.3633459368710987,0.010544509084225592,0.0,0.010544509084225592
0.06000000000000004,move_to_zero,-2.9026032834628004,-4.2727067064685995,1.3701034230057991,-87.2029061446067,-89.5710650706331,2.368158926026396,86.00195335099392,87.3456969942705,-1.3437436432765821,51.0573409195437,53.5201022347436,-2.4627613151998986,0.01030297006745567,0.0,0.01030297006745567
0.06200000000000004,move_to_zero,-2.866777214347276,-4.268306390602,1.4015291762547237,-87.04123610068369,-89.478818865617,2.4375827649333104,85.84765236177108,87.25574262043499,-1.4080902586639041,50.904405095571235,53.464983694852,-2.560578599280767,0.010053315379912569,0.0,0.010053315379912569
0.06400000000000004,move_to_zero,-2.8318365914571504,-4.2639060747354,1.4320694832782492,-86.88170070901155,-89.38657266060089,2.5048719515893367,85.69508759548779,87.16578824659948,-1.4707006511116845,50.75311143464167,53.4098651549604,-2.656753720318733,0.009808887080098977,0.0,0.009808887080098977
0.06600000000000004,move_to_zero,-2.7977522802916703,-4.2595057588688,1.4617534785771293,-86.72423824482036,-89.29432645558481,2.570088210764453,85.5443433378961,87.075833872764,-1.531490534867899,50.60352698216744,53.354746615068805,-2.7512196329013676,0.009569482136920462,0.0,0.009569482136920462
0.06800000000000005,move_to_zero,-2.764472979972961,-4.2551054430022,1.4906324630292387,-86.56881197003989,-89.2020802505687,2.63326828052881,85.3954911380849,86.98587949892848,-1.5903883608435763,50.45570162896314,53.299628075177196,-2.8439264462140557,0.009334785855994598,0.0,0.009334785855994598
0.07000000000000005,move_to_zero,-2.7319578213546363,-4.250705127135599,1.5187473057809626,-86.4153755627918,-89.1098340455526,2.6944584827608082,85.2485550497537,86.89592512509299,-1.647370075339282,50.30968139474493,53.2445095352856,-2.9348281405406738,0.009095129339603006,0.0,0.009095129339603006
0.07200000000000005,move_to_zero,-2.7001818295120743,-4.246304811268999,1.5461229817569246,-86.26388613553826,-89.01758784053649,2.7537017049982353,85.10354476027021,86.80597075125749,-1.7024259909872796,50.165493630385306,53.189390995394,-3.0238973650086933,0.008847210741710179,0.0,0.008847210741710179
0.07400000000000005,move_to_zero,-2.6691327767915713,-4.241904495402399,1.5727717186108277,-86.11428635931588,-88.9253416355204,2.811055276204513,84.96046832629645,86.71601637742198,-1.7555480511255297,50.02314995536966,53.1342724555024,-3.111122500132737,0.008574214985496412,0.0,0.008574214985496412
0.07600000000000005,move_to_zero,-2.638788608893831,-4.2375041795358,1.5987155706419691,-85.96650873469616,-88.83309543050429,2.866586695808124,84.81934925917871,86.62606200358648,-1.8067127444077755,49.88264122644181,53.0791539156108,-3.1965126891689906,0.008273922316446147,0.0,0.008273922316446147
0.07800000000000006,move_to_zero,-2.609147649473614,-4.2331038636692,1.623956214195586,-85.82048351628835,-88.74084922548819,2.9203657091998423,84.6801844773325,86.53610762975099,-1.8559231524184838,49.743975840957816,53.0240353757192,-3.280059534761385,0.007964236462585783,0.0,0.007964236462585783
0.08000000000000006,move_to_zero,-2.580208781874788,-4.2287035478026,1.6484947659278122,-85.67613473224151,-88.6486030204721,2.972468288230587,84.5429719034539,86.44615325591549,-1.903181352461587,49.60714964431861,52.9689168358276,-3.3617671915089886,0.007629933869080588,0.0,0.007629933869080588
0.08200000000000006,move_to_zero,-2.5519334393098845,-4.224303231936,1.6723697926261156,-85.53340556103704,-88.556356815456,3.022951254418956,84.40770535602348,86.35619888207998,-1.9484935260564953,49.47214998256901,52.913798295936,-3.44164831336699,0.007305484190798938,0.0,0.007305484190798938
0.08400000000000006,move_to_zero,-2.5243319147739802,-4.219902916069399,1.695571001295419,-85.39224650684929,-88.4641106104399,3.071864103590613,84.27434866933712,86.26624450824448,-1.991895838907368,49.33891774045978,52.858679756044396,-3.519762015584618,0.006984960600075217,0.0,0.006984960600075217
0.08600000000000006,move_to_zero,-2.4973716848543854,-4.215502600202799,1.718130915348414,-85.25261809761813,-88.37186440542379,3.1192463078056676,84.1428712117423,86.17629013440899,-2.0334189226666837,49.20746191311276,52.8035612161528,-3.5960993030400417,0.006674875525541057,0.0,0.006674875525541057
0.08800000000000006,move_to_zero,-2.471026541290914,-4.211102284336199,1.7400757430452853,-85.11446347204522,-88.2796182004077,3.165154728362481,84.01325901552933,86.08633576057349,-2.073076745044162,49.07777448922413,52.7484426762612,-3.670668187037066,0.006378769612881476,0.0,0.006378769612881476
0.09000000000000007,move_to_zero,-2.445265194967278,-4.206701968469599,1.7614367735023215,-84.97773833888162,-88.18737199539159,3.209633656509965,83.88549778074902,85.996381386738,-2.110883605988974,48.94981582263928,52.693324136369604,-3.7435083137303238,0.006091424363972943,0.0,0.006091424363972943
0.09200000000000007,move_to_zero,-2.4200875319014457,-4.2023016526029995,1.7822141207015538,-84.84236439956742,-88.0951257903755,3.2527613908080895,83.75956828430905,85.90642701290248,-2.146858728593429,48.8235575002027,52.638205596477995,-3.8146480962752918,0.005817404608191056,0.0,0.005817404608191056
0.09400000000000007,move_to_zero,-2.39550574070069,-4.1979013367363995,1.8023955960357094,-84.70829094495942,-88.0028795853594,3.2945886403999793,83.63542792518267,85.81647263906699,-2.1810447138843188,48.69897993918541,52.5830870565864,-3.884107117400987,0.005538848431743869,0.0,0.005538848431743869
0.09600000000000007,move_to_zero,-2.371486697478211,-4.1935010208698,1.8220143233915884,-84.57545658682075,-87.9106333803433,3.3351767935225496,83.51303530268886,85.72651826523149,-2.2134829625426278,48.576059095476836,52.5279685166948,-3.9519094212179624,0.005272237517695654,0.0,0.005272237517695654
0.09800000000000007,move_to_zero,-2.348006144712976,-4.1891007050032,1.8410945602902236,-84.44384999402494,-87.81838717532719,3.3745371813022444,83.39236389795259,85.63656389139598,-2.244199993443388,48.45478368957917,52.4728499768032,-4.018066287224023,0.005016162107913934,0.0,0.005016162107913934
0.10000000000000007,move_to_zero,-2.3250357594816067,-4.184700389136599,1.8596646296549921,-84.31342302445873,-87.72614097031109,3.412717945852364,83.27335844691439,85.5466095175605,-2.2732510706461113,48.33512200196435,52.4177314369116,-4.082609434947251,0.004768020792033308,0.0,0.004768020792033308
0.10200000000000008,move_to_zero,-2.3025456512419984,-4.180300073269999,1.8777544220280005,-84.18413388171295,-87.633894765295,3.4497608835820444,83.15595905261739,85.45665514372499,-2.3006960911075964,48.21703523299325,52.36261289702,-4.145577664026753,0.004528076426844526,0.0,0.004528076426844526
0.10400000000000008,move_to_zero,-2.2805185276022657,-4.1758997574034,1.895381229801134,-84.0559464547862,-87.5416485602789,3.485702105492706,83.04009847089867,85.36670076988948,-2.3266022989908066,48.10049374650447,52.3074943571284,-4.207000610623929,0.0042952651120984515,0.0,0.0042952651120984515
0.10600000000000008,move_to_zero,-2.2589426709962357,-4.1714994415368,1.9125567705405642,-83.92882455727619,-87.4494023552628,3.5205777979866184,82.92572636736978,85.276746396054,-2.3510200286842178,47.98544263621112,52.252375817236796,-4.266933181025678,0.004066919611755174,0.0,0.004066919611755174
0.10800000000000008,move_to_zero,-2.2377900490618052,-4.1670991256702,1.9293090766083947,-83.80274258650661,-87.3571561502467,3.554413563740084,82.81279497905082,85.18679202221848,-2.3739970431676625,47.87187637012493,52.1972572773452,-4.325380907220271,0.003840775948096584,0.0,0.003840775948096584
0.11000000000000008,move_to_zero,-2.217048131614257,-4.1626988098036,1.945650678189343,-83.67766094318786,-87.2649099452306,3.587249002042739,82.70123581828376,85.09683764838299,-2.395601830099224,47.759770326054046,52.1421387374536,-4.382368411399554,0.0036186575710773538,0.0,0.0036186575710773538
0.11200000000000009,move_to_zero,-2.1967102591316205,-4.158298493937,1.9615882348053795,-83.55355822960898,-87.17266374021449,3.6191055106055074,82.59100072599409,85.00688327454749,-2.415882548553398,47.649071706437155,52.087020197562,-4.437948491124843,0.0033970530357018748,0.0,0.0033970530357018748
0.11400000000000009,move_to_zero,-2.1767779558848876,-4.153898178070399,1.9771202221855115,-83.4303827401446,-87.0804175351984,3.6500347950537986,82.48205221235757,84.91692890071198,-2.4348766883544073,47.53975111118246,52.031901657670396,-4.4921505464879345,0.0031758049414063153,0.0,0.0031758049414063153
0.11600000000000009,move_to_zero,-2.157237976167986,-4.149497862203799,1.9922598860358134,-83.30810903086028,-86.9881713301823,3.6800622993220173,82.37431724103138,84.82697452687648,-2.452657285845106,47.43177830556313,51.976783117778794,-4.545004812215666,0.002956220633286809,0.0,0.002956220633286809
0.11800000000000009,move_to_zero,-2.1380883021989194,-4.145097546337199,2.00700924413828,-83.18671655785211,-86.8959251251662,3.709208567314093,82.26773583949185,84.73702015304099,-2.4692843135491387,47.32512558083542,51.9216645778872,-4.5965389970517805,0.002736660677389451,0.0,0.002736660677389451
0.12000000000000009,move_to_zero,-2.1193060256626195,-4.140697230470599,2.02139120480798,-83.06617640465936,-86.80367892015009,3.737502515490732,82.16225452857387,84.64706577920549,-2.4848112506316227,47.21976255299477,51.8665460379956,-4.6467834850008245,0.002514846148437141,0.0,0.002514846148437141
0.1220000000000001,move_to_zero,-2.1008503040802755,-4.136296914603999,2.035446610523724,-82.94644736998737,-86.711432715134,3.764985345146627,82.05782249465048,84.55711140536998,-2.4992889107194998,47.11562953508658,51.811427498104,-4.695797963017419,0.0022885063777213824,0.0,0.0022885063777213824
0.1240000000000001,move_to_zero,-2.0827380440321397,-4.1318965987373995,2.0491585547052598,-82.82748947846127,-86.6191865101179,3.791697031656625,81.95439617952532,84.46715703153448,-2.5127608520091655,47.012693155295395,51.7563089582124,-4.743615802917006,0.0020240508762551924,0.0,0.0020240508762551924
0.12600000000000008,move_to_zero,-2.0649662160629534,-4.1274962828707995,2.062530066807846,-82.70927140162398,-86.52694030510179,3.8176689034778093,81.85195159339312,84.37720265769899,-2.5252510643058628,46.91092485255464,51.70119041832079,-4.790265565766148,0.00172015914460512,0.0,0.00172015914460512
0.12800000000000009,move_to_zero,-2.0475205623226906,-4.1230959670042,2.075575404681509,-82.59177209232531,-86.4346941000857,3.8429220077603787,81.75042119476373,84.28724828386348,-2.536827089099745,46.81029766260366,51.6460718784292,-4.835774215825538,0.0013758136250932472,0.0,0.0013758136250932472
0.1300000000000001,move_to_zero,-2.0303726539690365,-4.118695651137599,2.088322997168562,-82.4749536100766,-86.3424478950696,3.8674942849930005,81.64974734155184,84.197293910028,-2.5475465684761502,46.71078923213901,51.590953338537595,-4.880164106398588,0.001012004780337606,0.0,0.001012004780337606
0.1320000000000001,move_to_zero,-2.013521000660971,-4.114295335270999,2.1007743346100276,-82.35881554171507,-86.2502016900535,3.8913861483384267,81.54986497872237,84.10733953619248,-2.5574745574701154,46.61238210740702,51.535834798646,-4.923452691238978,0.0006438265660024098,0.0,0.0006438265660024098
0.1340000000000001,move_to_zero,-1.9969426501447283,-4.1098950194044,2.1129523692596717,-82.24336070815767,-86.15795548503739,3.9145947768797242,81.4507213872935,84.01738516235697,-2.566663775063475,46.51504737888435,51.4807162587544,-4.9656688798700515,0.00029062988461668826,0.0,0.00029062988461668826
0.1360000000000001,move_to_zero,-1.9806197244191688,-4.1054947035378,2.1248749791186308,-82.12855886892252,-86.0657092800213,3.93715041109877,81.35225928313551,83.92743078852149,-2.575171505385981,46.41873908346904,51.425597718862804,-5.006858635393762,-3.597169097366234e-05,0.0,-3.597169097366234e-05
0.1380000000000001,move_to_zero,-1.9645796309896792,-4.1010943876712,2.1365147566815206,-82.01436871511903,-85.97346307500518,3.9590943598861514,81.2544438849264,83.83747641468598,-2.5830325297595778,46.32344615659065,51.370479178971195,-5.047033022380546,-0.0003418060642533936,0.0,-0.0003418060642533936
0.1400000000000001,move_to_zero,-1.948826277613304,-4.0966940718046,2.1478677941912956,-81.90073611860643,-85.88121686998909,3.9804807513826574,81.15723039312515,83.74752204085048,-2.590291647725337,46.22915960179352,51.31536063907959,-5.086201037286074,-0.0006407367772958963,0.0,-0.0006407367772958963
0.1420000000000001,move_to_zero,-1.9333669047478064,-4.092293755938,2.1589268511901936,-81.7876573966935,-85.788970664973,4.001313268279489,81.06059645505614,83.65756766701499,-2.596971211958845,46.13582523201044,51.260242099188,-5.124416867177558,-0.0009237757088660044,0.0,-0.0009237757088660044
0.1440000000000001,move_to_zero,-1.9181942696582863,-4.087893440071399,2.1696991704131126,-81.67512724271592,-85.6967244599569,4.021597217240981,80.96450004452647,83.56761329317948,-2.6031132486530026,46.043412102839916,51.205123559296396,-5.16171145645648,-0.001198028767696545,0.0,-0.001198028767696545
0.1460000000000001,move_to_zero,-1.903290227050722,-4.083493124204799,2.1802028971540772,-81.56314529906685,-85.6044782549408,4.041332955873955,80.86889103775394,83.47765891934398,-2.6087678815900404,45.95189090419628,51.1500050194048,-5.198114115208519,-0.0014613888996454166,0.0,-0.0014613888996454166
0.1480000000000001,move_to_zero,-1.8886359299542421,-4.079092808338199,2.190456878383957,-81.4517036912895,-85.51223204992469,4.060528358635196,80.77372483152034,83.38770454550848,-2.6139797139881438,45.86124612014581,51.0948864795132,-5.233640359367392,-0.001721683206820713,0.0,-0.001721683206820713
0.1500000000000001,move_to_zero,-1.8742277287981675,-4.074692492471599,2.200464763673432,-81.34077869897914,-85.4199858449086,4.079207145929459,80.67896900804527,83.29775017167299,-2.618781163627716,45.77143579509415,51.0397679396216,-5.268332144527449,-0.001974639824054352,0.0,-0.001974639824054352
0.1520000000000001,move_to_zero,-1.8600411993724983,-4.070292176604999,2.210250977232501,-81.23035431454667,-85.32773963989249,4.097385325345812,80.58458177119181,83.20779579783748,-2.6232140266456696,45.68243127516672,50.984649399729996,-5.302218124563275,-0.002225917541044447,0.0,-0.002225917541044447
0.1540000000000001,move_to_zero,-1.8460797028664426,-4.065891860738399,2.2198121578719565,-81.1204147111466,-85.23549343487639,4.115078723729795,80.49051535017355,83.11784142400198,-2.627326073828428,45.594216641790666,50.929530859838394,-5.335314218047728,-0.002497484845332017,0.0,-0.002497484845332017
0.1560000000000001,move_to_zero,-1.8323311545212242,-4.061491544871799,2.2291603903505752,-81.01092809668738,-85.1432472298603,4.132319133172913,80.39672828965885,83.02788705016648,-2.631158760507631,45.506748312273956,50.8744123199468,-5.367664007672843,-0.002795028033652048,0.0,-0.002795028033652048
0.1580000000000001,move_to_zero,-1.8187793525107154,-4.0570912290051995,2.238311876494484,-80.90189588438041,-85.0510010248442,4.149105140463789,80.3031928850974,82.93793267633099,-2.634739791233585,45.42001092533152,50.8192937800552,-5.39928285472368,-0.0031186139138125514,0.0,-0.0031186139138125514
0.16000000000000011,move_to_zero,-1.8054309417152612,-4.052690913138599,2.2472599714233374,-80.79332190669238,-84.95875481982809,4.165432913135703,80.20986834762044,82.84797830249549,-2.6381099548750484,45.334008826630665,50.7641752401636,-5.4301664135329375,-0.0034578210381869456,0.0,-0.0034578210381869456
0.16200000000000012,move_to_zero,-1.7922749121779877,-4.048290597272,2.256015685094012,-80.68518919823579,-84.86650861481199,4.181319416576201,80.11673913182256,82.75802392865998,-2.641284796837425,45.248741688420466,50.709056700271994,-5.460315011851527,-0.0038149270354288435,0.0,-0.0038149270354288435
0.16400000000000012,move_to_zero,-1.779316074200607,-4.0438902814054,2.2645742072047925,-80.57750372113395,-84.7742624097959,4.196758688661944,80.0238016556115,82.66806955482448,-2.644267899212977,45.16419006360195,50.6539381603804,-5.489748096778449,-0.004187554956825661,0.0,-0.004187554956825661
0.16600000000000012,move_to_zero,-1.7665463208271905,-4.0394899655388,2.272943644711609,-80.4702247047129,-84.68201620477979,4.21179150006688,79.93100424304762,82.57811518098899,-2.6471109379413633,45.08033222642274,50.5988196204888,-5.518487394066057,-0.004573638149733129,0.0,-0.004573638149733129
0.16800000000000012,move_to_zero,-1.7539686390084186,-4.0350896496722,2.281121010663781,-80.36334285712259,-84.5897699997637,4.226427142641114,79.83831980646576,82.48816080715348,-2.649841000687715,44.99712333585253,50.543701080597195,-5.546577744744667,-0.004931566501623905,0.0,-0.004931566501623905
0.17000000000000012,move_to_zero,-1.7415735274198436,-4.0306893338056,2.289115806385756,-80.25685707631752,-84.4975237947476,4.240666718430077,79.74571857522054,82.398206433318,-2.6524878580974587,44.91453131696362,50.4885825407056,-5.574051223741982,-0.005262349062019478,0.0,-0.005262349062019478
0.17200000000000013,move_to_zero,-1.7293486402071865,-4.026289017939,2.296940377731813,-80.15077027105822,-84.4052775897315,4.2545073186732765,79.65319596304143,82.30825205948248,-2.655056096441058,44.83252980659348,50.433464000814,-5.600934194220521,-0.005569158369973251,0.0,-0.005569158369973251
0.17400000000000013,move_to_zero,-1.7172849258437815,-4.021888702072399,2.3046037762286176,-80.0450773430881,-84.31303138471539,4.267954041627291,79.56074717104276,82.21829768564697,-2.6575505146042104,44.75108502702588,50.3783454609224,-5.627260433896517,-0.005857980518694816,0.0,-0.005857980518694816
0.17600000000000013,move_to_zero,-1.7053877323638946,-4.017488386205799,2.312100653841904,-79.93975264886825,-84.22078517969929,4.281032530831041,79.46836448950653,82.12834331181149,-2.6599788223049643,44.670178191035,50.323226921030795,-5.653048729995795,-0.006132862783295387,0.0,-0.006132862783295387
0.17800000000000013,move_to_zero,-1.693657500135907,-4.013088070339199,2.3194305702032922,-79.8347854492014,-84.12853897468318,4.293753525481776,79.37603609078015,82.03838893797598,-2.6623528471958338,44.589791517150424,50.2681083811392,-5.678316863988776,-0.006396877296117237,0.0,-0.006396877296117237
0.18000000000000013,move_to_zero,-1.6820785602393673,-4.008687754472599,2.3266091942332316,-79.73018099986113,-84.0362927696671,4.306111769805966,79.28375175806742,81.94843456414048,-2.66468280607306,44.509900086317295,50.2129898412476,-5.7030897549303035,-0.006682116161162676,0.0,-0.006682116161162676
0.18200000000000013,move_to_zero,-1.670638066717005,-4.004287438605999,2.333649371888994,-79.62592479802935,-83.944046564651,4.318121766621658,79.19150288167157,81.85848019030499,-2.6669773086334203,44.43047863851999,50.157871301355996,-5.727392662836003,-0.00699444746905573,0.0,-0.00699444746905573
0.18400000000000014,move_to_zero,-1.6593362539815466,-3.9998871227393993,2.3405508687578527,-79.52199925909159,-83.8518003596349,4.329801100543307,79.09927088778551,81.76852581646948,-2.6692549286839693,44.35151332468996,50.1027527614644,-5.751239436774441,-0.007316284743208577,0.0,-0.007316284743208577
0.18600000000000014,move_to_zero,-1.6481703389881877,-3.995486806872799,2.3473164678846112,-79.41838172315256,-83.7595541546188,4.341172431466234,79.00703262928869,81.67857144263398,-2.6715388133452933,44.27299407104427,50.04763422157279,-5.774640150528519,-0.007633543956348567,0.0,-0.007633543956348567
0.18800000000000014,move_to_zero,-1.6371255877337785,-3.991086491006199,2.3539609032724202,-79.31507157367844,-83.66730794960269,4.3522363759242495,78.914786198022,81.58861706879848,-2.6738308707764844,44.19491231255923,49.9925156816812,-5.7976033691219655,-0.007934946684760321,0.0,-0.007934946684760321
0.19000000000000014,move_to_zero,-1.6262180930074799,-3.986686175139599,2.360468082132119,-79.21205125780155,-83.57506174458659,4.363010486785043,78.82254585306548,81.49866269496299,-2.6761168418975103,44.117263035858265,49.937397141789596,-5.820134105931331,-0.008220562099206578,0.0,-0.008220562099206578
0.19200000000000014,move_to_zero,-1.6154223689901293,-3.9822858592729995,2.3668634902828702,-79.1093108106507,-83.48281553957048,4.373504728919784,78.73027940008504,81.40870832112748,-2.678428921042439,44.04003432005922,49.882278601897994,-5.842244281838774,-0.008515516332820121,0.0,-0.008515516332820121
0.19400000000000014,move_to_zero,-1.6047430235446207,-3.9778855434063995,2.373142519861779,-79.00682304871773,-83.3905693345544,4.383746285836665,78.63798360354488,81.31875394729198,-2.680770343747099,43.96321017199843,49.8271600620064,-5.863949890007966,-0.008795162504771024,0.0,-0.008795162504771024
0.19600000000000015,move_to_zero,-1.5941745021026725,-3.9734852275397996,2.379310725437127,-78.90458553998661,-83.29832312953829,4.393737589551677,78.54564715306144,81.22879957345648,-2.6831524203950465,43.88676192895974,49.7720415221148,-5.885279593155055,-0.009062065441451416,0.0,-0.009062065441451416
0.19800000000000015,move_to_zero,-1.58370916769706,-3.9690849116731997,2.3853757439761396,-78.80257826726759,-83.2060769245222,4.403498657254602,78.45326399795968,81.13884519962097,-2.685581201661293,43.81067207207325,49.716922982223196,-5.906250910149943,-0.00931793011732438,0.0,-0.00931793011732438
0.20000000000000015,move_to_zero,-1.5733275964266547,-3.9646845958065993,2.3913569993799446,-78.70079344985746,-83.1138307195061,4.41303726964864,78.36083499392296,81.04889082578549,-2.6880558318625276,43.73493021895725,49.661804442331594,-5.926874223374341,-0.009566939966969916,0.0,-0.009566939966969916
0.20200000000000015,move_to_zero,-1.563023437769928,-3.9602842799399993,2.3972608421700716,-78.59923033413578,-83.02158451448999,4.422354180354205,78.26837090197466,80.95893645194998,-2.690565549975318,43.65949453992366,49.60668590244,-5.947191362516342,-0.009815901424498626,0.0,-0.009815901424498626
0.20400000000000015,move_to_zero,-1.5528122414672396,-3.9558839640733994,2.4030717226061595,-78.4979188659488,-82.92933830947389,4.431419443525087,78.17587313394797,80.86898207811447,-2.6931089441664966,43.58436807967603,49.5515673625484,-5.967199282872365,-0.010061778662308202,0.0,-0.010061778662308202
0.20600000000000016,move_to_zero,-1.542691368093748,-3.9514836482067994,2.4087922801130515,-78.39683554885232,-82.8370921044578,4.4402565556054725,78.0833098516159,80.77902770427899,-2.695717852663094,43.50953792570858,49.496448822656795,-5.986910896948217,-0.010303014713528031,0.0,-0.010303014713528031
0.20800000000000016,move_to_zero,-1.5326341498940104,-3.947083332340199,2.4144491824461887,-78.29595889929749,-82.7448458994417,4.448887000144211,77.990690554727,80.68907333044348,-2.6983827757164818,43.43499534850504,49.4413302827652,-6.00633493426016,-0.01053978359293216,0.0,-0.01053978359293216
0.21000000000000016,move_to_zero,-1.5226473485375192,-3.942683016473599,2.42003566793608,-78.19527564569368,-82.65259969442559,4.4573240487319055,77.89804514398398,80.59911895660798,-2.701073812624003,43.36072350323393,49.38621174287359,-6.025488239639664,-0.010773589177115466,0.0,-0.010773589177115466
0.21200000000000016,move_to_zero,-1.5127153493396348,-3.938282700606999,2.4255673512673646,-78.09478672699512,-82.5603534894095,4.465566762414369,77.80539590618126,80.50916458277248,-2.703768676591224,43.28669551311534,49.331093202982,-6.044397689866656,-0.011009249200751671,0.0,-0.011009249200751671
0.21400000000000016,move_to_zero,-1.502835544151754,-3.933882384740399,2.431046840588645,-77.99447320873708,-82.46810728439338,4.473634075656307,77.71272396728521,80.41921020893697,-2.70648624165176,43.212890249900475,49.275974663090395,-6.0630844131899195,-0.011245349053883538,0.0,-0.011245349053883538
0.21600000000000016,move_to_zero,-1.4930383939420517,-3.929482068873799,2.436443674931747,-77.89432211920126,-82.37586107937729,4.4815389601760245,77.62003627692889,80.32925583510148,-2.7092195581725917,43.13930803818774,49.2208561231988,-6.0815480850110575,-0.011493591742083396,0.0,-0.011493591742083396
0.21800000000000017,move_to_zero,-1.4833248911823185,-3.925081753007199,2.4417568618248806,-77.7943195865207,-82.28361487436119,4.489295287840491,77.52732268452944,80.23930146126598,-2.7119787767365438,43.06592927836858,49.1657375833072,-6.09980830493862,-0.01174895683134101,0.0,-0.01174895683134101
0.22000000000000017,move_to_zero,-1.4736820808191957,-3.9206814371406,2.4469993563214043,-77.6944663284921,-82.1913686693451,4.496902340852998,77.4345741220991,80.14934708743048,-2.7147729653313917,42.99275047212989,49.110619043415596,-6.117868571285705,-0.012015830515500885,0.0,-0.012015830515500885
0.22200000000000017,move_to_zero,-1.4641074598740578,-3.9162811212739994,2.4521736613999416,-77.59475318110316,-82.099122464329,4.5043692832258415,77.34178577181872,80.05939271359497,-2.7176069417762534,42.91975957016356,49.055500503523994,-6.135740933360431,-0.012273795787899328,0.0,-0.012273795787899328
0.22400000000000017,move_to_zero,-1.4545737906688119,-3.9118808054073995,2.4573070147385874,-77.49518612305339,-82.00687625931289,4.511690136259503,77.24896324490199,79.96943833975948,-2.720475094857491,42.84697479935939,49.00038196363239,-6.1534071642730055,-0.012526314975925532,0.0,-0.012526314975925532
0.22600000000000017,move_to_zero,-1.4450897678736556,-3.9074804895407995,2.462390721667144,-77.39576153008903,-81.9146300542968,4.518868524207761,77.15610078304573,79.87948396592398,-2.7233831828782513,42.77436391448078,48.9452634237408,-6.170899509260018,-0.012799515131098053,0.0,-0.012799515131098053
0.22800000000000017,move_to_zero,-1.4356729353368773,-3.9030801736741996,2.467407238337322,-77.29648639598122,-81.82238384928068,4.525897453299464,77.06320475217612,79.78952959208848,-2.7263248399123654,42.701931749525414,48.890144883849196,-6.188213134323782,-0.01308974909838343,0.0,-0.01308974909838343
0.23000000000000018,move_to_zero,-1.4263359841915972,-3.898679857807599,2.472343873616002,-77.19736756218698,-81.73013764426459,4.5327700820776045,76.97026511264987,79.69957521825299,-2.729310105603119,42.62969075242377,48.8350263439576,-6.2053355915338315,-0.013387413515591903,0.0,-0.013387413515591903
0.23200000000000018,move_to_zero,-1.417078950447717,-3.8942795419409992,2.477200591493282,-77.09840895403458,-81.63789143924849,4.5394824852139095,76.87729659218846,79.60962084441748,-2.73232425222902,42.557608148695884,48.77990780406599,-6.222299655370108,-0.013700969205910189,0.0,-0.013700969205910189
0.23400000000000018,move_to_zero,-1.4078605716066268,-3.8898792260743993,2.4820186544677725,-76.99959598205122,-81.5456452342324,4.546049252181177,76.7842985735396,79.51966647058198,-2.73536789704238,42.485690197748134,48.72478926417439,-6.239099066426256,-0.0139953707489886,0.0,-0.0139953707489886
0.23600000000000018,move_to_zero,-1.3986946844159174,-3.8854789102077993,2.486784225791882,-76.90091334320826,-81.45339902921629,4.552485686008026,76.69127796389294,79.42971209674648,-2.7384341328535413,42.41394052869434,48.669670724282796,-6.2557301955884554,-0.014275132883032516,0.0,-0.014275132883032516
0.23800000000000018,move_to_zero,-1.3895607889164554,-3.881078594341199,2.4915178054247438,-76.80235687519489,-81.36115282420019,4.558795949005301,76.5982465130978,79.33975772291097,-2.7415112098131686,42.34232101391308,48.614552184391194,-6.272231170478115,-0.0145421861534898,0.0,-0.0145421861534898
0.24000000000000019,move_to_zero,-1.3804634100916575,-3.876678278474599,2.4962148683829417,-76.7039200461755,-81.2689066191841,4.564986573008596,76.50520113879926,79.24980334907549,-2.744602210276227,42.27080403288475,48.5594336444996,-6.2886296116148515,-0.014798637377571151,0.0,-0.014798637377571151
0.2420000000000002,move_to_zero,-1.3714160479998274,-3.872277962607999,2.500861914608172,-76.60561547004176,-81.17666041416798,4.571044944126228,76.41214082317904,79.15984897523998,-2.7477081520609374,42.199356220393554,48.504315104608,-6.304958884214443,-0.015044956329021354,0.0,-0.015044956329021354
0.2440000000000002,move_to_zero,-1.3624069441265025,-3.867877646741399,2.505470702614897,-76.5074164936256,-81.08441420915189,4.576997715526289,76.3190653174124,79.06989460140447,-2.7508292839920756,42.12795482542367,48.449196564716395,-6.321241739292724,-0.01528493530366805,0.0,-0.01528493530366805
0.2460000000000002,move_to_zero,-1.3534509103104433,-3.8634773308747987,2.5100264205643557,-76.40932704199433,-80.99216800413579,4.582840962141461,76.22594954428583,78.97994022756899,-2.7539906832831633,42.0566147920704,48.39407802482479,-6.337463232754395,-0.015529956076557163,0.0,-0.015529956076557163
0.2480000000000002,move_to_zero,-1.3445516817870726,-3.8590770150081988,2.514525333221126,-76.3113575821867,-80.8999217991197,4.588564216932994,76.13279640749188,78.88998585373348,-2.757189446241597,41.98533382697242,48.33895948493319,-6.3536256579607695,-0.01578932572254046,0.0,-0.01578932572254046
0.25000000000000017,move_to_zero,-1.3357100981638854,-3.8546766991415997,2.5189666009777145,-76.21348811192095,-80.80767559410359,4.594187482182633,76.03962982122917,78.80003147989798,-2.760401658668812,41.914135424358015,48.2838409450416,-6.369705520683581,-0.01604628608862842,0.0,-0.01604628608862842
0.25200000000000017,move_to_zero,-1.3269056763219962,-3.8502763832749993,2.523370706953003,-76.11572641225537,-80.71542938908749,4.59970297683212,75.94644945636396,78.71007710606249,-2.7636276496985204,41.84301795656344,48.228722405149995,-6.3857044485865515,-0.01630001131985287,0.0,-0.01630001131985287
0.25400000000000017,move_to_zero,-1.3181463291156874,-3.8458760674083994,2.527729738292712,-76.01809342818252,-80.62318318407138,4.605089755888855,75.85324987340638,78.62012273222697,-2.766872858820591,41.77201915848655,48.1736038652584,-6.40158470677185,-0.016552900975389997,0.0,-0.016552900975389997
0.25600000000000017,move_to_zero,-1.3094283349362228,-3.8414757515417994,2.5320474166055766,-75.9205781846175,-80.53093697905528,4.610358794437786,75.76001698755874,78.53016835839148,-2.7701513708327354,41.701133745499064,48.11848532536679,-6.417351579867727,-0.01679912569555834,0.0,-0.01679912569555834
0.2580000000000002,move_to_zero,-1.3007548290335682,-3.8370754356751995,2.536320606641631,-75.82316013946168,-80.43869077403919,4.61553063457751,75.66674254474779,78.44021398455598,-2.7734714398081906,41.630360383855525,48.063366785475196,-6.4330064016196715,-0.017042232109644014,0.0,-0.017042232109644014
0.2600000000000002,move_to_zero,-1.2921565961281873,-3.832675119808599,2.5405185236804115,-75.72585467849338,-80.34644456902309,4.620589890529715,75.57342333789619,78.35025961072049,-2.7768362728242977,41.559706846317745,48.008248245583594,-6.448541399265849,-0.0172809147427174,0.0,-0.0172809147427174
0.2620000000000002,move_to_zero,-1.2836477077176587,-3.828274803941999,2.5446270962243407,-75.62865333783884,-80.254198364007,4.6255450261681545,75.48005884339491,78.26030523688497,-2.78024639349006,41.489158605982084,47.95312970569199,-6.463971099709909,-0.017515490366354296,0.0,-0.017515490366354296
0.2640000000000002,move_to_zero,-1.2752434937071704,-3.823874488075399,2.548630994368229,-75.53156364990302,-80.16195215899089,4.630388509087865,75.38663490978367,78.17035086304948,-2.783715953265812,41.41870430094526,47.8980111658004,-6.47930686485514,-0.01774652042150098,0.0,-0.01774652042150098
0.2660000000000002,move_to_zero,-1.266901573917662,-3.8194741722087993,2.552572598291137,-75.43458893944822,-80.06970595397479,4.635117014526571,75.29313830554567,78.08039648921398,-2.787258183668314,41.3483319502568,47.842892625908796,-6.4945606756519965,-0.017979157660275132,0.0,-0.017979157660275132
0.2680000000000002,move_to_zero,-1.2586100193149394,-3.815073856342199,2.5564638370272594,-75.33773785741103,-79.97745974895868,4.6397218915476515,75.19955095426398,77.99044211537847,-2.7908911611144873,41.27805318954885,47.787774086017194,-6.509720896468345,-0.01821690871050396,0.0,-0.01821690871050396
0.2700000000000002,move_to_zero,-1.2503653202180858,-3.810673540475599,2.560308220257513,-75.24100126236189,-79.8852135439426,4.644212281580707,75.1058800816775,77.90048774154299,-2.794607659865491,41.2078836055082,47.73265554612559,-6.524771940617391,-0.018452838017909416,0.0,-0.018452838017909416
0.2720000000000002,move_to_zero,-1.2421606328033867,-3.806273224608999,2.5641125918056122,-75.1444003553289,-79.79296733892649,4.64856698359759,75.01213375023259,77.81053336770748,-2.7983996174748853,41.13781460591078,47.677537006234,-6.539722400323214,-0.01868638706355327,0.0,-0.01868638706355327
0.2740000000000002,move_to_zero,-1.2339742145691075,-3.801872908742399,2.5678986941732918,-75.04792762282875,-79.70072113391039,4.65279351108164,74.91830539681463,77.72057899387197,-2.8022735970573365,41.067816784804286,47.622418466342396,-6.554601681538109,-0.018924436259736614,0.0,-0.018924436259736614
0.2760000000000002,move_to_zero,-1.2258248809199084,-3.7974725928757986,2.5716477119558903,-74.951578166504,-79.60847492889428,4.656896762390275,74.82439439012914,77.63062462003649,-2.8062302299073423,40.99789793784307,47.567299926450794,-6.569401988607723,-0.019177838128267566,0.0,-0.019177838128267566
0.2780000000000002,move_to_zero,-1.2177009685426097,-3.7930722770091996,2.5753713084665897,-74.85531161664372,-79.51622872387819,4.660917107234468,74.73039400039659,77.54067024620097,-2.8102762458043884,40.92804874027302,47.5121813865592,-6.584132646286179,-0.019452880909547336,0.0,-0.019452880909547336
0.2800000000000002,move_to_zero,-1.2096245528589786,-3.7886719611425996,2.5790474082836212,-74.75913997193011,-79.42398251886209,4.664842546931979,74.63631513440988,77.45071587236548,-2.8144007379555944,40.85825320915279,47.45706284666759,-6.5988096375147975,-0.01975222807097079,0.0,-0.01975222807097079
0.2820000000000002,move_to_zero,-1.2016229261685756,-3.7842716452759992,2.5826487191074237,-74.66308603851115,-79.331736313846,4.668650275334841,74.54216276782913,77.36076149852998,-2.818598730700856,40.788514928037685,47.401944306775995,-6.61342937873831,-0.020061973227429218,0.0,-0.020061973227429218
0.2840000000000002,move_to_zero,-1.1936903265991365,-3.7798713294093993,2.586181002810263,-74.56713672989699,-79.2394901088299,4.672353378932911,74.44795086621795,77.27080712469449,-2.822856258476534,40.71883176784115,47.34682576688439,-6.627993999043241,-0.020382538444528118,0.0,-0.020382538444528118
0.2860000000000002,move_to_zero,-1.185823949511817,-3.7754710135427993,2.5896470640309825,-74.47130795325808,-79.14724390381379,4.675935950555711,74.3536762017977,77.18085275085897,-2.827176549061278,40.64922671032948,47.29170722699279,-6.642480516663312,-0.02069523945138954,0.0,-0.02069523945138954
0.2880000000000002,move_to_zero,-1.1780200631836768,-3.7710706976761994,2.5930506344925224,-74.37558171957365,-79.05499769879769,4.679415979224046,74.25933740093188,77.09089837702348,-2.8315609760915947,40.57969422040693,47.2365886871012,-6.656894466694268,-0.020986477302534716,0.0,-0.020986477302534716
0.2900000000000002,move_to_zero,-1.1702760179554619,-3.766670381809599,2.596394363854137,-74.27995933426058,-78.96275149378158,4.682792159521,74.1649451302966,77.00094400318798,-2.8359988728913805,40.51024946033548,47.181470147209595,-6.671220686874115,-0.02126097848573548,0.0,-0.02126097848573548
0.2920000000000002,move_to_zero,-1.1625865027781486,-3.762270065942999,2.5996835631648505,-74.184439693976,-78.87050528876549,4.686065594789483,74.07050616619291,76.91098962935247,-2.8404834631595577,40.44090710897808,47.12635160731799,-6.685444498339912,-0.021521397707456702,0.0,-0.021521397707456702
0.2940000000000002,move_to_zero,-1.1549591122955964,-3.757869750076399,2.602910637780803,-74.08901146859178,-78.77825908374939,4.689247615157612,73.97605091547236,76.82103525551699,-2.8449843400446326,40.37166934176771,47.07123306742639,-6.6995637256586775,-0.021770096338256748,0.0,-0.021770096338256748
0.2960000000000002,move_to_zero,-1.147357920716009,-3.753469434209799,2.60611151349379,-73.99368786032989,-78.6860128787333,4.692325018403409,73.88158151510675,76.73108088168148,-2.849499366574733,40.302535696935074,47.016114527534796,-6.713578830599722,-0.02200830442183283,0.0,-0.02200830442183283
0.2980000000000002,move_to_zero,-1.1397801742570368,-3.749069118343199,2.609288944086162,-73.89846984340925,-78.59376667371718,4.695296830307939,73.78710219053544,76.64112650784598,-2.8540243173105466,40.23349593823554,46.960995987643194,-6.727500049407652,-0.022240061429342078,0.0,-0.022240061429342078
0.3000000000000002,move_to_zero,-1.1322160792917886,-3.744668802476599,2.61245272318481,-73.8033673682269,-78.50152046870109,4.698153100474187,73.69261210623671,76.55117213401049,-2.858560027773777,40.16455341618792,46.90587744775159,-6.741324031563671,-0.02246847474924757,0.0,-0.02246847474924757
0.3020000000000002,move_to_zero,-1.1246863900526265,-3.740268486609999,2.6155820965573726,-73.70836146809411,-78.40927426368499,4.700912795590881,73.5981383632462,76.46121776017497,-2.863079396928768,40.09572824607922,46.85075890786,-6.755030661780779,-0.022694674406913962,0.0,-0.022694674406913962
0.3040000000000002,move_to_zero,-1.1171879765184156,-3.735868170743399,2.618680194224983,-73.61344903827028,-78.31702805866888,4.703579020398607,73.50369994443994,76.37126338633948,-2.8675634418995344,40.02698819462739,46.79564036796839,-6.768652173340996,-0.022917573015173557,0.0,-0.022917573015173557
0.3060000000000002,move_to_zero,-1.1097007087029924,-3.7314678548767994,2.621767146173807,-73.51862384772227,-78.22478185365279,4.706158005930519,73.40928414872015,76.28130901250398,-2.8720248637838353,39.95833114343963,46.740521828076794,-6.782190684637165,-0.023136859707336335,0.0,-0.023136859707336335
0.3080000000000002,move_to_zero,-1.102224447106594,-3.7270675390101995,2.6248430919036054,-73.42388922696348,-78.13253564863669,4.708646421673208,73.31486155644768,76.19135463866847,-2.87649308222079,39.8897657910183,46.68540328818519,-6.795637497166894,-0.02335239633447588,0.0,-0.02335239633447588
0.3100000000000002,move_to_zero,-1.0947651089594506,-3.7226672231435995,2.627902114184149,-73.32922715214775,-78.0402894436206,4.711062291472842,73.22042624109825,76.10140026483299,-2.880974023734737,39.82127285564482,46.6302847482936,-6.809011892648776,-0.023565502545909306,0.0,-0.023565502545909306
0.3120000000000002,move_to_zero,-1.0873468920135516,-3.718266907276999,2.6309200152634475,-73.2346205548491,-77.94804323860448,4.7134226837553825,73.12597084962768,76.01144589099748,-2.8854750413698014,39.752829452316455,46.575166208401996,-6.822336756085541,-0.023774976583974684,0.0,-0.023774976583974684
0.3140000000000002,move_to_zero,-1.0799840263039482,-3.713866591410399,2.6338825651064512,-73.1400803525583,-77.85579703358839,4.715716681030088,73.03150820204431,75.92149151716198,-2.889983315117675,39.68444930501485,46.520047668510394,-6.835598363495542,-0.023982552692285535,0.0,-0.023982552692285535
0.3160000000000002,move_to_zero,-1.072657275996435,-3.7094662755437993,2.6368089995473643,-73.0456179905964,-77.76355082857228,4.71793283797588,72.93704379694785,75.83153714332649,-2.8944933463786384,39.6161262536657,46.46492912861879,-6.848802874953094,-0.024189757992532285,0.0,-0.024189757992532285
0.3180000000000002,move_to_zero,-1.0653629564611824,-3.7050659596771993,2.6397030032160167,-72.95123157832631,-77.67130462355618,4.720073045229867,72.8425702536798,75.74158276949098,-2.8990125158111795,39.54784934119582,46.40981058872719,-6.861961247531369,-0.024395207099398665,0.0,-0.024395207099398665
0.32000000000000023,move_to_zero,-1.0580871101811353,-3.700665643810599,2.6425785336294636,-72.85690509924665,-77.57905841854009,4.72215331929344,72.7480914104942,75.65162839565548,-2.9035369851612813,39.47964825265328,46.354692048835595,-6.875043796182318,-0.024600853519672013,0.0,-0.024600853519672013
0.32200000000000023,move_to_zero,-1.05083748175001,-3.696265327943999,2.6454278461939893,-72.76261624809779,-77.48681221352399,4.724195965426205,72.65362777229521,75.56167402181998,-2.908046249524773,39.411483483461765,46.29957350894399,-6.888090025482228,-0.024808422528652778,0.0,-0.024808422528652778
0.32400000000000023,move_to_zero,-1.0436035788620899,-3.691865012077399,2.648261433215309,-72.66836161320757,-77.3945660085079,4.7262043953003285,72.55917465565318,75.47171964798449,-2.9125449923313056,39.34335916587015,46.2444549690524,-6.901095803182251,-0.02501668450753395,0.0,-0.02501668450753395
0.32600000000000023,move_to_zero,-1.0363752966959092,-3.687464696210799,2.65108939951489,-72.5741812871862,-77.30231980349178,4.728138516305577,72.46474139184365,75.38176527414898,-2.9170238823053296,39.275256509933264,46.1893364291608,-6.914079919227532,-0.02522418597605225,0.0,-0.02522418597605225
0.32800000000000024,move_to_zero,-1.0291729855247196,-3.6830643803441987,2.653891394819479,-72.48006802905172,-77.21007359847569,4.730005569423966,72.37031281116587,75.29181090031348,-2.9214980891476046,39.20716136068482,46.13421788926919,-6.927056528584366,-0.025433729638315,0.0,-0.025433729638315
0.33000000000000024,move_to_zero,-1.0219905300909784,-3.6786640644775987,2.6566735343866204,-72.38600842472975,-77.11782739345958,4.731818968729826,72.27588227510486,75.20185652647798,-2.9259742513731197,39.139090121065045,46.07909934937759,-6.940009228312547,-0.025644974723717386,0.0,-0.025644974723717386
0.33200000000000024,move_to_zero,-1.0148229089901275,-3.674263748610999,2.6594408396208715,-72.29199054549909,-77.02558118844348,4.733590642944392,72.18144264776626,75.11190215264247,-2.930459504876211,39.071037611458024,46.02398080948599,-6.952943198027967,-0.025857893973638458,0.0,-0.025857893973638458
0.33400000000000024,move_to_zero,-1.0076874386303227,-3.669863432744399,2.662175994114076,-72.19800549091916,-76.93333498342739,4.735329492508228,72.08698626802766,75.02194777880699,-2.934961510779331,39.003010002575735,45.968862269594396,-6.965852267018661,-0.026076619455124666,0.0,-0.026076619455124666
0.33600000000000024,move_to_zero,-1.000577232537506,-3.6654631168777994,2.6648858843402934,-72.10406961718833,-76.84108877841129,4.73701916122296,71.99253833020293,74.93199340497148,-2.9394550747685457,38.93500950695079,45.913743729702794,-6.978734222752003,-0.026293909419749906,0.0,-0.026293909419749906
0.33800000000000024,move_to_zero,-0.9935024411831673,-3.6610628010111994,2.667560359828032,-72.01019317112507,-76.74884257339518,4.738649402270113,71.898101375908,74.84203903113597,-2.9439376552279697,38.86703476469318,45.85862518981119,-6.991590425118012,-0.026509974349223413,0.0,-0.026509974349223413
0.34000000000000025,move_to_zero,-0.986485458636194,-3.6566624851445995,2.6701770265084055,-71.91637889801186,-76.65659636837908,4.740217470367227,71.80364382372309,74.75208465730049,-2.9484408335773935,38.799091483169,45.80350664991959,-7.00441516675059,-0.026726187786631564,0.0,-0.026726187786631564
0.34200000000000025,move_to_zero,-0.9795183414029971,-3.652262169277999,2.672743827875002,-71.82262242957303,-76.56435016336299,4.741727733789958,71.70914850482012,74.66213028346498,-2.9529817786448547,38.73115136206724,45.74838811002799,-7.017236747960752,-0.02694491911587794,0.0,-0.02694491911587794
0.34400000000000025,move_to_zero,-0.9726059532468574,-3.647861853411399,2.675255900164542,-71.72890299584662,-76.47210395834688,4.743200962500254,71.6146009393362,74.57217590962948,-2.9575749702932796,38.66322524515376,45.693269570136394,-7.030044324982633,-0.027185415668808204,0.0,-0.027185415668808204
0.34600000000000025,move_to_zero,-0.965741928372238,-3.643461537544799,2.677719609172561,-71.63522973169611,-76.3798577533308,4.744628021634682,71.52000992803815,74.48222153579398,-2.962211607755833,38.59533830577775,45.63815103024479,-7.042812724467041,-0.027432176202896667,0.0,-0.027432176202896667
0.34800000000000025,move_to_zero,-0.9589308866978054,-3.6390612216781992,2.6801303349803938,-71.54159944715346,-76.28761154831469,4.746012101161227,71.42537332008826,74.39226716195847,-2.966893841870217,38.52749885084731,45.5830324903532,-7.055533639505889,-0.027678073056145704,0.0,-0.027678073056145704
0.35000000000000026,move_to_zero,-0.9521894663643741,-3.634660905811599,2.682471439447225,-71.44802298450476,-76.19536534329859,4.74734235879383,71.33070549389923,74.30231278812298,-2.9716072942237446,38.459695296422765,45.52791395046159,-7.068218654038823,-0.02793019046602163,0.0,-0.02793019046602163
0.35200000000000026,move_to_zero,-0.9455194983527717,-3.630260589944999,2.684741091592227,-71.35450535894334,-76.10311913828248,4.748613779339138,71.23603655553575,74.21235841428748,-2.9763218587517315,38.39193862799243,45.472795410569994,-7.080856782577563,-0.028196801722808053,0.0,-0.028196801722808053
0.35400000000000026,move_to_zero,-0.9389079781866638,-3.625860274078399,2.686952295891735,-71.261033171679,-76.01087293326638,4.749839761587381,71.14135322959221,74.12240404045198,-2.98105081085977,38.32421328994324,45.41767687067839,-7.093463580735154,-0.02845436348435638,0.0,-0.02845436348435638
0.35600000000000026,move_to_zero,-0.9323455584930206,-3.621459958211799,2.6891143997187785,-71.16762483469178,-75.91862672825027,4.751001893558495,71.04663723285769,74.03244966661647,-2.985812433758781,38.25650678687045,45.36255833078679,-7.106051543916337,-0.028728470888982165,0.0,-0.028728470888982165
0.35800000000000026,move_to_zero,-0.9258292639764287,-3.6170596423451986,2.69123037836877,-71.0742773669538,-75.82638052323418,4.752103156280384,70.95191072624499,73.94249529278098,-2.9905845665359863,38.18883277159646,45.307439790895195,-7.118607019298736,-0.029020425236037997,0.0,-0.029020425236037997
0.36000000000000026,move_to_zero,-0.9193320232755275,-3.6126593264785987,2.693327303203071,-70.98100147847133,-75.7341343182181,4.753132839746769,70.85716109636651,73.85254091894548,-2.9953798225789683,38.12118668333919,45.25232125100359,-7.131134567664404,-0.029335223767199763,0.0,-0.029335223767199763
0.36200000000000027,move_to_zero,-0.9128855540528212,-3.6082590106119987,2.6953734565591776,-70.88781147911074,-75.64188811320199,4.754076634091248,70.76238584464812,73.76258654510997,-3.0002007004618463,38.053562016932034,45.19720271111199,-7.1436406941799575,-0.029645139471801838,0.0,-0.029645139471801838
0.36400000000000027,move_to_zero,-0.9064798362797569,-3.603858694745399,2.697378858465642,-70.79468482695545,-75.54964190818589,4.754957081230444,70.66755626841201,73.67263217127449,-3.0050759028624725,37.98595739224835,45.14208417122039,-7.1561267789720375,-0.02994669843403534,0.0,-0.02994669843403534
0.36600000000000027,move_to_zero,-0.9001019709893087,-3.5994583788787993,2.6993564078894905,-70.70163450678294,-75.45739570316978,4.7557611963868425,70.57266764059028,73.58267779743898,-3.0100101568486934,37.91838273968385,45.086965631328795,-7.168582891644945,-0.03023159900016098,0.0,-0.03023159900016098
0.36800000000000027,move_to_zero,-0.8937182776591264,-3.5950580630121993,2.701339785353073,-70.6086242808018,-75.36514949815368,4.756525217351879,70.47770202792168,73.49272342360348,-3.0150213956817993,37.85083880928246,45.03184709143719,-7.181008282154735,-0.03049824293106394,0.0,-0.03049824293106394
0.3700000000000003,move_to_zero,-0.8873517885569784,-3.5906577471455994,2.703305958588621,-70.5156558940035,-75.27290329313757,4.757247399134073,70.38266312450335,73.40276904976798,-3.0201059252646303,37.78331290816541,44.97672855154559,-7.1934156433801775,-0.030749887372078427,0.0,-0.030749887372078427
0.3720000000000003,move_to_zero,-0.8809907971269757,-3.586257431278999,2.7052666341520233,-70.4227390100064,-75.18065708812149,4.757918078115097,70.28755279029872,73.31281467593247,-3.0252618856337534,37.71578437572429,44.921610011653996,-7.205825635929706,-0.030989008834468267,0.0,-0.030989008834468267
0.3740000000000003,move_to_zero,-0.8746406675485694,-3.581857115412399,2.7072164478638294,-70.32986263363115,-75.08841088310538,4.758548249474231,70.19237929980795,73.22286030209698,-3.0304810022890223,37.648259884675596,44.86649147176239,-7.218231587086791,-0.031217070397768734,0.0,-0.031217070397768734
0.3760000000000003,move_to_zero,-0.8683042616210138,-3.577456799545799,2.709152537924785,-70.2370368355859,-74.99616467808929,4.759127842503389,70.09715838521181,73.13290592826148,-3.0357475430496663,37.58072137413961,44.81137293187079,-7.230651557731186,-0.03143382447502982,0.0,-0.03143382447502982
0.3780000000000003,move_to_zero,-0.861992135826563,-3.573056483679199,2.711064347852636,-70.14427068592767,-74.90391847307319,4.759647787145525,70.00188513815912,73.04295155442597,-3.041066416266844,37.5131734495752,44.75625439197919,-7.243080942403992,-0.031642435358789155,0.0,-0.031642435358789155
0.3800000000000003,move_to_zero,-0.8557115754701791,-3.5686561678125988,2.71294459234242,-70.05159567004661,-74.81167226805708,4.760076598010471,69.90655863880293,72.95299718059049,-3.046438541787552,37.44558789138777,44.70113585208759,-7.255547960699822,-0.031844408253802046,0.0,-0.031844408253802046
0.3820000000000003,move_to_zero,-0.8494473786371242,-3.564255851945999,2.7148084733088744,-69.95902481537988,-74.71942606304098,4.7604012476611075,69.81117252185398,72.86304280675498,-3.0518702849009998,37.37799724675562,44.646017312195994,-7.268020065440375,-0.03204043323648831,0.0,-0.03204043323648831
0.3840000000000003,move_to_zero,-0.8432057175113618,-3.559855536079399,2.7166498185680372,-69.86653833655377,-74.62717985802489,4.760641521471115,69.71575862204082,72.77308843291948,-3.057329810878656,37.31041883111712,44.59089877230439,-7.280479941187274,-0.032231399460662204,0.0,-0.032231399460662204
0.3860000000000003,move_to_zero,-0.8369749973184106,-3.5554552202127994,2.7184802228943887,-69.7741384028913,-74.53493365300879,4.760795250117496,69.62030533378412,72.68313405908398,-3.062828725299866,37.24285284950941,44.53578023241279,-7.292927382903379,-0.03241974311822438,0.0,-0.03241974311822438
0.3880000000000003,move_to_zero,-0.830755010219623,-3.551054904346199,2.720299894126576,-69.68178530913116,-74.44268744799268,4.760902138861525,69.52480136402887,72.59317968524847,-3.0683783212195976,37.17529560878808,44.48066169252119,-7.305366083733105,-0.03260615917572568,0.0,-0.03260615917572568
0.3900000000000003,move_to_zero,-0.8245325495461967,-3.546654588479599,2.7221220389334024,-69.58948658511743,-74.35044124297659,4.760954657859159,69.42924263526643,72.50322531141298,-3.0739826761465423,37.10772186860201,44.425543152629594,-7.3178212840275805,-0.032792380419837994,0.0,-0.032792380419837994
0.3920000000000003,move_to_zero,-0.8183130896325383,-3.542254272612999,2.723941182980461,-69.49725670495494,-74.25819503796048,4.760938333005541,69.33363005163982,72.41327093757748,-3.079640885937664,37.04013476994188,44.37042461273799,-7.3302898427961125,-0.03297751320864345,0.0,-0.03297751320864345
0.3940000000000003,move_to_zero,-0.8121045125184941,-3.537853956746399,2.725749444227905,-69.40511784398213,-74.16594883294438,4.760830988962255,69.23795423154264,72.32331656374198,-3.085362332199338,36.97256203287639,44.31530607284639,-7.34274403997,-0.03316504811955293,0.0,-0.03316504811955293
0.3960000000000003,move_to_zero,-0.8059056322745247,-3.5334536408797987,2.727548008605274,-69.31306713750199,-74.07370262792828,4.760635490426296,69.14221075893286,72.23336218990647,-3.0911514309736106,36.905001414168204,44.260187532954795,-7.355186118786591,-0.033354238958930714,0.0,-0.033354238958930714
0.3980000000000003,move_to_zero,-0.7997448074041261,-3.529053325013199,2.7293085176090726,-69.2210985871389,-73.98145642291219,4.760357835773291,69.04639545932251,72.14340781607098,-3.097012356748465,36.83744350854525,44.205068993063186,-7.367625484517937,-0.033544103952634664,0.0,-0.033544103952634664
0.4000000000000003,move_to_zero,-0.7936019706425498,-3.524653009146599,2.731051038504049,-69.12921488209032,-73.88921021789609,4.759995335805769,68.95052585029953,72.05345344223548,-3.102927591935952,36.769904751366575,44.14995045317159,-7.380045701805017,-0.033732429377726435,0.0,-0.033732429377726435
0.4020000000000003,move_to_zero,-0.7874784754332893,-3.520252693279999,2.7327742178467096,-69.03741219271463,-73.79696401287998,4.759551820165356,68.85461837922159,71.96349906839997,-3.1088806891783776,36.702361039120525,44.09483191327999,-7.392470874159464,-0.0339189457883806,0.0,-0.0339189457883806
0.4040000000000003,move_to_zero,-0.7813782766071741,-3.515852377413399,2.7344741008062248,-68.94570725033174,-73.70471780786389,4.75901055753215,68.75866710776795,71.87354469456449,-3.1148775867965384,36.634814008459834,44.039713373388395,-7.404899364928561,-0.034102395549323004,0.0,-0.034102395549323004
0.4060000000000003,move_to_zero,-0.7752999703938886,-3.511452061546799,2.7361520911529102,-68.85409161482085,-73.61247160284778,4.758379988026931,68.66266494499376,71.78359032072898,-3.1209253757352116,36.567270881647445,43.98459483349679,-7.4173239518493475,-0.0342835957579408,0.0,-0.0342835957579408
0.4080000000000003,move_to_zero,-0.7692173439888305,-3.507051745680199,2.7378344016913685,-68.76255480934499,-73.52022539783168,4.75767058848669,68.5665985323787,71.69363594689347,-3.12703741451476,36.49971939787299,43.92947629360519,-7.429756895732204,-0.034465073420238405,0.0,-0.034465073420238405
0.4100000000000003,move_to_zero,-0.7631197133264903,-3.5026514298135987,2.7395317164871082,-68.67108512925526,-73.42797919281558,4.756894063560324,68.47045423848802,71.60368157305798,-3.133227334569966,36.43217176495106,43.87435775371359,-7.442185988762532,-0.03464453743789645,0.0,-0.03464453743789645
0.4120000000000003,move_to_zero,-0.7570278734716976,-3.4982511139469987,2.741223240475301,-68.57968322987341,-73.33573298779949,4.756049757926078,68.37424355489756,71.51372719922247,-3.139483644324912,36.36463690892863,43.81923921382199,-7.454602304893356,-0.034820346410747084,0.0,-0.034820346410747084
0.4140000000000003,move_to_zero,-0.7509299857468013,-3.493850798080399,2.7429208123335975,-68.48832538358701,-73.24348678278338,4.755161399196368,68.27798147012189,71.42377282538698,-3.1457913552650894,36.29708895297123,43.76412067393039,-7.467031720959163,-0.034993300639360465,0.0,-0.034993300639360465
0.4160000000000003,move_to_zero,-0.7448402780644643,-3.4894504822137993,2.744610204149335,-68.39699759212272,-73.15124057776728,4.7542429856445665,68.18166903252715,71.33381845155148,-3.152149419024326,36.22951590822375,43.70900213403879,-7.479486225815037,-0.03516159770635315,0.0,-0.03516159770635315
0.4180000000000003,move_to_zero,-0.7387599070845364,-3.485050166347199,2.7462902592626626,-68.30569071411678,-73.05899437275119,4.753303658634408,68.08532397170339,71.24386407771597,-3.1585401060125804,36.16192547102931,43.653883594147196,-7.4919581231178825,-0.03532995735887643,0.0,-0.03532995735887643
0.4200000000000003,move_to_zero,-0.7326990655083196,-3.480649850480599,2.7479507849722795,-68.21442317522715,-72.96674816773508,4.752324992507923,67.98895330982373,71.15390970388047,-3.1649563940567447,36.09433890509397,43.598765054255594,-7.504426149161624,-0.035498951698504304,0.0,-0.035498951698504304
0.4220000000000003,move_to_zero,-0.7266302207677319,-3.476249534613999,2.7496193138462672,-68.12320009596212,-72.87450196271898,4.751301866756862,67.89254560416371,71.06395533004498,-3.1714097258812615,36.02676142988163,43.543646514363985,-7.516885084482354,-0.035667572262936396,0.0,-0.035667572262936396
0.4240000000000003,move_to_zero,-0.7205527884756048,-3.471849218747399,2.751296430271794,-68.03202647851964,-72.78225575770288,4.750229279183245,67.79609461417863,70.97400095620948,-3.1779063420308518,35.95919633368482,43.48852797447239,-7.529331640787568,-0.03583448797661023,0.0,-0.03583448797661023
0.4260000000000003,move_to_zero,-0.7144731014552336,-3.4674489028807987,2.752975801425565,-67.94090531496629,-72.69000955268679,4.749104237720502,67.69964162227285,70.88404658237397,-3.1844049601011193,35.89162949457823,43.43340943458079,-7.541779940002556,-0.03599771826647,0.0,-0.03599771826647
0.4280000000000003,move_to_zero,-0.7084019332420614,-3.4630485870141987,2.7546466537721375,-67.84982528958618,-72.59776334767068,4.7479380580845,67.60319640796116,70.79409220853847,-3.1908958005773087,35.824080382329,43.378290894689194,-7.554210512360193,-0.03615740460146046,0.0,-0.03615740460146046
0.4300000000000003,move_to_zero,-0.702352171122516,-3.458648271147599,2.756296100025083,-67.75877971452138,-72.50551714265458,4.746737428133201,67.50676415543154,70.70413783470298,-3.1973736792714362,35.756568403845144,43.32317235479759,-7.566603950952448,-0.03631355095074461,0.0,-0.03631355095074461
0.43200000000000033,move_to_zero,-0.6963040053288496,-3.454247955280999,2.757943949952149,-67.66776447569994,-72.41327093763847,4.7455064619385325,67.4103267268075,70.61418346086747,-3.2038567340599684,35.68907343534759,43.268053814906,-7.578980379558409,-0.03646907640045654,0.0,-0.03646907640045654
0.43400000000000033,move_to_zero,-0.6902772525113803,-3.449847639414399,2.7595703869030186,-67.57676520327902,-72.32102473262238,4.744259529343353,67.31388950967373,70.52422908703198,-3.210339577358255,35.62161945838053,43.21293527501439,-7.591315816633859,-0.036622442703289126,0.0,-0.036622442703289126
0.43600000000000033,move_to_zero,-0.6842759997263047,-3.445447323547799,2.761171323821494,-67.48578511423395,-72.22877852760628,4.742993413372332,67.21745606735338,70.43427471319647,-3.216818645843091,35.55419411699283,43.157816735122786,-7.603622618129954,-0.03677407744138057,0.0,-0.03677407744138057
0.43800000000000033,move_to_zero,-0.6783235658641609,-3.441047007681199,2.7627234418170383,-67.3948232795107,-72.13653232259018,4.7417090430794815,67.12101502762917,70.34432033936098,-3.2233053117318065,35.48679843131947,43.10269819523119,-7.61589976391172,-0.03692296336140685,0.0,-0.03692296336140685
0.44000000000000034,move_to_zero,-0.6724007951142085,-3.4366466918145986,2.7642458967003902,-67.3039073087965,-72.04428611757409,4.740378808777592,67.02458434728706,70.25436596552548,-3.2297816182384196,35.41942002736094,43.04757965533959,-7.628159627978647,-0.03706866528589019,0.0,-0.03706866528589019
0.44200000000000034,move_to_zero,-0.6665412645941159,-3.4322463759479986,2.7657051113538826,-67.21304700560977,-71.95203991255798,4.738992906948212,66.92816528113165,70.16441159168997,-3.2362463105583146,35.352081332093164,42.992461115447995,-7.640379783354831,-0.03721140182870746,0.0,-0.03721140182870746
0.44400000000000034,move_to_zero,-0.6607503712768467,-3.427846060081399,2.7670956888045524,-67.1222211845046,-71.85979370754188,4.7375725230372865,66.83177702828571,70.07445721785447,-3.242680189568759,35.28477655189494,42.937342575556386,-7.652566023661443,-0.03735215214606124,0.0,-0.03735215214606124
0.44600000000000034,move_to_zero,-0.6549994983294922,-3.423445744214799,2.7684462458853067,-67.0313939745849,-71.76754750252577,4.736153527940871,66.73542051639504,69.98450284401898,-3.2490823276239382,35.21752014623816,42.88222403566479,-7.664703889426633,-0.03749049601206597,0.0,-0.03749049601206597
0.44800000000000034,move_to_zero,-0.6492633657376428,-3.419045428348199,2.769782062610556,-66.94058995888659,-71.67530129750969,4.7347113386231,66.63909157410441,69.89454847018347,-3.2554568960790533,35.15031197527363,42.82710549577319,-7.676793520499558,-0.037625593909113915,0.0,-0.037625593909113915
0.45000000000000034,move_to_zero,-0.6435385766610595,-3.414645112481599,2.7711065358205396,-66.8498208975124,-71.58305509249358,4.733234194981179,66.542772035368,69.80459409634798,-3.2618220609799806,35.08314921897573,42.77198695588159,-7.68883773690586,-0.037759304188749204,0.0,-0.037759304188749204
0.45200000000000035,move_to_zero,-0.6378457777049977,-3.410244796614999,2.772399018910001,-66.75909141577777,-71.49080888747748,4.73171747169971,66.4464392696679,69.71463972251247,-3.2682004528445674,35.016008243855744,42.71686841598999,-7.700860172134249,-0.037894510126711384,0.0,-0.037894510126711384
0.45400000000000035,move_to_zero,-0.6321754030896539,-3.405844480748399,2.773669077658745,-66.66837150331718,-71.39856268246137,4.7301911791441995,66.3500733680194,69.62468534867698,-3.274611980657582,34.94887731854198,42.66174987609839,-7.712872557556409,-0.038029437342600156,0.0,-0.038029437342600156
0.45600000000000035,move_to_zero,-0.6265312608841479,-3.4014441648817986,2.7749129039976506,-66.57764294970616,-71.30631647744528,4.728673527739119,66.25367229005914,69.53473097484148,-3.2810586847823373,34.88173810371078,42.60663133620679,-7.724893232496008,-0.0381661611107009,0.0,-0.0381661611107009
0.45800000000000035,move_to_zero,-0.6209070339522018,-3.397043849015199,2.7761368150629973,-66.48693398697779,-71.21407027242918,4.727136285451394,66.15722899024708,69.44477660100597,-3.2875476107588923,34.81460202931078,42.55151279631519,-7.73691076700441,-0.03830329395574834,0.0,-0.03830329395574834
0.46000000000000035,move_to_zero,-0.6152943057474088,-3.392643533148599,2.7773492274011904,-66.39623916402614,-71.12182406741309,4.725584903386945,66.06072522832137,69.35482222717047,-3.294096998849099,34.74746622292121,42.49639425642359,-7.748928033502381,-0.0384399827041424,0.0,-0.0384399827041424
0.46200000000000035,move_to_zero,-0.6097255520614379,-3.3882432172819987,2.7785176652205608,-66.30557021597426,-71.02957786239699,4.724007646422734,65.96417587339532,69.26486785333498,-3.300691979939657,34.68035476909403,42.44127571653199,-7.76092094743796,-0.03857960772725547,0.0,-0.03857960772725547
0.46400000000000036,move_to_zero,-0.6042079334014039,-3.383842901415399,2.779634968013995,-66.21491971111077,-70.93733165738088,4.722411946270114,65.86759920633658,69.17491347949948,-3.307314273162902,34.613278808663615,42.38615717664039,-7.772878367976773,-0.03872107928137883,0.0,-0.03872107928137883
0.46600000000000036,move_to_zero,-0.5987216899477782,-3.379442585548799,2.7807208956010205,-66.1243004449627,-70.84508545236478,4.720785007402085,65.77096574713468,69.08495910566397,-3.313993358529288,34.54628007363411,42.331038636748794,-7.784758563114686,-0.038862627683855004,0.0,-0.038862627683855004
0.46800000000000036,move_to_zero,-0.5932748675767154,-3.375042269682199,2.7817674021054835,-66.03369766439519,-70.75283924734867,4.719141582953483,65.67429877669623,68.99500473182847,-3.32070595513224,34.47937063258447,42.275920096857185,-7.796549464272715,-0.03900399301363562,0.0,-0.03900399301363562
0.47000000000000036,move_to_zero,-0.5878624192610235,-3.3706419538155985,2.782779534554575,-65.94314541942573,-70.66059304233258,4.717447622906846,65.57758487352257,68.90505035799298,-3.327465484470409,34.412543016609106,42.22080155696559,-7.8082585403564835,-0.03914645926737289,0.0,-0.03914645926737289
0.47200000000000036,move_to_zero,-0.5824799903836836,-3.3662416379489986,2.783761647565315,-65.85261779993614,-70.56834683731647,4.715729037380328,65.4808434372267,68.81509598415747,-3.3342525469307702,34.345784109687344,42.16568301707399,-7.819898907386644,-0.03928755912954548,0.0,-0.03928755912954548
0.47400000000000037,move_to_zero,-0.5771277417351276,-3.361841322082399,2.7847135803472716,-65.76210456318377,-70.47610063230039,4.713996069116618,65.38406227373395,68.72514161032198,-3.341079336588038,34.279081682174734,42.11056447718239,-7.831482795007659,-0.03942930997750573,0.0,-0.03942930997750573
0.47600000000000037,move_to_zero,-0.571778634724146,-3.357441006215799,2.785662371491653,-65.67162257818721,-70.38385442728428,4.712231849097066,65.28725173365848,68.63518723648647,-3.347935502827994,34.21241479594535,42.05544593729079,-7.843031141345442,-0.03957297153665176,0.0,-0.03957297153665176
0.47800000000000037,move_to_zero,-0.5664176350902167,-3.3530406903491987,2.786623055258982,-65.5811426585711,-70.29160822226818,4.710465563697085,65.19041955642382,68.54523286265096,-3.3548133062271432,34.145766684519536,42.00032739739919,-7.854560712879653,-0.03971658353479376,0.0,-0.03971658353479376
0.48000000000000037,move_to_zero,-0.5610441941462727,-3.3486403744825988,2.787596180336326,-65.49067033194721,-70.19936201725208,4.708691685304871,65.09357212528325,68.45527848881548,-3.3617063635322353,34.07914387741383,41.94520885750759,-7.8660649800937605,-0.039860599887184614,0.0,-0.039860599887184614
0.4820000000000004,move_to_zero,-0.5556929444196014,-3.344240058615999,2.7885471141963976,-65.40021771548281,-70.10711581223597,4.706898096753164,64.99669564849042,68.36532411497997,-3.368628466489554,34.012542475322,41.890090317615986,-7.8775478422939855,-0.04000593309439407,0.0,-0.04000593309439407
0.4840000000000004,move_to_zero,-0.5503568316161243,-3.339839742749399,2.7894829111332746,-65.30980894691803,-70.01486960721988,4.705060660301854,64.89978728379997,68.27536974114447,-3.375582457344507,33.94594666067981,41.83497177772439,-7.889025117044582,-0.040150588593125945,0.0,-0.040150588593125945
0.4860000000000004,move_to_zero,-0.5450258685964859,-3.3354394268827985,2.7904135582863123,-65.21945151700638,-69.92262340220378,4.703171885197406,64.80287138703129,68.18541536730898,-3.3825439802776884,33.879331569253615,41.77985323783279,-7.900521668579174,-0.04029183214918384,0.0,-0.04029183214918384
0.4880000000000004,move_to_zero,-0.5397434780401891,-3.331039111016199,2.79129563297601,-65.12910991973219,-69.83037719718769,4.7012672774555,64.70596623637131,68.09546099347347,-3.389494757102156,33.812682091077264,41.72473469794119,-7.912052606863924,-0.04042964535237738,0.0,-0.04042964535237738
0.4900000000000004,move_to_zero,-0.5344983242476073,-3.326638795149599,2.792140470901992,-65.0388102026258,-69.73813099217158,4.69932078954578,64.60906472910386,68.00550661963797,-3.3964418905341063,33.74601179878422,41.66961615804959,-7.923604359265376,-0.04056395007580571,0.0,-0.04056395007580571
0.4920000000000004,move_to_zero,-0.5292831594961226,-3.3222384792829986,2.792955319786876,-64.94852024782813,-69.64588478715548,4.697364539327353,64.51215468342134,67.91555224580247,-3.40339756238113,33.67932815213813,41.61449761815798,-7.93516946601985,-0.040698040928952364,0.0,-0.040698040928952364
0.4940000000000004,move_to_zero,-0.5240759597521145,-3.3178381634163987,2.793762203664284,-64.8582615366511,-69.55363858213937,4.6953770454882715,64.41524604506124,67.82559787196698,-3.410351826905739,33.61263297503351,41.55937907826639,-7.946746103232876,-0.040833092651856764,0.0,-0.040833092651856764
0.4960000000000004,move_to_zero,-0.5188876313929973,-3.3134378475497988,2.7945502161568014,-64.76804545854583,-69.46139237712327,4.693346918577447,64.3183487317732,67.73564349813147,-3.4172947663582676,33.545938449939655,41.50426053837479,-7.958322088435132,-0.04096925276430709,0.0,-0.04096925276430709
0.4980000000000004,move_to_zero,-0.5137144795593009,-3.309037531683199,2.795323052123898,-64.67787667611074,-69.36914617210718,4.691269495996437,64.22147241630819,67.64568912429597,-3.4242167079877817,33.47928528646351,41.44914199848319,-7.969856712019684,-0.04110438077469303,0.0,-0.04110438077469303
0.5000000000000003,move_to_zero,-0.5085604091550996,-3.3046372158165984,2.7960768066614987,-64.58776521637319,-69.27689996709108,4.689134750717898,64.12460613735496,67.55573475046047,-3.431128613105514,33.41265554502789,41.39402345859159,-7.981367913563702,-0.041238731871094364,0.0,-0.041238731871094364
0.5020000000000003,move_to_zero,-0.5034155103924615,-3.300236899949999,2.7968213895575373,-64.49771372538542,-69.18465376207499,4.686940036689563,64.02774806760232,67.46578037662498,-3.4380323090226597,33.34602949892372,41.33890491869999,-7.992875419776269,-0.041369314578206515,0.0,-0.041369314578206515
0.5040000000000003,move_to_zero,-0.49825915669920345,-3.2958365840833994,2.797577427384196,-64.40771034853098,-69.09240755705889,4.684697208527908,63.93091468699837,67.37582600278948,-3.44491131579111,33.279402841454775,41.283786378808394,-8.004383537353618,-0.041495280695071676,0.0,-0.041495280695071676
0.5060000000000003,move_to_zero,-0.49311935394955875,-3.291436268216799,2.7983169142672404,-64.3177404700546,-69.00016135204278,4.682420881988179,63.834122116471406,67.28587162895397,-3.4517495124825643,33.21278194425655,41.228667838916785,-8.015885894660236,-0.04161594862566502,0.0,-0.04161594862566502
0.5080000000000003,move_to_zero,-0.48800705113783144,-3.287035952350199,2.7990289012123677,-64.22779868945887,-68.90791514702669,4.68011645756782,63.73735477270215,67.19591725511847,-3.458562482416326,33.14615845282798,41.1735492990252,-8.027390846197214,-0.041733015116444415,0.0,-0.041733015116444415
0.5100000000000003,move_to_zero,-0.48291816222008066,-3.2826356364835987,2.799717474263518,-64.13788038287527,-68.81566894201057,4.677788559135308,63.640589094274425,67.10596288128298,-3.465373787008552,33.079566836166556,41.11843075913359,-8.038863922967032,-0.0418450009625223,0.0,-0.0418450009625223
0.5120000000000003,move_to_zero,-0.4778570318358817,-3.278235320616999,2.8003782887811175,-64.04799187520267,-68.7234227369945,4.675430861791824,63.543831518827005,67.01600850744748,-3.4721769886204754,33.01301098672299,41.06331221924199,-8.050301232519004,-0.04195532964053739,0.0,-0.04195532964053739
0.5140000000000003,move_to_zero,-0.4727806269144841,-3.273835004750399,2.8010543778359147,-63.9581636576095,-68.63117653197838,4.673012874368887,63.44709582764375,66.92605413361197,-3.47895830596822,32.9464938818718,41.00819367935039,-8.061699797478589,-0.04206415129814323,0.0,-0.04206415129814323
0.5160000000000003,move_to_zero,-0.4677184835462178,-3.2694346888837993,2.8017162053375815,-63.868391929094024,-68.53893032696229,4.670538397868263,63.35039726329883,66.83609975977649,-3.485702496477657,32.880008115798375,40.95307513945879,-8.073067023660414,-0.04217207876064788,0.0,-0.04217207876064788
0.5180000000000003,move_to_zero,-0.4626798531072342,-3.265034373017199,2.8023545199099646,-63.77865078498926,-68.44668412194618,4.668033336956917,63.253716057790356,66.74614538594096,-3.4924293281506067,32.81356581690729,40.89795659956719,-8.084390782659895,-0.04228090564903459,0.0,-0.04228090564903459
0.5200000000000004,move_to_zero,-0.4576659729155486,-3.2606340571505994,2.802968084235051,-63.68897849769346,-68.35443791693008,4.665459419236619,63.157054147459796,66.65619101210548,-3.499136864645685,32.747147887122296,40.84283805967559,-8.095690172553297,-0.04239069095774989,0.0,-0.04239069095774989
0.5220000000000004,move_to_zero,-0.4526918332092292,-3.2562337412839986,2.803541908074769,-63.59938655815239,-68.26219171191397,4.662805153761582,63.06042742052044,66.56623663826997,-3.5058092177495297,32.68075413465446,40.78771951978399,-8.106965385129534,-0.04249826569642608,0.0,-0.04249826569642608
0.5240000000000004,move_to_zero,-0.4477638170284497,-3.251833425417399,2.804069608388949,-63.50986964241379,-68.16994550689789,4.660075864484099,62.96384471036942,66.47628226443447,-3.512437554065052,32.61439722993782,40.732600979892396,-8.118203749954574,-0.0426036411115932,0.0,-0.0426036411115932
0.5260000000000004,move_to_zero,-0.4428750411181637,-3.2474331095507987,2.8045580684326348,-63.42043092041458,-68.07769930188178,4.657268381467198,62.86732435090029,66.38632789059898,-3.519003539698687,32.54807329286204,40.677482440000794,-8.129409147138752,-0.04270864120582869,0.0,-0.04270864120582869
0.5280000000000004,move_to_zero,-0.4380090493594912,-3.2430327936841996,2.8050237443247084,-63.33105200289449,-67.9854530968657,4.6544010939712095,62.77085475275612,66.29637351676348,-3.5255187640073586,32.48177012879828,40.62236390010919,-8.140593771310911,-0.042812811414443104,0.0,-0.042812811414443104
0.5300000000000004,move_to_zero,-0.43318338774703635,-3.2386324778175983,2.805449090070562,-63.24171559380974,-67.89320689184957,4.651491298039836,62.674419917514875,66.20641914292797,-3.531999225413095,32.41549371132943,40.56724536021758,-8.151751648888151,-0.042913879514804694,0.0,-0.042913879514804694
0.5320000000000004,move_to_zero,-0.42839089148747755,-3.2342321619509993,2.805841270463522,-63.152390469656126,-67.80096068683349,4.648570217177365,62.578019125320324,66.11646476909249,-3.538445643772164,32.349236384829254,40.512126820325996,-8.162890435496742,-0.043010878160702246,0.0,-0.043010878160702246
0.5340000000000004,move_to_zero,-0.42363894165099564,-3.229831846084399,2.806192904433403,-63.06307881124252,-67.70871448181737,4.645635670574848,62.481645872605085,66.02651039525698,-3.544864522651892,32.28296813075969,40.45700828043439,-8.174040149674695,-0.04310454120172711,0.0,-0.04310454120172711
0.5360000000000004,move_to_zero,-0.4189262700384193,-3.2254315302177994,2.80650526017938,-62.97380723125984,-67.61646827680129,4.642661045541445,62.3852921417536,65.93655602142148,-3.5512638796678786,32.21669377550182,40.4018897405428,-8.185195965040982,-0.04319502294636014,0.0,-0.04319502294636014
0.5380000000000004,move_to_zero,-0.414236846051851,-3.2210312143511985,2.8067943682993475,-62.8845917764056,-67.52422207178519,4.63963029537959,62.28894995825288,65.84660164758597,-3.557651689333092,32.150438206969,40.34677120065119,-8.19633299368219,-0.0432837335849583,0.0,-0.0432837335849583
0.5400000000000004,move_to_zero,-0.40955394811543483,-3.216630898484599,2.807076950369164,-62.795432999406515,-67.4319758667691,4.636542867362579,62.192610863418516,65.75664727375049,-3.5640364103319726,32.08420594966533,40.29165266075959,-8.207446711094256,-0.043368983559743654,0.0,-0.043368983559743654
0.5420000000000004,move_to_zero,-0.40489333733291505,-3.2122305826179987,2.8073372452850838,-62.70633843519306,-67.33972966175298,4.633391226559922,62.096259111129164,65.66669289991496,-3.570433788785799,32.01798516126065,40.23653412086799,-8.21854895960734,-0.04345251059520357,0.0,-0.04345251059520357
0.5440000000000004,move_to_zero,-0.40026623289905683,-3.207830266751399,2.8075640338523424,-62.61730040505384,-67.24748345673689,4.630183051683048,61.999897588832475,65.57673852607948,-3.576840937247006,31.951765684331317,40.18141558097639,-8.229649896645075,-0.0435341140655751,0.0,-0.0435341140655751
0.5460000000000004,move_to_zero,-0.3956629808474949,-3.2034299508847988,2.807766970037304,-62.52832246800197,-67.15523725172078,4.62691478371881,61.90352426063613,65.48678415224397,-3.583259891607838,31.885536746561183,40.12629704108479,-8.240760294523607,-0.043613416004562595,0.0,-0.043613416004562595
0.5480000000000004,move_to_zero,-0.3910930621244122,-3.1990296350181993,2.8079365728937873,-62.43940312071535,-67.06299104670468,4.623587925989334,61.80715104861155,65.39682977840847,-3.5896787297969226,31.819294392667267,40.071178501193195,-8.251884108525928,-0.04369026710938401,0.0,-0.04369026710938401
0.5500000000000004,move_to_zero,-0.38656255338575507,-3.194629319151599,2.808066765765844,-62.3505465450524,-66.97074484168859,4.6201982966361825,61.710801732107804,65.30687540457298,-3.596073672465174,31.753036168208386,40.01605996130159,-8.263023793093208,-0.04376568548730552,0.0,-0.04376568548730552
0.5520000000000004,move_to_zero,-0.3820661347572078,-3.190229003284999,2.8081628685277913,-62.26173752726967,-66.87849863667249,4.616761109402816,61.61446866991367,65.21692103073748,-3.6024523608238113,31.686799130080725,39.96094142140999,-8.274142291329266,-0.043839298267804055,0.0,-0.043839298267804055
0.5540000000000004,move_to_zero,-0.3775941563874405,-3.1858286874183985,2.808234531030958,-62.17296127178414,-66.78625243165638,4.61329115987224,61.5181272934079,65.12696665690197,-3.60883936349407,31.620584070924224,39.90582288151839,-8.285238810594166,-0.04391125667329915,0.0,-0.04391125667329915
0.5560000000000004,move_to_zero,-0.373173200666827,-3.1814283715517995,2.8082551708849723,-62.084203642347966,-66.69400622664028,4.609802584292318,61.421768937454274,65.03701228306649,-3.615243345612214,31.55438587017839,39.850704341626795,-8.296318471448405,-0.04398197137831907,0.0,-0.04398197137831907
0.5580000000000004,move_to_zero,-0.36878562584554364,-3.1770280556851986,2.808242429839655,-61.99548233626327,-66.60176002162417,4.606277685360901,61.325381792805324,64.94705790923096,-3.6216761164256397,31.48821249292796,39.795585801735186,-8.307373308807225,-0.04405112438943235,0.0,-0.04405112438943235
0.5600000000000004,move_to_zero,-0.36443295683401444,-3.172627739818599,2.8081947829845846,-61.90680721982911,-66.50951381660808,4.602706596778965,61.22896451891478,64.85710353539548,-3.628139016480702,31.42208329752634,39.7404672618436,-8.31838396431726,-0.04412034082093433,0.0,-0.04412034082093433
0.5620000000000004,move_to_zero,-0.3600968148183802,-3.1682274239519987,2.8081306091336184,-61.81818118813459,-66.41726761159198,4.599086423457393,61.13252830847396,64.76714916155997,-3.6346208530860125,31.35597410485033,39.68534872195198,-8.329374617101653,-0.04419189797601037,0.0,-0.04419189797601037
0.5640000000000004,move_to_zero,-0.3557821303781275,-3.1638271080853992,2.808044977707272,-61.72960327363472,-66.3250214065759,4.595418132941177,61.036065222429045,64.67719478772447,-3.6411295652954294,31.28988889983077,39.630230182060394,-8.340341282229623,-0.04426812916932096,0.0,-0.04426812916932096
0.5660000000000004,move_to_zero,-0.3515058397849919,-3.159426792218799,2.807920952433807,-61.641076892813544,-66.23277520155978,4.591698308746231,60.93957120168691,64.58724041388896,-3.6476692122020538,31.22381218641997,39.575111642168785,-8.351299455748816,-0.044349556860194386,0.0,-0.044349556860194386
0.5680000000000004,move_to_zero,-0.3472598363669131,-3.155026476352199,2.8077666399852856,-61.55258914543343,-66.1405289965437,4.587939851110264,60.84305273177893,64.49728604005348,-3.6542333082745486,31.15773172372154,39.51999310227719,-8.362261378555651,-0.04443557249194191,0.0,-0.04443557249194191
0.5700000000000004,move_to_zero,-0.34303232422000957,-3.1506261604855985,2.807593836265589,-61.464166456961614,-66.04828279152757,4.584116334565955,60.74652746087473,64.40733166621797,-3.66080420534324,31.091645185331675,39.46487456238559,-8.373229377053914,-0.04452559029104624,0.0,-0.04452559029104624
0.5720000000000004,move_to_zero,-0.338807691441921,-3.1462258446189995,2.8074181531770783,-61.375797200244115,-65.95603658651149,4.5802393862673725,60.6500043073184,64.31737729238247,-3.667372985064077,31.02555950267773,39.409756022493994,-8.384196519816264,-0.04461593233490351,0.0,-0.04461593233490351
0.5740000000000004,move_to_zero,-0.3345912222558054,-3.141825528752399,2.8072343064965937,-61.28745541279688,-65.86379038149538,4.576334968698497,60.55347888306205,64.22742291854698,-3.6739440354849293,30.95948073307831,39.354637482602385,-8.395156749524077,-0.04470705826692468,0.0,-0.04470705826692468
0.5760000000000004,move_to_zero,-0.3303746109217817,-3.137425212885799,2.8070506019640176,-61.19915842824206,-65.7715441764793,4.572385748237238,60.456957507515696,64.13746854471148,-3.680511037195785,30.893418892908727,39.29951894271079,-8.406100049802063,-0.044797415096025105,0.0,-0.044797415096025105
0.5780000000000004,move_to_zero,-0.32616462437746085,-3.1330248970191987,2.806860272641738,-61.110891147013454,-65.67929797146319,4.568406824449731,60.360425402182614,64.04751417087597,-3.687088768693357,30.827379505575248,39.24440040281919,-8.41702089724394,-0.04488991096552533,0.0,-0.04488991096552533
0.5800000000000004,move_to_zero,-0.3219734751657427,-3.1286245811525992,2.8066511059868566,-61.022637099813444,-65.58705176644709,4.564414666633645,60.26385546800507,63.95755979704048,-3.6937043290354126,30.761377486723216,39.189281862927594,-8.427904376204378,-0.04498340788883014,0.0,-0.04498340788883014
0.5820000000000004,move_to_zero,-0.3178127738093217,-3.1242242652859984,2.806411491476677,-60.93440896284236,-65.49480556143098,4.560396598588618,60.167278319065,63.867605423204964,-3.7003271041399657,30.6953994409143,39.134163323035985,-8.438763882121684,-0.04507770538304066,0.0,-0.04507770538304066
0.5840000000000004,move_to_zero,-0.31369142899486985,-3.119823949419399,2.806132520424529,-60.846191342533636,-65.40255935641488,4.556368013881247,60.070711791253764,63.777651049369474,-3.7069392581157103,30.629435757082653,39.0790447831444,-8.449609026061744,-0.04517418933610193,0.0,-0.04517418933610193
0.5860000000000004,move_to_zero,-0.30958625674091983,-3.1154236335527985,2.8058373768118785,-60.75797589664537,-65.31031315139877,4.552337254753404,59.97416559788445,63.68769667553397,-3.7135310776495203,30.56347664418299,39.02392624325278,-8.46044959906979,-0.045271441845493844,0.0,-0.045271441845493844
0.5880000000000004,move_to_zero,-0.30551614963622364,-3.1110233176861994,2.8055071680499757,-60.66975215466548,-65.21806694638268,4.548314791717196,59.877622559626076,63.597742301698474,-3.7201197420723986,30.49756317575845,38.96880770336119,-8.471244527602742,-0.04536794652727672,0.0,-0.04536794652727672
0.5900000000000004,move_to_zero,-0.30146348710743676,-3.1066230018195986,2.805159514712162,-60.58150132025385,-65.12582074136658,4.544319421112732,59.781084257821774,63.50778792786297,-3.7267036700411964,30.43167676051663,38.913689163469584,-8.482012402952954,-0.04546203940713207,0.0,-0.04546203940713207
0.5920000000000004,move_to_zero,-0.2974340441087357,-3.102222685952999,2.8047886418442634,-60.493244754013304,-65.03357453635049,4.5403297823371815,59.68456136908104,63.41783355402748,-3.7332721849464434,30.3658224051186,38.858570623578,-8.492748218459397,-0.04555472891802902,0.0,-0.04555472891802902
0.5940000000000004,move_to_zero,-0.29343517255879287,-3.0978223700863987,2.804387197527606,-60.40498425910421,-64.94132833133438,4.536344072230165,59.58804924436121,63.32787918019197,-3.7398299358307625,30.300020315997738,38.80345208368639,-8.50343176768865,-0.04564396797575693,0.0,-0.04564396797575693
0.5960000000000004,move_to_zero,-0.28945591646043445,-3.093422054219799,2.8039661377593648,-60.31671379864952,-64.84908212631828,4.532368327668756,59.49154734349815,63.23792480635648,-3.7463774628583337,30.234285710570457,38.74833354379479,-8.514047833224335,-0.04573014529403867,0.0,-0.04573014529403867
0.5980000000000004,move_to_zero,-0.285481948504735,-3.0890217383531984,2.8035397898484633,-60.22845147660982,-64.75683592130217,4.52838444469235,59.395025831011324,63.147970432520964,-3.7529446015096397,30.16863485814044,38.693215003903184,-8.524580145762744,-0.04581384813550672,0.0,-0.04581384813550672
0.6000000000000004,move_to_zero,-0.28153541998735504,-3.0846214224865993,2.8030860024992443,-60.14021675145584,-64.66458971628607,4.524372964830235,59.29847205307103,63.05801605868548,-3.759544005614451,30.1030596504475,38.63809646401159,-8.53503681356409,-0.04589384094744013,0.0,-0.04589384094744013
0.6020000000000004,move_to_zero,-0.27760186721820995,-3.0802211066199985,2.8026192394017886,-60.052024088702495,-64.57234351126998,4.520319422567482,59.201874408384825,62.968061684849964,-3.766187276465139,30.037568378831153,38.58297792411999,-8.545409545288834,-0.04596987709013179,0.0,-0.04596987709013179
0.6040000000000004,move_to_zero,-0.2736570728280417,-3.075820790753399,2.802163717925357,-59.96388258014952,-64.4800973062539,4.516214726104373,59.105238795011665,62.878107311014475,-3.7728685160028093,29.97215941641846,38.52785938422839,-8.555699967809932,-0.04603948221084604,0.0,-0.04603948221084604
0.6060000000000004,move_to_zero,-0.26969670940033075,-3.0714204748867986,2.801723765486468,-59.87579862629081,-64.38785110123777,4.512052474946962,59.00858200927092,62.78815293717897,-3.779570927908054,29.9068157889793,38.47274084433679,-8.56592505535749,-0.04610356574148025,0.0,-0.04610356574148025
0.6080000000000004,move_to_zero,-0.2657276923270065,-3.067020159020199,2.8012924666931927,-59.787767511405036,-64.29560489622169,4.5078373848166535,58.91193045023713,62.698198563343475,-3.7862681131063454,29.841538465758354,38.417622304445196,-8.576083838686841,-0.04616359474913197,0.0,-0.04616359474913197
0.6100000000000004,move_to_zero,-0.2617752099157278,-3.0626198431535987,2.8008446332378707,-59.699769227962584,-64.20335869120557,4.503589463242982,58.81529423600035,62.60824418950797,-3.792949953507623,29.776314910013962,38.36250376455359,-8.586188854539625,-0.04622044859782896,0.0,-0.04622044859782896
0.6120000000000004,move_to_zero,-0.2578398261986973,-3.0582195272869988,2.8003797010883016,-59.61181450395975,-64.11111248618948,4.499297982229734,58.718679176696405,62.51828981567248,-3.799610638976077,29.71111351723938,38.30738522466199,-8.596271707422613,-0.046274521086522004,0.0,-0.046274521086522004
0.6140000000000004,move_to_zero,-0.2539258548303814,-3.0538192114203984,2.799893356590017,-59.52389275745058,-64.01886628117337,4.494973523722791,58.62206329408276,62.42833544183697,-3.806272147754214,29.645947976828573,38.25226668477038,-8.60631870794181,-0.04632573748892187,0.0,-0.04632573748892187
0.6160000000000004,move_to_zero,-0.25005084911089864,-3.0494188955537993,2.7993680464429005,-59.43601748525605,-63.926620076157285,4.490602590901233,58.52545061375306,62.33838106800148,-3.8129304542484235,29.580805716669698,38.197148144878796,-8.616342428209098,-0.04637367522803358,0.0,-0.04637367522803358
0.6180000000000004,move_to_zero,-0.24619394234389494,-3.045018579687199,2.798824637343304,-59.34816136655346,-63.83437387114118,4.486212504587719,58.42883226349769,62.248426694165964,-3.8195944306682748,29.51567371919092,38.14202960498719,-8.626355885796265,-0.04641653456015889,0.0,-0.04641653456015889
0.6200000000000004,move_to_zero,-0.24234005565762418,-3.040618263820599,2.7982782081629747,-59.260326291935755,-63.742127666125086,4.481801374189331,58.33221979180168,62.15847232033048,-3.826252528528805,29.45056934266943,38.08691106509559,-8.636341722426163,-0.04645344178902519,0.0,-0.04645344178902519
0.6220000000000004,move_to_zero,-0.23848921668802664,-3.0362179479539986,2.797728731265972,-59.17250918448067,-63.649881461108976,4.477372276628309,58.23561107684074,62.068517946494964,-3.8329068696542237,29.38551088402235,38.03179252520398,-8.646281641181634,-0.046485694076506885,0.0,-0.046485694076506885
0.6240000000000004,move_to_zero,-0.23464846774513026,-3.031817632087399,2.797169164342269,-59.084696453557946,-63.55763525609289,4.472938802534941,58.139000520743046,61.978563572659475,-3.8395630519164285,29.32049560511645,37.97667398531239,-8.65617838019594,-0.04651038463365882,0.0,-0.04651038463365882
0.6260000000000004,move_to_zero,-0.23083831507539831,-3.0274173162207987,2.7965790011454006,-58.99690072210217,-63.46538905107678,4.468488328974608,58.04238089379994,61.888609198823964,-3.8462283050240273,29.255558411352762,37.921555445420786,-8.665997034068024,-0.0465281879461402,0.0,-0.0465281879461402
0.6280000000000004,move_to_zero,-0.22706854217058925,-3.0230170003541987,2.7959484581836094,-58.90911917301986,-63.37314284606068,4.4640236730408205,57.945756821978556,61.798654824988475,-3.852898003009919,29.19072283068625,37.86643690552919,-8.67571407484294,-0.04654110865632775,0.0,-0.04654110865632775
0.6300000000000004,move_to_zero,-0.2233278371966992,-3.0186166844875983,2.795288847290899,-58.821366228846074,-63.28089664104458,4.459530412198504,57.84912812940209,61.70870045115297,-3.859572321750882,29.1259790885207,37.81131836563759,-8.685339277116888,-0.04655328012689015,0.0,-0.04655328012689015
0.6320000000000005,move_to_zero,-0.2196054044911171,-3.0142163686209993,2.794610964129882,-58.73364430867392,-63.18865043602848,4.455006127354565,57.7524755068269,61.618746077317475,-3.8662705704905775,29.061345904418197,37.756199825745995,-8.694853921327798,-0.04656386222096823,0.0,-0.04656386222096823
0.6340000000000005,move_to_zero,-0.21588241868088368,-3.009816052754399,2.793933634073515,-58.645959181251484,-63.09640423101237,4.450445049760887,57.65581034653011,61.52879170348197,-3.872981356951861,28.996811172153514,37.701081285854386,-8.704270113700872,-0.04657270994064122,0.0,-0.04657270994064122
0.6360000000000005,move_to_zero,-0.21216567744321432,-3.005415736887799,2.793250059444585,-58.558292223105234,-63.00415802599628,4.445865802891049,57.559131609766254,61.43883732964648,-3.879705719880228,28.932365619814934,37.64596274596279,-8.713597126147857,-0.046580045980297295,0.0,-0.046580045980297295
0.6380000000000005,move_to_zero,-0.20847183343537273,-3.0010154210211986,2.792543587585826,-58.47064974898,-62.91191182098017,4.441262072000171,57.46243939468689,61.348882955810964,-3.886443561124075,28.867995652725003,37.59084420607118,-8.722848553346179,-0.04658579410612699,0.0,-0.04658579410612699
0.6400000000000005,move_to_zero,-0.20477298244108041,-2.996615105154599,2.791842122713519,-58.38301322094264,-62.81966561596408,4.43665239502144,57.36573666661653,61.25892858197548,-3.8931919153589547,28.80369600385344,37.535725666179594,-8.732029662326156,-0.04658629484414415,0.0,-0.04658629484414415
0.6420000000000005,move_to_zero,-0.20107898767816598,-2.9922147892879987,2.791135801609833,-58.29538176428349,-62.727419410947974,4.432037646664483,57.26902487806869,61.168974208139964,-3.899949330071273,28.739484826294927,37.480607126287985,-8.741122299993059,-0.046582204952691254,0.0,-0.046582204952691254
0.6440000000000005,move_to_zero,-0.19740727665024618,-2.987814473421399,2.790407196771153,-58.207747592172375,-62.63517320593189,4.427425613759517,57.17228838835105,61.079019834304475,-3.906731445953426,28.67538504671958,37.42548858639639,-8.750103539676811,-0.046574563329885146,0.0,-0.046574563329885146
0.6460000000000005,move_to_zero,-0.1937451702997184,-2.9834141575547983,2.7896689872550797,-58.12009621389321,-62.54292700091577,4.422830787022555,57.075513563700746,60.989065460468964,-3.913551896768219,28.611383474440668,37.37037004650478,-8.758986572064114,-0.04656585505155924,0.0,-0.04656585505155924
0.6480000000000005,move_to_zero,-0.19051615764284074,-2.9790138416881993,2.7884976840453586,-58.03243782264651,-62.450680795899686,4.418242973253179,56.97869627762391,60.899111086633475,-3.9204148090095643,28.54746780244243,37.31525150661319,-8.767783704170757,-0.04655704652332644,0.0,-0.04655704652332644
0.6500000000000005,move_to_zero,-0.18787035829396828,-2.9746135258215984,2.78674316752763,-57.94480348549893,-62.35843459088357,4.413631105384638,56.88184241627367,60.80915671279797,-3.927314296524301,28.48362684899383,37.260132966721585,-8.776506117727756,-0.046546899429414125,0.0,-0.046546899429414125
0.6520000000000005,move_to_zero,-0.18574008773313777,-2.970213209954999,2.7844731222218613,-57.857208094852375,-62.26618838586749,4.408980291015112,56.784965075552584,60.719202338962475,-3.9342372634098908,28.419857586755132,37.20501442682999,-8.785156840074858,-0.04653543488115244,0.0,-0.04653543488115244
0.6540000000000005,move_to_zero,-0.18402827435461788,-2.9658128940883985,2.7817846197337808,-57.76967029225561,-62.17394218085137,4.404271888595758,56.68807512992352,60.62924796512697,-3.941172835203453,28.35616051714915,37.14989588693839,-8.793735369789239,-0.046522646933709826,0.0,-0.046522646933709826
