GerardoFJ/TE3001B_TEAM_3/src/s0s1_gazebo/scripts/results/PI4/state.csv
t,phase,shoulder_pan_actual_deg,shoulder_pan_desired_deg,shoulder_pan_error_deg,shoulder_lift_actual_deg,shoulder_lift_desired_deg,shoulder_lift_error_deg,elbow_flex_actual_deg,elbow_flex_desired_deg,elbow_flex_error_deg,wrist_flex_actual_deg,wrist_flex_desired_deg,wrist_flex_error_deg,wrist_roll_actual_deg,wrist_roll_desired_deg,wrist_roll_error_deg
0.002,move_to_zero,-4.376474382407018,-4.4003158666,0.02384148419298171,-92.21682027023317,-92.2462050161,0.02938474586683526,89.9402674989065,89.9543738355,-0.014106336593499691,55.09939055982472,55.1185398916,-0.019149331775281553,0.0017248340730163765,0.0,0.0017248340730163765
0.004,move_to_zero,-4.329842969017441,-4.3959155507334,0.06607258171595909,-92.15882174186221,-92.15395881108391,-0.004862930778301688,89.9122191092167,89.86441946166448,0.047799647552210445,55.06174405819249,55.0634213517084,-0.0016772935159110602,0.00450890064522567,0.0,0.00450890064522567
0.006,move_to_zero,-4.261704793347287,-4.3915152348668,0.1298104415195125,-92.07311412121271,-92.0617126060678,-0.011401515144910945,89.87046900954344,89.77446508782899,0.09600392171445549,55.00625282940472,55.008302811816804,-0.0020499824120818744,0.007678193531855742,0.0,0.007678193531855742
0.008,move_to_zero,-4.1735243722056135,-4.3871149190002,0.21359054679458644,-91.96075691975804,-91.9694664010517,0.008709481293664112,89.81530181996088,89.68451071399349,0.13079110596738985,54.93359928328922,54.953184271925196,-0.019584988635976686,0.010669838379699419,0.0,0.010669838379699419
0.01,move_to_zero,-4.066904075045653,-4.382714603133599,0.31581052808794574,-91.82293629545424,-91.8772201960356,0.05428390058135335,89.74704940306617,89.594556340158,0.152493062908178,54.84450886095495,54.8980657320336,-0.053556871078647816,0.013098323250962579,0.0,0.013098323250962579
0.012,move_to_zero,-3.943581587786494,-4.378314287266999,0.43473269948050497,-91.66092069196685,-91.7849739910195,0.1240532990526475,89.66608603041087,89.50460196632248,0.16148406408838412,54.73974346474151,54.842947192142,-0.10320372740049066,0.015039931586168944,0.0,0.015039931586168944
0.014,move_to_zero,-3.8053835596914354,-4.373913971400399,0.5685304117089638,-91.4760669961472,-91.69272778600339,0.21666078985619208,89.57283994195734,89.41464759248699,0.15819234947035454,54.62006608362633,54.787828652250404,-0.16776256862407735,0.016563443061484794,0.0,0.016563443061484794
0.016,move_to_zero,-3.6542343157945725,-4.369513655533799,0.7152793397392267,-91.2697851167088,-91.6004815809873,0.3306964642785033,89.46775966957799,89.32469321865149,0.14306645092649717,54.48626531854301,54.7327101123588,-0.24644479381579032,0.017696601232835323,0.0,0.017696601232835323
0.018000000000000002,move_to_zero,-3.4920927375424657,-4.3651133396672,0.8730206021247344,-91.04356577750742,-91.5082353759712,0.46466959846377165,89.3513372895228,89.234738844816,0.1165984447068098,54.33912817951971,54.6775915724672,-0.33846339294748873,0.018338892957717408,0.0,0.018338892957717408
0.020000000000000004,move_to_zero,-3.320976643928482,-4.3607130238006,1.0397363798721182,-90.79897388539973,-91.4159891709551,0.6170152855553681,89.22412204350366,89.1447844709805,0.07933757252315843,54.17946916105349,54.6224730325756,-0.44300387152210874,0.01846100287889481,0.0,0.01846100287889481
0.022000000000000006,move_to_zero,-3.142936737834045,-4.356312707934,1.2133759700999551,-90.53761667340699,-91.323742965939,0.7861262925320176,89.08667038161191,89.05483009714499,0.03184028446692366,54.00807790793507,54.567354492684,-0.5592765847489289,0.018119794357482594,0.0,0.018119794357482594
0.024000000000000007,move_to_zero,-2.959994230851731,-4.351912392067399,1.3919181612156684,-90.26115966770858,-91.2314967609229,0.9703370932143116,88.93957040061707,88.96487572330949,-0.02530532269241803,53.8257658558167,54.5122359527924,-0.6864700969757038,0.017395465820749134,0.0,0.017395465820749134
0.02600000000000001,move_to_zero,-2.7741617529519647,-4.3475120762007995,1.5733503232488348,-89.97125591604106,-91.1392505559068,1.1679946398657393,88.78344954783947,88.874921349474,-0.09147180163452617,53.633327154383934,54.4571174129008,-0.8237902585168655,0.016428484679451717,0.0,0.016428484679451717
0.02800000000000001,move_to_zero,-2.587381470677381,-4.3431117603341995,1.7557302896568188,-89.6695972011968,-91.0470043508907,1.3774071496939087,88.618941669377,88.78496697563848,-0.16602530626148848,53.431565510922375,54.401998873009205,-0.9704333620868297,0.015364908233111341,0.0,0.015364908233111341
0.030000000000000013,move_to_zero,-2.4015686474333013,-4.3387114444676,1.9371427970342983,-89.35787256193554,-90.9547581458746,1.5968855839390699,88.44669244216973,88.695012601803,-0.24832015963326626,53.22129176099735,54.3468803331176,-1.1255885721202503,0.01434292979996192,0.0,0.01434292979996192
0.032000000000000015,move_to_zero,-2.2185290573714394,-4.334311128601,2.1157820712295603,-89.03777008097079,-90.8625119408585,1.824741859887709,88.2673787524968,88.60505822796749,-0.33767947547069355,53.003289995838685,54.291761793225994,-1.2884717973873094,0.01346246606913608,0.0,0.01346246606913608
0.034000000000000016,move_to_zero,-2.0399747824858765,-4.3299108127344,2.289936030248523,-88.71097768080853,-90.7702657358424,2.059288055033875,88.08164683885872,88.51510385413198,-0.4334570152732624,52.778333464625554,54.2366432533344,-1.4583097887088456,0.012719136913621958,0.0,0.012719136913621958
0.03600000000000002,move_to_zero,-1.8674779163257595,-4.3255104968678,2.4580325805420404,-88.37914549743572,-90.67801953082629,2.2988740333905753,87.89016434149133,88.4251494802965,-0.534985138805169,52.54719052530821,54.1815247134428,-1.6343341881345879,0.012091983228089258,0.0,0.012091983228089258
0.03800000000000002,move_to_zero,-1.7025219901082613,-4.3211101810012,2.6185881908929387,-88.04386693632478,-90.5857733258102,2.541906389485419,87.69361361469666,88.33519510646099,-0.6415814917643274,52.31059593589537,54.1264061735512,-1.8158102376558318,0.01156182958448762,0.0,0.01156182958448762
0.04000000000000002,move_to_zero,-1.5464666830414489,-4.316709865134599,2.77024318209315,-87.70669904978082,-90.4935271207941,2.786828071013275,87.49265551397352,88.24524073262549,-0.7525852186519728,52.06930188069656,54.0712876336596,-2.0019857529630443,0.011112509863906618,0.0,0.011112509863906618
0.04200000000000002,move_to_zero,-1.4005196329953509,-4.312309549267999,2.911789916272648,-87.3691526213759,-90.401280915778,3.0321282944020993,87.28793336757826,88.15528635879,-0.8673529912117317,51.82401236527613,54.016169093768006,-2.1921567284918737,0.010730318129306164,0.0,0.010730318129306164
0.044000000000000025,move_to_zero,-1.2657158346528472,-4.307909233401399,3.0421933987485517,-87.03270768953962,-90.3090347107619,3.2763270212222864,87.08011873121421,88.06533198495448,-0.9852132537402696,51.57541667534364,53.9610505538764,-2.385633878532758,0.010404078950089813,0.0,0.010404078950089813
0.04600000000000003,move_to_zero,-1.1429683927642214,-4.3035089175348,3.1605405247705787,-86.69873681276762,-90.2167885057458,3.518051692978176,86.86987614440649,87.97537761111899,-1.1055014667124965,51.324195405347155,53.905932013984796,-2.581736608637641,0.010122488955077195,0.0,0.010122488955077195
0.04800000000000003,move_to_zero,-1.0330214556591135,-4.2991086016682,3.2660871460090863,-86.36854436034504,-90.1245423007297,3.7559979403846597,86.65783043604686,87.88542323728349,-1.227592801236625,51.071010389404435,53.8508134740932,-2.7798030846887656,0.009875148861821897,0.0,0.009875148861821897
0.05000000000000003,move_to_zero,-0.9364614731439284,-4.2947082858016,3.3582468126576717,-86.04335964393468,-90.03229609571359,3.988936451778912,86.44459401883304,87.795468863448,-1.3508748446149497,50.81651657253251,53.7956949342016,-2.979178361669092,0.009654590068246205,0.0,0.009654590068246205
0.05200000000000003,move_to_zero,-0.8536993891252358,-4.290307969935,3.4366085808097644,-85.72436027498901,-89.9400498906975,4.215689615708484,86.23076540860467,87.70551448961248,-1.4747490810078148,50.56132543174667,53.740576394310004,-3.179250962563337,0.009454029982002095,0.0,0.009454029982002095
0.054000000000000034,move_to_zero,-0.784993820700645,-4.285907654068399,3.500913833367754,-85.41260799527637,-89.8478036856814,4.435195690405024,86.01691183892078,87.61556011577699,-1.5986482768562098,50.306014399807296,53.6854578544184,-3.3794434546111063,0.009268805109571884,0.0,0.009268805109571884
0.056000000000000036,move_to_zero,-0.7301989891665871,-4.281507338201799,3.5513083490352124,-85.10910713021202,-89.7555574806653,4.646450350453279,85.80358094622999,87.52560574194149,-1.722024795711505,50.05112720564689,53.6303393145268,-3.579212108879908,0.009095654688813081,0.0,0.009095654688813081
0.05800000000000004,move_to_zero,-0.6887763389691449,-4.2771070223351995,3.5883306833660544,-84.81478327455288,-89.66331127564919,4.848528001096312,85.59130913251377,87.43565136810598,-1.8443422355922081,49.79720157931243,53.5752207746352,-3.77801919532277,0.008930489631433476,0.0,0.008930489631433476
0.06000000000000004,move_to_zero,-0.6605777631844455,-4.2727067064685995,3.612128943284154,-84.53044037361062,-89.5710650706331,5.04062469702248,85.38059105169613,87.3456969942705,-1.9651059425743682,49.54476209544309,53.5201022347436,-3.9753401393005063,0.008770063508273659,0.0,0.008770063508273659
0.06200000000000004,move_to_zero,-0.6453138086597743,-4.268306390602,3.622992581942225,-84.2568023723215,-89.478818865617,5.222016493295499,85.17189772387565,87.25574262043499,-2.0838448965593415,49.29430031149108,53.464983694852,-4.170683383360924,0.008611830108764366,0.0,0.008611830108764366
0.06400000000000004,move_to_zero,-0.6425555132713695,-4.2639060747354,3.62135056146403,-83.99450469074237,-89.38657266060089,5.392067969858516,84.96566954531627,87.16578824659948,-2.200118701283202,49.04626309397831,53.4098651549604,-4.363602060982089,0.008455189889800293,0.0,0.008455189889800293
0.06600000000000004,move_to_zero,-0.6517730598299468,-4.2595057588688,3.607732699038853,-83.74409079203632,-89.29432645558481,5.5502356635484915,84.76233227156109,87.075833872764,-2.3135016012029013,48.80110392518083,53.354746615068805,-4.5536426898879725,0.008299598126328016,0.0,0.008299598126328016
0.06800000000000005,move_to_zero,-0.6723099378591648,-4.2551054430022,3.582795505143035,-83.50603869501802,-89.2020802505687,5.6960415555506785,84.56228381775995,86.98587949892848,-2.4235956811685355,48.55924429967357,53.299628075177196,-4.7403837755036236,0.008144534799046806,0.0,0.008144534799046806
0.07000000000000005,move_to_zero,-0.7034189358396955,-4.250705127135599,3.5472861912959033,-83.2807308016407,-89.1098340455526,5.829103243911902,84.365858098455,86.89592512509299,-2.5300670266379797,48.32108537945331,53.2445095352856,-4.9234241558322935,0.007986640212204283,0.0,0.007986640212204283
0.07200000000000005,move_to_zero,-0.7442821513924602,-4.246304811268999,3.5020226598765385,-83.06846603111384,-89.01758784053649,5.94912180942265,84.17335403752257,86.80597075125749,-2.632616713734919,48.08699273836902,53.189390995394,-5.10239825702498,0.007824947749719216,0.0,0.007824947749719216
0.07400000000000005,move_to_zero,-0.7940243773645724,-4.241904495402399,3.4478801180378267,-82.86944385698415,-88.9253416355204,6.055897778536249,83.98504689145376,86.71601637742198,-2.7309694859682168,47.857297586578234,53.1342724555024,-5.276974868924164,0.007657165477201711,0.0,0.007657165477201711
0.07600000000000005,move_to_zero,-0.8517062619964193,-4.2375041795358,3.3857979175393806,-82.68376812617562,-88.83309543050429,6.149327304328665,83.80120479025216,86.62606200358648,-2.824857213334326,47.632290264951635,53.0791539156108,-5.446863650659168,0.007482060377381694,0.0,0.007482060377381694
0.07800000000000006,move_to_zero,-0.9163629737866807,-4.2331038636692,3.316740889882519,-82.51145567431874,-88.74084922548819,6.229393551169451,83.62204762322874,86.53610762975099,-2.9140600065222486,47.412256803227066,53.0240353757192,-5.611778572492135,0.007300314042641859,0.0,0.007300314042641859
0.08000000000000006,move_to_zero,-0.9870024224617664,-4.2287035478026,3.2417011253408337,-82.35243476049199,-88.6486030204721,6.2961682599801065,83.44777258531244,86.44615325591549,-2.998380670603055,47.197450512725496,52.9689168358276,-5.7714663231021035,0.007103783489210732,0.0,0.007103783489210732
0.08200000000000006,move_to_zero,-1.0625789134687218,-4.224303231936,3.1617243184672783,-82.2065725748117,-88.556356815456,6.349784240644297,83.27854931450543,86.35619888207998,-3.0776495675745537,46.98809512493053,52.913798295936,-5.925703171005466,0.006902251395839741,0.0,0.006902251395839741
0.08400000000000006,move_to_zero,-1.142078426078312,-4.219902916069399,3.0778244899910874,-82.0736699396395,-88.4641106104399,6.390440670800402,83.11449431948454,86.26624450824448,-3.151750188759948,46.78434649555201,52.858679756044396,-6.074333260492388,0.006681539306822301,0.0,0.006681539306822301
0.08600000000000006,move_to_zero,-1.2244536325529976,-4.215502600202799,2.9910489676498018,-81.95346878316163,-88.37186440542379,6.418395622262167,82.95570483564994,86.17629013440899,-3.2205852987590475,46.58640372480967,52.8035612161528,-6.21715749134313,0.006442163230567925,0.0,0.006442163230567925
0.08800000000000006,move_to_zero,-1.30866956661833,-4.211102284336199,2.9024327177178693,-81.84563052406499,-88.2796182004077,6.43398767634271,82.80227066517244,86.08633576057349,-3.284065095401047,46.39443020259018,52.7484426762612,-6.35401247367102,0.006187946546835362,0.0,0.006187946546835362
0.09000000000000007,move_to_zero,-1.3937043291455602,-4.206701968469599,2.8129976393240392,-81.74976730251878,-88.18737199539159,6.43760469287281,82.65425896275819,85.996381386738,-3.342122423979802,46.20853776445082,52.693324136369604,-6.484786371918787,0.005918331238108489,0.0,0.005918331238108489
0.09200000000000007,move_to_zero,-1.4785930605384066,-4.2023016526029995,2.723708592064593,-81.66540186462278,-88.0951257903755,6.429723925752725,82.51171040519458,85.90642701290248,-3.394716607707906,46.028827389424805,52.638205596477995,-6.60937820705319,0.005649045939121992,0.0,0.005649045939121992
0.09400000000000007,move_to_zero,-1.5624277229380252,-4.1979013367363995,2.635473613798374,-81.59202798766617,-88.0028795853594,6.410851597693224,82.37462091121087,85.81647263906699,-3.4418517278561183,45.855388226542445,52.5830870565864,-6.7276988300439555,0.00536321514553653,0.0,0.00536321514553653
0.09600000000000007,move_to_zero,-1.6443111504749024,-4.1935010208698,2.549189870394897,-81.52908147525885,-87.9106333803433,6.38155190508445,82.24296558797154,85.72651826523149,-3.4835526772599508,45.688285739621556,52.5279685166948,-6.839682777073243,0.005089762413255006,0.0,0.005089762413255006
0.09800000000000007,move_to_zero,-1.723403620207291,-4.1891007050032,2.4656970847959085,-81.47600381038285,-87.81838717532719,6.3423833649443395,82.11671346821984,85.63656389139598,-3.5198504231761376,45.527579076316734,52.4728499768032,-6.945270900486463,0.004827554161609078,0.0,0.004827554161609078
0.10000000000000007,move_to_zero,-1.7989191481579092,-4.184700389136599,2.3857812409786896,-81.43216831115778,-87.72614097031109,6.293972659153312,81.99578637816195,85.5466095175605,-3.5508231393985454,45.373289662146654,52.4177314369116,-7.044441774764948,0.004574171768003618,0.0,0.004574171768003618
0.10200000000000008,move_to_zero,-1.8701322035733368,-4.180300073269999,2.310167869696662,-81.39692174722492,-87.633894765295,6.236973018070074,81.88008179630042,85.45665514372499,-3.5765733474245707,45.22541339571705,52.36261289702,-7.137199501302952,0.004329967164221252,0.0,0.004329967164221252
0.10400000000000008,move_to_zero,-1.9363964037783286,-4.1758997574034,2.2395033536250715,-81.36883433062125,-87.5416485602789,6.1728142296576465,81.76941643551677,85.36670076988948,-3.597284334372702,45.083920145332996,52.3074943571284,-7.223574211795402,0.0040939281215067605,0.0,0.0040939281215067605
0.10600000000000008,move_to_zero,-1.9971445359724482,-4.1714994415368,2.1743549055643516,-81.34724335260972,-87.4494023552628,6.102159002653082,81.66366454454769,85.276746396054,-3.6130818515063083,44.94875592648289,52.252375817236796,-7.303619890753907,0.0038633898361689085,0.0,0.0038633898361689085
0.10800000000000008,move_to_zero,-2.0518716926699545,-4.1670991256702,2.1152274330002454,-81.33148266642229,-87.3571561502467,6.025673483824406,81.56268760023701,85.18679202221848,-3.624104421981471,44.81989783440547,52.1972572773452,-7.377359442939735,0.0036360289456949945,0.0,0.0036360289456949945
0.11000000000000008,move_to_zero,-2.1001637386320193,-4.1626988098036,2.0625350711715806,-81.32086408442058,-87.2649099452306,5.9440458608100215,81.4663123514825,85.09683764838299,-3.630525296900487,44.697290527300105,52.1421387374536,-7.444848210153495,0.003413567121191818,0.0,0.003413567121191818
0.11200000000000009,move_to_zero,-2.14169374248326,-4.158298493937,2.01660475145374,-81.31471127316763,-87.17266374021449,5.857952467046857,81.37437153984438,85.00688327454749,-3.6325117347031153,44.58083615806667,52.087020197562,-7.506184039495331,0.0031924140173907063,0.0,0.0031924140173907063
0.11400000000000009,move_to_zero,-2.1762262670166286,-4.153898178070399,1.9776719110537706,-81.31231836741125,-87.0804175351984,5.768099167787142,81.28669701241098,84.91692890071198,-3.6302318883009974,44.47044428083777,52.031901657670396,-7.561457376832628,0.00297227945773584,0.0,0.00297227945773584
0.11600000000000009,move_to_zero,-2.2037753605608144,-4.149497862203799,1.9457225016429849,-81.31300513073974,-86.9881713301823,5.6751661994425575,81.20307520916096,84.82697452687648,-3.6238993177155265,44.36601019697953,51.976783117778794,-7.610772920799263,0.002754319698278873,0.0,0.002754319698278873
0.11800000000000009,move_to_zero,-2.2248188153262594,-4.145097546337199,1.92027873101094,-81.31610346463773,-86.8959251251662,5.5798216605284665,81.12329448795901,84.73702015304099,-3.6137256650819722,44.26741902143412,51.9216645778872,-7.654245556453077,0.002536727765090299,0.0,0.002536727765090299
0.12000000000000009,move_to_zero,-2.239304051079603,-4.140697230470599,1.9013931793909964,-81.32094900612431,-86.80367892015009,5.482729914025782,81.04714119738837,84.64706577920549,-3.5999245818171204,44.174542121128454,51.8665460379956,-7.692003916867144,0.0023183215284153878,0.0,0.0023183215284153878
0.1220000000000001,move_to_zero,-2.247225400226727,-4.136296914603999,1.8890715143772723,-81.32687879657622,-86.711432715134,5.384553918557771,80.974397130023,84.55711140536998,-3.582714275346987,44.087210527352845,51.811427498104,-7.724216970751158,0.0020989019855097947,0.0,0.0020989019855097947
0.1240000000000001,move_to_zero,-2.248691113013591,-4.1318965987373995,1.8832054857238085,-81.33324588380414,-86.6191865101179,5.28594062631376,80.90484536090106,84.46715703153448,-3.56231167063342,44.005268834347234,51.7563089582124,-7.751040123865167,0.001848382530979787,0.0,0.001848382530979787
0.12600000000000008,move_to_zero,-2.243860884924533,-4.1274962828707995,1.8836353979462666,-81.33942997404365,-86.52694030510179,5.187510331058135,80.83828405670704,84.37720265769899,-3.5389186009919484,43.92855668531768,51.70119041832079,-7.7726337330031114,0.0015563601017133163,0.0,0.0015563601017133163
0.12800000000000009,move_to_zero,-2.232943961426219,-4.1230959670042,1.8901520055779804,-81.34484306415213,-86.4346941000857,5.089851035933563,80.77446602799988,84.28724828386348,-3.5127822558635984,43.85690679268025,51.6460718784292,-7.789165085748948,0.0012147922611709422,0.0,0.0012147922611709422
0.1300000000000001,move_to_zero,-2.216188009626895,-4.118695651137599,1.9025076415107036,-81.3491582652848,-86.3424478950696,4.9932896297847975,80.71316865778425,84.197293910028,-3.484125252243743,43.79015460436106,51.590953338537595,-7.800798734176539,0.0008402660885123771,0.0,0.0008402660885123771
0.1320000000000001,move_to_zero,-2.193910875944651,-4.114295335270999,1.920384459326348,-81.35235011622035,-86.2502016900535,4.897851573833151,80.65417669150612,84.10733953619248,-3.4531628446863607,43.728139151471964,51.535834798646,-7.807695647174036,0.0004491365090099821,0.0,0.0004491365090099821
0.1340000000000001,move_to_zero,-2.1664562963169587,-4.1098950194044,1.943438723087441,-81.35390530632925,-86.15795548503739,4.804050178708138,80.59724550323085,84.01738516235697,-3.4201396591261215,43.67067065000054,51.4807162587544,-7.81004560875386,6.5396318531728e-05,0.0,6.5396318531728e-05
0.1360000000000001,move_to_zero,-2.134207856337531,-4.1054947035378,1.9712868472002687,-81.3533103902305,-86.0657092800213,4.712398889790791,80.54212588386308,83.92743078852149,-3.385304904658412,43.61753669000536,51.425597718862804,-7.808061028857445,-0.0002871280994046053,0.0,-0.0002871280994046053
0.1380000000000001,move_to_zero,-2.0976252820579417,-4.1010943876712,2.003469105613258,-81.35007010185122,-85.97346307500518,4.623392973153969,80.48859127740036,83.83747641468598,-3.3488851372856203,43.568553352859354,51.370479178971195,-7.801925826111841,-0.0006139926932766552,0.0,-0.0006139926932766552
0.1400000000000001,move_to_zero,-2.057184358319448,-4.0966940718046,2.039509713485152,-81.34370546312452,-85.88121686998909,4.537511406864567,80.43640750063282,83.74752204085048,-3.311114540217659,43.52353593353998,51.31536063907959,-7.791824705539611,-0.0009252828355979046,0.0,-0.0009252828355979046
0.1420000000000001,move_to_zero,-2.013390101382102,-4.092293755938,2.078903654555898,-81.33381623051302,-85.788970664973,4.4551544344599705,80.38536527899107,83.65756766701499,-3.2722023880239135,43.482252469844596,51.260242099188,-7.777989629343402,-0.0012178442999899992,0.0,-0.0012178442999899992
0.1440000000000001,move_to_zero,-1.9667539593284737,-4.087893440071399,2.1211394807429254,-81.32003816531342,-85.6967244599569,4.376686294643477,80.3352410837442,83.56761329317948,-3.232372209435283,43.44448913372247,51.205123559296396,-7.760634425573926,-0.0014962960011887978,0.0,-0.0014962960011887978
0.1460000000000001,move_to_zero,-1.9177868357444965,-4.083493124204799,2.165706288460303,-81.30204995026257,-85.6044782549408,4.30242830467823,80.28580782417262,83.47765891934398,-3.1918510951713586,43.41003135954645,51.1500050194048,-7.73997365985835,-0.0017622914732595306,0.0,-0.0017622914732595306
0.1480000000000001,move_to_zero,-1.8670000657318084,-4.079092808338199,2.2120927426063908,-81.27956198167371,-85.51223204992469,4.232670068250982,80.23684845365699,83.38770454550848,-3.1508560918514945,43.37867679528987,51.0948864795132,-7.71620968422333,-0.0020195054873569838,0.0,-0.0020195054873569838
0.1500000000000001,move_to_zero,-1.8149156279928034,-4.074692492471599,2.2597768644787957,-81.2523070853995,-85.4199858449086,4.167678759509101,80.18816341826506,83.29775017167299,-3.1095867534079247,43.350196738441944,51.0397679396216,-7.689571201179653,-0.0022692550576168427,0.0,-0.0022692550576168427
0.1520000000000001,move_to_zero,-1.7620297665002764,-4.070292176604999,2.3082624101047227,-81.22006149414149,-85.32773963989249,4.107678145750995,80.1395503947488,83.20779579783748,-3.0682454030886817,43.324374135015866,50.984649399729996,-7.66027526471413,-0.0025135250887711484,0.0,-0.0025135250887711484
0.1540000000000001,move_to_zero,-1.708849856839954,-4.065891860738399,2.3570420038984454,-81.18263840944819,-85.23549343487639,4.052855025428201,80.09080745110451,83.11784142400198,-3.0270339728974704,43.30100478690708,50.929530859838394,-7.628526072931315,-0.002773238295226993,0.0,-0.002773238295226993
0.1560000000000001,move_to_zero,-1.6558553985837257,-4.061491544871799,2.4056361462880735,-81.13987153047552,-85.1432472298603,4.003375699384776,80.04174521204982,83.02788705016648,-2.986141838116666,43.27985852759906,50.8744123199468,-7.594553792347739,-0.0030605519748570873,0.0,-0.0030605519748570873
0.1580000000000001,move_to_zero,-1.6034999510513699,-4.0570912290051995,2.4535912779538296,-81.09166107217753,-85.0510010248442,3.9593399526666673,79.99219501590642,82.93793267633099,-2.9457376604245695,43.26073320437353,50.8192937800552,-7.558560575681668,-0.003381039729800885,0.0,-0.003381039729800885
0.16000000000000011,move_to_zero,-1.5522327595506642,-4.052690913138599,2.5004581535879344,-81.03794770898858,-84.95875481982809,3.9208071108395046,79.94198355081927,82.84797830249549,-2.905994751676218,43.243449112071644,50.7641752401636,-7.520726128091958,-0.003727499722462382,0.0,-0.003727499722462382
0.16200000000000012,move_to_zero,-1.5024619284806648,-4.048290597272,2.5458286687913345,-80.97868875270093,-84.86650861481199,3.8878198621110585,79.8909702833466,82.75802392865998,-2.8670536453133764,43.22782665482242,50.709056700271994,-7.481230045449571,-0.004101790678866018,0.0,-0.004101790678866018
0.16400000000000012,move_to_zero,-1.4545789373583378,-4.0438902814054,2.589311344047062,-80.91389737118003,-84.7742624097959,3.8603650386158677,79.83903596864778,82.66806955482448,-2.829033586176706,43.213671667369994,50.6539381603804,-7.440266493010405,-0.004500084470548064,0.0,-0.004500084470548064
0.16600000000000012,move_to_zero,-1.4089321300004178,-4.0394899655388,2.630557835538382,-80.84357532765775,-84.68201620477979,3.8384408771220393,79.78602379717901,82.57811518098899,-2.792091383809975,43.200791017933774,50.5988196204888,-7.398028602555023,-0.004917635935712864,0.0,-0.004917635935712864
0.16800000000000012,move_to_zero,-1.3658441617928447,-4.0350896496722,2.669245487879355,-80.767781964679,-84.5897699997637,3.8219880350847006,79.7318082026536,82.48816080715348,-2.756352604499881,43.188971947998326,50.543701080597195,-7.3547291325988695,-0.005309609220680161,0.0,-0.005309609220680161
0.17000000000000012,move_to_zero,-1.325589993899164,-4.0306893338056,2.705099339906436,-80.68661464456923,-84.4975237947476,3.810909150178361,79.67626978718621,82.398206433318,-2.7219366461317804,43.17801636554483,50.4885825407056,-7.310566175160773,-0.0056674676268933764,0.0,-0.0056674676268933764
0.17200000000000013,move_to_zero,-1.2884010787680562,-4.026289017939,2.7378879391709434,-80.60020424542984,-84.4052775897315,3.805073344301661,79.61932292522155,82.30825205948248,-2.688929134260931,43.167735245453535,50.433464000814,-7.265728755360463,-0.00599509287554023,0.0,-0.00599509287554023
0.17400000000000013,move_to_zero,-1.25446960785994,-4.021888702072399,2.767419094212459,-80.50870206094245,-84.31303138471539,3.804329323772933,79.56089205178829,82.21829768564697,-2.657405633858687,43.157936202110434,50.3783454609224,-7.220409258811962,-0.0062991601330796045,0.0,-0.0062991601330796045
0.17600000000000013,move_to_zero,-1.2239601534291997,-4.017488386205799,2.793528232776599,-80.41226403736762,-84.22078517969929,3.8085211423316707,79.50090865344563,82.12834331181149,-2.627434658365857,43.14844552045014,50.323226921030795,-7.174781400580656,-0.006584418737560435,0.0,-0.006584418737560435
0.17800000000000013,move_to_zero,-1.1969947953817623,-4.013088070339199,2.8160932749574368,-80.3110809465056,-84.12853897468318,3.817458028177583,79.43930936925251,82.03838893797598,-2.599079568723468,43.1390956524699,50.2681083811392,-7.129012728669302,-0.006854617547819851,0.0,-0.006854617547819851
0.18000000000000013,move_to_zero,-1.1736405365447264,-4.008687754472599,2.8350472179278725,-80.20537990917354,-84.0362927696671,3.830912860493555,79.3760413602988,81.94843456414048,-2.572393203841685,43.12971743238618,50.2129898412476,-7.0832724088614185,-0.007124045248621694,0.0,-0.007124045248621694
0.18200000000000013,move_to_zero,-1.1539239068382714,-4.004287438605999,2.850363531767728,-80.09538916128471,-83.944046564651,3.848657403366289,79.31106232098058,81.85848019030499,-2.5474178693244056,43.12014649079153,50.157871301355996,-7.03772481056447,-0.007408758053815045,0.0,-0.007408758053815045
0.18400000000000014,move_to_zero,-1.1378432500011577,-3.9998871227393993,2.8620438727382416,-79.9813494123961,-83.8518003596349,3.870450947238794,79.24432849242623,81.76852581646948,-2.524197324043243,43.1102350930866,50.1027527614644,-6.9925176683778005,-0.0077013958545104726,0.0,-0.0077013958545104726
0.18600000000000014,move_to_zero,-1.1250196024692625,-3.995486806872799,2.8704672044035364,-79.8635094831372,-83.7595541546188,3.8960446714816044,79.17579910042568,81.67857144263398,-2.502772342208303,43.09984588496823,50.04763422157279,-6.94778833660456,-0.007992851368211498,0.0,-0.007992851368211498
0.18800000000000014,move_to_zero,-1.1149824399441604,-3.991086491006199,2.876104051062039,-79.74215035632193,-83.66730794960269,3.9251575932807583,79.10546130710033,81.58861706879848,-2.483155761698157,43.088849808626044,49.9925156816812,-6.903665873055154,-0.008273134965538569,0.0,-0.008273134965538569
0.19000000000000014,move_to_zero,-1.1076767149244935,-3.986686175139599,2.8790094602151055,-79.61754750559116,-83.57506174458659,3.9575142389954294,79.03332628857434,81.49866269496299,-2.4653364063886443,43.07712796467291,49.937397141789596,-6.860269177116685,-0.008541716332421238,0.0,-0.008541716332421238
0.19200000000000014,move_to_zero,-1.1029869374747288,-3.9822858592729995,2.879298921798271,-79.4899909286242,-83.48281553957048,3.992824610946286,78.9593673938421,81.40870832112748,-2.449340927285377,43.06456170819732,49.882278601897994,-6.817716893700677,-0.008822978288038335,0.0,-0.008822978288038335
0.19400000000000014,move_to_zero,-1.100797539051866,-3.9778855434063995,2.8770880043545333,-79.35975934146774,-83.3905693345544,4.030809993086663,78.88359195579429,81.31875394729198,-2.4351619914976936,43.05103512584137,49.8271600620064,-6.776124936165026,-0.009091810543557685,0.0,-0.009091810543557685
0.19600000000000015,move_to_zero,-1.1009643270823222,-3.9734852275397996,2.872520900457477,-79.2271575586098,-83.29832312953829,4.0711655709284855,78.80600577270073,81.22879957345648,-2.4227938007557555,43.0364259327356,49.7720415221148,-6.735615589379201,-0.009350112650325707,0.0,-0.009350112650325707
0.19800000000000015,move_to_zero,-1.1033215215369019,-3.9690849116731997,2.8657633901362978,-79.09247620187875,-83.2060769245222,4.11360072264344,78.7266257800505,81.13884519962097,-2.4122194195704765,43.02062834859764,49.716922982223196,-6.6962946336255555,-0.009599062224836375,0.0,-0.009599062224836375
0.20000000000000015,move_to_zero,-1.1076737604924594,-3.9646845958065993,2.85701083531414,-78.9560168700892,-83.1138307195061,4.157813849416897,78.64548139240107,81.04889082578549,-2.403409433384425,43.00354997191703,49.661804442331594,-6.658254470414562,-0.009842420814010211,0.0,-0.009842420814010211
0.20200000000000015,move_to_zero,-1.1138197626431408,-3.9602842799399993,2.846464517296859,-78.81808716591999,-83.02158451448999,4.2034973485699965,78.56261767927992,80.95893645194998,-2.3963187726700568,42.985073779861764,49.60668590244,-6.6216121225782345,-0.010086282824963586,0.0,-0.010086282824963586
0.20400000000000015,move_to_zero,-1.1215679104478902,-3.9558839640733994,2.834316053625509,-78.67902375118973,-82.92933830947389,4.25031455828416,78.47807656135285,80.86898207811447,-2.39090551676162,42.96513176648087,49.5515673625484,-6.586435596067524,-0.010327783208499794,0.0,-0.010327783208499794
0.20600000000000016,move_to_zero,-1.1307055279654734,-3.9514836482067994,2.820778120241326,-78.53911132095106,-82.8370921044578,4.2979807835067305,78.39187193726247,80.77902770427899,-2.387155767016523,42.943648005094154,49.496448822656795,-6.552800817562641,-0.010565382882226469,0.0,-0.010565382882226469
0.20800000000000016,move_to_zero,-1.1409896760960663,-3.947083332340199,2.8060936562441325,-78.39862760690903,-82.7448458994417,4.346218292532669,78.30406091685114,80.68907333044348,-2.385012413592335,42.92055728495557,49.4413302827652,-6.52077299780963,-0.010799063830616401,0.0,-0.010799063830616401
0.21000000000000016,move_to_zero,-1.1521996043312344,-3.942683016473599,2.7904834121423647,-78.25784875551143,-82.65259969442559,4.394750938914157,78.21472539598412,80.59911895660798,-2.384393560623863,42.89579288526517,49.38621174287359,-6.490418857608418,-0.011030170390450213,0.0,-0.011030170390450213
0.21200000000000016,move_to_zero,-1.1640940487962668,-3.938282700606999,2.774188651810732,-78.11705541079098,-82.5603534894095,4.443298078618511,78.12394514048584,80.50916458277248,-2.3852194422866404,42.86928380004989,49.331093202982,-6.461809402932104,-0.0112614221501774,0.0,-0.0112614221501774
0.21400000000000016,move_to_zero,-1.1764419323848572,-3.933882384740399,2.7574404523555422,-77.97649955333725,-82.46810728439338,4.491607731056135,78.03176343888698,80.41921020893697,-2.3874467700499906,42.84096968066347,49.275974663090395,-6.435004982426925,-0.011492207745269644,0.0,-0.011492207745269644
0.21600000000000016,move_to_zero,-1.1890488903907037,-3.929482068873799,2.7404331784830953,-77.8364257504956,-82.37586107937729,4.539435328881694,77.93825047417371,80.32925583510148,-2.391005360927764,42.810817056853146,49.2208561231988,-6.410039066345654,-0.011734788575899796,0.0,-0.011734788575899796
0.21800000000000017,move_to_zero,-1.2017071312803493,-3.925081753007199,2.7233746217268493,-77.69706442005565,-82.28361487436119,4.586550454305538,77.84346179863854,80.23930146126598,-2.395839662627438,42.77877952534165,49.1657375833072,-6.3869580579655505,-0.0119862553362741,0.0,-0.0119862553362741
0.22000000000000017,move_to_zero,-1.2142033706802777,-3.9206814371406,2.7064780664603223,-77.5586461517915,-82.1913686693451,4.632722517553589,77.74745500915817,80.14934708743048,-2.4018920782723114,42.744832011220005,49.110619043415596,-6.365787032195591,-0.012251708940672694,0.0,-0.012251708940672694
0.22200000000000017,move_to_zero,-1.2263406441048812,-3.9162811212739994,2.6899404771691184,-77.42137877582665,-82.099122464329,4.677743688502346,77.6502927355966,80.05939271359497,-2.4090999779983804,42.70894735926587,49.055500503523994,-6.346553144258124,-0.012508872415805297,0.0,-0.012508872415805297
0.22400000000000017,move_to_zero,-1.2379081301811914,-3.9118808054073995,2.6739726752262083,-77.28547008625834,-82.00687625931289,4.721406173054547,77.55204867383057,79.96943833975948,-2.4173896659289085,42.67113418981452,49.00038196363239,-6.329247773817869,-0.012762272185433304,0.0,-0.012762272185433304
0.22600000000000017,move_to_zero,-1.24873563060692,-3.9074804895407995,2.6587448589338796,-77.15110498678155,-81.9146300542968,4.763525067515246,77.45278622115777,79.87948396592398,-2.4266977447662157,42.63135849286683,48.9452634237408,-6.313904930873967,-0.013036427034530035,0.0,-0.013036427034530035
0.22800000000000017,move_to_zero,-1.2586792573498848,-3.9030801736741996,2.6444009163243147,-77.0184634657785,-81.82238384928068,4.803920383502188,77.35258093971112,79.78952959208848,-2.4369486523773674,42.58962669793998,48.890144883849196,-6.300518185909219,-0.013330045942523919,0.0,-0.013330045942523919
0.23000000000000018,move_to_zero,-1.267611444636076,-3.898679857807599,2.631068413171523,-76.88771121143698,-81.73013764426459,4.842426432827608,77.25149250501765,79.69957521825299,-2.448082713235337,42.54595914266067,48.8350263439576,-6.28906720129693,-0.01363455078929785,0.0,-0.01363455078929785
0.23200000000000018,move_to_zero,-1.2754122798637761,-3.8942795419409992,2.618867262077223,-76.75899634010685,-81.63789143924849,4.878895099141644,77.149604392738,79.60962084441748,-2.460016451679479,42.500337684242915,48.77990780406599,-6.279570119823077,-0.013957441418233177,0.0,-0.013957441418233177
0.23400000000000018,move_to_zero,-1.2819374079496169,-3.8898792260743993,2.6079418181247824,-76.63243314187733,-81.5456452342324,4.913212092355067,77.04698538474845,79.51966647058198,-2.4726810858335284,42.45278577081492,48.72478926417439,-6.27200349335947,-0.014259833168729912,0.0,-0.014259833168729912
0.23600000000000018,move_to_zero,-1.2871642126087504,-3.8854789102077993,2.598314697599049,-76.50811674178675,-81.45339902921629,4.945282287429535,76.94371062915693,79.42971209674648,-2.48600146758956,42.40332986425894,48.669670724282796,-6.266340860023853,-0.01454613789004083,0.0,-0.01454613789004083
0.23800000000000018,move_to_zero,-1.2913289983535592,-3.881078594341199,2.58974959598764,-76.38613477224813,-81.36115282420019,4.975018051952063,76.839859125233,79.33975772291097,-2.4998985976779693,42.35195961885403,48.614552184391194,-6.262592565537162,-0.014818324292376915,0.0,-0.014818324292376915
0.24000000000000019,move_to_zero,-1.2946252171951342,-3.876678278474599,2.5820530612794648,-76.26655601733148,-81.2689066191841,5.002350601852612,76.73549468132788,79.24980334907549,-2.5143086677476134,42.298676689533345,48.5594336444996,-6.260756954966254,-0.015078566762102317,0.0,-0.015078566762102317
0.2420000000000002,move_to_zero,-1.2970510504957324,-3.872277962607999,2.5752269121122664,-76.14945177719274,-81.17666041416798,5.027208636975246,76.63068153917146,79.15984897523998,-2.5291674360685192,42.24347939412284,48.504315104608,-6.2608357104851535,-0.015327409697501517,0.0,-0.015327409697501517
0.2440000000000002,move_to_zero,-1.2985285783392602,-3.867877646741399,2.569349068402139,-76.03484061127983,-81.08441420915189,5.049573597872055,76.52548322121814,79.06989460140447,-2.5444113801863324,42.18637836844459,48.449196564716395,-6.262818196271802,-0.015568722116535726,0.0,-0.015568722116535726
0.2460000000000002,move_to_zero,-1.2990153599963974,-3.8634773308747987,2.5644619708784013,-75.92275227851773,-80.99216800413579,5.069415725618057,76.41993621492708,78.97994022756899,-2.5600040126419117,42.12742420572884,48.39407802482479,-6.26665381909595,-0.01580662844787981,0.0,-0.01580662844787981
0.2480000000000002,move_to_zero,-1.2984752494418508,-3.8590770150081988,2.560601765566348,-75.81320895982564,-80.8999217991197,5.0867128392940515,76.31410114522666,78.88998585373348,-2.5758847085068197,42.06665570520858,48.33895948493319,-6.272303779724609,-0.01605349753267762,0.0,-0.01605349753267762
0.25000000000000017,move_to_zero,-1.296882895523348,-3.8546766991415997,2.5577938036182517,-75.70618986807777,-80.80767559410359,5.101485726025814,76.20805782737766,78.80003147989798,-2.5919736525203234,42.004141032851265,48.2838409450416,-6.279699912190331,-0.016297440424818243,0.0,-0.016297440424818243
0.25200000000000017,move_to_zero,-1.2942041673158875,-3.8502763832749993,2.556072215959112,-75.60168539762392,-80.71542938908749,5.113743991463565,76.1018608120927,78.71007710606249,-2.6082162939697895,41.939928500499136,48.228722405149995,-6.288793904650859,-0.016539195336504522,0.0,-0.016539195336504522
0.25400000000000017,move_to_zero,-1.2904389738689797,-3.8458760674083994,2.5554370935394197,-75.49968737993694,-80.62318318407138,5.123495804134436,75.99555720271603,78.62012273222697,-2.624565529510946,41.87410884515675,48.1736038652584,-6.299495020101652,-0.01678212323594445,0.0,-0.01678212323594445
0.25600000000000017,move_to_zero,-1.2855898451889403,-3.8414757515417994,2.5558859063528594,-75.40014667589658,-80.53093697905528,5.1307903031587045,75.88918266128253,78.53016835839148,-2.6409856971089454,41.80673592597093,48.11848532536679,-6.3117493993958576,-0.017020557490715925,0.0,-0.017020557490715925
0.2580000000000002,move_to_zero,-1.2796762470982757,-3.8370754356751995,2.557399188576924,-75.3029909563924,-80.43869077403919,5.135699817646781,75.7827750504188,78.44021398455598,-2.6574389341371756,41.73786965104255,48.063366785475196,-6.325497134432645,-0.017258408494327398,0.0,-0.017258408494327398
0.2600000000000002,move_to_zero,-1.2727569400486456,-3.832675119808599,2.5599181797599533,-75.20816956103782,-80.34644456902309,5.138275007985271,75.67637390059372,78.35025961072049,-2.6738857101267683,41.66758115566496,48.008248245583594,-6.340667089918632,-0.017493097309621713,0.0,-0.017493097309621713
0.2620000000000002,move_to_zero,-1.2648934035310964,-3.828274803941999,2.563381400410903,-75.11560028159961,-80.254198364007,5.138598082407384,75.57001881285939,78.26030523688497,-2.6902864240255866,41.59592199647876,47.95312970569199,-6.357207709213235,-0.01772468373806499,0.0,-0.01772468373806499
0.2640000000000002,move_to_zero,-1.256161450410214,-3.823874488075399,2.567713037665185,-75.0252061721916,-80.16195215899089,5.1367459867992835,75.46373312501055,78.17035086304948,-2.706617738038929,41.52294738516303,47.8980111658004,-6.375063780637369,-0.017953516932530077,0.0,-0.017953516932530077
0.2660000000000002,move_to_zero,-1.2465915336890645,-3.8194741722087993,2.5728826385197348,-74.93689864037317,-80.06970595397479,5.132807313601617,75.3575377246847,78.08039648921398,-2.7228587645292777,41.44871259336984,47.842892625908796,-6.394180032538955,-0.018185557973862756,0.0,-0.018185557973862756
0.2680000000000002,move_to_zero,-1.236237937720066,-3.815073856342199,2.578835918622133,-74.85058714418261,-79.97745974895868,5.126872604776068,75.25144534535117,77.99044211537847,-2.738996770027299,41.373296921151756,47.787774086017194,-6.414477164865438,-0.018424383980236596,0.0,-0.018424383980236596
0.2700000000000002,move_to_zero,-1.2251656923986116,-3.810673540475599,2.585507848076987,-74.7661577339856,-79.8852135439426,5.119055809957004,75.14549039015263,77.90048774154299,-2.754997351390358,41.29678583240193,47.73265554612559,-6.435869713723662,-0.01866336672482987,0.0,-0.01866336672482987
0.2720000000000002,move_to_zero,-1.2134406259538264,-3.806273224608999,2.5928325986551726,-74.6835193838923,-79.79296733892649,5.1094479550341845,75.03970602944807,77.81053336770748,-2.7708273382594086,41.2192426882159,47.677537006234,-6.458294318018098,-0.018900683898090728,0.0,-0.018900683898090728
0.2740000000000002,move_to_zero,-1.2011158815292127,-3.801872908742399,2.600757027213186,-74.60255054636079,-79.70072113391039,5.098170587549603,74.93410934728084,77.72057899387197,-2.7864696465911294,41.14070992419799,47.622418466342396,-6.481708542144403,-0.019142641771537752,0.0,-0.019142641771537752
0.2760000000000002,move_to_zero,-1.188281950210966,-3.7974725928757986,2.6091906426648324,-74.52312657356542,-79.60847492889428,5.085348355328861,74.82872065711021,77.63062462003649,-2.801903962926275,41.06126511749621,47.567299926450794,-6.506034808954581,-0.019400278834230584,0.0,-0.019400278834230584
0.2780000000000002,move_to_zero,-1.1750075015854158,-3.7930722770091996,2.618064775423784,-74.44508302191714,-79.51622872387819,5.0711457019610435,74.72355180245987,77.54067024620097,-2.8171184437411085,40.980969624034365,47.5121813865592,-6.531211762524833,-0.019681483199857634,0.0,-0.019681483199857634
0.2800000000000002,move_to_zero,-1.1613930882834187,-3.7886719611425996,2.627278872859181,-74.36829875393451,-79.42398251886209,5.055683764927579,74.61862919250873,77.45071587236548,-2.8320866798567437,40.89987730154625,47.45706284666759,-6.557185545121342,-0.019990743444584246,0.0,-0.019990743444584246
0.2820000000000002,move_to_zero,-1.147552261252316,-3.7842716452759992,2.6367193840236833,-74.29266374375138,-79.331736313846,5.039072570094618,74.51397225990847,77.36076149852998,-2.8467892386215112,40.818060110729284,47.401944306775995,-6.583884196046711,-0.020315422262614107,0.0,-0.020315422262614107
0.2840000000000002,move_to_zero,-1.1335737303239326,-3.7798713294093993,2.6462975990854667,-74.21803479050304,-79.2394901088299,5.021455318326858,74.4096080607675,77.27080712469449,-2.861199063926989,40.735584399329916,47.34682576688439,-6.611241367554477,-0.020654339389490423,0.0,-0.020654339389490423
0.2860000000000002,move_to_zero,-1.1195459578033118,-3.7754710135427993,2.6559250557394876,-74.14429547850685,-79.14724390381379,5.00294842530694,74.30554533773876,77.18085275085897,-2.875307413120211,40.65254089603639,47.29170722699279,-6.6391663309563995,-0.020987150743646606,0.0,-0.020987150743646606
0.2880000000000002,move_to_zero,-1.1055533654250445,-3.7710706976761994,2.665517332251155,-74.07129857354501,-79.05499769879769,4.983699125252684,74.20179269869861,77.09089837702348,-2.889105678324867,40.56899319597658,47.2365886871012,-6.667595491124615,-0.021294613882999684,0.0,-0.021294613882999684
0.2900000000000002,move_to_zero,-1.0916773057476612,-3.766670381809599,2.674993076061938,-73.99891448748326,-78.96275149378158,4.96383700629832,74.09836872901923,77.00094400318798,-2.902575274168754,40.485024226512536,47.181470147209595,-6.696445920697059,-0.02158174218432797,0.0,-0.02158174218432797
0.2920000000000002,move_to_zero,-1.0779919411348102,-3.762270065942999,2.6842781248081886,-73.92701349781017,-78.87050528876549,4.943491790955321,73.99528713474905,76.91098962935247,-2.9157024946034227,40.400716660824365,47.12635160731799,-6.725634946493628,-0.021851532505048857,0.0,-0.021851532505048857
0.2940000000000002,move_to_zero,-1.0645783554792512,-3.757869750076399,2.693291394597148,-73.85545816360747,-78.77825908374939,4.922800920141924,73.89258403661498,76.82103525551699,-2.928451218902012,40.31614066708636,47.07123306742639,-6.7550924003400326,-0.022106699058973216,0.0,-0.022106699058973216
0.2960000000000002,move_to_zero,-1.0514715835843513,-3.753469434209799,2.701997850625448,-73.78413721350941,-78.6860128787333,4.9018756652238835,73.79026769727432,76.73108088168148,-2.940813184407162,40.231362391965966,47.016114527534796,-6.78475213556883,-0.022348824773241932,0.0,-0.022348824773241932
0.2980000000000002,move_to_zero,-1.038723303251727,-3.749069118343199,2.710345815091472,-73.7129330728149,-78.59376667371718,4.880833600902278,73.68834729735514,76.64112650784598,-2.9527792104908457,40.14643670077904,46.960995987643194,-6.814559286864153,-0.02258227986118571,0.0,-0.02258227986118571
0.3000000000000002,move_to_zero,-1.0263718837712243,-3.744668802476599,2.7182969187053745,-73.64174157797657,-78.50152046870109,4.859778890724513,73.58682588224933,76.55117213401049,-2.9643462517611567,40.06142953872884,46.90587744775159,-6.844447909022755,-0.022810520014430152,0.0,-0.022810520014430152
0.3020000000000002,move_to_zero,-1.014477550000883,-3.740268486609999,2.725790936609116,-73.57043595973427,-78.40927426368499,4.838838303950723,73.48573312046676,76.46121776017497,-2.9754846397082133,39.976422212617194,46.85075890786,-6.874336695242803,-0.023035019642798582,0.0,-0.023035019642798582
0.3040000000000002,move_to_zero,-1.0030772633736247,-3.735868170743399,2.7327909073697745,-73.49890765945581,-78.31702805866888,4.818120399213072,73.3850907870561,76.37126338633948,-2.9861725992833783,39.891443312319424,46.79564036796839,-6.9041970556489645,-0.023255002013253846,0.0,-0.023255002013253846
0.3060000000000002,move_to_zero,-0.9921838513406201,-3.7314678548767994,2.7392840035361794,-73.42705017039667,-78.22478185365279,4.797731683256117,73.28488913438724,76.28130901250398,-2.9964198781167397,39.80654676124858,46.740521828076794,-6.933975066828211,-0.023470404433254013,0.0,-0.023470404433254013
0.3080000000000002,move_to_zero,-0.9818177085904771,-3.7270675390101995,2.7452498304197226,-73.35477144611423,-78.13253564863669,4.777764202522462,73.18509952517333,76.19135463866847,-3.0062551134951434,39.72179519883433,46.68540328818519,-6.963608089350863,-0.023681293719131115,0.0,-0.023681293719131115
0.3100000000000002,move_to_zero,-0.9719992526843876,-3.7226672231435995,2.750667970459212,-73.28196474517766,-78.0402894436206,4.758324698442934,73.08571366497878,76.10140026483299,-3.015686599854206,39.63722211051052,46.6302847482936,-6.993062637783076,-0.023889160463498427,0.0,-0.023889160463498427
0.3120000000000002,move_to_zero,-0.9627630833104676,-3.718266907276999,2.7555038239665315,-73.20852795356683,-77.94804323860448,4.739515285037655,72.98672029794807,76.01144589099748,-3.0247255930494106,39.552853577343775,46.575166208401996,-7.02231263105822,-0.02409296461176917,0.0,-0.02409296461176917
0.3140000000000002,move_to_zero,-0.9541353928969762,-3.713866591410399,2.759731198513423,-73.13439107933745,-77.85579703358839,4.72140595425094,72.88812683292014,75.92149151716198,-3.033364684241846,39.46874820046515,46.520047668510394,-7.051299468045244,-0.024294558765712015,0.0,-0.024294558765712015
0.3160000000000002,move_to_zero,-0.9461072355320371,-3.7094662755437993,2.7633590400117622,-73.05949364466204,-77.76355082857228,4.704057183910237,72.7899335131209,75.83153714332649,-3.0416036302055858,39.38494368344642,46.46492912861879,-7.079985445172369,-0.024495592036580915,0.0,-0.024495592036580915
0.3180000000000002,move_to_zero,-0.9386732359462364,-3.7050659596771993,2.766392723730963,-72.98377089195563,-77.67130462355618,4.687533731600553,72.69212749590349,75.74158276949098,-3.0494552735874834,39.301470217016885,46.40981058872719,-7.108340371710305,-0.02469479804480597,0.0,-0.02469479804480597
0.32000000000000023,move_to_zero,-0.9318110065993954,-3.700665643810599,2.7688546372112035,-72.90715084198116,-77.57905841854009,4.671907576558922,72.59470594453849,75.65162839565548,-3.0569224511169892,39.218395511584696,46.354692048835595,-7.1362965372508995,-0.024894206124929923,0.0,-0.024894206124929923
0.32200000000000023,move_to_zero,-0.9255103023957889,-3.696265327943999,2.77075502554821,-72.82956012451828,-77.48681221352399,4.657252089005709,72.49768195013618,75.56167402181998,-3.063992071683799,39.13571825104372,46.29957350894399,-7.163855257900273,-0.0250956272832401,0.0,-0.0250956272832401
0.32400000000000023,move_to_zero,-0.919740283637239,-3.691865012077399,2.77212472844016,-72.7509482446894,-77.3945660085079,4.643617763818497,72.40104414471767,75.47171964798449,-3.0706755032668127,39.05347494051728,46.2444549690524,-7.190980028535115,-0.02529792214758535,0.0,-0.02529792214758535
0.32600000000000023,move_to_zero,-0.9144628404669534,-3.687464696210799,2.773001855743846,-72.67131514969412,-77.30231980349178,4.63100465379766,72.30479423757176,75.38176527414898,-3.07697103657722,38.97167730085801,46.1893364291608,-7.217659128302785,-0.025499688708933307,0.0,-0.025499688708933307
0.32800000000000024,move_to_zero,-0.9096633317432298,-3.6830643803441987,2.773401048600969,-72.59062719930338,-77.21007359847569,4.619446399172304,72.20891017761407,75.29181090031348,-3.0829007226994065,38.89033797386512,46.13421788926919,-7.243879915404065,-0.025703746593091457,0.0,-0.025703746593091457
0.33000000000000024,move_to_zero,-0.9053036278979935,-3.6786640644775987,2.773360436579605,-72.50885043042281,-77.11782739345958,4.608976963036767,72.11337684275325,75.20185652647798,-3.088479683724728,38.80949683876805,46.07909934937759,-7.269602510609545,-0.025909803772850088,0.0,-0.025909803772850088
0.33200000000000024,move_to_zero,-0.9013417733536957,-3.674263748610999,2.772921975257303,-72.42595725801739,-77.02558118844348,4.599623930426091,72.0181774594656,75.11190215264247,-3.093724693176867,38.72917141219797,46.02398080948599,-7.29480939728802,-0.02611786233579848,0.0,-0.02611786233579848
0.33400000000000024,move_to_zero,-0.8977541086814488,-3.669863432744399,2.77210932406295,-72.3419281149032,-76.93333498342739,4.591406868524189,71.92329373695424,75.02194777880699,-3.098654041852754,38.64938794840127,45.968862269594396,-7.319474321193127,-0.02632891443829455,0.0,-0.02632891443829455
0.33600000000000024,move_to_zero,-0.8944961616439441,-3.6654631168777994,2.770966955233855,-72.25677403512846,-76.84108877841129,4.584314743282832,71.82873926068127,74.93199340497148,-3.1032541442902044,38.57016711516996,45.913743729702794,-7.343576614532836,-0.02653963205474738,0.0,-0.02653963205474738
0.33800000000000024,move_to_zero,-0.8915366972641533,-3.6610628010111994,2.769526103747046,-72.17050924747753,-76.74884257339518,4.578333325917654,71.73450665719996,74.84203903113597,-3.10753237393601,38.491523988553254,45.85862518981119,-7.367101201257938,-0.02675006646836082,0.0,-0.02675006646836082
0.34000000000000025,move_to_zero,-0.8888587025369862,-3.6566624851445995,2.767803782607613,-72.08314829013403,-76.65659636837908,4.57344807824505,71.64055447011029,74.75208465730049,-3.1115301871901977,38.4134785071185,45.80350664991959,-7.390028142801093,-0.026961454648229653,0.0,-0.026961454648229653
0.34200000000000025,move_to_zero,-0.8864208898682016,-3.652262169277999,2.7658412794097975,-71.9947046762239,-76.56435016336299,4.569645487139084,71.54685323265036,74.66213028346498,-3.115277050814612,38.33601514780696,45.74838811002799,-7.412372962221028,-0.027175267721430803,0.0,-0.027175267721430803
0.34400000000000025,move_to_zero,-0.8841916680102135,-3.647861853411399,2.7636701854011854,-71.90518024031134,-76.47210395834688,4.5669237180355395,71.45337489778271,74.57217590962948,-3.11880101184677,38.259153165926406,45.693269570136394,-7.434116404209988,-0.027410236146192084,0.0,-0.027410236146192084
0.34600000000000025,move_to_zero,-0.882129519541283,-3.643461537544799,2.7613320180035164,-71.81460866555165,-76.3798577533308,4.565249087779151,71.36011328589346,74.48222153579398,-3.1221082499005206,38.182925102921374,45.63815103024479,-7.4552259273234185,-0.027654670157269995,0.0,-0.027654670157269995
0.34800000000000025,move_to_zero,-0.880202061670381,-3.6390612216781992,2.7588591600078183,-71.72301787451991,-76.28761154831469,4.564593673794775,71.26705186095955,74.39226716195847,-3.125215300998917,38.10734678230209,45.5830324903532,-7.47568570805111,-0.027901817124004673,0.0,-0.027901817124004673
0.35000000000000026,move_to_zero,-0.8783908817091217,-3.634660905811599,2.756270024102477,-71.6304539465235,-76.19536534329859,4.564911396775088,71.17419039342411,74.30231278812298,-3.128122394698863,38.032412848615785,45.52791395046159,-7.495501101845804,-0.028157583783636628,0.0,-0.028157583783636628
0.35200000000000026,move_to_zero,-0.8766686765224696,-3.630260589944999,2.7535919134225293,-71.53696317838856,-76.10311913828248,4.566155959893919,71.0815455911669,74.21235841428748,-3.1308128231205785,37.95813755603282,45.472795410569994,-7.514657854537177,-0.02842998257502238,0.0,-0.02842998257502238
0.35400000000000026,move_to_zero,-0.8749947685393593,-3.625860274078399,2.7508655055390396,-71.44257825408725,-76.01087293326638,4.568294679179132,70.98909287566774,74.12240404045198,-3.1333111647842458,37.8845075486919,45.41767687067839,-7.533169321986492,-0.028692558130808545,0.0,-0.028692558130808545
0.35600000000000026,move_to_zero,-0.8733293049896287,-3.621459958211799,2.7481306532221703,-71.34736483791663,-75.91862672825027,4.571261890333645,70.89680162597614,74.03244966661647,-3.1356480406403335,37.811509435005334,45.36255833078679,-7.551048895781456,-0.02897263595214305,0.0,-0.02897263595214305
0.35800000000000026,move_to_zero,-0.8716374898244863,-3.6170596423451986,2.745422152520712,-71.25137303632813,-75.82638052323418,4.5750074869060455,70.80468070648594,73.94249529278098,-3.137814586295036,37.73915336011233,45.307439790895195,-7.568286430782862,-0.029272670396708007,0.0,-0.029272670396708007
0.36000000000000026,move_to_zero,-0.8698614410632415,-3.6126593264785987,2.7427978854153574,-71.15466890157981,-75.7341343182181,4.5794654166382855,70.71270568381156,73.85254091894548,-3.1398352351339156,37.66743066484613,45.25232125100359,-7.584890586157464,-0.029598436884380977,0.0,-0.029598436884380977
0.36200000000000027,move_to_zero,-0.8679959638424443,-3.6082590106119987,2.7402630467695546,-71.05732584401748,-75.64188811320199,4.584562269184502,70.62086156265023,73.76258654510997,-3.141724982459735,37.59632887999009,45.19720271111199,-7.600873831121902,-0.029923079816559933,0.0,-0.029923079816559933
0.36400000000000027,move_to_zero,-0.8660065871015263,-3.603858694745399,2.7378521076438727,-70.95938433021296,-75.54964190818589,4.590257577972935,70.5291072269206,73.67263217127449,-3.143524944353885,37.525838661757646,45.14208417122039,-7.616245509462743,-0.03023950915312573,0.0,-0.03023950915312573
0.36600000000000027,move_to_zero,-0.863855476173859,-3.5994583788787993,2.73560290270494,-70.86091789728953,-75.45739570316978,4.596477805880255,70.43742333206663,73.58267779743898,-3.1452544653723464,37.45596050585662,45.086965631328795,-7.631005125472171,-0.030536276205585897,0.0,-0.030536276205585897
0.36800000000000027,move_to_zero,-0.8614829287029508,-3.5950580630121993,2.7335751343092483,-70.76195388324437,-75.36514949815368,4.6031956149093105,70.34577726716059,73.49272342360348,-3.146946156442894,37.386685269023204,45.03184709143719,-7.645161822413989,-0.030812001037817748,0.0,-0.030812001037817748
0.3700000000000003,move_to_zero,-0.8588788045016065,-3.5906577471455994,2.731778942643993,-70.66255242360648,-75.27290329313757,4.610350869531089,70.25415652037256,73.40276904976798,-3.1486125293954217,37.3179890832489,44.97672855154559,-7.6587394682966945,-0.031070130228983403,0.0,-0.031070130228983403
0.3720000000000003,move_to_zero,-0.8560089911149718,-3.586257431278999,2.7302484401640275,-70.56278225419263,-75.18065708812149,4.617874833928866,70.16254735561434,73.31281467593247,-3.150267320318136,37.249837799392616,44.921610011653996,-7.671772212261381,-0.03131337294687268,0.0,-0.03131337294687268
0.3740000000000003,move_to_zero,-0.8528564304547972,-3.581857115412399,2.729000684957602,-70.46269302794333,-75.08841088310538,4.625717855162051,70.07094307116579,73.22286030209698,-3.15191723093119,37.18222178557363,44.86649147176239,-7.684269686188756,-0.031543443970288854,0.0,-0.031543443970288854
0.3760000000000003,move_to_zero,-0.8494069809703118,-3.577456799545799,2.7280498185754873,-70.36235350648211,-74.99616467808929,4.633811171607178,69.97934509084116,73.13290592826148,-3.153560837420315,37.11510618406319,44.81137293187079,-7.696266747807606,-0.03176034593267613,0.0,-0.03176034593267613
0.3780000000000003,move_to_zero,-0.8456588143036896,-3.573056483679199,2.7273976693755095,-70.26183251747776,-74.90391847307319,4.642085955595434,69.88773578395669,73.04295155442597,-3.155215770469283,37.04847635601976,44.75625439197919,-7.707778035959429,-0.03196746519043694,0.0,-0.03196746519043694
0.3800000000000003,move_to_zero,-0.8416137491242903,-3.5686561678125988,2.7270424186883084,-70.16122173130705,-74.81167226805708,4.650450536750029,69.79610153179722,72.95299718059049,-3.1568956487932667,36.98228451850045,44.70113585208759,-7.718851333587139,-0.032166550515826405,0.0,-0.032166550515826405
0.3820000000000003,move_to_zero,-0.8372568445116014,-3.564255851945999,2.7269990074343973,-70.06059791736774,-74.71942606304098,4.65882814567324,69.70442401639863,72.86304280675498,-3.1586187903563427,36.91654072101493,44.646017312195994,-7.7294765911810615,-0.03235852644331796,0.0,-0.03235852644331796
0.3840000000000003,move_to_zero,-0.8325931822436893,-3.559855536079399,2.7272623538357097,-69.96000535408076,-74.62717985802489,4.667174503944125,69.61272291331228,72.77308843291948,-3.160365519607197,36.85124202942015,44.59089877230439,-7.739656742884243,-0.03254449399220796,0.0,-0.03254449399220796
0.3860000000000003,move_to_zero,-0.8276153114450588,-3.5554552202127994,2.7278399087677405,-69.85950531887147,-74.53493365300879,4.675428334137322,69.5209765612266,72.68313405908398,-3.162157497857379,36.78636905974843,44.53578023241279,-7.7494111726643595,-0.032727083920332536,0.0,-0.032727083920332536
0.3880000000000003,move_to_zero,-0.8223267484384076,-3.551054904346199,2.7287281559077914,-69.75911525354984,-74.44268744799268,4.683572194442846,69.42916304540536,72.59317968524847,-3.164016639843112,36.721898071740256,44.48066169252119,-7.7587636207809325,-0.032907189705235866,0.0,-0.032907189705235866
0.3900000000000003,move_to_zero,-0.8167210500493713,-3.546654588479599,2.7299335384302275,-69.6588911201206,-74.35044124297659,4.691550122855986,69.33726663931826,72.50322531141298,-3.1659586720947175,36.65778292946571,44.425543152629594,-7.767760223163883,-0.03308671967863104,0.0,-0.03308671967863104
0.3920000000000003,move_to_zero,-0.810809338790154,-3.542254272612999,2.731444933822845,-69.55889451262149,-74.25819503796048,4.699300525338984,69.24527687086515,72.41327093757748,-3.1679940667123248,36.59400345577829,44.37042461273799,-7.7764211569596995,-0.03326494867739651,0.0,-0.03326494867739651
0.3940000000000003,move_to_zero,-0.8046096982262406,-3.537853956746399,2.7332442585201586,-69.45919434764619,-74.16594883294438,4.706754485298191,69.15317356332882,72.32331656374198,-3.1701430004131623,36.53056415055165,44.31530607284639,-7.784741922294742,-0.033445492624007526,0.0,-0.033445492624007526
0.3960000000000003,move_to_zero,-0.7981361608564582,-3.5334536408797987,2.7353174800233404,-69.35983505768789,-74.07370262792828,4.713867570240396,69.06094135995133,72.23336218990647,-3.1724208299551435,36.46744181920828,44.260187532954795,-7.792745713746513,-0.03362775466086335,0.0,-0.03362775466086335
0.3980000000000003,move_to_zero,-0.7914342132023667,-3.529053325013199,2.737619111810832,-69.26085433841266,-73.98145642291219,4.720602084499532,68.96856517501354,72.14340781607098,-3.174842641057438,36.40460573906164,44.205068993063186,-7.800463254001549,-0.033810860984747886,0.0,-0.033810860984747886
0.4000000000000003,move_to_zero,-0.7845115960181958,-3.524653009146599,2.740141413128403,-69.16229437958428,-73.88921021789609,4.726915838311811,68.87605166665121,72.05345344223548,-3.177401775584272,36.34205011946307,44.14995045317159,-7.807900333708524,-0.03399266940130708,0.0,-0.03399266940130708
0.4020000000000003,move_to_zero,-0.7773927283827092,-3.520252693279999,2.74285996489729,-69.06418813802865,-73.79696401287998,4.732775874851328,68.78340799848846,71.96349906839997,-3.180091069911512,36.279729905486654,44.09483191327999,-7.815102007793335,-0.03417293311335836,0.0,-0.03417293311335836
0.4040000000000003,move_to_zero,-0.7701063512387012,-3.515852377413399,2.7457460261746975,-68.96658521675631,-73.70471780786389,4.738132591107572,68.69062053775065,71.87354469456449,-3.18292415681384,36.21762368318517,44.039713373388395,-7.822089690203228,-0.03435040538475654,0.0,-0.03435040538475654
0.4060000000000003,move_to_zero,-0.7626780449861632,-3.511452061546799,2.7487740165606356,-68.86950918516621,-73.61247160284778,4.742962417681568,68.59767466249869,71.78359032072898,-3.185915658230286,36.15571599019871,43.98459483349679,-7.828878843298085,-0.03452589126050238,0.0,-0.03452589126050238
0.4080000000000003,move_to_zero,-0.755108812693252,-3.507051745680199,2.751942932986947,-68.77297668726125,-73.52022539783168,4.747248710570432,68.5045492147288,71.69363594689347,-3.189086732164668,36.093972683654194,43.92947629360519,-7.835503609950997,-0.034701915735236975,0.0,-0.034701915735236975
0.4100000000000003,move_to_zero,-0.7474075912655801,-3.5026514298135987,2.7552438385480187,-68.67699792062885,-73.42797919281558,4.750981272186735,68.41122216850412,71.60368157305798,-3.1924594045538583,36.0323833310777,43.87435775371359,-7.841974422635886,-0.0348762160637316,0.0,-0.0348762160637316
0.4120000000000003,move_to_zero,-0.739611992257861,-3.4982511139469987,2.7586391216891375,-68.58159015369064,-73.33573298779949,4.754142834108848,68.31769592071511,71.51372719922247,-3.1960312785073626,35.970935583431945,43.81923921382199,-7.848303630390042,-0.035047137673472784,0.0,-0.035047137673472784
0.4140000000000003,move_to_zero,-0.7317336997153682,-3.493850798080399,2.7621170983650307,-68.48674315818124,-73.24348678278338,4.756743624602137,68.22397762750619,71.42377282538698,-3.199795197880789,35.90958329771614,43.76412067393039,-7.854537376214253,-0.03521544499921822,0.0,-0.03521544499921822
0.4160000000000003,move_to_zero,-0.7238067680445327,-3.4894504822137993,2.7656437141692667,-68.3924495804422,-73.15124057776728,4.758790997325079,68.13006184250757,71.33381845155148,-3.203756609043907,35.8482922678815,43.70900213403879,-7.860709866157293,-0.035379314220165596,0.0,-0.035379314220165596
0.4180000000000003,move_to_zero,-0.7158563428075291,-3.485050166347199,2.76919382353967,-68.29870172275763,-73.05899437275119,4.760292649993559,68.03596022878052,71.24386407771597,-3.2079038489354446,35.78704742026412,43.653883594147196,-7.8668361738830725,-0.035543420919074684,0.0,-0.035543420919074684
0.4200000000000003,move_to_zero,-0.7079163979419503,-3.480649850480599,2.772733452538649,-68.20551532369694,-72.96674816773508,4.761232844038133,67.94167531760726,71.15390970388047,-3.2122343862732095,35.725848373786576,43.598765054255594,-7.872916680469018,-0.035708364181603204,0.0,-0.035708364181603204
0.4220000000000003,move_to_zero,-0.6999854967853062,-3.476249534613999,2.776264037828693,-68.11289304267065,-72.87450196271898,4.761608920048332,67.84719231002875,71.06395533004498,-3.2167630200162307,35.664681125646254,43.543646514363985,-7.878965388717731,-0.03587316236048126,0.0,-0.03587316236048126
0.4240000000000003,move_to_zero,-0.6920796631688039,-3.471849218747399,2.779769555578595,-68.02083547038765,-72.78225575770288,4.761420287315232,67.75250135665124,70.97400095620948,-3.2214995995582427,35.60353084282494,43.48852797447239,-7.884997131647452,-0.03603648749809016,0.0,-0.03603648749809016
0.4260000000000003,move_to_zero,-0.6842207107941503,-3.4674489028807987,2.783228192086648,-67.92933935759005,-72.69000955268679,4.760670195096736,67.65764025718049,70.88404658237397,-3.22640632519348,35.54236619394119,43.43340943458079,-7.891043240639597,-0.036196339933222556,0.0,-0.036196339933222556
0.4280000000000003,move_to_zero,-0.6764357495614562,-3.4630485870141987,2.7866128374527426,-67.8383853994059,-72.59776334767068,4.759377948264785,67.56261876162192,70.79409220853847,-3.231473446916553,35.4811886867421,43.378290894689194,-7.897102207947093,-0.03635281602510832,0.0,-0.03635281602510832
0.4300000000000003,move_to_zero,-0.6687560114672101,-3.458648271147599,2.7898922596803892,-67.7479549121885,-72.50551714265458,4.757562230466078,67.4674428533117,70.70413783470298,-3.236694981391281,35.42000200663854,43.32317235479759,-7.903170348159051,-0.03650588373692385,0.0,-0.03650588373692385
0.43200000000000033,move_to_zero,-0.6611824334694117,-3.454247955280999,2.793065521811587,-67.65802865789081,-72.41327093763847,4.755242279747662,67.37209577254657,70.61418346086747,-3.2420876883208933,35.35877254900508,43.268053814906,-7.9092812659009155,-0.03665843206944706,0.0,-0.03665843206944706
0.43400000000000033,move_to_zero,-0.653747762034213,-3.449847639414399,2.7960998773801857,-67.56857442156978,-72.32102473262238,4.752450311052598,67.27658347752599,70.52422908703198,-3.2476456095059945,35.29750984623641,43.21293527501439,-7.915425428777979,-0.03680893633093907,0.0,-0.03680893633093907
0.43600000000000033,move_to_zero,-0.6464733705602946,-3.445447323547799,2.798973952987504,-67.47957368426604,-72.22877852760628,4.749204843340237,67.18091059082418,70.43427471319647,-3.2533641223722896,35.23618972601191,43.157816735122786,-7.921627009110878,-0.03695781282858134,0.0,-0.03695781282858134
0.43800000000000033,move_to_zero,-0.6393991126567586,-3.441047007681199,2.8016478950244403,-67.39100278790504,-72.13653232259018,4.745529534685147,67.08506759207225,70.34432033936098,-3.259252747288727,35.174801012477275,43.10269819523119,-7.927897182753917,-0.037104039647782916,0.0,-0.037104039647782916
0.44000000000000034,move_to_zero,-0.6325273183257475,-3.4366466918145986,2.804119373488851,-67.3028650547017,-72.04428611757409,4.741421062872391,66.9890739149444,70.25436596552548,-3.265292050581081,35.11331998063502,43.04757965533959,-7.93425967470457,-0.03724716327436868,0.0,-0.03724716327436868
0.44200000000000034,move_to_zero,-0.6259047173058979,-3.4322463759479986,2.8063416586421006,-67.21514921261661,-71.95203991255798,4.73689069994137,66.89293441185173,70.16441159168997,-3.271477179838243,35.051757405455895,42.992461115447995,-7.9407037099921,-0.037387379556400376,0.0,-0.037387379556400376
0.44400000000000034,move_to_zero,-0.6195576809881009,-3.427846060081399,2.808288379093298,-67.12781340623532,-71.85979370754188,4.731980301306564,66.7966723364018,70.07445721785447,-3.277784881452675,34.99009849095674,42.937342575556386,-7.947244084599646,-0.03752565276095027,0.0,-0.03752565276095027
0.44600000000000034,move_to_zero,-0.6134773757852573,-3.423445744214799,2.809968368429542,-67.04079693474382,-71.76754750252577,4.726750567781949,66.70029404199119,69.98450284401898,-3.2842088020277913,34.92834873539534,42.88222403566479,-7.953875300269452,-0.03766156346992533,0.0,-0.03766156346992533
0.44800000000000034,move_to_zero,-0.6076466677549994,-3.419045428348199,2.8113987605931996,-66.95409332385103,-71.67530129750969,4.7212079736586645,66.60380057841161,69.89454847018347,-3.290747891771858,34.866500854642226,42.82710549577319,-7.960604641130963,-0.037794264924274894,0.0,-0.037794264924274894
0.45000000000000034,move_to_zero,-0.6020600121437348,-3.414645112481599,2.812585100337864,-66.86768665263227,-71.58305509249358,4.715368439861308,66.50717939000134,69.80459409634798,-3.2974147063466432,34.80454567550742,42.77198695588159,-7.967441280374167,-0.03792559636274993,0.0,-0.03792559636274993
0.45200000000000035,move_to_zero,-0.5967326324159858,-3.410244796614999,2.813512164199013,-66.78155518703079,-71.49080888747748,4.709253700446695,66.41041268811416,69.71463972251247,-3.304227034398309,34.74245378873404,42.71686841598999,-7.974414627255953,-0.03805845059400915,0.0,-0.03805845059400915
0.45400000000000035,move_to_zero,-0.5916537215933432,-3.405844480748399,2.8141907591550557,-66.69564282230428,-71.39856268246137,4.702919860157095,66.31348433322616,69.62468534867698,-3.31120101545082,34.6802065159794,42.66174987609839,-7.981543360118991,-0.038191100440083676,0.0,-0.038191100440083676
0.45600000000000035,move_to_zero,-0.5868207533612229,-3.4014441648817986,2.814623411520576,-66.60990040417893,-71.30631647744528,4.696416073266349,66.21639465322136,69.53473097484148,-3.318336321620123,34.61777833265515,42.60663133620679,-7.98885300355164,-0.03832563274744859,0.0,-0.03832563274744859
0.45800000000000035,move_to_zero,-0.5822202767237613,-3.397043849015199,2.814823572291438,-66.52432262642375,-71.21407027242918,4.689747646005429,66.11913906284822,69.44477660100597,-3.32563753815775,34.55517268948555,42.55151279631519,-7.996340106829635,-0.03846069634105624,0.0,-0.03846069634105624
0.46000000000000035,move_to_zero,-0.5778329729053264,-3.392643533148599,2.8148105602432727,-66.43887531416236,-71.12182406741309,4.682948753250727,66.0217020511565,69.35482222717047,-3.3331201760139777,34.4923806635426,42.49639425642359,-8.004013592880995,-0.038595445753808,0.0,-0.038595445753808
0.46200000000000035,move_to_zero,-0.5736762593376536,-3.3882432172819987,2.8145669579443453,-66.35354102187958,-71.02957786239699,4.676036840517412,65.92410029065832,69.26486785333498,-3.3407675626766604,34.42942090701735,42.44127571653199,-8.011854809514638,-0.03873325345437014,0.0,-0.03873325345437014
0.46400000000000036,move_to_zero,-0.569750736698542,-3.383842901415399,2.8140921647168566,-66.26828575133591,-70.93733165738088,4.669045906044971,65.82635534685811,69.17491347949948,-3.3485581326413723,34.36630187061095,42.38615717664039,-8.019855306029442,-0.03887306908694754,0.0,-0.03887306908694754
0.46600000000000036,move_to_zero,-0.5660306991272313,-3.379442585548799,2.8134118864215676,-66.18309545185888,-70.84508545236478,4.661990000505909,65.72844249263925,69.08495910566397,-3.3565166130247235,34.303064095640735,42.331038636748794,-8.027974541108058,-0.03901313724834044,0.0,-0.03901313724834044
0.46800000000000036,move_to_zero,-0.5625107611171202,-3.375042269682199,2.812531508565079,-66.09793123255974,-70.75283924734867,4.65490801478893,65.63038804461017,68.99500473182847,-3.3646166872183016,34.23972275572151,42.275920096857185,-8.036197341135676,-0.03915318173854191,0.0,-0.03915318173854191
0.47000000000000036,move_to_zero,-0.5591737682500637,-3.3706419538155985,2.811468185565535,-66.01280181653341,-70.66059304233258,4.647791225799168,65.53218333258742,68.90505035799298,-3.3728670254055544,34.17627478198034,42.22080155696559,-8.04452677498525,-0.03929446801856025,0.0,-0.03929446801856025
0.47200000000000036,move_to_zero,-0.5560006971643856,-3.3662416379489986,2.810240940784613,-65.92766214690242,-70.56834683731647,4.640684690414048,65.43385243686438,68.81509598415747,-3.3812435472930815,34.11271141231948,42.16568301707399,-8.05297160475451,-0.03943452929851845,0.0,-0.03943452929851845
0.47400000000000037,move_to_zero,-0.5529749370601779,-3.361841322082399,2.8088663850222213,-65.84247994043683,-70.47610063230039,4.633620691863555,65.3353891680487,68.72514161032198,-3.389752442273277,34.04902387842911,42.11056447718239,-8.061540598753282,-0.03957534738505411,0.0,-0.03957534738505411
0.47600000000000037,move_to_zero,-0.5500521843667396,-3.357441006215799,2.8073888218490595,-65.75724951811607,-70.38385442728428,4.626604909168208,65.23680921918833,68.63518723648647,-3.3983780172981426,33.98519412833538,42.05544593729079,-8.070251808955412,-0.0397181797785718,0.0,-0.0397181797785718
0.47800000000000037,move_to_zero,-0.5471916279645617,-3.3530406903491987,2.8058490623846373,-65.67192308617948,-70.29160822226818,4.619685136088705,65.13812699051529,68.54523286265096,-3.4071058721356735,33.92120698364329,42.00032739739919,-8.079120413755902,-0.03986107910928656,0.0,-0.03986107910928656
0.48000000000000037,move_to_zero,-0.5443626265507816,-3.3486403744825988,2.8042777479318173,-65.58648440398699,-70.19936201725208,4.612877613265098,65.03935590964404,68.45527848881548,-3.4159225791714363,33.85706951597904,41.94520885750759,-8.088139341528546,-0.040004480552698875,0.0,-0.040004480552698875
0.4820000000000004,move_to_zero,-0.541570215137659,-3.344240058615999,2.80266984347834,-65.5009261982813,-70.10711581223597,4.606189613954669,64.94048988795333,68.36532411497997,-3.4248342270266363,33.79277943679473,41.890090317615986,-8.097310880821254,-0.040149286605207946,0.0,-0.040149286605207946
0.4840000000000004,move_to_zero,-0.5387891187743012,-3.339839742749399,2.8010506239750974,-65.415256430144,-70.01486960721988,4.599613177075881,64.84153316222562,68.27536974114447,-3.433836578918857,33.728322811671376,41.83497177772439,-8.106648966053015,-0.04029350751713655,0.0,-0.04029350751713655
0.4860000000000004,move_to_zero,-0.5359897084081356,-3.3354394268827985,2.799449718474663,-65.3294715111254,-69.92262340220378,4.593151891078378,64.74251751557624,68.18541536730898,-3.442897851732738,33.663675915545795,41.77985323783279,-8.116177322286994,-0.040434384126361585,0.0,-0.040434384126361585
0.4880000000000004,move_to_zero,-0.5331937039398948,-3.331039111016199,2.797845407076304,-65.24352747759883,-69.83037719718769,4.586849719588855,64.64347060193333,68.09546099347347,-3.4519903915401358,33.598823112003394,41.72473469794119,-8.125911585937793,-0.04057183955741135,0.0,-0.04057183955741135
0.4900000000000004,move_to_zero,-0.5303823919715366,-3.326638795149599,2.7962564031780626,-65.15743785845713,-69.73813099217158,4.580693133714448,64.54439545097627,68.00550661963797,-3.461111168661702,33.533776545179734,41.66961615804959,-8.135839612869859,-0.04070575069919898,0.0,-0.04070575069919898
0.4920000000000004,move_to_zero,-0.5275385213631808,-3.3222384792829986,2.7946999579198177,-65.07116344948675,-69.64588478715548,4.574721337668734,64.44528973729696,67.91555224580247,-3.470262508505513,33.4685441273796,41.61449761815798,-8.145953490778382,-0.040839375453842766,0.0,-0.040839375453842766
0.4940000000000004,move_to_zero,-0.5246288790227688,-3.3178381634163987,2.79320928439363,-64.98471499399818,-69.55363858213937,4.568923588141189,64.3461717907327,67.82559787196698,-3.47942608123428,33.40312925233621,41.55937907826639,-8.156249825930182,-0.04097390528394842,0.0,-0.04097390528394842
0.4960000000000004,move_to_zero,-0.5216476914917763,-3.3134378475497988,2.7917901560580223,-64.89809799869465,-69.46139237712327,4.563294378428623,64.24706079717944,67.73564349813147,-3.4885827009520227,33.337546356709396,41.50426053837479,-8.166714181665391,-0.04110951711812155,0.0,-0.04110951711812155
0.4980000000000004,move_to_zero,-0.5185793697083231,-3.309037531683199,2.790458161974876,-64.8113144157286,-69.36914617210718,4.557831756378576,64.14797629569408,67.64568912429597,-3.497712828601891,33.271839875712246,41.44914199848319,-8.177302122770946,-0.04124409687795218,0.0,-0.04124409687795218
0.5000000000000003,move_to_zero,-0.5154162590604506,-3.3046372158165984,2.789220956756148,-64.72437363675618,-69.27689996709108,4.552526330334899,64.0489174802922,67.55573475046047,-3.50681727016827,33.205999355203176,41.39402345859159,-8.188024103388415,-0.04137789152294125,0.0,-0.04137789152294125
0.5020000000000003,move_to_zero,-0.5121396165559892,-3.300236899949999,2.7880972833940096,-64.63728023324674,-69.18465376207499,4.5473735288282455,63.949891876164614,67.46578037662498,-3.5158885004603633,33.1400113794593,41.33890491869999,-8.198893539240686,-0.04150790699689974,0.0,-0.04150790699689974
0.5040000000000003,move_to_zero,-0.5087185463137227,-3.2958365840833994,2.7871180377696767,-64.55002568939733,-69.09240755705889,4.542381867661561,63.850925009902774,67.37582600278948,-3.5249009928867068,33.073876584486776,41.283786378808394,-8.209909794321618,-0.041633252086508546,0.0,-0.041633252086508546
0.5060000000000003,move_to_zero,-0.5051662807532633,-3.291436268216799,2.7862699874635357,-64.46259803010862,-69.00016135204278,4.537563321934158,63.75204266940132,67.28587162895397,-3.5338289595526504,33.007606100147385,41.228667838916785,-8.2210617387694,-0.04175319950534146,0.0,-0.04175319950534146
0.5080000000000003,move_to_zero,-0.5014894140807056,-3.287035952350199,2.7855465382694935,-64.37499336349863,-68.90791514702669,4.532921783528053,63.65323938162012,67.19591725511847,-3.5426778734983557,32.94119701814876,41.1735492990252,-8.232352280876434,-0.04186940308481726,0.0,-0.04186940308481726
0.5100000000000003,move_to_zero,-0.49768446170077,-3.2826356364835987,2.7849511747828286,-64.28720862419223,-68.81566894201057,4.528460317818343,63.55450013185794,67.10596288128298,-3.551462749425035,32.87468887080945,41.11843075913359,-8.243741888324138,-0.041980375320503034,0.0,-0.041980375320503034
0.5120000000000003,move_to_zero,-0.4937566201712898,-3.278235320616999,2.7844787004457094,-64.199251877172,-68.7234227369945,4.52417085982249,63.45583761420007,67.01600850744748,-3.5601708932474097,32.80809383733544,41.06331221924199,-8.255218381906552,-0.04208951496668908,0.0,-0.04208951496668908
0.5140000000000003,move_to_zero,-0.4896664735162021,-3.273835004750399,2.784168531234197,-64.1111573332535,-68.63117653197838,4.5200191987248814,63.35727199955419,66.92605413361197,-3.568782134057777,32.741423593964285,41.00819367935039,-8.266770085386106,-0.04219700215468399,0.0,-0.04219700215468399
0.5160000000000003,move_to_zero,-0.4854355737429292,-3.2694346888837993,2.78399911514087,-64.02293054239733,-68.53893032696229,4.515999784564954,63.25882588254306,66.83609975977649,-3.5772738772334307,32.67467978272081,40.95307513945879,-8.278395356737981,-0.04230347606807748,0.0,-0.04230347606807748
0.5180000000000003,move_to_zero,-0.48107587622727643,-3.265034373017199,2.7839584967899222,-63.934555077450824,-68.44668412194618,4.512129044495353,63.16048735626947,66.74614538594096,-3.5856580296714924,32.60788287915465,40.89795659956719,-8.290073720412536,-0.042410762745278933,0.0,-0.042410762745278933
0.5200000000000004,move_to_zero,-0.4765955097219691,-3.2606340571505994,2.78403854742863,-63.84607516468654,-68.35443791693008,4.508362752243542,63.06226387482133,66.65619101210548,-3.5939271372841475,32.54102316546053,40.84283805967559,-8.301814894215063,-0.04251897325962365,0.0,-0.04251897325962365
0.5220000000000004,move_to_zero,-0.47201790464689825,-3.2562337412839986,2.7842158366371,-63.75751467943048,-68.26219171191397,4.504677032483492,62.96417715233412,66.56623663826997,-3.602059485935847,32.47410831368835,40.78771951978399,-8.313611206095644,-0.04262498153006356,0.0,-0.04262498153006356
0.5240000000000004,move_to_zero,-0.46736342020259997,-3.251833425417399,2.784470005214799,-63.66888288056565,-68.16994550689789,4.501062626332242,62.866242547068644,66.47628226443447,-3.6100397173658294,32.40715877912708,40.732600979892396,-8.325442200765316,-0.04272879020525082,0.0,-0.04272879020525082
0.5260000000000004,move_to_zero,-0.46264176708918914,-3.2474331095507987,2.7847913424616095,-63.58019697824538,-68.07769930188178,4.497502323636397,62.768484760175454,66.38632789059898,-3.6178431304235232,32.34017941405593,40.677482440000794,-8.337303025944863,-0.04283221695845862,0.0,-0.04283221695845862
0.5280000000000004,move_to_zero,-0.4578514639323279,-3.2430327936841996,2.7851813297518717,-63.49145335342844,-67.9854530968657,4.493999743437257,62.67089924766666,66.29637351676348,-3.62547426909682,32.27316624852996,40.62236390010919,-8.349197651579232,-0.04293482702701782,0.0,-0.04293482702701782
0.5300000000000004,move_to_zero,-0.45302046019070347,-3.2386324778175983,2.785612017626895,-63.402646606148934,-67.89320689184957,4.490560285700639,62.57347534940484,66.20641914292797,-3.6329437935231326,32.20613235112403,40.56724536021758,-8.36111300909355,-0.043034356918299946,0.0,-0.043034356918299946
0.5320000000000004,move_to_zero,-0.4481576744277175,-3.2342321619509993,2.786074487523282,-63.31375474325128,-67.80096068683349,4.487205943582211,62.476215626307,66.11646476909249,-3.6402491427854855,32.13907758230424,40.512126820325996,-8.373049238021757,-0.04312981560368836,0.0,-0.04312981560368836
0.5340000000000004,move_to_zero,-0.4432844840572714,-3.229831846084399,2.7865473620271275,-63.22478453418172,-67.70871448181737,4.4839299476356445,62.379115774626484,66.02651039525698,-3.647394620630493,32.07197856688611,40.45700828043439,-8.385029713548278,-0.0432219046020475,0.0,-0.0432219046020475
0.5360000000000004,move_to_zero,-0.4384158185187921,-3.2254315302177994,2.7870157116990075,-63.135767644746785,-67.61646827680129,4.4807006320545,62.28216915437127,65.93655602142148,-3.6543868670502135,32.004844206825354,40.4018897405428,-8.397045533717446,-0.043310763305898545,0.0,-0.043310763305898545
0.5380000000000004,move_to_zero,-0.43355121074522873,-3.2210312143511985,2.7874800036059697,-63.0467293526268,-67.52422207178519,4.477492719158391,62.18536844721379,65.84660164758597,-3.6612332003721804,31.937703982551785,40.34677120065119,-8.409067218099405,-0.043397792753350685,0.0,-0.043397792753350685
0.5400000000000004,move_to_zero,-0.4286843224266124,-3.216630898484599,2.7879465760579865,-62.95768186460842,-67.4319758667691,4.474294002160676,62.088704877659254,65.75664727375049,-3.6679423960912345,31.870569119651528,40.29165266075959,-8.421083541108061,-0.04348131552121264,0.0,-0.04348131552121264
0.5420000000000004,move_to_zero,-0.42383600130740395,-3.2122305826179987,2.7883945813105946,-62.86864425173393,-67.33972966175298,4.47108541001905,61.992161274051114,65.66669289991496,-3.6745316258638496,31.80343472801749,40.23653412086799,-8.433099392850497,-0.043563055795545015,0.0,-0.043563055795545015
0.5440000000000004,move_to_zero,-0.41902711746299737,-3.207830266751399,2.788803149288402,-62.77962117261719,-67.24748345673689,4.467862284119697,61.89573770555676,65.57673852607948,-3.681000820522719,31.736296508173353,40.18141558097639,-8.445119072803038,-0.04364282737818593,0.0,-0.04364282737818593
0.5460000000000004,move_to_zero,-0.4142606136077825,-3.2034299508847988,2.7891693372770163,-62.69062707215716,-67.15523725172078,4.464610179563614,61.79942900926765,65.48678415224397,-3.6873551429763225,31.669148466247552,40.12629704108479,-8.457148574837237,-0.043720262061480025,0.0,-0.043720262061480025
0.5480000000000004,move_to_zero,-0.409555037909482,-3.1990296350181993,2.7894745971087174,-62.60167155645479,-67.06299104670468,4.461319490249892,61.703243528514044,65.39682977840847,-3.6935862498944303,31.60199038932388,40.071178501193195,-8.469188111869315,-0.04379521314923756,0.0,-0.04379521314923756
0.5500000000000004,move_to_zero,-0.4049277644471631,-3.194629319151599,2.7897015547044357,-62.51276942013236,-66.97074484168859,4.4579754215562275,61.607201872287185,65.30687540457298,-3.699673532285793,31.534823031455264,40.01605996130159,-8.481236929846329,-0.0438686995307792,0.0,-0.0438686995307792
0.5520000000000004,move_to_zero,-0.40038578903075506,-3.190229003284999,2.789843214254244,-62.42391648134428,-66.87849863667249,4.454582155328211,61.51129451676171,65.21692103073748,-3.7056265139757727,31.46768622313385,39.96094142140999,-8.493255198276142,-0.04394036347152917,0.0,-0.04394036347152917
0.5540000000000004,move_to_zero,-0.3959292358807547,-3.1858286874183985,2.789899451537644,-62.3351062234916,-66.78625243165638,4.451146208164779,61.41549362404993,65.12696665690197,-3.711473032852041,31.40058648292798,39.90582288151839,-8.505236398590409,-0.04401036303686539,0.0,-0.04401036303686539
0.5560000000000004,move_to_zero,-0.39159062493643754,-3.1814283715517995,2.789837746615362,-62.24632997838712,-66.69400622664028,4.447676248253167,61.319784974595315,65.03701228306649,-3.7172273084711733,31.33352429711092,39.850704341626795,-8.517180044515875,-0.044079116023654386,0.0,-0.044079116023654386
0.5580000000000004,move_to_zero,-0.38736531703277566,-3.1770280556851986,2.789662738652423,-62.1576083603931,-66.60176002162417,4.444151661231075,61.2241501516043,64.94705790923096,-3.7229077576266647,31.2665125295946,39.795585801735186,-8.529073272140586,-0.04414631671855458,0.0,-0.04414631671855458
0.5600000000000004,move_to_zero,-0.38326130808246744,-3.172627739818599,2.7893664317361315,-62.06895651173951,-66.50951381660808,4.44055730486857,61.12858043155543,64.85710353539548,-3.728523103840054,31.19957596851774,39.7404672618436,-8.54089129332586,-0.044213594651656474,0.0,-0.044213594651656474
0.5620000000000004,move_to_zero,-0.3792660566155054,-3.1682274239519987,2.7889613673364932,-61.98038376373629,-66.41726761159198,4.43688384785569,61.033079430595826,64.76714916155997,-3.734069730964144,31.132697212738023,39.68534872195198,-8.552651509213959,-0.044283252607292364,0.0,-0.044283252607292364
0.5640000000000004,move_to_zero,-0.37538372628749583,-3.1638271080853992,2.7884433817979035,-61.89189564510102,-66.3250214065759,4.4331257614748765,60.9376324424894,64.67719478772447,-3.739562345235072,31.065884587774246,39.630230182060394,-8.564345594286149,-0.04435767389484485,0.0,-0.04435767389484485
0.5660000000000004,move_to_zero,-0.37163108487612695,-3.159426792218799,2.787795707342672,-61.803501404553224,-66.23277520155978,4.429273797006552,60.84222793524714,64.58724041388896,-3.7450124786418257,30.9991270053128,39.575111642168785,-8.575984636855985,-0.0444374514971327,0.0,-0.0444374514971327
0.5680000000000004,move_to_zero,-0.36800401666151994,-3.155026476352199,2.7870224596906787,-61.71519397136055,-66.1405289965437,4.425335025183145,60.74686469055178,64.49728604005348,-3.7504213495017,30.932415049268382,39.51999310227719,-8.587578053008809,-0.04452203845393157,0.0,-0.04452203845393157
0.5700000000000004,move_to_zero,-0.36449122059597283,-3.1506261604855985,2.786134939889626,-61.62700319867908,-66.04828279152757,4.421279592848492,60.65155291861277,64.40733166621797,-3.7557787476051985,30.865747853246983,39.46487456238559,-8.599126709138606,-0.0446108861411694,0.0,-0.0446108861411694
0.5720000000000004,move_to_zero,-0.36107309862185116,-3.1462258446189995,2.785152745997148,-61.5389245925921,-65.95603658651149,4.417111993919384,60.556295701363325,64.31737729238247,-3.761081591019149,30.79913340537493,39.409756022493994,-8.610622617119063,-0.04470033400436123,0.0,-0.04470033400436123
0.5740000000000004,move_to_zero,-0.35774554183403107,-3.141825528752399,2.784079986918368,-61.45093708782416,-65.86379038149538,4.412853293671219,60.46108313724668,64.22742291854698,-3.766339781300296,30.7325791007417,39.354637482602385,-8.622058381860686,-0.04479080064175823,0.0,-0.04479080064175823
0.5760000000000004,move_to_zero,-0.35449196417203443,-3.137425212885799,2.7829332487137646,-61.363058454485255,-65.7715441764793,4.40848572199404,60.36591525239456,64.13746854471148,-3.7715532923169235,30.666096500947646,39.29951894271079,-8.633422441763145,-0.04488070359673243,0.0,-0.04488070359673243
0.5780000000000004,move_to_zero,-0.3513079474966528,-3.1330248970191987,2.781716949522546,-61.275276341419264,-65.67929797146319,4.404021630043921,60.27077164169145,64.04751417087597,-3.7767425291845242,30.599693305731925,39.24440040281919,-8.644707097087263,-0.04497290308766769,0.0,-0.04497290308766769
0.5800000000000004,move_to_zero,-0.3481963271190625,-3.1286245811525992,2.7804282540335366,-61.18757419371415,-65.58705176644709,4.399477572732941,60.17561831548484,63.95755979704048,-3.7819414815556414,30.53338681312964,39.189281862927594,-8.655895049797955,-0.045066260835274784,0.0,-0.045066260835274784
0.5820000000000004,move_to_zero,-0.34516279170115743,-3.1242242652859984,2.779061473584841,-61.09996159785764,-65.49480556143098,4.3948439635733365,60.0804769047818,63.867605423204964,-3.7871285184231667,30.467167033751533,39.134163323035985,-8.666996289284452,-0.04516055883098053,0.0,-0.04516055883098053
0.5840000000000004,move_to_zero,-0.34221352791441173,-3.119823949419399,2.777610421504987,-61.01242197470205,-65.40255935641488,4.390137381712833,59.98535882065598,63.777651049369474,-3.7922922287134924,30.40102619159027,39.0790447831444,-8.678018591554128,-0.045257164767101316,0.0,-0.045257164767101316
0.5860000000000004,move_to_zero,-0.33932494187990425,-3.1154236335527985,2.7760986916728942,-60.92494332834388,-65.31031315139877,4.385369823054894,59.890268515795874,63.68769667553397,-3.7974281597380966,30.334955095870548,39.02392624325278,-8.688971147382233,-0.045354663867091354,0.0,-0.045354663867091354
0.5880000000000004,move_to_zero,-0.33650819992423,-3.1110233176861994,2.7745151177619696,-60.83751018553746,-65.21806694638268,4.3805567608452165,59.79518426602525,63.597742301698474,-3.802558035673222,30.26899429729703,38.96880770336119,-8.699813406064163,-0.04545152011990658,0.0,-0.04545152011990658
0.5900000000000004,move_to_zero,-0.33374349470354814,-3.1066230018195986,2.7728795071160506,-60.75009702605357,-65.12582074136658,4.375723715313015,59.7001016916614,63.50778792786297,-3.807686236201569,30.2031279565336,38.913689163469584,-8.710561206935985,-0.04554603249135441,0.0,-0.04554603249135441
0.5920000000000004,move_to_zero,-0.3310289205966478,-3.102222685952999,2.7711937653563514,-60.66271566271432,-65.03357453635049,4.370858873636166,59.60502564268773,63.41783355402748,-3.8128079113397533,30.137361884833997,38.858570623578,-8.721208738744,-0.04563915548912384,0.0,-0.04563915548912384
0.5940000000000004,move_to_zero,-0.32836587494371705,-3.0978223700863987,2.7694564951426814,-60.575361806201705,-64.94132833133438,4.36596652513267,59.509946934660476,63.32787918019197,-3.8179322455314946,30.07171728747574,38.80345208368639,-8.731734796210649,-0.04572881295757204,0.0,-0.04572881295757204
0.5960000000000004,move_to_zero,-0.32573964115733717,-3.093422054219799,2.767682413062462,-60.48802367142742,-64.84908212631828,4.361058454890859,59.41486031884047,63.23792480635648,-3.823064487516014,30.006211830561597,38.74833354379479,-8.742121713233196,-0.04581534298941106,0.0,-0.04581534298941106
0.5980000000000004,move_to_zero,-0.32312884418133164,-3.0890217383531984,2.765892894171867,-60.4007128140739,-64.75683592130217,4.356123107228271,59.31973130351642,63.147970432520964,-3.828239129004544,29.94086515900987,38.693215003903184,-8.752349844893313,-0.045899298373983544,0.0,-0.045899298373983544
0.6000000000000004,move_to_zero,-0.32054448551025866,-3.0846214224865993,2.7640769369763407,-60.31344479892977,-64.66458971628607,4.351144917356301,59.224541034885505,63.05801605868548,-3.833475023799977,29.875673744202857,38.63809646401159,-8.762422719808733,-0.04597942498827759,0.0,-0.04597942498827759
0.6020000000000004,move_to_zero,-0.3179679389867497,-3.0802211066199985,2.762253167633249,-60.22623306045576,-64.57234351126998,4.346110450814216,59.129271549890426,62.968061684849964,-3.838790134959538,29.8106494745241,38.58297792411999,-8.772328449595886,-0.046055447104919336,0.0,-0.046055447104919336
0.6040000000000004,move_to_zero,-0.31536672942528976,-3.075820790753399,2.760454061328109,-60.139087741073915,-64.4800973062539,4.341009565179981,59.033922156731286,62.878107311014475,-3.8441851542831884,29.745794706652507,38.52785938422839,-8.782064677575885,-0.046124865370372456,0.0,-0.046124865370372456
0.6060000000000004,move_to_zero,-0.31272151424279954,-3.0714204748867986,2.758698960643999,-60.05201761538566,-64.38785110123777,4.335833485852113,58.93850402230556,62.78815293717897,-3.8496489148734128,29.68109587120312,38.47274084433679,-8.791644973133671,-0.04618853697039256,0.0,-0.04618853697039256
0.6080000000000004,move_to_zero,-0.3100237331173963,-3.067020159020199,2.756996425902803,-59.96502125936616,-64.29560489622169,4.330583636855529,58.84303963196813,62.698198563343475,-3.8551589313753425,29.616555427458408,38.417622304445196,-8.801066876986788,-0.046247902901498196,0.0,-0.046247902901498196
0.6100000000000004,move_to_zero,-0.3072861426702294,-3.0626198431535987,2.7553337004833693,-59.87808126317693,-64.20335869120557,4.325277428028635,58.74753724244371,62.60824418950797,-3.8607069470642585,29.552161888442974,38.36250376455359,-8.810341876110613,-0.04630384573006502,0.0,-0.04630384573006502
0.6120000000000004,move_to_zero,-0.30450535070432766,-3.0582195272869988,2.753714176582671,-59.79120780543276,-64.11111248618948,4.319904680756721,58.652001513729125,62.51828981567248,-3.8662883019433565,29.48788317835959,38.30738522466199,-8.819502046302404,-0.04635677840344761,0.0,-0.04635677840344761
0.6140000000000004,move_to_zero,-0.3016826138911969,-3.0538192114203984,2.7521365975292014,-59.704391261725945,-64.01886628117337,4.314475019447428,58.55641030892234,62.42833544183697,-3.871925132914633,29.423729615853865,38.25226668477038,-8.828537068916518,-0.04640665010154421,0.0,-0.04640665010154421
0.6160000000000004,move_to_zero,-0.29883444079543425,-3.0494188955537993,2.750584454758365,-59.617644211632545,-63.926620076157285,4.30897586452474,58.4607659797104,62.33838106800148,-3.87761508829108,29.359686314677184,38.197148144878796,-8.837461830201612,-0.04645305933858789,0.0,-0.04645305933858789
0.6180000000000004,move_to_zero,-0.2959447837595758,-3.045018579687199,2.749073795927623,-59.53094037459651,-63.83437387114118,4.30343349654467,58.36505881280737,62.248426694165964,-3.883367881358595,29.295736730234772,38.14202960498719,-8.846292874752415,-0.0464942207145065,0.0,-0.0464942207145065
0.6200000000000004,move_to_zero,-0.2929976162055425,-3.040618263820599,2.7476206476150566,-59.44427839315943,-63.742127666125086,4.2978492729656566,58.26929878752609,62.15847232033048,-3.889173532804392,29.23189342087712,38.08691106509559,-8.85501764421847,-0.046529248907789915,0.0,-0.046529248907789915
0.6220000000000004,move_to_zero,-0.2899881768887537,-3.0362179479539986,2.746229771065245,-59.35765239566032,-63.649881461108976,4.292229065448659,58.17348323843586,62.068517946494964,-3.8950347080591072,29.168171215373786,38.03179252520398,-8.863621309830197,-0.04655942187515222,0.0,-0.04655942187515222
0.6240000000000004,move_to_zero,-0.28691953954368893,-3.031817632087399,2.74489809254371,-59.27104559227889,-63.55763525609289,4.286589663813999,58.07760599999518,61.978563572659475,-3.9009575726642964,29.10456532243436,37.97667398531239,-8.872108662878027,-0.04658183817460378,0.0,-0.04658183817460378
0.6260000000000004,move_to_zero,-0.28381115129237483,-3.0274173162207987,2.743606164928424,-59.18446539287086,-63.46538905107678,4.280923658205914,57.98165896195862,61.888609198823964,-3.9069502368653417,29.04110818819701,37.921555445420786,-8.880447257223775,-0.04659713985865775,0.0,-0.04659713985865775
0.6280000000000004,move_to_zero,-0.28067852534314514,-3.0230170003541987,2.7423384750110538,-59.097905815955706,-63.37314284606068,4.275237030104975,57.885645695926094,61.798654824988475,-3.913009129062381,28.977823737839188,37.86643690552919,-8.888613167690004,-0.046607319050428295,0.0,-0.046607319050428295
0.6300000000000004,move_to_zero,-0.2775193939578508,-3.0186166844875983,2.7410972905297477,-59.011377877481046,-63.28089664104458,4.269518763563532,57.7895654343695,61.70870045115297,-3.9191350167834713,28.914704271073422,37.81131836563759,-8.896614094564168,-0.04661653035468615,0.0,-0.04661653035468615
0.6320000000000005,move_to_zero,-0.2743288706438306,-3.0142163686209993,2.739887497977169,-58.92488284832387,-63.18865043602848,4.2637675877046135,57.69339885401798,61.618746077317475,-3.9253472232994966,28.851769509072824,37.756199825745995,-8.90443031667317,-0.046624009692163834,0.0,-0.046624009692163834
0.6340000000000005,move_to_zero,-0.2710911153547612,-3.009816052754399,2.738724937399638,-58.838425649572315,-63.09640423101237,4.257978581440057,57.5971562369081,61.52879170348197,-3.931635466573873,28.789009733672483,37.701081285854386,-8.912071552181903,-0.04662966267216968,0.0,-0.04662966267216968
0.6360000000000005,move_to_zero,-0.2678106939281267,-3.005415736887799,2.737605042959672,-58.75198780204485,-63.00415802599628,4.252170223951431,57.500836684312986,61.43883732964648,-3.9380006453334957,28.72641667312589,37.64596274596279,-8.919546072836901,-0.0466337508344936,0.0,-0.0466337508344936
0.6380000000000005,move_to_zero,-0.2645045997418026,-3.0010154210211986,2.736510821279396,-58.665572977596455,-62.91191182098017,4.246338843383718,57.40444037833665,61.348882955810964,-3.9444425774743124,28.66397660230202,37.59084420607118,-8.92686760376916,-0.046636232964241915,0.0,-0.046636232964241915
0.6400000000000005,move_to_zero,-0.2611506447696857,-2.996615105154599,2.735464460384913,-58.57916103660466,-62.81966561596408,4.240504579359417,57.307970819985655,61.25892858197548,-3.9509577619898266,28.601682767333855,37.535725666179594,-8.934042898845739,-0.046633477393138854,0.0,-0.046633477393138854
0.6420000000000005,move_to_zero,-0.2577563845443963,-2.9922147892879987,2.7344584047436022,-58.49274688174588,-62.727419410947974,4.2346725292020935,57.21143018265366,61.168974208139964,-3.957544025486307,28.539551129878742,37.480607126287985,-8.941055996409244,-0.046626111721220116,0.0,-0.046626111721220116
0.6440000000000005,move_to_zero,-0.25434037538963916,-2.987814473421399,2.73347409803176,-58.40631863247274,-62.63517320593189,4.228854573459152,57.114803794686104,61.079019834304475,-3.964216039618371,28.4776037791414,37.42548858639639,-8.94788480725499,-0.046615161354688135,0.0,-0.046615161354688135
0.6460000000000005,move_to_zero,-0.25089659755132376,-2.9834141575547983,2.7325175600034743,-58.319856690682435,-62.54292700091577,4.223070310233332,57.01807792708329,60.989065460468964,-3.9709875333856743,28.415828444570735,37.37037004650478,-8.954541601934046,-0.04660311605577959,0.0,-0.04660311605577959
0.6480000000000005,move_to_zero,-0.2474335398162389,-2.9790138416881993,2.7315803018719604,-58.23336485097336,-62.450680795899686,4.217315944926327,56.92124773065029,60.899111086633475,-3.9778633559831817,28.35421261393677,37.31525150661319,-8.961038892676417,-0.04659092431696877,0.0,-0.04659092431696877
0.6500000000000005,move_to_zero,-0.2439380115988504,-2.9746135258215984,2.730675514222748,-58.146869187067026,-62.35843459088357,4.211565403816543,56.82431854420883,60.80915671279797,-3.9848381685891425,28.292743577262527,37.260132966721585,-8.967389389459058,-0.046577380849479065,0.0,-0.046577380849479065
0.6520000000000005,move_to_zero,-0.24042029005331908,-2.970213209954999,2.72979291990168,-58.060384177316706,-62.26618838586749,4.205804208550781,56.727304107155604,60.719202338962475,-3.9918982318068714,28.231415643628882,37.20501442682999,-8.973598783201108,-0.04656254830900052,0.0,-0.04656254830900052
0.6540000000000005,move_to_zero,-0.23689200518518347,-2.9658128940883985,2.728920888903215,-57.97393048686328,-62.17394218085137,4.200011693988088,56.630217340637046,60.62924796512697,-3.999030624489926,28.17022626278898,37.14989588693839,-8.979669624149409,-0.04654645778727561,0.0,-0.04654645778727561
