GerardoFJ/TE3001B_TEAM_3/src/s0s1_gazebo/scripts/results/P2/state.csv
t,phase,shoulder_pan_actual_deg,shoulder_pan_desired_deg,shoulder_pan_error_deg,shoulder_lift_actual_deg,shoulder_lift_desired_deg,shoulder_lift_error_deg,elbow_flex_actual_deg,elbow_flex_desired_deg,elbow_flex_error_deg,wrist_flex_actual_deg,wrist_flex_desired_deg,wrist_flex_error_deg,wrist_roll_actual_deg,wrist_roll_desired_deg,wrist_roll_error_deg
0.002,move_to_zero,-4.376474382407018,-4.4003158666,0.02384148419298171,-92.21682027023317,-92.2462050161,0.02938474586683526,89.9402674989065,89.9543738355,-0.014106336593499691,55.09939055982472,55.1185398916,-0.019149331775281553,0.0017248340730163765,0.0,0.0017248340730163765
0.004,move_to_zero,-4.329680736869491,-4.3959155507334,0.06623481386390839,-92.15913158635361,-92.15395881108391,-0.005172775269699059,89.91248495844583,89.86441946166448,0.04806549678134786,55.061821826666055,55.0634213517084,-0.0015995250423443963,0.004512048324490197,0.0,0.004512048324490197
0.006,move_to_zero,-4.260872506214668,-4.3915152348668,0.13064272865213145,-92.07420432451501,-92.0617126060678,-0.0124917184472082,89.87147053979973,89.77446508782899,0.09700545197074462,55.006516548610264,55.008302811816804,-0.001786263206540184,0.007691736692498578,0.0,0.007691736692498578
0.008,move_to_zero,-4.171003650418798,-4.3871149190002,0.21611126858140217,-91.96311948002263,-91.9694664010517,0.0063469210290776346,89.81765406059935,89.68451071399349,0.1331433466058627,54.93414363051786,54.953184271925196,-0.019040641407336523,0.010704156547240358,0.0,0.010704156547240358
0.01,move_to_zero,-4.06102062458078,-4.382714603133599,0.321693978552819,-91.8269560056343,-91.8772201960356,0.05026419040129326,89.75145698399169,89.594556340158,0.15690064383369418,54.84537449779453,54.8980657320336,-0.052691234239070184,0.013150662316880892,0.0,0.013150662316880892
0.012,move_to_zero,-3.9318801033037825,-4.378314287266999,0.44643418396321666,-91.66675729277831,-91.7849739910195,0.1182166982411843,89.67329087571812,89.50460196632248,0.16868890939564096,54.74087993444971,54.842947192142,-0.10206725769229053,0.015108352074363422,0.0,0.015108352074363422
0.014,move_to_zero,-3.7845236076551068,-4.373913971400399,0.5893903637452924,-91.48354828072299,-91.69272778600339,0.20917950528040308,89.58357232669081,89.41464759248699,0.16892473420382714,54.62129809677196,54.787828652250404,-0.1665305554784453,0.01664661377223629,0.0,0.01664661377223629
0.016,move_to_zero,-3.619907306964222,-4.369513655533799,0.7496063485695772,-91.27831110684528,-91.6004815809873,0.3221704741420268,89.48269275343827,89.32469321865149,0.1579995347867822,54.48726232011349,54.7327101123588,-0.2454477922453151,0.01781546190979779,0.0,0.01781546190979779
0.018000000000000002,move_to_zero,-3.438960310794993,-4.3651133396672,0.9261530288722071,-91.0520239006886,-91.5082353759712,0.45621147528260053,89.37104511347704,89.234738844816,0.13630626866104478,54.33937715653401,54.6775915724672,-0.33821441593318724,0.01850863098034571,0.0,0.01850863098034571
0.020000000000000004,move_to_zero,-3.2426299267199266,-4.3607130238006,1.1180830970806737,-90.80566520321129,-91.4159891709551,0.6103239677438097,89.2490410621636,89.1447844709805,0.10425659118310193,54.17825058176797,54.6224730325756,-0.44422245080762934,0.01868956556664941,0.0,0.01868956556664941
0.022000000000000006,move_to_zero,-3.031876304930893,-4.356312707934,1.3244364030031073,-90.54019316775629,-91.323742965939,0.7835497981827189,89.11706464275429,89.05483009714499,0.062234545609300085,54.00444475290813,54.567354492684,-0.5629097397758684,0.018407643992598893,0.0,0.018407643992598893
0.024000000000000007,move_to_zero,-2.807630280741354,-4.351912392067399,1.5442821113260456,-90.25657241654942,-91.2314967609229,0.974924344373477,88.97550030912596,88.96487572330949,0.010624585816472631,53.81852558291655,54.5122359527924,-0.693710369875852,0.017736470056676123,0.0,0.017736470056676123
0.02600000000000001,move_to_zero,-2.57083347196318,-4.3475120762007995,1.7766786042376195,-89.95571406255507,-91.1392505559068,1.183536493351724,88.82474423244163,88.874921349474,-0.05017711703236216,53.6210265484267,54.4571174129008,-0.8360908644741016,0.016811601808534398,0.0,0.016811601808534398
0.02800000000000001,move_to_zero,-2.322394721919632,-4.3431117603341995,2.0207170384145674,-89.63853728667857,-91.0470043508907,1.4084670642121324,88.66517497902802,88.78496697563848,-0.11979199661045925,53.41247826955209,54.401998873009205,-0.989520603457116,0.01577635582040809,0.0,0.01577635582040809
0.030000000000000013,move_to_zero,-2.0632506024928863,-4.3387114444676,2.2754608419747133,-89.30593802348669,-90.9547581458746,1.6488201223879173,88.4971624980195,88.695012601803,-0.19785010378349455,53.19340874332633,54.3468803331176,-1.1534715897912733,0.014768441093814241,0.0,0.014768441093814241
0.032000000000000015,move_to_zero,-1.7942987569629112,-4.334311128601,2.5400123716380882,-88.95880051878777,-90.8625119408585,1.903711422070728,88.32109099171407,88.60505822796749,-0.28396723625341735,52.96431205410741,54.291761793225994,-1.3274497391185847,0.013889293980190986,0.0,0.013889293980190986
0.034000000000000016,move_to_zero,-1.5164279229104973,-4.3299108127344,2.813482889823902,-88.59800751741878,-90.7702657358424,2.1722582184236217,88.1373005525015,88.51510385413198,-0.3778033016304789,52.72566668771329,54.2366432533344,-1.5109765656211067,0.01314512805710028,0.0,0.01314512805710028
0.03600000000000002,move_to_zero,-1.2304843827613237,-4.3255104968678,3.095026114106476,-88.2244116427978,-90.67801953082629,2.453607888028486,87.94614249911501,88.4251494802965,-0.47900698118148455,52.477943781596515,54.1815247134428,-1.7035809318462825,0.012515416011626604,0.0,0.012515416011626604
0.03800000000000002,move_to_zero,-0.9373341962998812,-4.3211101810012,3.3837759847013187,-87.83882491614702,-90.5857733258102,2.746948409663176,87.74797593271708,88.33519510646099,-0.5872191737439039,52.22158059659355,54.1264061735512,-1.9048255769576556,0.011981355574996772,0.0,0.011981355574996772
0.04000000000000002,move_to_zero,-0.6378373289377252,-4.316709865134599,3.6788725361968737,-87.44204697424469,-90.4935271207941,3.051480146549409,87.54313470695901,88.24524073262549,-0.7021060256664811,51.95703355191675,54.0712876336596,-2.1142540817428497,0.011527097565431582,0.0,0.011527097565431582
0.04200000000000002,move_to_zero,-0.3328272126288686,-4.312309549267999,3.9794823366391303,-87.0348624709528,-90.401280915778,3.3664184448252,87.33193439989782,88.15528635879,-0.8233519588921752,51.68471458196911,54.016169093768006,-2.3314545117988956,0.011139200127412716,0.0,0.011139200127412716
0.044000000000000025,move_to_zero,-0.05783205956359926,-4.307909233401399,4.2500771738378,-86.61805708939374,-90.3090347107619,3.6909776213681624,87.11470073692153,88.06533198495448,-0.9506312480329484,51.404997738241455,53.9610505538764,-2.556052815634942,0.010802229726411807,0.0,0.010802229726411807
0.04600000000000003,move_to_zero,0.17421104495703787,-4.3035089175348,4.477719962491838,-86.1923545500136,-90.2167885057458,4.024433955732192,86.89177838484022,87.97537761111899,-1.0835992262787641,51.118285940961556,53.905932013984796,-2.7876460730232395,0.010504446851154207,0.0,0.010504446851154207
0.04800000000000003,move_to_zero,0.36449880869465096,-4.2991086016682,4.663607410362851,-85.75846259461576,-90.1245423007297,4.366079706113936,86.66348979809358,87.88542323728349,-1.221933439189911,50.82498559590129,53.8508134740932,-3.0258278781919117,0.010236980036866706,0.0,0.010236980036866706
0.05000000000000003,move_to_zero,0.5150142673755236,-4.2947082858016,4.8097225531771235,-85.31706967179827,-90.03229609571359,4.715226423915325,86.43015361344487,87.795468863448,-1.3653152500031212,50.52550385349586,53.7956949342016,-3.270191080705736,0.009993716575469271,0.0,0.009993716575469271
0.05200000000000003,move_to_zero,0.6270130262387521,-4.290307969935,4.9173209961737525,-84.86887218342324,-89.9400498906975,5.071177707274259,86.19208450382122,87.70551448961248,-1.5134299857912623,50.22021217933079,53.740576394310004,-3.5203642149792174,0.009768875745150866,0.0,0.009768875745150866
0.054000000000000034,move_to_zero,0.7017764959376315,-4.285907654068399,4.9876841500060305,-84.41451413698412,-89.8478036856814,5.4332895486972745,85.94957861439212,87.61556011577699,-1.665981501384863,49.90945799553335,53.6854578544184,-3.7759998588850507,0.009558599309492507,0.0,0.009558599309492507
0.056000000000000036,move_to_zero,0.7406057965622568,-4.281507338201799,5.022113134764056,-83.95464845731169,-89.7555574806653,5.800909023353611,85.70292708888974,87.52560574194149,-1.822678653051753,49.59356601762809,53.6303393145268,-4.0367732968987085,0.009360230204143257,0.0,0.009360230204143257
0.05800000000000004,move_to_zero,0.7448492461330366,-4.2771070223351995,5.021956268468236,-83.48991813778629,-89.66331127564919,6.173393137862902,85.4524262832045,87.43565136810598,-1.983225084901477,49.27286707079914,53.5752207746352,-4.3023537038360615,0.00917011881326499,0.0,0.00917011881326499
0.06000000000000004,move_to_zero,0.7158573005550759,-4.2727067064685995,4.988564007023675,-83.0209154265926,-89.5710650706331,6.550149644040502,85.19834937568336,87.3456969942705,-2.1473476185871334,48.94769251896362,53.5201022347436,-4.572409715779976,0.00898541615671586,0.0,0.00898541615671586
0.06200000000000004,move_to_zero,0.6550081310017649,-4.268306390602,4.923314521603764,-82.54822451689111,-89.478818865617,6.93059434872589,84.94096559151497,87.25574262043499,-2.3147770289200196,48.61835482729281,53.464983694852,-4.84662886755919,0.008803868883009719,0.0,0.008803868883009719
0.06400000000000004,move_to_zero,0.5637103022303481,-4.2639060747354,4.827616376965747,-82.07241368215617,-89.38657266060089,7.314158978444723,84.68053448969874,87.16578824659948,-2.4852537569007325,48.285136652640126,53.4098651549604,-5.1247285023202735,0.008625083304192914,0.0,0.008625083304192914
0.06600000000000004,move_to_zero,0.4433698544561799,-4.2595057588688,4.70287561332498,-81.59403199740234,-89.29432645558481,7.700294458182469,84.41732298928324,87.075833872764,-2.6585108834807585,47.94834275554128,53.354746615068805,-5.406403859527522,0.008448649189649157,0.0,0.008448649189649157
0.06800000000000005,move_to_zero,0.29542265582561605,-4.2551054430022,4.550528098827816,-81.11363543511844,-89.2020802505687,8.08844481545026,84.15159315682918,86.98587949892848,-2.834286342099304,47.60826197880482,53.299628075177196,-5.691366096372377,0.00827412326082711,0.0,0.00827412326082711
0.07000000000000005,move_to_zero,0.1336945217540649,-4.250705127135599,4.384399648889664,-80.63175994821508,-89.1098340455526,8.478074097337526,83.88357564658398,86.89592512509299,-3.012349478509009,47.26518932486419,53.2445095352856,-5.979320210421413,0.008099799010996929,0.0,0.008099799010996929
0.07200000000000005,move_to_zero,-0.018361063947762192,-4.246304811268999,4.227943747321237,-80.14893127853776,-89.01758784053649,8.868656561998733,83.61349919684167,86.80597075125749,-3.1924715544158175,46.91941066933098,53.189390995394,-6.2699803260630205,0.007927248940331188,0.0,0.007927248940331188
0.07400000000000005,move_to_zero,-0.14769530288225646,-4.241904495402399,4.094209192520142,-79.66564022242689,-88.9253416355204,9.25970141309351,83.341589480697,86.71601637742198,-3.3744268967249837,46.57118998871239,53.1342724555024,-6.563082466790007,0.007754772523913087,0.0,0.007754772523913087
0.07600000000000005,move_to_zero,-0.2548646169182255,-4.2375041795358,3.9826395626175746,-79.18234342593843,-88.83309543050429,9.65075200456586,83.06808140101693,86.62606200358648,-3.5579806025695575,46.22075846775922,53.0791539156108,-6.858395447851585,0.0075797364598885145,0.0,0.0075797364598885145
0.07800000000000006,move_to_zero,-0.3404700298120489,-4.2331038636692,3.8926338338571513,-78.69947462479895,-88.74084922548819,10.041374600689238,82.79318596274103,86.53610762975099,-3.742921667009952,45.86835981402218,53.0240353757192,-7.155675561697024,0.007401632018653693,0.0,0.007401632018653693
0.08000000000000006,move_to_zero,-0.4058844914411536,-4.2287035478026,3.8228190563614466,-78.21743988295545,-88.6486030204721,10.431163137516648,82.51711503359577,86.44615325591549,-3.9290382223197184,45.51422123317635,52.9689168358276,-7.454695602651249,0.0072172044029415695,0.0,0.0072172044029415695
0.08200000000000006,move_to_zero,-0.4516964790466221,-4.224303231936,3.772606752889378,-77.73664233292803,-88.556356815456,10.81971448252797,82.24007732662261,86.35619888207998,-4.116121555457369,45.15855765150362,52.913798295936,-7.7552406444323765,0.007028119155094965,0.0,0.007028119155094965
0.08400000000000006,move_to_zero,-0.4785543320000476,-4.219902916069399,3.7413485840693514,-77.25747297142087,-88.4641106104399,11.206637639019036,81.9622519422471,86.26624450824448,-4.30399256599739,44.801532734503496,52.858679756044396,-8.0571470215409,0.00683312014878857,0.0,0.00683312014878857
0.08600000000000006,move_to_zero,-0.4870885620207018,-4.215502600202799,3.7284140381820974,-76.78031444934913,-88.37186440542379,11.591549956074658,81.6838214523957,86.17629013440899,-4.492468682013282,44.443369677883375,52.8035612161528,-8.360191538269426,0.006632364785856995,0.0,0.006632364785856995
0.08800000000000006,move_to_zero,-0.4779447365903499,-4.211102284336199,3.7331575477458494,-76.3055155917862,-88.2796182004077,11.974102608621493,81.40498302605883,86.08633576057349,-4.681352734514661,44.08427202300619,52.7484426762612,-8.664170653255006,0.006426140824139537,0.0,0.006426140824139537
0.09000000000000007,move_to_zero,-0.4517721126653524,-4.206701968469599,3.754929855804247,-75.83341831967914,-88.18737199539159,12.353953675712447,81.12593255484612,85.996381386738,-4.870448831891878,43.72440753847906,52.693324136369604,-8.96891659789054,0.006207712928865367,0.0,0.006207712928865367
0.09200000000000007,move_to_zero,-0.4092560178882161,-4.2023016526029995,3.793045634714783,-75.36431336739436,-88.0951257903755,12.730812422981145,80.84685983185611,85.90642701290248,-5.059567181046376,43.36394851934235,52.638205596477995,-9.274257077135644,0.005981441076147306,0.0,0.005981441076147306
0.09400000000000007,move_to_zero,-0.3511070958462998,-4.1979013367363995,3.8467942408901,-74.8984958887242,-88.0028795853594,13.104383696635196,80.56792950888263,85.81647263906699,-5.248543130184359,43.00307043956164,52.5830870565864,-9.58001661702476,0.005722847342867408,0.0,0.005722847342867408
0.09600000000000007,move_to_zero,-0.27800595750548124,-4.1935010208698,3.915495063364318,-74.43623205890007,-87.9106333803433,13.474401321443224,80.2893038708215,85.72651826523149,-5.437214394409992,42.64193964862962,52.5279685166948,-9.886028868065182,0.005458153642148713,0.0,0.005458153642148713
0.09800000000000007,move_to_zero,-0.19240737351731688,-4.1891007050032,3.996693331485883,-73.97781697680692,-87.81838717532719,13.840570198520268,80.01115505146761,85.63656389139598,-5.625408839928369,42.28072890208019,52.4728499768032,-10.192121074723005,0.005195073070293255,0.0,0.005195073070293255
0.10000000000000007,move_to_zero,-0.10762499064850733,-4.184700389136599,4.077075398488091,-73.52349179014531,-87.72614097031109,14.202649180165778,79.73361518900384,85.5466095175605,-5.812994328556655,41.91957879733608,52.4177314369116,-10.498152639575522,0.0049034711553511395,0.0,0.0049034711553511395
0.10200000000000008,move_to_zero,-0.034090410021299054,-4.180300073269999,4.1462096632487,-73.07348759041598,-87.633894765295,14.560407174879018,79.45681101076839,85.45665514372499,-5.999844132956596,41.55862147730047,52.36261289702,-10.80399141971953,0.004593828617613669,0.0,0.004593828617613669
0.10400000000000008,move_to_zero,0.022079204046394428,-4.1758997574034,4.197978961449794,-72.62802674383438,-87.5416485602789,14.913621816444518,79.18086164296939,85.36670076988948,-6.1858391269200865,41.197997061446614,52.3074943571284,-11.109497295681784,0.004273934631209748,0.0,0.004273934631209748
0.10600000000000008,move_to_zero,0.05747753961856808,-4.1714994415368,4.228976981155368,-72.18731760735999,-87.4494023552628,15.262084747902819,78.90590002432384,85.276746396054,-6.370846371730153,40.83781793295105,52.252375817236796,-11.414557884285749,0.0039393701826977694,0.0,0.0039393701826977694
0.10800000000000008,move_to_zero,0.07202686404418308,-4.1670991256702,4.239125989714383,-71.75156563627012,-87.3571561502467,15.60559051397658,78.63205964955444,85.18679202221848,-6.5547323726640485,40.47824114223418,52.1972572773452,-11.71901613511102,0.0035943763541439653,0.0,0.0035943763541439653
0.11000000000000008,move_to_zero,0.06826818244300308,-4.1626988098036,4.230966992246603,-71.32095037866809,-87.2649099452306,15.943959566562512,78.35945047592429,85.09683764838299,-6.737387172458696,40.11940341130705,52.1421387374536,-12.022735326146552,0.003276213534114333,0.0,0.003276213534114333
0.11200000000000009,move_to_zero,0.050501422300627145,-4.158298493937,4.208799916237627,-70.89565495100794,-87.17266374021449,16.277008789206548,78.08819747620346,85.00688327454749,-6.918685798344029,39.76140962468141,52.087020197562,-12.325610572880585,0.0029786065326132876,0.0,0.0029786065326132876
0.11400000000000009,move_to_zero,0.023876806116572526,-4.153898178070399,4.177774984186971,-70.4758207306483,-87.0804175351984,16.6045968045501,77.81843148193614,84.91692890071198,-7.098497418775835,39.404381472542205,52.031901657670396,-12.62752018512819,0.0026989976530755323,0.0,0.0026989976530755323
0.11600000000000009,move_to_zero,-0.006406349388554302,-4.149497862203799,4.143091512815245,-70.06159770664809,-86.9881713301823,16.92657362353421,77.5502434744979,84.82697452687648,-7.2767310523785795,39.048434970835785,51.976783117778794,-12.928348146943009,0.002436551134498971,0.0,0.002436551134498971
0.11800000000000009,move_to_zero,-0.035779875729810784,-4.145097546337199,4.109317670607388,-69.65312770311702,-86.8959251251662,17.24279742204918,77.28372990832564,84.73702015304099,-7.4532902447153475,38.69368353040847,51.9216645778872,-13.227981047478728,0.002187649525298526,0.0,0.002187649525298526
0.12000000000000009,move_to_zero,-0.06071805380592677,-4.140697230470599,4.079979176664673,-69.25053200931899,-86.80367892015009,17.553146910831103,77.01898659347682,84.64706577920549,-7.628079185728666,38.340232717222314,51.8665460379956,-13.526313320773284,0.0019492845660991891,0.0,0.0019492845660991891
0.1220000000000001,move_to_zero,-0.0796886916918098,-4.136296914603999,4.05660822291219,-68.85390571828108,-86.711432715134,17.85752699685291,76.75610430693966,84.55711140536998,-7.801007098430318,37.98815267099973,51.811427498104,-13.823274827104271,0.0017193868108145015,0.0,0.0017193868108145015
0.1240000000000001,move_to_zero,-0.09153457945777416,-4.1318965987373995,4.040362019279625,-68.46333050449059,-86.6191865101179,18.155856005627314,76.49517474810602,84.46715703153448,-7.97198228342846,37.63753244393515,51.7563089582124,-14.11877651427725,0.0014928781295864416,0.0,0.0014928781295864416
0.12600000000000008,move_to_zero,-0.09621469571578964,-4.1274962828707995,4.03128158715501,-68.07888207622243,-86.52694030510179,18.44805822887936,76.23630246232068,84.37720265769899,-8.140900195378308,37.28846011182898,51.70119041832079,-14.41273030649181,0.0012669908450175197,0.0,0.0012669908450175197
0.12800000000000009,move_to_zero,-0.09457957514378659,-4.1230959670042,4.028516391860413,-67.70063290763572,-86.4346941000857,18.73406119244997,75.97954390528106,84.28724828386348,-8.307704378582415,36.94102045863616,51.6460718784292,-14.705051419793037,0.001019984897018698,0.0,0.001019984897018698
0.1300000000000001,move_to_zero,-0.08807387958675615,-4.118695651137599,4.030621771550843,-67.32862796164574,-86.3424478950696,19.01381993342386,75.7249574075864,84.197293910028,-8.472336502441593,36.59529838284979,51.590953338537595,-14.995654955687804,0.0007459901437702379,0.0,0.0007459901437702379
0.1320000000000001,move_to_zero,-0.07846910771903255,-4.114295335270999,4.035826227551966,-66.9629358343144,-86.2502016900535,19.287265855739108,75.47258728520457,84.10733953619248,-8.634752250987916,36.25137995444851,51.535834798646,-15.28445484419749,0.00044258708932593503,0.0,0.00044258708932593503
0.1340000000000001,move_to_zero,-0.06753774205445746,-4.1098950194044,4.042357277349942,-66.60362166889513,-86.15795548503739,19.55433381614226,75.22248335779787,84.01738516235697,-8.794901804559103,35.90933677018925,51.4807162587544,-15.57137948856515,0.00012102990494985839,0.0,0.00012102990494985839
0.1360000000000001,move_to_zero,-0.05685163108482984,-4.1054947035378,4.04864307245297,-66.2507121699071,-86.0657092800213,19.81499711011419,74.97468494513167,83.92743078852149,-8.95274584338982,35.56921955355337,51.425597718862804,-15.856378165309437,-0.00020070155018183544,0.0,-0.00020070155018183544
0.1380000000000001,move_to_zero,-0.04766963842401136,-4.1010943876712,4.053424749247188,-65.90421271775739,-85.97346307500518,20.069250357247796,74.72924702986039,83.83747641468598,-9.108229384825592,35.2311085992038,51.370479178971195,-16.139370579767395,-0.0005266304821352351,0.0,-0.0005266304821352351
0.1400000000000001,move_to_zero,-0.040356314186963727,-4.0966940718046,4.056337757617636,-65.56410421276341,-85.88121686998909,20.317112657225678,74.48620991571984,83.74752204085048,-9.261312125130644,34.89508433173943,51.31536063907959,-16.42027630734016,-0.0008614551891954231,0.0,-0.0008614551891954231
0.1420000000000001,move_to_zero,-0.035127036272041334,-4.092293755938,4.057166719665958,-65.2304031328349,-85.788970664973,20.5585675321381,74.24563078432317,83.65756766701499,-9.411936882691819,34.56117962620186,51.260242099188,-16.699062472986135,-0.0011804297539486264,0.0,-0.0011804297539486264
0.1440000000000001,move_to_zero,-0.03217492965260395,-4.087893440071399,4.055718510418795,-64.90311827673284,-85.6967244599569,20.793606183224057,74.00754336943207,83.56761329317948,-9.560069923747406,34.22944454026896,51.205123559296396,-16.97567901902744,-0.001491690319555578,0.0,-0.001491690319555578
0.1460000000000001,move_to_zero,-0.031361924286305326,-4.083493124204799,4.0521311999184935,-64.58225741906841,-85.6044782549408,21.02222083587239,73.77196837479632,83.47765891934398,-9.705690544547664,33.89992701924707,51.1500050194048,-17.25007800015773,-0.001784676050370337,0.0,-0.001784676050370337
0.1480000000000001,move_to_zero,-0.032310052931068124,-4.079092808338199,4.046782755407131,-64.26781623712213,-85.51223204992469,21.244415812802558,73.53892609899086,83.38770454550848,-9.848778446517628,33.572685129144936,51.0948864795132,-17.522201350368263,-0.00206518746908054,0.0,-0.00206518746908054
0.1500000000000001,move_to_zero,-0.03451250090463136,-4.074692492471599,4.040179991566968,-63.95976914100359,-85.4199858449086,21.460216703905004,73.30844323220883,83.29775017167299,-9.989306939464157,33.24774782778867,51.0397679396216,-17.792020111832926,-0.0023335077498760357,0.0,-0.0023335077498760357
0.1520000000000001,move_to_zero,-0.03739254018287125,-4.070292176604999,4.032899636422128,-63.65808974798092,-85.32773963989249,21.66964989191157,73.08053230877614,83.20779579783748,-10.127263489061335,32.92515248649312,50.984649399729996,-18.059496913236877,-0.002592233546100701,0.0,-0.002592233546100701
0.1540000000000001,move_to_zero,-0.04042898146942966,-4.065891860738399,4.02546287926897,-63.362744921634174,-85.23549343487639,21.872748513242215,72.85519426515387,83.11784142400198,-10.262647158848111,32.60494551488591,50.929530859838394,-18.32458534495248,-0.002857302658545739,0.0,-0.002857302658545739
0.1560000000000001,move_to_zero,-0.04317625210592755,-4.061491544871799,4.018315292765872,-63.07367926403852,-85.1432472298603,22.069567965821776,72.63243008508887,83.02788705016648,-10.395456965077614,32.287142936146445,50.8744123199468,-18.587269383800354,-0.003140778877285791,0.0,-0.003140778877285791
0.1580000000000001,move_to_zero,-0.045389463292697614,-4.0570912290051995,4.011701765712502,-62.79086106952006,-85.0510010248442,22.260139955324135,72.41224881295402,82.93793267633099,-10.525683863376969,31.971783889323696,50.8192937800552,-18.8475098907315,-0.003449938029607867,0.0,-0.003449938029607867
0.16000000000000011,move_to_zero,-0.04715436144314692,-4.052690913138599,4.005536551695451,-62.51425730627667,-84.95875481982809,22.44449751355142,72.19464183122656,82.84797830249549,-10.65333647126893,31.658924676170745,50.7641752401636,-19.105250563992858,-0.003780674818772358,0.0,-0.003780674818772358
0.16200000000000012,move_to_zero,-0.048542479075657535,-4.048290597272,3.999748118196342,-62.24381239526087,-84.86650861481199,22.622696219551123,71.97961992038601,82.75802392865998,-10.778404008273966,31.348616046960338,50.709056700271994,-19.360440653311656,-0.004137933781730509,0.0,-0.004137933781730509
0.16400000000000012,move_to_zero,-0.049560664314875685,-4.0438902814054,3.994329617090524,-61.979487649023675,-84.7742624097959,22.79477476077222,71.76720250932884,82.66806955482448,-10.900867045495644,31.04088841922372,50.6539381603804,-19.61304974115668,-0.004520390331095566,0.0,-0.004520390331095566
0.16600000000000012,move_to_zero,-0.05012364054637648,-4.0394899655388,3.989366324992423,-61.72119615197691,-84.68201620477979,22.960820052802873,71.5573584192631,82.57811518098899,-11.020756761725892,30.735767303818633,50.5988196204888,-19.863052316670164,-0.004924997456260269,0.0,-0.004924997456260269
0.16800000000000012,move_to_zero,-0.05022913232922161,-4.0350896496722,3.984860517342978,-61.46887257939967,-84.5897699997637,23.12089742036403,71.35007492800561,82.48816080715348,-11.138085879147866,30.433252029058398,50.543701080597195,-20.110449051538797,-0.0053080888626383166,0.0,-0.0053080888626383166
0.17000000000000012,move_to_zero,-0.04992210912898368,-4.0306893338056,3.980767224676616,-61.22245549285366,-84.4975237947476,23.27506830189393,71.1453326024296,82.398206433318,-11.25287383088839,30.133349820833203,50.4885825407056,-20.355232719872397,-0.0056611554775687165,0.0,-0.0056611554775687165
0.17200000000000013,move_to_zero,-0.04928471153731573,-4.026289017939,3.977004306401684,-60.98188533262551,-84.4052775897315,23.423392257105988,70.94313275143686,82.30825205948248,-11.365119308045621,29.83606975582953,50.433464000814,-20.597394244984468,-0.0059855503206916955,0.0,-0.0059855503206916955
0.17400000000000013,move_to_zero,-0.04842352152698724,-4.021888702072399,3.973465180545412,-60.74709315023414,-84.31303138471539,23.565938234481244,70.74347408037188,82.21829768564697,-11.474823605275091,29.54141019202571,50.3783454609224,-20.836935268896685,-0.006287717679774782,0.0,-0.006287717679774782
0.17600000000000013,move_to_zero,-0.047463369902026625,-4.017488386205799,3.9700250163037722,-60.517987374433275,-84.22078517969929,23.702797805266016,70.54634963367444,82.12834331181149,-11.581993678137053,29.249380545845685,50.323226921030795,-21.07384637518511,-0.006572207075389453,0.0,-0.006572207075389453
0.17800000000000013,move_to_zero,-0.04651459511405823,-4.013088070339199,3.966573475225141,-60.29448509608143,-84.12853897468318,23.83405387860175,70.35174581219984,82.03838893797598,-11.686643125776143,28.959988721257574,50.2681083811392,-21.308119659881626,-0.006842593114173015,0.0,-0.006842593114173015
0.18000000000000013,move_to_zero,-0.04565001035243865,-4.008687754472599,3.9630377441201605,-60.07651573093818,-84.0362927696671,23.959777038728916,70.15964813576957,81.94843456414048,-11.788786428370912,28.673233143640612,50.2129898412476,-21.539756697606986,-0.007118196214481057,0.0,-0.007118196214481057
0.18200000000000013,move_to_zero,-0.0449164555424185,-4.004287438605999,3.9593709830635806,-59.863989057571644,-83.944046564651,24.08005750707936,69.9700410031081,81.85848019030499,-11.888439187196894,28.389108898529987,50.157871301355996,-21.76876240282601,-0.007413346519487584,0.0,-0.007413346519487584
0.18400000000000014,move_to_zero,-0.0443058629017291,-3.9998871227393993,3.95558125983767,-59.65680826080961,-83.8518003596349,24.19499209882528,69.78289638853748,81.76852581646948,-11.985629427931997,28.107619592090142,50.1027527614644,-21.99513316937426,-0.007718731009750383,0.0,-0.007718731009750383
0.18600000000000014,move_to_zero,-0.043796425073322376,-3.995486806872799,3.9516903817994766,-59.45486766463954,-83.7595541546188,24.304686489979254,69.59817838395112,81.67857144263398,-12.080393058682859,27.828770681786573,50.04763422157279,-22.21886353978622,-0.008024141263173848,0.0,-0.008024141263173848
0.18800000000000014,move_to_zero,-0.04336896950422858,-3.991086491006199,3.9477175215019704,-59.25807891477264,-83.66730794960269,24.409229034830048,69.41586885345244,81.58861706879848,-12.172748215346047,27.55256748410585,49.9925156816812,-22.439948197575347,-0.008318755884016813,0.0,-0.008318755884016813
0.19000000000000014,move_to_zero,-0.04300943775130641,-3.986686175139599,3.9436767373882926,-59.066336974939006,-83.57506174458659,24.508724769647586,69.23596358848314,81.49866269496299,-12.262699106479843,27.279017242337975,49.937397141789596,-22.65837989945162,-0.008599130865642214,0.0,-0.008599130865642214
0.19200000000000014,move_to_zero,-0.042703440902572685,-3.9822858592729995,3.939582418370427,-58.87953981536351,-83.48281553957048,24.603275724206974,69.05841191012614,81.40870832112748,-12.350296411001338,27.008119368013503,49.882278601897994,-22.87415923388449,-0.00889064024151696,0.0,-0.00889064024151696
0.19400000000000014,move_to_zero,-0.04244066555963563,-3.9778855434063995,3.935444877846764,-58.697567323992814,-83.3905693345544,24.693002010561585,68.88318762681251,81.31875394729198,-12.435566320479467,26.739867349046882,49.8271600620064,-23.087292712959517,-0.009167830793760585,0.0,-0.009167830793760585
0.19600000000000015,move_to_zero,-0.04221194381705943,-3.9734852275397996,3.93127328372274,-58.5203185119744,-83.29832312953829,24.778004617563887,68.7102551991688,81.22879957345648,-12.518544374287686,26.474240062484878,49.7720415221148,-23.29780145962992,-0.00943293458039436,0.0,-0.00943293458039436
0.19800000000000015,move_to_zero,-0.04200943905995784,-3.9690849116731997,3.9270754726132417,-58.34767507363271,-83.2060769245222,24.858401850889486,68.53958185373794,81.13884519962097,-12.599263345883031,26.211224393101862,49.716922982223196,-23.505698589121334,-0.009687416309324532,0.0,-0.009687416309324532
0.20000000000000015,move_to_zero,-0.041825673432746985,-3.9646845958065993,3.922858922373852,-58.17952762185108,-83.1138307195061,24.934303097655018,68.37113994131828,81.04889082578549,-12.677750884467216,25.950812258583102,49.661804442331594,-23.71099218374849,-0.009935285662941126,0.0,-0.009935285662941126
0.20200000000000015,move_to_zero,-0.04165504111154146,-3.9602842799399993,3.918629238828458,-58.01577261886709,-83.02158451448999,25.005811895622898,68.20491079997852,80.95893645194998,-12.75402565197146,25.692962627847646,49.60668590244,-23.913723274592353,-0.01018255173056314,0.0,-0.01018255173056314
0.20400000000000015,move_to_zero,-0.04149446614624203,-3.9558839640733994,3.914389497927157,-57.8563364512255,-82.92933830947389,25.07300185824839,68.04086675106564,80.86898207811447,-12.828115327048835,25.43767551055206,49.5515673625484,-24.113891851996335,-0.010426901545049126,0.0,-0.010426901545049126
0.20600000000000016,move_to_zero,-0.04134052767201856,-3.9514836482067994,3.910143120534781,-57.70109817309582,-82.8370921044578,25.135993931361973,67.87894579794373,80.77902770427899,-12.90008190633526,25.18493484221801,49.496448822656795,-24.311513980438786,-0.010666924694635673,0.0,-0.010666924694635673
0.20800000000000016,move_to_zero,-0.041188663430068786,-3.947083332340199,3.9058946689101304,-57.549936477653056,-82.7448458994417,25.194909421788644,67.7191232328562,80.68907333044348,-12.969950097587272,24.93472695222154,49.4413302827652,-24.506603330543662,-0.010902726357378704,0.0,-0.010902726357378704
0.21000000000000016,move_to_zero,-0.04102062214551707,-3.942683016473599,3.901662394328082,-57.402735851573404,-82.65259969442559,25.249863842852186,67.56139423009307,80.59911895660798,-13.03772472651491,24.687028685975516,49.38621174287359,-24.699183056898075,-0.011135747712017028,0.0,-0.011135747712017028
0.21200000000000016,move_to_zero,-0.04080484372946912,-3.938282700606999,3.89747785687753,-57.259393069689736,-82.5603534894095,25.300960419719758,67.4057480117077,80.50916458277248,-13.103416571064784,24.44180496682816,49.331093202982,-24.88928823615384,-0.011370650781162799,0.0,-0.011370650781162799
0.21400000000000016,move_to_zero,-0.04052968105711561,-3.933882384740399,3.893352703683284,-57.11978582250355,-82.46810728439338,25.34832146188983,67.25213368242247,80.41921020893697,-13.167076526514506,24.199023935996575,49.275974663090395,-25.07695072709382,-0.01160673943250768,0.0,-0.01160673943250768
0.21600000000000016,move_to_zero,-0.04022434934198475,-3.929482068873799,3.889257719531814,-56.98379621510304,-82.37586107937729,25.392064864274246,67.1005236010483,80.32925583510148,-13.228732234053183,23.958672968860302,49.2208561231988,-25.262183154338498,-0.011855996247355718,0.0,-0.011855996247355718
0.21800000000000017,move_to_zero,-0.03989855288643127,-3.925081753007199,3.8851832001207676,-56.85130395329068,-82.28361487436119,25.43231092107051,66.9508730510668,80.23930146126598,-13.288428410199188,23.720719316904155,49.1657375833072,-25.445018266403043,-0.012115114727842212,0.0,-0.012115114727842212
0.22000000000000017,move_to_zero,-0.03955029742384963,-3.9206814371406,3.88113113971675,-56.72220180343542,-82.1913686693451,25.469166865909678,66.80313721755151,80.14934708743048,-13.346209869878976,23.48514452634582,49.110619043415596,-25.625474517069776,-0.012388757473464454,0.0,-0.012388757473464454
0.22200000000000017,move_to_zero,-0.039187089398146746,-3.9162811212739994,3.8770940318758527,-56.596374393924634,-82.099122464329,25.502748070404365,66.65727420998368,80.05939271359497,-13.402118503611291,23.251921057348742,49.055500503523994,-25.803579446175252,-0.012654131157214863,0.0,-0.012654131157214863
0.22400000000000017,move_to_zero,-0.0387928755501459,-3.9118808054073995,3.8730879298572534,-56.473721292248605,-82.00687625931289,25.533154967064284,66.51325169496299,79.96943833975948,-13.456186644796489,23.021050477210885,49.00038196363239,-25.979331486421508,-0.012915557504378488,0.0,-0.012915557504378488
0.22600000000000017,move_to_zero,-0.03838429873315068,-3.9074804895407995,3.8690961908076487,-56.354134515357835,-81.9146300542968,25.56049553893896,66.37102626420713,79.87948396592398,-13.50845770171685,22.792485291542167,48.9452634237408,-26.15277813219863,-0.013197288641547067,0.0,-0.013197288641547067
0.22800000000000017,move_to_zero,-0.037988266975890056,-3.9030801736741996,3.8650919066983094,-56.23751771089163,-81.82238384928068,25.584866138389053,66.23056581144772,79.78952959208848,-13.558963780640767,22.566212206663376,48.890144883849196,-26.32393267718582,-0.013497892856799155,0.0,-0.013497892856799155
0.23000000000000018,move_to_zero,-0.037626672718854844,-3.898679857807599,3.8610531850887444,-56.12377663932392,-81.73013764426459,25.606361004940666,66.09182222691044,79.69957521825299,-13.60775299134255,22.34222600113407,48.8350263439576,-26.492800342823532,-0.013808753655635792,0.0,-0.013808753655635792
0.23200000000000018,move_to_zero,-0.037305791423189995,-3.8942795419409992,3.856973750517809,-56.01281719657575,-81.63789143924849,25.62507424267274,65.9547712122588,79.60962084441748,-13.654849632158673,22.120477028488825,48.77990780406599,-26.659430775577167,-0.014137398019595643,0.0,-0.014137398019595643
0.23400000000000018,move_to_zero,-0.03698706752602197,-3.8898792260743993,3.8528921585483773,-55.90452970547307,-81.5456452342324,25.64111552875933,65.81937369579975,79.51966647058198,-13.700292774782227,21.900951739545793,48.72478926417439,-26.823837524628598,-0.014444357050953344,0.0,-0.014444357050953344
0.23600000000000018,move_to_zero,-0.036678744274591155,-3.8854789102077993,3.8488001659332083,-55.79880337869358,-81.45339902921629,25.654595650522708,65.68559755249129,79.42971209674648,-13.744114544255197,21.683634329906315,48.669670724282796,-26.98603639437648,-0.014734276692155686,0.0,-0.014734276692155686
0.23800000000000018,move_to_zero,-0.03635844493886629,-3.881078594341199,3.844720149402333,-55.6955372478731,-81.36115282420019,25.66561557632709,65.55341615149214,79.33975772291097,-13.78634157141883,21.468467404305926,48.614552184391194,-27.146084780085268,-0.015009284310681013,0.0,-0.015009284310681013
0.24000000000000019,move_to_zero,-0.03602711139659837,-3.876678278474599,3.8406511670780006,-55.59462882699829,-81.2689066191841,25.674277792185805,65.42278900229076,79.24980334907549,-13.827014346784736,21.255400823849634,48.5594336444996,-27.304032820649965,-0.015271697780601804,0.0,-0.015271697780601804
0.2420000000000002,move_to_zero,-0.03569723860848872,-3.872277962607999,3.8365807239995102,-55.49599463993123,-81.17666041416798,25.68066577423675,65.29367797088648,79.15984897523998,-13.866171004353504,21.044376485099267,48.504315104608,-27.45993861950873,-0.01552220956628642,0.0,-0.01552220956628642
0.2440000000000002,move_to_zero,-0.035359515309865086,-3.867877646741399,3.832518131431534,-55.399517530235464,-81.08441420915189,25.684896678916424,65.16604498504711,79.06989460140447,-13.903849616357363,20.835343862451136,48.449196564716395,-27.61385270226526,-0.015764818383745837,0.0,-0.015764818383745837
0.2460000000000002,move_to_zero,-0.03502926170019519,-3.8634773308747987,3.8284480691746037,-55.305106806778284,-80.99216800413579,25.687061197357508,65.03982764573738,78.97994022756899,-13.940112581831613,20.628288668185483,48.39407802482479,-27.76578935663931,-0.01600395585730669,0.0,-0.01600395585730669
0.2480000000000002,move_to_zero,-0.03471271618507434,-3.8590770150081988,3.8243642988231246,-55.21268112607151,-80.8999217991197,25.687240673048187,64.91498975367946,78.88998585373348,-13.974996100054014,20.42318076813181,48.33895948493319,-27.91577871680138,-0.016252771281835377,0.0,-0.016252771281835377
0.25000000000000017,move_to_zero,-0.03441227457242717,-3.8546766991415997,3.8202644245691726,-55.12213457876109,-80.80767559410359,25.685541015342494,64.79151539016007,78.80003147989798,-14.00851608973791,20.220015400443597,48.2838409450416,-28.063825544598,-0.016499407760433557,0.0,-0.016499407760433557
0.25200000000000017,move_to_zero,-0.03410842712467222,-3.8502763832749993,3.816167956150327,-55.03338585792109,-80.71542938908749,25.6820435311664,64.66936699221095,78.71007710606249,-14.040710113851532,20.018765039490887,48.228722405149995,-28.209957365659108,-0.016744493417434662,0.0,-0.016744493417434662
0.25400000000000017,move_to_zero,-0.03380660343909341,-3.8458760674083994,3.812069463969306,-54.9463696494962,-80.62318318407138,25.67681353457518,64.54850229472929,78.62012273222697,-14.071620437497685,19.819441775327324,48.1736038652584,-28.354162089931076,-0.01699119633276744,0.0,-0.01699119633276744
0.25600000000000017,move_to_zero,-0.03350287409259916,-3.8414757515417994,3.8079728774492003,-54.860994769410084,-80.53093697905528,25.6699422096452,64.42887000196842,78.53016835839148,-14.101298356423058,19.622017946653738,48.11848532536679,-28.496467378713053,-0.017232664950336037,0.0,-0.017232664950336037
0.2580000000000002,move_to_zero,-0.033200029641819055,-3.8370754356751995,3.8038754060333804,-54.77716129982444,-80.43869077403919,25.661529474214746,64.3104233867239,78.44021398455598,-14.129790597832084,19.426469406458473,48.063366785475196,-28.636897379016723,-0.01747387352792471,0.0,-0.01747387352792471
0.2600000000000002,move_to_zero,-0.03292799751683977,-3.832675119808599,3.7997471222917594,-54.69480258279926,-80.34644456902309,25.65164198622383,64.19312088706458,78.35025961072049,-14.157138723655905,19.232781371874506,48.008248245583594,-28.77546687370909,-0.017711249604431014,0.0,-0.017711249604431014
0.2620000000000002,move_to_zero,-0.03268341515109677,-3.828274803941999,3.7955913887909025,-54.61383354118029,-80.254198364007,25.640364822826704,64.07692344433833,78.26030523688497,-14.18338179254664,19.040917408309184,47.95312970569199,-28.91221229738281,-0.01794498327633483,0.0,-0.01794498327633483
0.2640000000000002,move_to_zero,-0.032462646301768115,-3.823874488075399,3.791411841773631,-54.534184604303704,-80.16195215899089,25.627767554687182,63.96177914792205,78.17035086304948,-14.208571715127427,18.85084336794543,47.8980111658004,-29.047167797854968,-0.018175532300345305,0.0,-0.018175532300345305
0.2660000000000002,move_to_zero,-0.03225876179948389,-3.8194741722087993,3.787215410409315,-54.45578525057258,-80.06970595397479,25.613920703402208,63.84763637294089,78.08039648921398,-14.232760116273091,18.66252369969257,47.842892625908796,-29.180368926216225,-0.01840966484058182,0.0,-0.01840966484058182
0.2680000000000002,move_to_zero,-0.03206730050894646,-3.815073856342199,3.7830065558332526,-54.37857257339172,-79.97745974895868,25.598887175566958,63.73443820026841,77.99044211537847,-14.256003915110064,18.475945846606482,47.787774086017194,-29.311828239410712,-0.01865084822577495,0.0,-0.01865084822577495
0.2700000000000002,move_to_zero,-0.031880460314627226,-3.810673540475599,3.7787930801609715,-54.30247090337404,-79.8852135439426,25.58274264056856,63.62215133341688,77.90048774154299,-14.278336408126108,18.291102168044564,47.73265554612559,-29.44155337808103,-0.018892315997730405,0.0,-0.018892315997730405
0.2720000000000002,move_to_zero,-0.031682706412290616,-3.806273224608999,3.7745905181967085,-54.22743390970017,-79.79296733892649,25.56553342922632,63.51074491427665,77.81053336770748,-14.299788453430828,18.107962539982662,47.677537006234,-29.569574466251336,-0.019132104532581067,0.0,-0.019132104532581067
0.2740000000000002,move_to_zero,-0.03144682330133787,-3.801872908742399,3.770426085441061,-54.15339256706749,-79.70072113391039,25.5473285668429,63.40017440930907,77.72057899387197,-14.320404584562901,17.92647534598279,47.622418466342396,-29.695943120359605,-0.019376411900952635,0.0,-0.019376411900952635
0.2760000000000002,move_to_zero,-0.031187078783518205,-3.7974725928757986,3.7662855140922806,-54.080281650244984,-79.60847492889428,25.528193278649297,63.29040087537596,77.63062462003649,-14.340223744660527,17.746623863529802,47.567299926450794,-29.82067606292099,-0.019636226867820777,0.0,-0.019636226867820777
0.2780000000000002,move_to_zero,-0.03089534027675425,-3.7930722770091996,3.762176936732445,-54.00800306667482,-79.51622872387819,25.50822565720337,63.18137878305276,77.54067024620097,-14.359291463148217,17.568374795673872,47.5121813865592,-29.943806590885327,-0.019919446740873707,0.0,-0.019919446740873707
0.2800000000000002,move_to_zero,-0.030597337713287365,-3.7886719611425996,3.7580746234293123,-53.93650468605033,-79.42398251886209,25.487477832811763,63.07308077270913,77.45071587236548,-14.377635099656345,17.391687818657832,47.45706284666759,-30.065375028009758,-0.020230632861031737,0.0,-0.020230632861031737
0.2820000000000002,move_to_zero,-0.03032715286823757,-3.7842716452759992,3.753944492407762,-53.86574860272631,-79.331736313846,25.46598771111968,62.96547529580396,77.36076149852998,-14.39528620272602,17.21654123027769,47.401944306775995,-30.185403076498304,-0.020557253214527508,0.0,-0.020557253214527508
0.2840000000000002,move_to_zero,-0.030082784996701004,-3.7798713294093993,3.749788544412698,-53.79566866239686,-79.2394901088299,25.44382144643304,62.85853996721978,77.27080712469449,-14.412267157474709,17.042907823464038,47.34682576688439,-30.303917943420355,-0.0208982089858521,0.0,-0.0208982089858521
0.2860000000000002,move_to_zero,-0.029859498320302328,-3.7754710135427993,3.745611515222497,-53.72622599642611,-79.14724390381379,25.42101790738768,62.75223730189416,77.18085275085897,-14.428615448964813,16.87078591290543,47.29170722699279,-30.420921314087362,-0.021233224100297463,0.0,-0.021233224100297463
0.2880000000000002,move_to_zero,-0.02965322788105243,-3.7710706976761994,3.741417469795147,-53.657353721115264,-79.05499769879769,25.397643977682428,62.64653137246177,77.09089837702348,-14.444367004561705,16.700147234769513,47.2365886871012,-30.536441452331683,-0.021542510886048787,0.0,-0.021542510886048787
0.2900000000000002,move_to_zero,-0.029460606465119145,-3.766670381809599,3.7372097753444797,-53.589003059152496,-78.96275149378158,25.373748434629086,62.54139865640838,77.00094400318798,-14.4595453467796,16.530984035663835,47.181470147209595,-30.65048611154576,-0.021831174833623786,0.0,-0.021831174833623786
0.2920000000000002,move_to_zero,-0.029278601694388916,-3.762270065942999,3.73299146424861,-53.52112504994807,-78.87050528876549,25.349380238817417,62.43681296919385,76.91098962935247,-14.47417666015862,16.363289590546266,47.12635160731799,-30.763062016771727,-0.022102287684928026,0.0,-0.022102287684928026
0.2940000000000002,move_to_zero,-0.029105560894186602,-3.757869750076399,3.7287641891822125,-53.45366354539601,-78.77825908374939,25.32459553835338,62.33277221901736,76.82103525551699,-14.488263036499632,16.197045821516628,47.07123306742639,-30.874187245909763,-0.02235862260720471,0.0,-0.02235862260720471
0.2960000000000002,move_to_zero,-0.028923851566026452,-3.753469434209799,3.724545582643773,-53.38658498609961,-78.6860128787333,25.299427892633688,62.229249631836126,76.73108088168148,-14.501831249845353,16.032232685664578,47.016114527534796,-30.983881841870218,-0.022601812999581916,0.0,-0.022601812999581916
0.2980000000000002,move_to_zero,-0.02872328367154082,-3.749069118343199,3.720345834671658,-53.31984810276114,-78.59376667371718,25.27391857095604,62.1262212355189,76.64112650784598,-14.514905272327084,15.868820480224139,46.960995987643194,-31.092175507419057,-0.022836267361034026,0.0,-0.022836267361034026
0.3000000000000002,move_to_zero,-0.02849052803503913,-3.744668802476599,3.71617827444156,-53.25342209999361,-78.50152046870109,25.24809836870748,62.02365919049759,76.55117213401049,-14.527512943512896,15.706792585350525,46.90587744775159,-31.199084862401065,-0.023065472641655257,0.0,-0.023065472641655257
0.3020000000000002,move_to_zero,-0.02824457488133964,-3.740268486609999,3.712023911728659,-53.18725331115782,-78.40927426368499,25.222020952527174,61.92156300754916,76.46121776017497,-14.539654752625815,15.546149217604357,46.85075890786,-31.30460969025564,-0.02329092924810985,0.0,-0.02329092924810985
0.3040000000000002,move_to_zero,-0.027986707406316574,-3.735868170743399,3.7078814633370825,-53.12130123693048,-78.31702805866888,25.195726821738404,61.819927121654054,76.37126338633948,-14.551336264685425,15.386840149005032,46.79564036796839,-31.408800218963357,-0.023511881287078262,0.0,-0.023511881287078262
0.3060000000000002,move_to_zero,-0.027702535440471944,-3.7314678548767994,3.7037653194363274,-53.05552301180976,-78.22478185365279,25.169258841843025,61.71871650023017,76.28130901250398,-14.56259251227381,15.228842881840764,46.740521828076794,-31.51167894623603,-0.02372828277964273,0.0,-0.02372828277964273
0.3080000000000002,move_to_zero,-0.0273960744285057,-3.7270675390101995,3.699671464581694,-52.98988500689384,-78.13253564863669,25.142650641742847,61.61787944038051,76.19135463866847,-14.573475198287959,15.072146128084166,46.68540328818519,-31.61325716010103,-0.023940214168401724,0.0,-0.023940214168401724
0.3100000000000002,move_to_zero,-0.02707898495784695,-3.7226672231435995,3.6955882381857528,-52.92433586299785,-78.0402894436206,25.115953580622744,61.517385593079325,76.10140026483299,-14.584014671753664,14.91671134583417,46.6302847482936,-31.713573402459428,-0.024149176591516795,0.0,-0.024149176591516795
0.3120000000000002,move_to_zero,-0.02678133392451387,-3.718266907276999,3.691485573352485,-52.858823833687445,-77.94804323860448,25.08921940491704,61.41720323189782,76.01144589099748,-14.594242659099656,14.76249496340324,46.575166208401996,-31.812671244998754,-0.02435413776504926,0.0,-0.02435413776504926
0.3140000000000002,move_to_zero,-0.026515388386001593,-3.713866591410399,3.687351203024398,-52.79332384002642,-77.85579703358839,25.06247319356197,61.317320994717626,75.92149151716198,-14.604170522444356,14.609488496505637,46.520047668510394,-31.910559172004756,-0.02455695367696401,0.0,-0.02455695367696401
0.3160000000000002,move_to_zero,-0.026274272880015864,-3.7094662755437993,3.6831920026637834,-52.727814251712836,-77.76355082857228,25.035736576859442,61.217722083646144,75.83153714332649,-14.613815059680341,14.457665083836389,46.46492912861879,-32.0072640447824,-0.024759276906297475,0.0,-0.024759276906297475
0.3180000000000002,move_to_zero,-0.026052966626875274,-3.7050659596771993,3.679012993050324,-52.66226371465307,-77.67130462355618,25.00904090890311,61.1183778809408,75.74158276949098,-14.623204888550177,14.306992824829813,46.40981058872719,-32.10281776389738,-0.0249598425947461,0.0,-0.0249598425947461
0.32000000000000023,move_to_zero,-0.02583853575295371,-3.700665643810599,3.674827108057645,-52.596629701810606,-77.57905841854009,24.98242871672948,61.0192702585428,75.65162839565548,-14.632358137112682,14.157479645162411,46.354692048835595,-32.197212403673184,-0.025160681205787534,0.0,-0.025160681205787534
0.32200000000000023,move_to_zero,-0.025632187298136867,-3.696265327943999,3.670633140645862,-52.53086262558666,-77.48681221352399,24.955949587937333,60.920398300017496,75.56167402181998,-14.641275721802486,14.009066752349296,46.29957350894399,-32.290506756594695,-0.02536360402142871,0.0,-0.02536360402142871
0.32400000000000023,move_to_zero,-0.02541945042272632,-3.691865012077399,3.6664455616546725,-52.464928631285645,-77.3945660085079,24.92963737722225,60.82173833607593,75.47171964798449,-14.649981311908554,13.861736148986788,46.2444549690524,-32.38271882006561,-0.02556747183584653,0.0,-0.02556747183584653
0.32600000000000023,move_to_zero,-0.025186491193237345,-3.687464696210799,3.6622782050175617,-52.39883617213131,-77.30231980349178,24.903483631360473,60.72328215216493,75.38176527414898,-14.658483121984048,13.715447995304556,46.1893364291608,-32.47388843385624,-0.0257708829696548,0.0,-0.0257708829696548
0.32800000000000024,move_to_zero,-0.02495016142850921,-3.6830643803441987,3.6581142189156894,-52.332555816019244,-77.21007359847569,24.877517782456444,60.62499801392779,75.29181090031348,-14.666812886385692,13.570165610176296,46.13421788926919,-32.56405227909289,-0.02597665726518209,0.0,-0.02597665726518209
0.33000000000000024,move_to_zero,-0.024706254399746747,-3.6786640644775987,3.653957810077852,-52.26605323587939,-77.11782739345958,24.851774157580188,60.526861675816974,75.20185652647798,-14.674994850661008,13.42588193048037,46.07909934937759,-32.65321741889722,-0.026184502525768653,0.0,-0.026184502525768653
0.33200000000000024,move_to_zero,-0.02445150301393087,-3.674263748610999,3.649812245597068,-52.19929454502287,-77.02558118844348,24.82628664342061,60.428848371987705,75.11190215264247,-14.683053780654767,13.282570038350116,46.02398080948599,-32.741410771135875,-0.02639442067660261,0.0,-0.02639442067660261
0.33400000000000024,move_to_zero,-0.02420420098735746,-3.669863432744399,3.6456592317570413,-52.13224836789409,-76.93333498342739,24.801086615533293,60.33093269773686,75.02194777880699,-14.691015081070127,13.140214304436546,45.968862269594396,-32.82864796515785,-0.02660884133179205,0.0,-0.02660884133179205
0.33600000000000024,move_to_zero,-0.02396123325228512,-3.6654631168777994,3.6415018836255144,-52.064908354578236,-76.84108877841129,24.776180423833054,60.23312228834909,74.93199340497148,-14.698871116622392,12.998796049178909,45.913743729702794,-32.91494768052389,-0.02682268415460098,0.0,-0.02682268415460098
0.33800000000000024,move_to_zero,-0.023733702147063718,-3.6610628010111994,3.637329098864136,-51.99726556889703,-76.74884257339518,24.751577004498152,60.1354048734149,74.84203903113597,-14.70663415772107,12.858293613995212,45.85862518981119,-33.00033157581598,-0.027036047630417965,0.0,-0.027036047630417965
0.34000000000000025,move_to_zero,-0.023524541169709676,-3.6566624851445995,3.63313794397489,-51.92930573380669,-76.65659636837908,24.72729063457239,60.03773514750665,74.75208465730049,-14.714349509793834,12.71869287238636,45.80350664991959,-33.08481377753323,-0.027250205984066134,0.0,-0.027250205984066134
0.34200000000000025,move_to_zero,-0.023330209969139384,-3.652262169277999,3.6289319593088596,-51.86100934711241,-76.56435016336299,24.70334081625058,59.940080373958025,74.66213028346498,-14.72204990950695,12.579946430567228,45.74838811002799,-33.16844167946076,-0.02746893085426172,0.0,-0.02746893085426172
0.34400000000000025,move_to_zero,-0.023148537736801925,-3.647861853411399,3.624713315674597,-51.79234250014022,-76.47210395834688,24.679761458206656,59.842409085665466,74.57217590962948,-14.729766823964013,12.442043833646013,45.693269570136394,-33.25122573649038,-0.027711693193724282,0.0,-0.027711693193724282
0.34600000000000025,move_to_zero,-0.022977006716135347,-3.643461537544799,3.620484530828664,-51.72329853918004,-76.3798577533308,24.656559214150754,59.744712612997674,74.48222153579398,-14.737508922796309,12.304990412561715,45.63815103024479,-33.33316061768308,-0.027965543526919396,0.0,-0.027965543526919396
0.34800000000000025,move_to_zero,-0.022814207031508556,-3.6390612216781992,3.6162470146466905,-51.65386128599706,-76.28761154831469,24.633750262317626,59.64697236663503,74.39226716195847,-14.745294795323439,12.168777045457222,45.5830324903532,-33.41425544489597,-0.0282225340131851,0.0,-0.0282225340131851
0.35000000000000026,move_to_zero,-0.022659987922039253,-3.634660905811599,3.6120009178895596,-51.58402883079629,-76.19536534329859,24.611336512502298,59.54918687416083,74.30231278812298,-14.753125913962144,12.033375768893324,45.52791395046159,-33.49453818156827,-0.02848756929132873,0.0,-0.02848756929132873
0.35200000000000026,move_to_zero,-0.022513522326894127,-3.630260589944999,3.6077470676181047,-51.513797598379234,-76.10311913828248,24.589321539903246,59.45137162876524,74.21235841428748,-14.760986785522242,11.898780294095978,45.472795410569994,-33.574015116474015,-0.02876799728478643,0.0,-0.02876799728478643
0.35400000000000026,move_to_zero,-0.022373071063039214,-3.625860274078399,3.6034872030153595,-51.443146717696095,-76.01087293326638,24.56772621557029,59.353501550501335,74.12240404045198,-14.768902489950648,11.76495896700595,45.41767687067839,-33.65271790367244,-0.029036993112907663,0.0,-0.029036993112907663
0.35600000000000026,move_to_zero,-0.02223717323525193,-3.621459958211799,3.599222784976547,-51.372083999856144,-75.91862672825027,24.54654272839413,59.255546924990995,74.03244966661647,-14.776902741625477,11.631882625142321,45.36255833078679,-33.73067570564447,-0.029321956397252585,0.0,-0.029321956397252585
0.35800000000000026,move_to_zero,-0.02210489783145075,-3.6170596423451986,3.594954744513748,-51.300602756935525,-75.82638052323418,24.525777766298653,59.1575167650489,73.94249529278098,-14.784978527732072,11.49954712604768,45.307439790895195,-33.807892664847515,-0.029625550768350977,0.0,-0.029625550768350977
0.36000000000000026,move_to_zero,-0.021973624437108978,-3.6126593264785987,3.5906857020414895,-51.2287082890229,-75.7341343182181,24.5054260291952,59.05938813525743,73.85254091894548,-14.79315278368805,11.367931886401127,45.25232125100359,-33.88438936460247,-0.029953969905437323,0.0,-0.029953969905437323
0.36200000000000027,move_to_zero,-0.021844973808041897,-3.6082590106119987,3.5864140368039568,-51.15641217392931,-75.64188811320199,24.485475939272675,58.96114801630891,73.76258654510997,-14.801438528801057,11.237014422326661,45.19720271111199,-33.96018828878533,-0.030280751736820224,0.0,-0.030280751736820224
0.36400000000000027,move_to_zero,-0.021717939810643766,-3.603858694745399,3.5821407549347555,-51.083693375141706,-75.54964190818589,24.465948533044184,58.86275688514585,73.67263217127449,-14.809875286128637,11.106776894720765,45.14208417122039,-34.03530727649962,-0.03059923159923185,0.0,-0.03059923159923185
0.36600000000000027,move_to_zero,-0.021591265365555015,-3.5994583788787993,3.577867113513244,-51.01056259055073,-75.45739570316978,24.446833112619053,58.76419786268125,73.58267779743898,-14.818479934757725,10.977213300679724,45.086965631328795,-34.10975233064907,-0.030897690213296917,0.0,-0.030897690213296917
0.36800000000000027,move_to_zero,-0.021462078565832394,-3.5950580630121993,3.5735959844463667,-50.93698635869949,-75.36514949815368,24.428163139454192,58.66543983792888,73.49272342360348,-14.8272835856746,10.848309109068683,45.03184709143719,-34.183537982368506,-0.031174854216074147,0.0,-0.031174854216074147
0.3700000000000003,move_to_zero,-0.021331490219274583,-3.5906577471455994,3.569326256926325,-50.86296280353363,-75.27290329313757,24.409940489603947,58.56647277288852,73.40276904976798,-14.836296276879466,10.720036969376011,44.97672855154559,-34.25669158216958,-0.03143424903919388,0.0,-0.03143424903919388
0.3720000000000003,move_to_zero,-0.02119840124944095,-3.586257431278999,3.565059030029558,-50.78849836232042,-75.18065708812149,24.392158725801075,58.4672858304181,73.31281467593247,-14.845528845514373,10.592360841381925,44.921610011653996,-34.32924917027207,-0.03167864890576623,0.0,-0.03167864890576623
0.3740000000000003,move_to_zero,-0.021062941272909887,-3.581857115412399,3.560794174139489,-50.71358299437296,-75.08841088310538,24.37482788873242,58.36787451228657,73.22286030209698,-14.854985789810407,10.4652702974277,44.86649147176239,-34.40122117433469,-0.031909817341415285,0.0,-0.031909817341415285
0.3760000000000003,move_to_zero,-0.020922138921587282,-3.577456799545799,3.556534660624212,-50.6382255479066,-74.99616467808929,24.357939130182686,58.26824320643797,73.13290592826148,-14.864662721823507,10.338731162481851,44.81137293187079,-34.47264176938894,-0.03212779363397687,0.0,-0.03212779363397687
0.3780000000000003,move_to_zero,-0.020780442645458818,-3.573056483679199,3.5522760410337404,-50.562435832090756,-74.90391847307319,24.341482640982434,58.168377485388,73.04295155442597,-14.874574069037969,10.2127308366689,44.75625439197919,-34.54352355531029,-0.03233599080894858,0.0,-0.03233599080894858
0.3800000000000003,move_to_zero,-0.020638397144576597,-3.5686561678125988,3.548017770668022,-50.48624639598684,-74.81167226805708,24.32542587207024,58.068267911878586,72.95299718059049,-14.8847292687119,10.08722493184877,44.70113585208759,-34.61391092023882,-0.03253617621211229,0.0,-0.03253617621211229
0.3820000000000003,move_to_zero,-0.020486848580382872,-3.564255851945999,3.543769003365616,-50.40967856071517,-74.71942606304098,24.309747502325813,57.96789971176583,72.86304280675498,-14.895143094989145,9.962227748845107,44.646017312195994,-34.683789563350885,-0.032729288464926704,0.0,-0.032729288464926704
0.3840000000000003,move_to_zero,-0.02033021322603075,-3.559855536079399,3.5395253228533683,-50.332726712801595,-74.62717985802489,24.294453145223294,57.867294917594684,72.77308843291948,-14.905793515324795,9.837740814929017,44.59089877230439,-34.75315795737538,-0.032916437296091006,0.0,-0.032916437296091006
0.3860000000000003,move_to_zero,-0.020158084118165786,-3.5554552202127994,3.5352971360946337,-50.25540169488874,-74.53493365300879,24.279531958120053,57.76643551258881,72.68313405908398,-14.916698546495176,9.713750662229387,44.53578023241279,-34.8220295701834,-0.03310025849505727,0.0,-0.03310025849505727
0.3880000000000003,move_to_zero,-0.019970987955655255,-3.551054904346199,3.5310839163905436,-50.17767574783011,-74.44268744799268,24.265011700162574,57.6653020968535,72.59317968524847,-14.92787758839497,9.590239685926345,44.48066169252119,-34.89042200659485,-0.03328164830069971,0.0,-0.03328164830069971
0.3900000000000003,move_to_zero,-0.019758846823936315,-3.546654588479599,3.5268957416556628,-50.099559779414925,-74.35044124297659,24.25088146356166,57.56388279524543,72.50322531141298,-14.939342516167542,9.467169128759634,44.425543152629594,-34.95837402386996,-0.0334625160324124,0.0,-0.0334625160324124
0.3920000000000003,move_to_zero,-0.01952978220998904,-3.542254272612999,3.52272449040301,-50.02107344464658,-74.25819503796048,24.237121593313894,57.46217099628337,72.41327093757748,-14.95109994129411,9.344526904767632,44.37042461273799,-35.02589770797036,-0.03364213653317782,0.0,-0.03364213653317782
0.3940000000000003,move_to_zero,-0.019296386468913282,-3.537853956746399,3.518557570277486,-49.94224630882769,-74.16594883294438,24.22370252411669,57.36015061490556,72.32331656374198,-14.963165948836426,9.222326378827862,44.31530607284639,-35.092979694018524,-0.03382412443379693,0.0,-0.03382412443379693
0.3960000000000003,move_to_zero,-0.019063421824381196,-3.5334536408797987,3.5143902190554175,-49.86308794031943,-74.07370262792828,24.210614687608853,57.25780978811277,72.23336218990647,-14.9755524017937,9.100553343871828,44.260187532954795,-35.159634189082965,-0.03400788103249046,0.0,-0.03400788103249046
0.3980000000000003,move_to_zero,-0.018849367869515285,-3.529053325013199,3.5102039571436836,-49.78360478479189,-73.98145642291219,24.197851638120298,57.155136764909656,72.14340781607098,-14.98827105116132,8.979186456651716,44.205068993063186,-35.22588253641147,-0.034192528294293575,0.0,-0.034192528294293575
0.4000000000000003,move_to_zero,-0.018649846861281943,-3.524653009146599,3.506003162285317,-49.70381214329687,-73.88921021789609,24.18539807459922,57.0521412540809,72.05345344223548,-15.001312188154579,8.85822962791371,44.14995045317159,-35.29172082525788,-0.03437592214694791,0.0,-0.03437592214694791
0.4020000000000003,move_to_zero,-0.0184623385696438,-3.520252693279999,3.501790354710355,-49.623719443995554,-73.79696401287998,24.173244568884428,56.94883343851603,71.96349906839997,-15.014665629883936,8.737647688436258,44.09483191327999,-35.357184224843735,-0.03455781153563601,0.0,-0.03455781153563601
0.4040000000000003,move_to_zero,-0.01828496698805824,-3.515852377413399,3.497567410425341,-49.54335472757912,-73.70471780786389,24.161363080284765,56.84520332963763,71.87354469456449,-15.02834136492686,8.617429786526447,44.039713373388395,-35.42228358686195,-0.034736945031761925,0.0,-0.034736945031761925
0.4060000000000003,move_to_zero,-0.018115857572869466,-3.511452061546799,3.4933362039739295,-49.46272526037291,-73.61247160284778,24.149746342474863,56.741239136536784,71.78359032072898,-15.042351184192192,8.497570820177456,43.98459483349679,-35.487024013319335,-0.0349141234166332,0.0,-0.0349141234166332
0.4080000000000003,move_to_zero,-0.01795142038850701,-3.507051745680199,3.489100325291692,-49.381834720527955,-73.52022539783168,24.138390677303725,56.636922464580145,71.69363594689347,-15.05671348231332,8.378047042008657,43.92947629360519,-35.55142925159653,-0.03509187053031257,0.0,-0.03509187053031257
0.4100000000000003,move_to_zero,-0.01777404150448766,-3.5026514298135987,3.484877388309111,-49.30068460529412,-73.42797919281558,24.12729458752146,56.53223364391201,71.60368157305798,-15.071447929145975,8.258858413454272,43.87435775371359,-35.61549934025932,-0.035267919550722004,0.0,-0.035267919550722004
0.4120000000000003,move_to_zero,-0.017597061604002994,-3.4982511139469987,3.4806540523429956,-49.21928733785858,-73.33573298779949,24.116445649940907,56.42717723780061,71.51372719922247,-15.08654996142186,8.140002935176062,43.81923921382199,-35.679236278645924,-0.035440612229865304,0.0,-0.035440612229865304
0.4140000000000003,move_to_zero,-0.01740720408281518,-3.493850798080399,3.4764435939975837,-49.137632506586634,-73.24348678278338,24.105854276196744,56.32176173682093,71.42377282538698,-15.102011088566044,8.021444288922611,43.76412067393039,-35.74267638500778,-0.03561070921093157,0.0,-0.03561070921093157
0.4160000000000003,move_to_zero,-0.017215932099367566,-3.4894504822137993,3.4722345501144316,-49.055715162962215,-73.15124057776728,24.095525414805067,56.21598305094013,71.33381845155148,-15.117835400611348,7.903158119902568,43.70900213403879,-35.80584401413622,-0.0357763831974293,0.0,-0.0357763831974293
0.4180000000000003,move_to_zero,-0.017025010530273263,-3.485050166347199,3.4680251558169255,-48.97353403986742,-73.05899437275119,24.08546033288377,56.10985375981366,71.24386407771597,-15.134010317902309,7.785138882264697,43.653883594147196,-35.8687447118825,-0.03594230599377294,0.0,-0.03594230599377294
0.4200000000000003,move_to_zero,-0.01684345805367529,-3.480649850480599,3.463806392426924,-48.89111247868319,-72.96674816773508,24.075635689051886,56.00337792947404,71.15390970388047,-15.150531774406431,7.667395913537118,43.598765054255594,-35.93136914071847,-0.03610907331439469,0.0,-0.03610907331439469
0.4220000000000003,move_to_zero,-0.016648068856647418,-3.476249534613999,3.4596014657573515,-48.80846342430073,-72.87450196271898,24.066038538418248,55.89654203384678,71.06395533004498,-15.167413296198198,7.5499245487836735,43.543646514363985,-35.99372196558031,-0.03627570138595136,0.0,-0.03627570138595136
0.4240000000000003,move_to_zero,-0.016436820884496568,-3.471849218747399,3.4554123978629026,-48.72560074304076,-72.78225575770288,24.056655014662127,55.789337213678536,70.97400095620948,-15.184663742530944,7.432718935108206,43.48852797447239,-36.055809039364185,-0.03644086087122007,0.0,-0.03644086087122007
0.4260000000000003,move_to_zero,-0.016216146340862936,-3.4674489028807987,3.4512327565399357,-48.6425389500977,-72.69000955268679,24.047470602589087,55.681801555915776,70.88404658237397,-15.202245026458193,7.315755984583222,43.43340943458079,-36.11765344999757,-0.03660255103381879,0.0,-0.03660255103381879
0.4280000000000003,move_to_zero,-0.015998542274498196,-3.4630485870141987,3.4470500447397003,-48.55927935697909,-72.59776334767068,24.03848399069159,55.57394461870315,70.79409220853847,-15.220147589835321,7.199045047105268,43.378290894689194,-36.17924584758393,-0.0367608668305047,0.0,-0.0367608668305047
0.4300000000000003,move_to_zero,-0.01579591386539116,-3.458648271147599,3.442852357282208,-48.47582595471399,-72.50551714265458,24.029691187940593,55.465772189006955,70.70413783470298,-15.238365645696021,7.082597301012233,43.32317235479759,-36.240575053785356,-0.036915773902568894,0.0,-0.036915773902568894
0.43200000000000033,move_to_zero,-0.015596438404581109,-3.454247955280999,3.438651516876418,-48.39218263562432,-72.41327093763847,24.02108830201415,55.35726767211965,70.61418346086747,-15.256915788747818,6.966386336511068,43.268053814906,-36.30166747839493,-0.03707015979977452,0.0,-0.03707015979977452
0.43400000000000033,move_to_zero,-0.01540874735668055,-3.449847639414399,3.4344388920577185,-48.30834478301748,-72.32102473262238,24.012679949604895,55.24843619145416,70.52422908703198,-15.275792895577823,6.85042813935651,43.21293527501439,-36.36250713565788,-0.037222497047982764,0.0,-0.037222497047982764
0.43600000000000033,move_to_zero,-0.015231148974713534,-3.445447323547799,3.4302161745730855,-48.22432151629057,-72.22877852760628,24.004457011315708,55.13928204377675,70.43427471319647,-15.29499266941972,6.734704744306609,43.157816735122786,-36.423111990816174,-0.03737319964160884,0.0,-0.03737319964160884
0.43800000000000033,move_to_zero,-0.015063773262766781,-3.441047007681199,3.425983234418432,-48.1401182845912,-72.13653232259018,23.99641403799898,55.02979516173561,70.34432033936098,-15.314525177625363,6.619210749917984,43.10269819523119,-36.48348744531321,-0.037521241455558615,0.0,-0.037521241455558615
0.44000000000000034,move_to_zero,-0.014904062507901028,-3.4366466918145986,3.4217426293066975,-48.05576797986707,-72.04428611757409,23.98851813770702,54.91999487467772,70.25436596552548,-15.33437109084776,6.503927909064565,43.04757965533959,-36.543651746275025,-0.03766616991993684,0.0,-0.03766616991993684
0.44200000000000034,move_to_zero,-0.014753412320938072,-3.4322463759479986,3.4174929636270606,-47.971291175309176,-71.95203991255798,23.980748737248803,54.809885319556194,70.16441159168997,-15.354526272133775,6.388871871447511,42.992461115447995,-36.60358924400048,-0.03780817593759933,0.0,-0.03780817593759933
0.44400000000000034,move_to_zero,-0.014611633157610644,-3.427846060081399,3.4132344269237884,-47.88668128581552,-71.85979370754188,23.973112421726363,54.699487918963165,70.07445721785447,-15.374969298891308,6.274031535956333,42.937342575556386,-36.66331103960005,-0.03794822205569839,0.0,-0.03794822205569839
0.44600000000000034,move_to_zero,-0.014476117226069006,-3.423445744214799,3.40896962698873,-47.801914566287664,-71.76754750252577,23.96563293623811,54.58880659223145,69.98450284401898,-15.395696251787527,6.159415381899255,42.88222403566479,-36.72280865376553,-0.038085891718727935,0.0,-0.038085891718727935
0.44800000000000034,move_to_zero,-0.014344276640496267,-3.419045428348199,3.4047011517077026,-47.717017885999034,-71.67530129750969,23.958283411510656,54.477841730902774,69.89454847018347,-15.416706739280691,6.045019505114758,42.82710549577319,-36.78208599065843,-0.038220341322802394,0.0,-0.038220341322802394
0.45000000000000034,move_to_zero,-0.014215026836047095,-3.414645112481599,3.4004300856455516,-47.63200919302443,-71.58305509249358,23.95104589946915,54.36657987511521,69.80459409634798,-15.438014221232777,5.930837527174933,42.77198695588159,-36.84114942870666,-0.03835341090952723,0.0,-0.03835341090952723
0.45200000000000035,move_to_zero,-0.01408921319072519,-3.410244796614999,3.3961555834242736,-47.54690080677988,-71.49080888747748,23.943908080697604,54.25500217307064,69.71463972251247,-15.45963754944183,5.816842226113011,42.71686841598999,-36.90002618987698,-0.038487991357379125,0.0,-0.038487991357379125
0.45400000000000035,move_to_zero,-0.013965750854212252,-3.405844480748399,3.3918787298941866,-47.461673468086026,-71.39856268246137,23.93688921437535,54.143090038364534,69.62468534867698,-15.481595310312443,5.703015945815501,42.66174987609839,-36.95873393028289,-0.03862235755458222,0.0,-0.03862235755458222
0.45600000000000035,move_to_zero,-0.013844534503672734,-3.4014441648817986,3.387599630378126,-47.37631487589844,-71.30631647744528,23.93000160154684,54.03084119628405,69.53473097484148,-15.50388977855743,5.589333587378001,42.60663133620679,-37.01729774882879,-0.03875859713253989,0.0,-0.03875859713253989
0.45800000000000035,move_to_zero,-0.013724814347697262,-3.397043849015199,3.383319034667502,-47.29085357783163,-71.21407027242918,23.92321669459755,53.91824945971801,69.44477660100597,-15.526527141287957,5.475799187461308,42.55151279631519,-37.07571360885388,-0.038895361310075864,0.0,-0.038895361310075864
0.46000000000000035,move_to_zero,-0.013605671560724498,-3.392643533148599,3.3790378615878747,-47.205290168575495,-71.12182406741309,23.916533898837592,53.805296637377474,69.35482222717047,-15.549525589793,5.36240334031484,42.49639425642359,-37.13399091610875,-0.03903180746455627,0.0,-0.03903180746455627
0.46200000000000035,move_to_zero,-0.013489251021858375,-3.3882432172819987,3.3747539662601405,-47.11964226201809,-71.02957786239699,23.9099356003789,53.691996477464386,69.26486785333498,-15.57287137587059,5.249163732180054,42.44127571653199,-37.19211198435194,-0.03917130588928896,0.0,-0.03917130588928896
0.46400000000000036,move_to_zero,-0.013376189737568704,-3.383842901415399,3.37046671167783,-47.033911421809236,-70.93733165738088,23.903420235571645,53.578366782134616,69.17491347949948,-15.596546697364865,5.1360869462402325,42.38615717664039,-37.250070230400155,-0.039312807110069826,0.0,-0.039312807110069826
0.46600000000000036,move_to_zero,-0.01326515326370203,-3.379442585548799,3.366177432285097,-46.94811556974786,-70.84508545236478,23.896969882616922,53.464379691671006,69.08495910566397,-15.620579413992964,5.023211802451179,42.331038636748794,-37.307826834297614,-0.03945456001689867,0.0,-0.03945456001689867
0.46800000000000036,move_to_zero,-0.013156676683683127,-3.375042269682199,3.3618855929985156,-46.86225046293585,-70.75283924734867,23.890588784412827,53.350056938070395,68.99500473182847,-15.644947793758078,4.910550554555659,42.275920096857185,-37.36536954230152,-0.03959628946768382,0.0,-0.03959628946768382
0.47000000000000036,move_to_zero,-0.01305040875538099,-3.3706419538155985,3.3575915450602176,-46.77635326136005,-70.66059304233258,23.88423978097253,53.23538693968668,68.90505035799298,-15.6696634183063,4.7980978647740455,42.22080155696559,-37.42270369219155,-0.039739263169375344,0.0,-0.039739263169375344
0.47200000000000036,move_to_zero,-0.012945996947359319,-3.3662416379489986,3.353295641001639,-46.690411525280574,-70.56834683731647,23.877935312035895,53.12038857527456,68.81509598415747,-15.694707408882905,4.685841184591611,42.16568301707399,-37.47984183248238,-0.03988101656558386,0.0,-0.03988101656558386
0.47400000000000037,move_to_zero,-0.012843395278816786,-3.361841322082399,3.348997926803582,-46.60442221815985,-70.47610063230039,23.87167841414054,53.00505092872646,68.72514161032198,-15.720090681595522,4.573768010330473,42.11056447718239,-37.53679646685192,-0.04002353268760354,0.0,-0.04002353268760354
0.47600000000000037,move_to_zero,-0.01274052060519571,-3.357441006215799,3.3447004856106033,-46.51840657907693,-70.38385442728428,23.865447848207346,52.889385434964474,68.63518723648647,-15.745801801522,4.461856468740954,42.05544593729079,-37.59358946854984,-0.04016807343436222,0.0,-0.04016807343436222
0.47800000000000037,move_to_zero,-0.01263593152878687,-3.3530406903491987,3.3404047588204118,-46.43234547653835,-70.29160822226818,23.85926274572983,52.773400680965786,68.54523286265096,-15.771832181685177,4.350086419487777,42.00032739739919,-37.65024097791141,-0.04031269476791213,0.0,-0.04031269476791213
0.48000000000000037,move_to_zero,-0.012529198096553803,-3.3486403744825988,3.336111176386045,-46.346248088430805,-70.19936201725208,23.85311392882128,52.65710507866315,68.45527848881548,-15.79817341015233,4.238460141280405,41.94520885750759,-37.70674871622718,-0.040457833119006345,0.0,-0.040457833119006345
0.4820000000000004,move_to_zero,-0.012422635768086252,-3.344240058615999,3.3318174228479127,-46.26012948966068,-70.10711581223597,23.846986322575297,52.5404879352587,68.36532411497997,-15.824836179721267,4.126970425484877,41.890090317615986,-37.76311989213111,-0.040604387510195336,0.0,-0.040604387510195336
0.4840000000000004,move_to_zero,-0.012315837298763482,-3.339839742749399,3.3275239054506356,-46.174017714581275,-70.01486960721988,23.840851892638604,52.42354920652058,68.27536974114447,-15.85182053462389,4.015598181883256,41.83497177772439,-37.819373595841135,-0.040750369143298416,0.0,-0.040750369143298416
0.4860000000000004,move_to_zero,-0.012208088370360332,-3.3354394268827985,3.3232313385124383,-46.087929779166195,-69.92262340220378,23.834693623037587,52.30631572830448,68.18541536730898,-15.879099639004494,3.9043137167674122,41.77985323783279,-37.87553952106538,-0.04089301989531214,0.0,-0.04089301989531214
0.4880000000000004,move_to_zero,-0.012102620243246983,-3.331039111016199,3.318936490772952,-46.00184389543558,-69.83037719718769,23.82853330175211,52.18880892202853,68.09546099347347,-15.906652071444938,3.7930943154804155,41.72473469794119,-37.93164038246077,-0.041032256745417245,0.0,-0.041032256745417245
0.4900000000000004,move_to_zero,-0.01199899144788913,-3.326638795149599,3.3146398037017097,-45.9157895595549,-69.73813099217158,23.822341432616675,52.07102763028414,68.00550661963797,-15.934478989353828,3.6819457690642716,41.66961615804959,-37.98767038898532,-0.041167955860814155,0.0,-0.041167955860814155
0.4920000000000004,move_to_zero,-0.011896878512178084,-3.3222384792829986,3.3103416007708204,-45.82974564507786,-69.64588478715548,23.816139142077624,51.9529637712381,67.91555224580247,-15.96258847456437,3.570868266167171,41.61449761815798,-38.043629351990816,-0.041303373745438667,0.0,-0.041303373745438667
0.4940000000000004,move_to_zero,-0.011794728463710949,-3.3178381634163987,3.306043434952688,-45.74373668440012,-69.55363858213937,23.809901897739252,51.83463150625865,67.82559787196698,-15.990966365708324,3.459857848053577,41.55937907826639,-38.099521230212815,-0.0414397025642109,0.0,-0.0414397025642109
0.4960000000000004,move_to_zero,-0.011693241239185585,-3.3134378475497988,3.301744606310613,-45.65778126591676,-69.46139237712327,23.803611111206514,51.71604577690817,67.73564349813147,-16.0195977212233,3.348921155093715,41.50426053837479,-38.155339383281074,-0.041577116550957,0.0,-0.041577116550957
0.4980000000000004,move_to_zero,-0.011592156207339832,-3.309037531683199,3.297445375475859,-45.57189397387196,-69.36914617210718,23.79725219823522,51.59722182976033,67.64568912429597,-16.04846729453564,3.2380944744118696,41.44914199848319,-38.211047524071326,-0.0417135007924349,0.0,-0.0417135007924349
0.5000000000000003,move_to_zero,-0.01149175240504317,-3.3046372158165984,3.2931454634115553,-45.48609297531329,-69.27689996709108,23.790806991777792,51.4781554930254,67.55573475046047,-16.077579257435076,3.127359174553483,41.39402345859159,-38.26666428403811,-0.04184910040428719,0.0,-0.04184910040428719
0.5020000000000003,move_to_zero,-0.011391312652242181,-3.300236899949999,3.288845587297757,-45.400391118544704,-69.18465376207499,23.784262643530283,51.3588509686412,67.46578037662498,-16.106929407983777,3.016693298576895,41.33890491869999,-38.32221162012309,-0.04198092106885294,0.0,-0.04198092106885294
0.5040000000000003,move_to_zero,-0.011289205841421877,-3.2958365840833994,3.2845473782419776,-45.3147890944534,-69.09240755705889,23.77761846260549,51.23933011084001,67.37582600278948,-16.136495891949473,2.9060883800338178,41.283786378808394,-38.37769799877458,-0.042108072239191364,0.0,-0.042108072239191364
0.5060000000000003,move_to_zero,-0.011187300446520181,-3.291436268216799,3.280248967770279,-45.22928351612592,-69.00016135204278,23.770877835916863,51.11961526820596,67.28587162895397,-16.166256360748008,2.7955462114364265,41.228667838916785,-38.43312162748036,-0.04222982101550371,0.0,-0.04222982101550371
0.5080000000000003,move_to_zero,-0.01108651878220213,-3.287035952350199,3.275949433567997,-45.143875600573914,-68.90791514702669,23.76403954645277,50.999698534921286,67.19591725511847,-16.196218720197187,2.685054671880216,41.1735492990252,-38.48849462714498,-0.0423478166907536,0.0,-0.0423478166907536
0.5100000000000003,move_to_zero,-0.01098674738338491,-3.2826356364835987,3.271648889100214,-45.058566676382746,-68.81566894201057,23.75710226562783,50.879562780285795,67.10596288128298,-16.226400100997182,2.5746440331539686,41.11843075913359,-38.54378672597962,-0.04246056885823543,0.0,-0.04246056885823543
0.5120000000000003,move_to_zero,-0.010888439003203753,-3.278235320616999,3.2673468816137956,-44.97336800902425,-68.7234227369945,23.750054727970245,50.7592192159646,67.01600850744748,-16.25678929148288,2.464317155774687,41.06331221924199,-38.59899506346731,-0.04257147220339658,0.0,-0.04257147220339658
0.5140000000000003,move_to_zero,-0.010788475921617639,-3.273835004750399,3.2630465288287813,-44.888314356265504,-68.63117653197838,23.74286217571288,50.638687709447595,66.92605413361197,-16.287366424164375,2.3540767898722463,41.00819367935039,-38.654116889478146,-0.04268070896252661,0.0,-0.04268070896252661
0.5160000000000003,move_to_zero,-0.010688784852758253,-3.2694346888837993,3.258745904031041,-44.803413116998804,-68.53893032696229,23.735517209963483,50.517990083074004,66.83609975977649,-16.318109676702484,2.243915120282367,40.95307513945879,-38.70916001917642,-0.04278891253560366,0.0,-0.04278891253560366
0.5180000000000003,move_to_zero,-0.010590125106196831,-3.265034373017199,3.2544442479110023,-44.71864936416216,-68.44668412194618,23.728034757784016,50.3971136026796,66.74614538594096,-16.34903178326136,2.1338429846963614,40.89795659956719,-38.76411361487082,-0.04289790558872918,0.0,-0.04289790558872918
0.5200000000000004,move_to_zero,-0.010492739300420136,-3.2606340571505994,3.2501413178501792,-44.63406374189734,-68.35443791693008,23.720374175032738,50.2760673795945,66.65619101210548,-16.38012363251098,2.0238420977489593,40.84283805967559,-38.81899596192663,-0.04300779738304251,0.0,-0.04300779738304251
0.5220000000000004,move_to_zero,-0.010397904996741201,-3.2562337412839986,3.2458358362872572,-44.54967858822744,-68.26219171191397,23.712513123686534,50.15487440349442,66.56623663826997,-16.411362234775552,1.913911181767492,40.78771951978399,-38.8738083380165,-0.04311545901654681,0.0,-0.04311545901654681
0.5240000000000004,move_to_zero,-0.010306376416477534,-3.251833425417399,3.2415270490009216,-44.46550223982306,-68.16994550689789,23.70444326707483,50.033551359225314,66.47628226443447,-16.44273090520916,1.80406159426311,40.732600979892396,-38.928539385629286,-0.04322089125949879,0.0,-0.04322089125949879
0.5260000000000004,move_to_zero,-0.010217913549020562,-3.2474331095507987,3.2372151960017783,-44.381550062822406,-68.07769930188178,23.696149239059373,49.912125133221146,66.38632789059898,-16.47420275737783,1.6942892931130291,40.677482440000794,-38.983193146887764,-0.04332591161655714,0.0,-0.04332591161655714
0.5280000000000004,move_to_zero,-0.010131420708050962,-3.2430327936841996,3.2329013729761487,-44.29781628874398,-67.9854530968657,23.687636808121717,49.79059355074417,66.29637351676348,-16.50577996601931,1.5845812938278303,40.62236390010919,-39.03778260628136,-0.04343008691279332,0.0,-0.04343008691279332
0.5300000000000004,move_to_zero,-0.010048189542827742,-3.2386324778175983,3.2285842882747704,-44.21429331180691,-67.89320689184957,23.67891358004266,49.66894887644498,66.20641914292797,-16.53747026648299,1.47494183428743,40.56724536021758,-39.092303525930156,-0.04353115159315793,0.0,-0.04353115159315793
0.5320000000000004,move_to_zero,-0.009967818807860056,-3.2342321619509993,3.224264343143139,-44.13095816661325,-67.80096068683349,23.670002520220244,49.54719655878129,66.11646476909249,-16.5692682103112,1.3653616912958246,40.512126820325996,-39.14676512903017,-0.04362811520831546,0.0,-0.04362811520831546
0.5340000000000004,move_to_zero,-0.009890910834543541,-3.229831846084399,3.219940935249855,-44.0478132174916,-67.70871448181737,23.660901264325766,49.42533685241737,66.02651039525698,-16.60117354283961,1.255809151076354,40.45700828043439,-39.20119912935803,-0.043721677948922684,0.0,-0.043721677948922684
0.5360000000000004,move_to_zero,-0.009817476690815723,-3.2254315302177994,3.2156140535269837,-43.96488408529525,-67.61646827680129,23.651584191506032,49.303368921512444,65.93655602142148,-16.633187099909037,1.146285439306164,40.4018897405428,-39.25560430123664,-0.043811978787549194,0.0,-0.043811978787549194
0.5380000000000004,move_to_zero,-0.009746366110821763,-3.2210312143511985,3.2112848482403766,-43.88219072472851,-67.52422207178519,23.64203134705668,49.18129143020634,65.84660164758597,-16.665310217379627,1.036812395795827,40.34677120065119,-39.30995880485536,-0.04390042021837966,0.0,-0.04390042021837966
0.5400000000000004,move_to_zero,-0.009676193674516248,-3.216630898484599,3.206954704810083,-43.799740468232585,-67.4319758667691,23.63223539853651,49.05910166252995,65.75664727375049,-16.69754561122054,0.9273935349868585,40.29165266075959,-39.36425912577273,-0.0439853268418326,0.0,-0.0439853268418326
0.5420000000000004,move_to_zero,-0.009607896347311842,-3.2122305826179987,3.202622686270687,-43.7175462346479,-67.33972966175298,23.622183427105085,48.93678927559494,65.66669289991496,-16.729903624320023,0.8180166727855911,40.23653412086799,-39.4185174480824,-0.04406842096359763,0.0,-0.04406842096359763
0.5440000000000004,move_to_zero,-0.009542278303296554,-3.207830266751399,3.1982879884481026,-43.63560853508612,-67.24748345673689,23.611874921650767,48.814360908518594,65.57673852607948,-16.762377617560887,0.7086700805685097,40.18141558097639,-39.47274550040788,-0.04414951499727721,0.0,-0.04414951499727721
0.5460000000000004,move_to_zero,-0.0094786778856787,-3.2034299508847988,3.19395127299912,-43.55393664509832,-67.15523725172078,23.60130060662246,48.6918186754526,65.48678415224397,-16.79496547679137,0.5993407758632922,40.12629704108479,-39.5269562652215,-0.04422824191423172,0.0,-0.04422824191423172
0.5480000000000004,move_to_zero,-0.009417778622895537,-3.1990296350181993,3.1896118563953038,-43.47253628674655,-67.06299104670468,23.590454759958128,48.56917824796069,65.39682977840847,-16.82765153044778,0.4900216263021165,40.071178501193195,-39.58115687489108,-0.04430445409908984,0.0,-0.04430445409908984
0.5500000000000004,move_to_zero,-0.009360109217231441,-3.194629319151599,3.1852692099343676,-43.391418707174665,-66.97074484168859,23.57932613451392,48.44646800054564,65.30687540457298,-16.860407404027335,0.380706724220154,40.01605996130159,-39.63535323708144,-0.04437916986330854,0.0,-0.04437916986330854
0.5520000000000004,move_to_zero,-0.009305377920618559,-3.190229003284999,3.1809236253643802,-43.310577268458566,-66.87849863667249,23.567921368213923,48.32368595074762,65.21692103073748,-16.893235079989864,0.2714292756992227,39.96094142140999,-39.68951214571077,-0.044452032476410774,0.0,-0.044452032476410774
0.5540000000000004,move_to_zero,-0.009252829934006269,-3.1858286874183985,3.176575857484392,-43.23037974767909,-66.78625243165638,23.55587268397729,48.2002230286469,65.12696665690197,-16.926743628255068,0.1715641943402551,39.90582288151839,-39.734258687178134,-0.04452320516616473,0.0,-0.04452320516616473
0.5560000000000004,move_to_zero,-0.009204376635655464,-3.1814283715517995,3.172223994916144,-43.151241990965005,-66.69400622664028,23.54276423567528,48.075414329620116,65.03701228306649,-16.961597953446372,0.09188009049078959,39.850704341626795,-39.758824251136005,-0.044593106613562326,0.0,-0.044593106613562326
0.5580000000000004,move_to_zero,-0.009158881865593424,-3.1770280556851986,3.1678691738196054,-43.07339474913544,-66.60176002162417,23.528365272488735,47.94892815445408,64.94705790923096,-16.998129754776883,0.03813773890221636,39.795585801735186,-39.75744806283297,-0.04466143477789657,0.0,-0.04466143477789657
0.5600000000000004,move_to_zero,-0.009116473911218347,-3.172627739818599,3.1635112659073807,-42.99688075615975,-66.50951381660808,23.51263306044833,47.8207291397617,64.85710353539548,-17.03637439563378,0.011713683110622259,39.7404672618436,-39.72875357873298,-0.04472981909106827,0.0,-0.04472981909106827
0.5620000000000004,move_to_zero,-0.009075790532545373,-3.1682274239519987,3.1591516334194534,-42.92157405341216,-66.41726761159198,23.495693558179823,47.691045025696056,64.76714916155997,-17.076104135863915,0.009979234164955534,39.68534872195198,-39.67536948778702,-0.0448005636360116,0.0,-0.0448005636360116
0.5640000000000004,move_to_zero,-0.009037064186366826,-3.1638271080853992,3.1547900438990326,-42.84723603245056,-66.3250214065759,23.47778537412534,47.5602503499043,64.67719478772447,-17.116944437820173,0.02761044927127201,39.630230182060394,-39.60261973278912,-0.044876050357008326,0.0,-0.044876050357008326
0.5660000000000004,move_to_zero,-0.009001526540655459,-3.159426792218799,3.1504252656781433,-42.77357882864651,-66.23277520155978,23.45919637291327,47.42880055216238,64.58724041388896,-17.158439861726585,0.05785682897238907,39.575111642168785,-39.517254813196395,-0.04495687009857844,0.0,-0.04495687009857844
0.5680000000000004,move_to_zero,-0.008968678800643646,-3.155026476352199,3.1460577975515553,-42.70029926668487,-66.1405289965437,23.44022972985882,47.29715911054029,64.49728604005348,-17.20012692951319,0.09378256966053623,39.51999310227719,-39.42621053261666,-0.045042477819943895,0.0,-0.045042477819943895
0.5700000000000004,move_to_zero,-0.008937628044212645,-3.1506261604855985,3.141688532441386,-42.6271680775781,-66.04828279152757,23.42111471394947,47.16573944160157,64.40733166621797,-17.241592224616397,0.12924446473002157,39.46487456238559,-39.33563009765557,-0.045132328623321914,0.0,-0.045132328623321914
0.5720000000000004,move_to_zero,-0.008907056670192683,-3.1462258446189995,3.1373187879488067,-42.553989236336456,-65.95603658651149,23.40204735017503,47.03484507085949,64.31737729238247,-17.282532221522985,0.15953727707087112,39.409756022493994,-39.250218745423126,-0.045222767397066904,0.0,-0.045222767397066904
0.5740000000000004,move_to_zero,-0.008877088688892905,-3.141825528752399,3.1329484400635064,-42.48070650118834,-65.86379038149538,23.38308388030704,46.90452537587487,64.22742291854698,-17.32289754267211,0.1836491920657169,39.354637482602385,-39.17098829053667,-0.04531421677738458,0.0,-0.04531421677738458
0.5760000000000004,move_to_zero,-0.008846914634942785,-3.137425212885799,3.1285782982508565,-42.407349524627826,-65.7715441764793,23.36419465185147,46.774764636211636,64.13746854471148,-17.362703908499846,0.2017591738714094,39.29951894271079,-39.09775976883938,-0.04540509973311373,0.0,-0.04540509973311373
0.5780000000000004,move_to_zero,-0.008816829129462932,-3.1330248970191987,3.124208067889736,-42.333919244852055,-65.67929797146319,23.34537872661113,46.645526224286954,64.04751417087597,-17.401987946589017,0.21403891896830124,39.24440040281919,-39.03036148385089,-0.04549827928265368,0.0,-0.04549827928265368
0.5800000000000004,move_to_zero,-0.008787661624063432,-3.1286245811525992,3.119836919528536,-42.260412267965556,-65.58705176644709,23.326639498481534,46.516760217887914,63.95755979704048,-17.440799579152568,0.22066688085808236,39.189281862927594,-38.96861498206951,-0.04559261885585962,0.0,-0.04559261885585962
0.5820000000000004,move_to_zero,-0.00876034681008587,-3.1242242652859984,3.1154639184759123,-42.186851229989266,-65.49480556143098,23.307954331441714,46.38847331943727,63.867605423204964,-17.479132103767697,0.22179169043962665,39.134163323035985,-38.91237163259636,-0.045687901601053495,0.0,-0.045687901601053495
0.5840000000000004,move_to_zero,-0.00873572525119098,-3.119823949419399,3.111088224168208,-42.11323417656288,-65.40255935641488,23.289325179852007,46.26066147606142,63.777651049369474,-17.516989573308052,0.21756092097402308,39.0790447831444,-38.861483862170374,-0.04578549617698352,0.0,-0.04578549617698352
0.5860000000000004,move_to_zero,-0.008712243147843407,-3.1154236335527985,3.1067113904049553,-42.03956277665113,-65.31031315139877,23.270750374747642,46.13331424172331,63.68769667553397,-17.55438243381066,0.20811804987010396,39.02392624325278,-38.81580819338268,-0.045883992535308005,0.0,-0.045883992535308005
0.5880000000000004,move_to_zero,-0.008691293280977508,-3.1110233176861994,3.102332024405222,-41.96583518490416,-65.21806694638268,23.25223176147852,46.00639525014706,63.597742301698474,-17.591347051551416,0.19365364810649818,38.96880770336119,-38.775154055254696,-0.0459818542211503,0.0,-0.0459818542211503
0.5900000000000004,move_to_zero,-0.008671661576577722,-3.1066230018195986,3.097951340243021,-41.89214012880408,-65.12582074136658,23.2336806125625,45.87973193576042,63.50778792786297,-17.628055992102553,0.17675349931882847,38.913689163469584,-38.73693566415076,-0.046077384291377504,0.0,-0.046077384291377504
0.5920000000000004,move_to_zero,-0.00865372422942384,-3.102222685952999,3.0935689617235753,-41.818604761085304,-65.03357453635049,23.214969775265182,45.75315830873761,63.41783355402748,-17.66467524528987,0.1601648725645622,38.858570623578,-38.69840575101343,-0.04617153784160655,0.0,-0.04617153784160655
0.5940000000000004,move_to_zero,-0.00863805549647718,-3.0978223700863987,3.0891843145899216,-41.74531171477171,-64.94132833133438,23.196016616562666,45.62653967459711,63.32787918019197,-17.70133950559486,0.14599746430905816,38.80345208368639,-38.65745461937733,-0.046262238163731956,0.0,-0.046262238163731956
0.5960000000000004,move_to_zero,-0.008623908199628067,-3.093422054219799,3.084798146020171,-41.672269510423455,-64.84908212631828,23.176812615894825,45.49984802491021,63.23792480635648,-17.738076781446274,0.13476897059783313,38.74833354379479,-38.61356457319696,-0.046349823594376637,0.0,-0.046349823594376637
0.5980000000000004,move_to_zero,-0.00861014685428779,-3.0890217383531984,3.0804115914989105,-41.59951792577817,-64.75683592130217,23.157317995523997,45.37300970201705,63.147970432520964,-17.774960730503913,0.1272877345428716,38.693215003903184,-38.565927269360316,-0.04643484735597395,0.0,-0.04643484735597395
0.6000000000000004,move_to_zero,-0.00859830032292182,-3.0846214224865993,3.0760231221636776,-41.52707189338538,-64.66458971628607,23.13751782290069,45.246010423479,63.05801605868548,-17.812005635206482,0.12365852959198072,38.63809646401159,-38.51443793441961,-0.04651605088286811,0.0,-0.04651605088286811
0.6020000000000004,move_to_zero,-0.008587351713292049,-3.0802211066199985,3.0716337549067063,-41.454922443283486,-64.57234351126998,23.11742106798649,45.11887003037051,62.968061684849964,-17.849191654479455,0.12346277302959345,38.58297792411999,-38.45951515109039,-0.046593157577990894,0.0,-0.046593157577990894
0.6040000000000004,move_to_zero,-0.008575374315682142,-3.075820790753399,3.067245416437717,-41.38304357469417,-64.4800973062539,23.097053731559726,44.99164693833851,62.878107311014475,-17.886460372675963,0.1259066700019635,38.52785938422839,-38.40195271422643,-0.04666366820572304,0.0,-0.04666366820572304
0.6060000000000004,move_to_zero,-0.00856173910452235,-3.0714204748867986,3.0628587357822763,-41.31140183886102,-64.38785110123777,23.076449262376748,44.864420337447875,62.78815293717897,-17.923732599731096,0.1300043250698112,38.47274084433679,-38.34273651926698,-0.046728437212824256,0.0,-0.046728437212824256
0.6080000000000004,move_to_zero,-0.00854670048641184,-3.067020159020199,3.058473458533787,-41.23995633345602,-64.29560489622169,23.05564856276567,44.73727812559822,62.698198563343475,-17.96092043774525,0.13478366234466907,38.417622304445196,-38.28283864210053,-0.046788901086152614,0.0,-0.046788901086152614
0.6100000000000004,move_to_zero,-0.008532046068761491,-3.0626198431535987,3.0540877970848372,-41.168656703352944,-64.20335869120557,23.03470198785262,44.61028346375219,62.60824418950797,-17.99796072575578,0.13938411639269294,38.36250376455359,-38.223119648160896,-0.04684593550488101,0.0,-0.04684593550488101
0.6120000000000004,move_to_zero,-0.008517962880114444,-3.0582195272869988,3.049701564406884,-41.097486999783676,-64.11111248618948,23.013625486405807,44.48348159445873,62.51828981567248,-18.03480822121375,0.14314060143765742,38.30738522466199,-38.164244623224334,-0.04689994945726641,0.0,-0.04689994945726641
0.6140000000000004,move_to_zero,-0.008504907060000733,-3.0538192114203984,3.0453143043603976,-41.02644259011159,-64.01886628117337,22.99242369106178,44.35684495182128,62.42833544183697,-18.07149049001569,0.14613314481699197,38.25226668477038,-38.10613353995339,-0.04695088829002228,0.0,-0.04695088829002228
0.6160000000000004,move_to_zero,-0.008494377347903034,-3.0494188955537993,3.0409245182058964,-40.955539663114244,-63.926620076157285,22.97108041304304,44.230371323234635,62.33838106800148,-18.108009744766846,0.14841232426276166,38.197148144878796,-38.04873582061603,-0.046998345262673595,0.0,-0.046998345262673595
0.6180000000000004,move_to_zero,-0.008485071246782815,-3.045018579687199,3.036533508440416,-40.88474697312913,-63.83437387114118,22.94962689801205,44.10406166001191,62.248426694165964,-18.144365034154056,0.1497573936926714,38.14202960498719,-37.99227221129451,-0.04704053437433361,0.0,-0.04704053437433361
0.6200000000000004,move_to_zero,-0.00847586478445087,-3.040618263820599,3.032142399036148,-40.814065140681514,-63.742127666125086,22.928062525443572,43.97792581678426,62.15847232033048,-18.180546503546225,0.150151049961947,38.08691106509559,-37.93676001513364,-0.04707656930765676,0.0,-0.04707656930765676
0.6220000000000004,move_to_zero,-0.008466637397952833,-3.0362179479539986,3.0277513105560456,-40.74349554398824,-63.649881461108976,22.906385917120737,43.85195231185999,62.068517946494964,-18.216565634634975,0.14971032228164752,38.03179252520398,-37.882082202922334,-0.0471077251891386,0.0,-0.0471077251891386
0.6240000000000004,move_to_zero,-0.008457834575131948,-3.031817632087399,3.023359797512267,-40.67303236510131,-63.55763525609289,22.88460289099158,43.72612034574196,61.978563572659475,-18.252443226917514,0.14861903598708381,37.97667398531239,-37.828054949325306,-0.04713109692531993,0.0,-0.04713109692531993
0.6260000000000004,move_to_zero,-0.008451033050476725,-3.0274173162207987,3.018966283170322,-40.60269436067873,-63.46538905107678,22.862694690398044,43.600405138025714,61.888609198823964,-18.28820406079825,0.14714518433235052,37.921555445420786,-37.774410261088434,-0.04714732074439888,0.0,-0.04714732074439888
0.6280000000000004,move_to_zero,-0.00844719393497441,-3.0230170003541987,3.014569806419224,-40.53248779708888,-63.37314284606068,22.840655048971797,43.474793627892105,61.798654824988475,-18.32386119709637,0.14554124856294465,37.86643690552919,-37.72089565696625,-0.047158383876412024,0.0,-0.047158383876412024
0.6300000000000004,move_to_zero,-0.008445712682326677,-3.0186166844875983,3.010170971805272,-40.46243164048103,-63.28089664104458,22.81846500056355,43.34927154545114,61.70870045115297,-18.359428905701833,0.14399109263441798,37.81131836563759,-37.667327273003174,-0.04716843885520205,0.0,-0.04716843885520205
0.6320000000000005,move_to_zero,-0.008445858136626967,-3.0142163686209993,3.005770510484372,-40.392533403014525,-63.18865043602848,22.796117033013957,43.22380875816646,61.618746077317475,-18.394937319151012,0.14265798961283763,37.756199825745995,-37.61354183613316,-0.04717672066252759,0.0,-0.04717672066252759
0.6340000000000005,move_to_zero,-0.008446151349858697,-3.009816052754399,3.0013699014045403,-40.322799554653706,-63.09640423101237,22.773604676358666,43.09841220175136,61.52879170348197,-18.430379501730613,0.14155606450582434,37.701081285854386,-37.55952522134856,-0.04718313575981719,0.0,-0.04718313575981719
0.6360000000000005,move_to_zero,-0.008446902313674924,-3.005415736887799,2.996968834574124,-40.253212325357325,-63.00415802599628,22.750945700638958,42.97307990246095,61.43883732964648,-18.46575742718553,0.14064698866739775,37.64596274596279,-37.50531575729539,-0.04718794412874477,0.0,-0.04718794412874477
0.6380000000000005,move_to_zero,-0.008449292725353824,-3.0010154210211986,2.9925661282958447,-40.1837744846385,-62.91191182098017,22.728137336341675,42.84781081934199,61.348882955810964,-18.501072136468977,0.13989715758515475,37.59084420607118,-37.45094704848603,-0.04719110208642579,0.0,-0.04719110208642579
0.6400000000000005,move_to_zero,-0.00845125915776352,-2.996615105154599,2.9881638459968354,-40.114467156368576,-62.81966561596408,22.7051984595955,42.72260607942349,61.25892858197548,-18.53632250255199,0.1392783692264419,37.535725666179594,-37.396447296953156,-0.04718898114272316,0.0,-0.04718898114272316
0.6420000000000005,move_to_zero,-0.008453354550703859,-2.9922147892879987,2.983761434737295,-40.045284852370116,-62.727419410947974,22.682134558577857,42.59746673251262,61.168974208139964,-18.571507475627342,0.1387687301211996,37.480607126287985,-37.341838396166786,-0.047182207501449275,0.0,-0.047182207501449275
0.6440000000000005,move_to_zero,-0.008456857641998827,-2.987814473421399,2.9793576157794,-39.97621491354102,-62.63517320593189,22.65895829239087,42.47237659801856,61.079019834304475,-18.60664323628591,0.13835004486751107,37.42548858639639,-37.28713854152888,-0.04717180391706154,0.0,-0.04717180391706154
0.6460000000000005,move_to_zero,-0.008460914530285364,-2.9834141575547983,2.974953243024513,-39.90723804662893,-62.54292700091577,22.635688954286834,42.347317747628956,60.989065460468964,-18.641747712840008,0.13800329802047367,37.37037004650478,-37.23236674848431,-0.047160261080796524,0.0,-0.047160261080796524
0.6480000000000005,move_to_zero,-0.008465921041002314,-2.9790138416881993,2.970547920647197,-39.838356656007726,-62.450680795899686,22.61232413989196,42.22228144184757,60.899111086633475,-18.676829644785904,0.13771240273971166,37.31525150661319,-37.17753910387348,-0.04714852687433745,0.0,-0.04714852687433745
