GerardoFJ/TE3001B_TEAM_3/src/s0s1_gazebo/scripts/results/PI1/state.csv
t,phase,shoulder_pan_actual_deg,shoulder_pan_desired_deg,shoulder_pan_error_deg,shoulder_lift_actual_deg,shoulder_lift_desired_deg,shoulder_lift_error_deg,elbow_flex_actual_deg,elbow_flex_desired_deg,elbow_flex_error_deg,wrist_flex_actual_deg,wrist_flex_desired_deg,wrist_flex_error_deg,wrist_roll_actual_deg,wrist_roll_desired_deg,wrist_roll_error_deg
0.002,move_to_zero,-4.376474382407018,-4.4003158666,0.02384148419298171,-92.21682027023317,-92.2462050161,0.02938474586683526,89.9402674989065,89.9543738355,-0.014106336593499691,55.09939055982472,55.1185398916,-0.019149331775281553,0.0017248340730163765,0.0,0.0017248340730163765
0.004,move_to_zero,-4.3296807390823036,-4.3959155507334,0.06623481165109624,-92.15913158038514,-92.15395881108391,-0.005172769301225344,89.91248495396549,89.86441946166448,0.04806549230100643,55.06182182535136,55.0634213517084,-0.001599526357040304,0.004512048296589364,0.0,0.004512048296589364
0.006,move_to_zero,-4.260872519796936,-4.3915152348668,0.1306427150698637,-92.07420429752862,-92.0617126060678,-0.012491691460823517,89.87147051843964,89.77446508782899,0.09700543061065048,55.006516542833886,55.008302811816804,-0.0017862689829186706,0.00769173654367202,0.0,0.00769173654367202
0.008,move_to_zero,-4.171003698507689,-4.3871149190002,0.21611122049251108,-91.96311940742405,-91.9694664010517,0.006346993627659003,89.8176539995785,89.68451071399349,0.13314328558500677,54.934143615521116,54.953184271925196,-0.019040656404079925,0.01070415608959364,0.0,0.01070415608959364
0.01,move_to_zero,-4.0610207534239136,-4.382714603133599,0.3216938497096855,-91.82695585526551,-91.8772201960356,0.05026434077008446,89.75145684859825,89.594556340158,0.15690050844025905,54.845374468109185,54.8980657320336,-0.05269126392441592,0.01315066158028216,0.0,0.01315066158028216
0.012,move_to_zero,-3.9318803932761526,-4.378314287266999,0.44643389399084654,-91.66675702914478,-91.7849739910195,0.11821696187472241,89.6732906186135,89.50460196632248,0.16868865229102425,54.74087988542643,54.842947192142,-0.1020673067155684,0.015108351064070498,0.0,0.015108351064070498
0.014,move_to_zero,-3.7845241859559637,-4.373913971400399,0.5893897854444354,-91.4835478712765,-91.69272778600339,0.20917991472688868,89.58357188800893,89.41464759248699,0.168924295521947,54.62129802668165,54.787828652250404,-0.16653062556875398,0.016646612469554865,0.0,0.016646612469554865
0.016,move_to_zero,-3.619908361796336,-4.369513655533799,0.7496052937374631,-91.27831053013863,-91.6004815809873,0.3221710508486808,89.48269206162412,89.32469321865149,0.15799884297263134,54.48726223277111,54.7327101123588,-0.24544787958769376,0.017815459238136478,0.0,0.017815459238136478
0.018000000000000002,move_to_zero,-3.438962106823133,-4.3651133396672,0.9261512328440671,-91.05202315622682,-91.5082353759712,0.45621221974437276,89.37104408681151,89.234738844816,0.1363052419955153,54.33937706439612,54.6775915724672,-0.3382145080710828,0.01850862590106767,0.0,0.01850862590106767
0.020000000000000004,move_to_zero,-3.2426328216247216,-4.3607130238006,1.1180802021758787,-90.80566432282967,-91.4159891709551,0.6103248481254298,89.24903961092296,89.1447844709805,0.10425513994246671,54.178250509458096,54.6224730325756,-0.444222523117503,0.018689557170115945,0.0,0.018689557170115945
0.022000000000000006,move_to_zero,-3.0318807668693237,-4.356312707934,1.3244319410646765,-90.54019222835976,-91.323742965939,0.7835507375792474,89.11706267195366,89.05483009714499,0.06223257480867517,54.00444474112551,54.567354492684,-0.562909751558486,0.018407631555835198,0.0,0.018407631555835198
0.024000000000000007,move_to_zero,-2.8076369065305617,-4.351912392067399,1.5442754855368377,-90.25657155405506,-91.2314967609229,0.9749252068678373,88.9754977217985,88.96487572330949,0.010621998489014572,53.81852569268681,54.5122359527924,-0.6937102601055898,0.017736453067018473,0.0,0.017736453067018473
0.02600000000000001,move_to_zero,-2.5708430058130465,-4.3475120762007995,1.776669070387753,-89.95571348688333,-91.1392505559068,1.1835370690234726,88.82474093340723,88.874921349474,-0.05018041606676604,53.621026865654684,54.4571174129008,-0.8360905472461155,0.01681157995707558,0.0,0.01681157995707558
0.02800000000000001,move_to_zero,-2.322408074544015,-4.3431117603341995,2.0207036857901843,-89.63853729764844,-91.0470043508907,1.408467053242262,88.66517087910572,88.78496697563848,-0.11979609653276668,53.4124789098395,54.401998873009205,-0.9895199631697054,0.015776328971467246,0.0,0.015776328971467246
0.030000000000000013,move_to_zero,-2.063268870438513,-4.3387114444676,2.2754425740290865,-89.30593902747418,-90.9547581458746,1.648819118400425,88.49715751864053,88.695012601803,-0.19785508316246592,53.19340985701856,54.3468803331176,-1.153470476099045,0.014768409238404693,0.0,0.014768409238404693
0.032000000000000015,move_to_zero,-1.794323241998152,-4.334311128601,2.5399878866028476,-88.95880304601368,-90.8625119408585,1.9037088948448115,88.32108506989378,88.60505822796749,-0.2839731580737066,52.96431383153493,54.291761793225994,-1.327447961691064,0.013889257181902518,0.0,0.013889257181902518
0.034000000000000016,move_to_zero,-1.5164601513243663,-4.3299108127344,2.8134506614100334,-88.5980122397373,-90.7702657358424,2.1722534961050997,88.13729364612952,88.51510385413198,-0.3778102080024581,52.725669364596214,54.2366432533344,-1.5109738887381852,0.013145087329152953,0.0,0.013145087329152953
0.03600000000000002,move_to_zero,-1.2305261244374248,-4.3255104968678,3.0949843724303747,-88.22441939186227,-90.67801953082629,2.4536001389640205,87.94613459252591,88.4251494802965,-0.47901488777058887,52.4779476445821,54.1815247134428,-1.703577068860696,0.012515372163617111,0.0,0.012515372163617111
0.03800000000000002,move_to_zero,-0.9373874834294653,-4.3211101810012,3.3837226975717343,-87.8388367018365,-90.5857733258102,2.7469366239736956,87.74796704250528,88.33519510646099,-0.5872280639557061,52.22158598889881,54.1264061735512,-1.9048201846523938,0.011981309241630548,0.0,0.011981309241630548
0.04000000000000002,move_to_zero,-0.6379044742482178,-4.316709865134599,3.678805390886381,-87.44206400324268,-90.4935271207941,3.051463117551421,87.54312488800123,88.24524073262549,-0.7021158446242595,51.957040879049565,54.0712876336596,-2.1142467546100363,0.011527049231666574,0.0,0.011527049231666574
0.04200000000000002,move_to_zero,-0.3329108270088849,-4.312309549267999,3.979398722259114,-87.03488616537557,-90.401280915778,3.366394750402435,87.33192375154933,88.15528635879,-0.8233626072406679,51.68472431750212,54.016169093768006,-2.331444776265883,0.011139150150440452,0.0,0.011139150150440452
0.044000000000000025,move_to_zero,-0.05792174335038307,-4.307909233401399,4.249987490051016,-86.61808910774657,-90.3090347107619,3.6909456030153365,87.1146894171513,88.06533198495448,-0.950642567803186,51.405010440595824,53.9610505538764,-2.5560401132805737,0.010802180071507992,0.0,0.010802180071507992
0.04600000000000003,move_to_zero,0.17411150403955053,-4.3035089175348,4.4776204215743505,-86.19239680180627,-90.2167885057458,4.0243917039395285,86.89176659729844,87.97537761111899,-1.0836110138205441,51.118302231834654,53.905932013984796,-2.787629782150141,0.010504397238937051,0.0,0.010504397238937051
0.04800000000000003,move_to_zero,0.36438528338739956,-4.2991086016682,4.663493885055599,-85.75851726011842,-90.1245423007297,4.366025040611277,86.66347780990554,87.88542323728349,-1.2219454273779462,50.82500618217426,53.8508134740932,-3.0258072919189374,0.01023693018409727,0.0,0.01023693018409727
0.05000000000000003,move_to_zero,0.5148822917750099,-4.2947082858016,4.80959057757661,-85.31713922004286,-90.03229609571359,4.715156875670729,86.43014176151027,87.795468863448,-1.3653271019377229,50.5255295326513,53.7956949342016,-3.270165401550301,0.009993666199926693,0.0,0.009993666199926693
0.05200000000000003,move_to_zero,0.6268578018819305,-4.290307969935,4.917165771816931,-84.86895938982067,-89.9400498906975,5.071090500876821,86.19207320112945,87.70551448961248,-1.5134412884830368,50.22024384482219,53.740576394310004,-3.5203325494878115,0.009768824570189811,0.0,0.009768824570189811
0.054000000000000034,move_to_zero,0.7015929026974674,-4.285907654068399,4.987500556765867,-84.41462210049353,-89.8478036856814,5.433181585187867,85.94956835630559,87.61556011577699,-1.665991759471396,49.90949664207174,53.6854578544184,-3.7759612123466653,0.009558547068210967,0.0,0.009558547068210967
0.056000000000000036,move_to_zero,0.7403884079994083,-4.281507338201799,5.021895746201208,-83.95478061709362,-89.7555574806653,5.800776863571684,85.70291845938183,87.52560574194149,-1.8226872825596558,49.59361274638345,53.6303393145268,-4.036726568143351,0.009360176643162311,0.0,0.009360176643162311
0.05800000000000004,move_to_zero,0.7445923489440647,-4.2771070223351995,5.021699371279264,-83.49007828927722,-89.66331127564919,6.173232986371971,85.45241996103336,87.43565136810598,-1.9832314070726227,49.27292309451019,53.5752207746352,-4.302297680125008,0.009170063696114464,0.0,0.009170063696114464
0.06000000000000004,move_to_zero,0.7155549177562197,-4.2727067064685995,4.988261624224819,-83.02110773694389,-89.5710650706331,6.549957333689207,85.19834614048266,87.3456969942705,-2.1473508537878416,48.94775916695069,53.5201022347436,-4.572343067792907,0.008985359266831187,0.0,0.008985359266831187
0.06200000000000004,move_to_zero,0.654654048493931,-4.268306390602,4.922960439095931,-82.54845353972246,-89.478818865617,6.930365325894542,84.94096632978403,87.25574262043499,-2.314776290650954,48.61843355036648,53.464983694852,-4.846550144485519,0.008803810026338215,0.0,0.008803810026338215
0.06400000000000004,move_to_zero,0.5632980983958324,-4.2639060747354,4.827204173131232,-82.07268437157798,-89.38657266060089,7.313888289022913,84.68054020067822,87.16578824659948,-2.485248045921253,48.2852290279031,53.4098651549604,-5.1246361270573,0.008625022311420994,0.0,0.008625022311420994
0.06600000000000004,move_to_zero,0.44289293244096656,-4.2595057588688,4.702398691309766,-81.59434972126206,-89.29432645558481,7.699976734322746,84.41733479070913,87.075833872764,-2.6584990820548597,47.94845049108238,53.354746615068805,-5.406296123986422,0.00844858591806437,0.0,0.00844858591806437
0.06800000000000005,move_to_zero,0.29487427816581047,-4.2551054430022,4.54997972116801,-81.1140059874421,-89.2020802505687,8.0880742631266,84.15161229054078,86.98587949892848,-2.8342672083877005,47.60838691827998,53.299628075177196,-5.691241156897213,0.00827405759581564,0.0,0.00827405759581564
0.07000000000000005,move_to_zero,0.13314850412546297,-4.250705127135599,4.383853631261061,-80.6321895871275,-89.1098340455526,8.477644458425104,83.88360354110328,86.89592512509299,-3.012321583989703,47.26533351661543,53.2445095352856,-5.979176018670174,0.008099741427577271,0.0,0.008099741427577271
0.07200000000000005,move_to_zero,-0.018847140385008284,-4.246304811268999,4.22745767088399,-80.14942670235423,-89.01758784053649,8.86816113818226,83.61353741510185,86.80597075125749,-3.192433336155645,46.91957630554265,53.189390995394,-6.269814689851351,0.007927205575185075,0.0,0.007927205575185075
0.07400000000000005,move_to_zero,-0.14813435889466398,-4.241904495402399,4.093770136507735,-79.66620856100782,-88.9253416355204,9.259133074512576,83.34163968363931,86.71601637742198,-3.374376693782665,46.571379364293655,53.1342724555024,-6.562893091208743,0.007754738834993712,0.0,0.007754738834993712
0.07600000000000005,move_to_zero,-0.2552696309509951,-4.2375041795358,3.9822345485848047,-79.18299227677232,-88.83309543050429,9.650103153731962,83.0681453942861,86.62606200358648,-3.557916609300378,46.220974030070046,53.0791539156108,-6.858179885540757,0.007579708671382727,0.0,0.007579708671382727
0.07800000000000006,move_to_zero,-0.34085399576339825,-4.2331038636692,3.892249867905802,-78.70021206088126,-88.74084922548819,10.040637164606935,82.7932657021379,86.53610762975099,-3.7428419276130853,45.86860416769615,53.0240353757192,-7.155431208023053,0.007401607021099727,0.0,0.007401607021099727
0.08000000000000006,move_to_zero,-0.4062603806063969,-4.2287035478026,3.8224431671962034,-78.2182744597485,-88.6486030204721,10.430328560723595,82.51721263031162,86.44615325591549,-3.9289406256038717,45.514497144731365,52.9689168358276,-7.454419691096234,0.007217179664500397,0.0,0.007217179664500397
0.08200000000000006,move_to_zero,-0.4520772056647952,-4.224303231936,3.772226026271205,-77.73758309442213,-88.556356815456,10.818773721033864,82.24019505215904,86.35619888207998,-4.116003829920942,45.158868053731545,52.913798295936,-7.754930242204452,0.007028092642039101,0.0,0.007028092642039101
0.08400000000000006,move_to_zero,-0.47895272256503346,-4.219902916069399,3.7409501935043656,-77.258529455289,-88.4641106104399,11.20558115515091,81.96239223304109,86.26624450824448,-4.303852275203397,44.801880730598405,52.858679756044396,-8.05679902544599,0.006833090255234165,0.0,0.006833090255234165
0.08600000000000006,move_to_zero,-0.48751732809174125,-4.215502600202799,3.727985272111058,-76.78149669116536,-88.37186440542379,11.590367714258434,81.68398691417593,86.17629013440899,-4.492303220233055,44.44375854533806,52.8035612161528,-8.359802670814737,0.006632330271552834,0.0,0.006632330271552834
0.08800000000000006,move_to_zero,-0.4784164509721413,-4.211102284336199,3.7326858333640582,-76.3068341283176,-88.2796182004077,11.972784072090093,81.40517643789484,86.08633576057349,-4.681159322678653,44.08470521727813,52.7484426762612,-8.663737458983071,0.006426100759582578,0.0,0.006426100759582578
0.09000000000000007,move_to_zero,-0.45229918883916254,-4.206701968469599,3.754402779630437,-75.8348841912829,-88.18737199539159,12.35248780410869,81.12615687286741,85.996381386738,-4.870224513870582,43.7248886964168,52.693324136369604,-8.968435439952806,0.006207641643813792,0.0,0.006207641643813792
0.09200000000000007,move_to_zero,-0.4098506923977726,-4.2023016526029995,3.792450960205227,-75.36593811948175,-88.0951257903755,12.72918767089375,80.84711819267454,85.90642701290248,-5.05930882022794,43.3644814623737,52.638205596477995,-9.273724134104292,0.005981323126209095,0.0,0.005981323126209095
0.09400000000000007,move_to_zero,-0.35178141364610865,-4.1979013367363995,3.8461199230902907,-74.90029157236918,-88.0028795853594,13.10258801299021,80.56822523265191,85.81647263906699,-5.248247406415075,43.00365917663316,52.5830870565864,-9.579427879953244,0.005722677324355395,0.0,0.005722677324355395
0.09600000000000007,move_to_zero,-0.27877176001448917,-4.1935010208698,3.9147292608553106,-74.43821123052984,-87.9106333803433,13.472422149813454,80.2896404639681,85.72651826523149,-5.4368778012633925,42.64258837890756,52.5279685166948,-9.885380137787237,0.005457934668453599,0.0,0.005457934668453599
0.09800000000000007,move_to_zero,-0.1931660174020934,-4.1891007050032,3.9959346876011064,-73.9799927518454,-87.81838717532719,13.838394423481787,80.01153630185274,85.63656389139598,-5.625027589543237,42.281442102306336,52.4728499768032,-10.19140787449686,0.005195040691558414,0.0,0.005195040691558414
0.10000000000000007,move_to_zero,-0.10829967770159712,-4.184700389136599,4.076400711435002,-73.52587777403015,-87.72614097031109,14.200263196280943,79.73404504491289,85.5466095175605,-5.812564472647608,41.92036110805252,52.4177314369116,-10.497370328859084,0.004903737830901989,0.0,0.004903737830901989
0.10200000000000008,move_to_zero,-0.03463129904716995,-4.180300073269999,4.145668774222829,-73.07609787283026,-87.633894765295,14.557796892464737,79.45729357888695,85.45665514372499,-5.99936156483804,41.559477702742086,52.36261289702,-10.803135194277914,0.004594385636206661,0.0,0.004594385636206661
0.10400000000000008,move_to_zero,0.021694342831250525,-4.1758997574034,4.19759410023465,-72.63087589445645,-87.5416485602789,14.91077266582245,79.18140119309254,85.36670076988948,-6.185299576796936,41.19893217609331,52.3074943571284,-11.10856218103509,0.004274679245684994,0.0,0.004274679245684994
0.10600000000000008,move_to_zero,0.05724627420543641,-4.1714994415368,4.228745715742236,-72.19042067287522,-87.4494023552628,15.258981682387585,78.90650099711269,85.276746396054,-6.370245398941307,40.83883709052405,52.252375817236796,-11.413538726712744,0.003940146874375543,0.0,0.003940146874375543
0.10800000000000008,move_to_zero,0.0719275327565211,-4.1670991256702,4.239026658426721,-71.75493813818177,-87.3571561502467,15.602218012064924,78.63272666432273,85.18679202221848,-6.554065357895752,40.479349684377155,52.1972572773452,-11.717907592968047,0.0035950210398907473,0.0,0.0035950210398907473
0.11000000000000008,move_to_zero,0.06826660708634096,-4.1626988098036,4.230965416889941,-71.32460831118559,-87.2649099452306,15.940301634045014,78.36018833685522,85.09683764838299,-6.736649311527771,40.12060687443294,52.1421387374536,-12.021531863020662,0.0032767391586809684,0.0,0.0032767391586809684
0.11200000000000009,move_to_zero,0.05055779172419963,-4.158298493937,4.2088562856611995,-70.89961477830364,-87.17266374021449,16.273048961910845,78.08901117676662,85.00688327454749,-6.917872097780872,39.76271374491651,52.087020197562,-12.324306452645487,0.0029790242322908205,0.0,0.0029790242322908205
0.11400000000000009,move_to_zero,0.02395183281647217,-4.153898178070399,4.177850010886871,-70.4800993828689,-87.0804175351984,16.600318152329493,77.81932620796563,84.91692890071198,-7.097602692746349,39.40579218928678,52.031901657670396,-12.626109468383618,0.0026993177960948993,0.0,0.0026993177960948993
0.11600000000000009,move_to_zero,-0.006346619261735881,-4.149497862203799,4.143151242942063,-70.0662125746448,-86.9881713301823,16.921958755537503,77.55122460614963,84.82697452687648,-7.275749920726852,39.04995842941561,51.976783117778794,-12.926824688363183,0.0024367839848222824,0.0,0.0024367839848222824
0.11800000000000009,move_to_zero,-0.03576092017668623,-4.145097546337199,4.109336626160513,-69.65809663140779,-86.8959251251662,17.237828493758414,77.28480302123582,84.73702015304099,-7.45221713180517,38.695326084058344,51.9216645778872,-13.226338493828855,0.002187805552811532,0.0,0.002187805552811532
0.12000000000000009,move_to_zero,-0.06075544568168198,-4.140697230470599,4.079941784788917,-69.25587328738044,-86.80367892015009,17.547805632769652,77.02015745890266,84.64706577920549,-7.626908320302832,38.34200092826702,51.8665460379956,-13.524545109728578,0.0019493744628844604,0.0,0.0019493744628844604
0.1220000000000001,move_to_zero,-0.07978820664199279,-4.136296914603999,4.056508707962006,-68.85963807026397,-86.711432715134,17.851794644870026,76.75737889078,84.55711140536998,-7.7997325145899765,37.9900533110286,51.811427498104,-13.8213741870754,0.0017194212981743997,0.0,0.0017194212981743997
0.1240000000000001,move_to_zero,-0.0916934994010794,-4.1318965987373995,4.0402030993363205,-68.46947307759842,-86.6191865101179,18.149713432519476,76.49655920815331,84.46715703153448,-7.970597823381169,37.63957249279902,51.7563089582124,-14.116736465413382,0.0014928676361771725,0.0,0.0014928676361771725
0.12600000000000008,move_to_zero,-0.09642390412562783,-4.1274962828707995,4.031072378745172,-68.0854544279663,-86.52694030510179,18.44148587713549,76.23780314447598,84.37720265769899,-8.139399513223012,37.29064675574397,51.70119041832079,-14.41054366257682,0.0012669451490310518,0.0,0.0012669451490310518
0.12800000000000009,move_to_zero,-0.09482601560080779,-4.1230959670042,4.0282699514033915,-67.70765499249919,-86.4346941000857,18.727039107586506,75.98116733874484,84.28724828386348,-8.306080945118637,36.94336108758736,51.6460718784292,-14.702710790841834,0.0010199372356433816,0.0,0.0010199372356433816
0.1300000000000001,move_to_zero,-0.088342995791787,-4.118695651137599,4.030352655345812,-67.33612011694503,-86.3424478950696,19.00632777812457,75.72671029972523,84.197293910028,-8.470583610302768,36.597800587793884,51.590953338537595,-14.993152750743711,0.0007459696842001422,0.0,0.0007459696842001422
0.1320000000000001,move_to_zero,-0.07874696500843004,-4.114295335270999,4.0355483702625685,-66.97091876610911,-86.2502016900535,19.279282923944393,75.47447651624087,84.10733953619248,-8.632863019951614,36.254051524597834,51.535834798646,-15.281783274048166,0.00044261150129543684,0.0,0.00044261150129543684
0.1340000000000001,move_to_zero,-0.06781263211004837,-4.1098950194044,4.042082387294351,-66.61211643766737,-86.15795548503739,19.545839047370023,75.2245159758233,84.01738516235697,-8.792869186533679,35.91218569067983,51.4807162587544,-15.568530568074571,0.00012110224022857455,0.0,0.00012110224022857455
0.1360000000000001,move_to_zero,-0.057115067842732695,-4.1054947035378,4.048379635695067,-66.25974017616421,-86.0657092800213,19.80596910385708,74.9768681616299,83.92743078852149,-8.950562626891596,35.57225400356796,51.425597718862804,-15.85334371529484,-0.00020059202402283204,0.0,-0.00020059202402283204
0.1380000000000001,move_to_zero,-0.047916747888309484,-4.1010943876712,4.0531776397828905,-65.91379568760975,-85.97346307500518,20.059667387395436,74.73158821576654,83.83747641468598,-9.105888198919445,35.23433695052124,51.370479178971195,-16.136142228449955,-0.000526504505013083,0.0,-0.000526504505013083
0.1400000000000001,move_to_zero,-0.04059005464561961,-4.0966940718046,4.05610401715898,-65.5742641805032,-85.88121686998909,20.306952689485883,74.48871659334259,83.74752204085048,-9.258805447507896,34.8985151444356,51.31536063907959,-16.416845494643994,-0.000861347312021384,0.0,-0.000861347312021384
0.1420000000000001,move_to_zero,-0.03534750249726562,-4.092293755938,4.056946253440734,-65.24116243470273,-85.788970664973,20.547808230270263,74.24831063360102,83.65756766701499,-9.409257033413965,34.564821654923406,51.260242099188,-16.69542044426459,-0.0011803581281452926,0.0,-0.0011803581281452926
0.1440000000000001,move_to_zero,-0.03238428646891583,-4.087893440071399,4.055509153602483,-64.91449953232588,-85.6967244599569,20.78222492763102,74.01040421867408,83.56761329317948,-9.557209074505394,34.23330672882121,51.205123559296396,-16.971816830475184,-0.0014916682493454115,0.0,-0.0014916682493454115
0.1460000000000001,move_to_zero,-0.03156371154523702,-4.083493124204799,4.051929412659562,-64.59428351689047,-85.6044782549408,21.01019473805033,73.77501819667339,83.47765891934398,-9.702640722670594,33.90401849919681,51.1500050194048,-17.245986520207992,-0.0017846949188991446,0.0,-0.0017846949188991446
0.1480000000000001,move_to_zero,-0.03250846360490522,-4.079092808338199,4.046584344733294,-64.28051031970699,-85.51223204992469,21.2317217302177,73.5421730064659,83.38770454550848,-9.845531539042582,33.57701521828528,51.0948864795132,-17.517871261227917,-0.0020652513332182205,0.0,-0.0020652513332182205
0.1500000000000001,move_to_zero,-0.034711727226276044,-4.074692492471599,4.039980765245323,-63.973154589669946,-85.4199858449086,21.44683125523865,73.31189547427348,83.29775017167299,-9.985854697399503,33.25232602843044,51.0397679396216,-17.78744191119116,-0.002333607838719746,0.0,-0.002333607838719746
0.1520000000000001,move_to_zero,-0.037596254319702184,-4.070292176604999,4.032695922285297,-63.67219016758021,-85.32773963989249,21.655549472312273,73.08419826584003,83.20779579783748,-10.123597531997447,32.92998848346114,50.984649399729996,-18.05466091626886,-0.002592362316969723,0.0,-0.002592362316969723
0.1540000000000001,move_to_zero,-0.04063998810283905,-4.065891860738399,4.02525187263556,-63.37758412491014,-85.23549343487639,21.857909309966246,72.85908244422195,83.11784142400198,-10.258758979780026,32.61004917327484,50.929530859838394,-18.319481686563556,-0.0028574491312757153,0.0,-0.0028574491312757153
0.1560000000000001,move_to_zero,-0.04339631938209152,-4.061491544871799,4.0180952254897075,-63.089281255481055,-85.1432472298603,22.05396597437924,72.63654911472453,83.02788705016648,-10.391337935441953,32.292524298890285,50.8744123199468,-18.581888021056514,-0.0031409300226291816,0.0,-0.0031409300226291816
0.1580000000000001,move_to_zero,-0.045616948217940594,-4.0570912290051995,4.011474280787259,-62.80725003133315,-85.0510010248442,22.24375099351105,72.41660744023181,82.93793267633099,-10.521325236099173,31.97745317610022,50.8192937800552,-18.841840603954978,-0.003450076000444966,0.0,-0.003450076000444966
0.16000000000000011,move_to_zero,-0.04738791845177712,-4.052690913138599,4.005302994686821,-62.531457579082094,-84.95875481982809,22.427297240745993,72.19924891264996,82.84797830249549,-10.648729389845528,31.66489227798207,50.7641752401636,-19.099282962181533,-0.0037807882040015346,0.0,-0.0037807882040015346
0.16200000000000012,move_to_zero,-0.04878101212104548,-4.048290597272,3.999509585150954,-62.2618484613307,-84.86650861481199,22.60466015348129,71.98448441653998,82.75802392865998,-10.773539512119996,31.354892523373927,50.709056700271994,-19.354164176898067,-0.004138017599852309,0.0,-0.004138017599852309
0.16400000000000012,move_to_zero,-0.04980476300176868,-4.0438902814054,3.994085518403631,-61.99838411496383,-84.7742624097959,22.77587829483207,71.77233347760829,82.66806955482448,-10.895736077216199,31.04748449444065,50.6539381603804,-19.60645366593975,-0.004520448275415252,0.0,-0.004520448275415252
0.16600000000000012,move_to_zero,-0.050373523070249816,-4.0394899655388,3.98911644246855,-61.7409777340257,-84.68201620477979,22.941038470754087,71.56276501033568,82.57811518098899,-11.015350170653306,30.742693865015326,50.5988196204888,-19.85612575547347,-0.0049250351132550906,0.0,-0.0049250351132550906
0.16800000000000012,move_to_zero,-0.050484695256999876,-4.0350896496722,3.9846049544152,-61.48956408722808,-84.5897699997637,23.10020591253562,71.35576637988959,82.48816080715348,-11.13239442726389,30.44052012319477,50.543701080597195,-20.103180957402426,-0.005308112596314092,0.0,-0.005308112596314092
0.17000000000000012,move_to_zero,-0.050183005991092995,-4.0306893338056,3.9805063278145068,-61.2440818133161,-84.4975237947476,23.253441981431493,71.15131823456927,82.398206433318,-11.24688819874872,30.140970651319122,50.4885825407056,-20.347611889386478,-0.005661171527659922,0.0,-0.005661171527659922
0.17200000000000013,move_to_zero,-0.04955044522324248,-4.026289017939,3.9767385727157576,-61.00447141316491,-84.4052775897315,23.40080617656659,70.94942195882875,82.30825205948248,-11.358830100653734,29.844054679181507,50.433464000814,-20.58940932163249,-0.005985560660878981,0.0,-0.005985560660878981
0.17400000000000013,move_to_zero,-0.048693536216495,-4.021888702072399,3.973195165855904,-60.77066398250937,-84.31303138471539,23.54236740220602,70.75007632764515,82.21829768564697,-11.468221358001827,29.549770714437198,50.3783454609224,-20.8285747464852,-0.006287723940518543,0.0,-0.006287723940518543
0.17600000000000013,move_to_zero,-0.04773713150183563,-4.017488386205799,3.9697512547039633,-60.54256797766293,-84.22078517969929,23.678217202036365,70.55327444939729,82.12834331181149,-11.575068862414199,29.25812831973295,50.323226921030795,-21.065098601297844,-0.006572210601704731,0.0,-0.006572210601704731
0.17800000000000013,move_to_zero,-0.04679165184686138,-4.013088070339199,3.966296418492338,-60.320100501291385,-84.12853897468318,23.808438473391796,70.35900278282341,82.03838893797598,-11.67938615515257,28.96913554167147,50.2681083811392,-21.29897283946773,-0.006842595013443084,0.0,-0.006842595013443084
0.18000000000000013,move_to_zero,-0.04593003019515117,-4.008687754472599,3.962757724277448,-60.103190965444085,-84.0362927696671,23.933101804223014,70.16724689949235,81.94843456414048,-11.78118766464813,28.68279094462852,50.2129898412476,-21.53019889661908,-0.007118202390767773,0.0,-0.007118202390767773
0.18200000000000013,move_to_zero,-0.04519924162502231,-4.004287438605999,3.959088196980977,-59.89174912877003,-83.944046564651,24.052297435880973,69.97799124418364,81.85848019030499,-11.880488946121346,28.399089749564634,50.157871301355996,-21.758781551791362,-0.007413361110969285,0.0,-0.007413361110969285
0.18400000000000014,move_to_zero,-0.04459089270235224,-3.9998871227393993,3.955296230037047,-59.685678141044306,-83.8518003596349,24.166122218590587,69.79120783191215,81.76852581646948,-11.977317984557331,28.11803569467793,50.1027527614644,-21.984717066786473,-0.007718755270372357,0.0,-0.007718755270372357
0.18600000000000014,move_to_zero,-0.044083293700659096,-3.995486806872799,3.95140351317214,-59.4848722752113,-83.7595541546188,24.274681879407495,69.60686078912012,81.67857144263398,-12.071710653513861,27.83963436547121,50.04763422157279,-22.207999856101583,-0.008024174980439986,0.0,-0.008024174980439986
0.18800000000000014,move_to_zero,-0.043657369565681996,-3.991086491006199,3.947429121440517,-59.28924311088805,-83.66730794960269,24.378064838714636,69.42493200860751,81.58861706879848,-12.163685060190971,27.56389120272223,49.9925156816812,-22.42862447895897,-0.008318797696107947,0.0,-0.008318797696107947
0.19000000000000014,move_to_zero,-0.04329914240510524,-3.986686175139599,3.9433870327344938,-59.09868552985473,-83.57506174458659,24.476376214731864,69.24541730517979,81.49866269496299,-12.253245389783203,27.29081357037049,49.937397141789596,-22.646583571419107,-0.008599179106165885,0.0,-0.008599179106165885
0.19200000000000014,move_to_zero,-0.04299428958659833,-3.9822858592729995,3.939291569686401,-58.913097406817876,-83.48281553957048,24.569718132752605,69.06826601735563,81.40870832112748,-12.340442303771852,27.020400996623607,49.882278601897994,-22.861877605274387,-0.008890692330598639,0.0,-0.008890692330598639
0.19400000000000014,move_to_zero,-0.04273255201406894,-3.9778855434063995,3.9351529913923304,-58.732358518412774,-83.3905693345544,24.658210816141626,68.89345196590604,81.31875394729198,-12.425301981385942,26.752647082424463,49.8271600620064,-23.074512979581936,-0.009167885785568732,0.0,-0.009167885785568732
0.19600000000000015,move_to_zero,-0.04250480602330315,-3.9734852275397996,3.9309804215164963,-58.55636775120156,-83.29832312953829,24.741955378336726,68.7209396179417,81.22879957345648,-12.507859955514789,26.487530813878486,49.7720415221148,-23.28451070823631,-0.009432991676452536,0.0,-0.009432991676452536
0.19800000000000015,move_to_zero,-0.042303250812328094,-3.9690849116731997,3.9267816608608714,-58.38500666004089,-83.2060769245222,24.821070264481307,68.55069620147931,81.13884519962097,-12.588148998141662,26.225039181049144,49.716922982223196,-23.49188380117405,-0.009687474837786583,0.0,-0.009687474837786583
0.20000000000000015,move_to_zero,-0.042120437284989175,-3.9646845958065993,3.92256415852161,-58.21816570472642,-83.1138307195061,24.89566501477968,68.38269406342901,81.04889082578549,-12.666196762356478,25.965164203004008,49.661804442331594,-23.696640239327586,-0.009935345060608131,0.0,-0.009935345060608131
0.20200000000000015,move_to_zero,-0.04195078249037895,-3.9602842799399993,3.9183334974496202,-58.055741181202336,-83.02158451448999,24.96584333328765,68.21691453259349,80.95893645194998,-12.742021919356489,25.70786494617974,49.60668590244,-23.89882095626026,-0.010182608912008426,0.0,-0.010182608912008426
0.20400000000000015,move_to_zero,-0.041791228448666,-3.9558839640733994,3.9140927356247333,-57.89765929786349,-82.92933830947389,25.0316790116104,68.05332991540834,80.86898207811447,-12.81565216270613,25.453141513579112,49.5515673625484,-24.098425848969285,-0.010426954330826054,0.0,-0.010426954330826054
0.20600000000000016,move_to_zero,-0.041638368181831344,-3.9514836482067994,3.909845280024968,-57.74379891687627,-82.8370921044578,25.093293187581523,67.89187819593296,80.77902770427899,-12.887149508346027,25.20097793031932,49.496448822656795,-24.295470892337477,-0.01066697375801284,0.0,-0.01066697375801284
0.20800000000000016,move_to_zero,-0.041487649935706854,-3.947083332340199,3.9055956824044924,-57.59403852553786,-82.7448458994417,25.150807373903838,67.73253464254222,80.68907333044348,-12.956538687901258,24.951360611648266,49.4413302827652,-24.489969671116935,-0.010902772271964909,0.0,-0.010902772271964909
0.21000000000000016,move_to_zero,-0.041324513768915966,-3.942683016473599,3.9013585027046833,-57.448262388163585,-82.65259969442559,25.204337306262005,67.57529439733352,80.59911895660798,-13.023824559274459,24.704266482854372,49.38621174287359,-24.68194526001922,-0.011135791477111568,0.0,-0.011135791477111568
0.21200000000000016,move_to_zero,-0.04111647360195203,-3.938282700606999,3.897166227005047,-57.30636705142015,-82.5603534894095,25.25398643798934,67.42014664971553,80.50916458277248,-13.089017933056951,24.45966054602362,49.331093202982,-24.871432656958376,-0.011370697306679561,0.0,-0.011370697306679561
0.21400000000000016,move_to_zero,-0.040850800432334175,-3.933882384740399,3.893031584308065,-57.16822996657416,-82.46810728439338,25.299877317819224,67.26704046757541,80.41921020893697,-13.152169741361561,24.217511017270358,49.275974663090395,-25.058463645820037,-0.011606789726521537,0.0,-0.011606789726521537
0.21600000000000016,move_to_zero,-0.04055563525267683,-3.929482068873799,3.888926433621122,-57.03373298732293,-82.37586107937729,25.34212809205436,67.11594816870137,80.32925583510148,-13.213307666400112,23.977805343056232,49.2208561231988,-25.243050780142568,-0.011856048155410718,0.0,-0.011856048155410718
0.21800000000000017,move_to_zero,-0.04023973911204074,-3.925081753007199,3.8848420138951583,-56.90275555778102,-82.28361487436119,25.38085931658017,66.96682499094621,80.23930146126598,-13.272476470319774,23.740510841972263,49.1657375833072,-25.425226741334935,-0.01211516423298007,0.0,-0.01211516423298007
0.22000000000000017,move_to_zero,-0.039900393201788044,-3.9206814371406,3.880781043938812,-56.7751901724907,-82.1913686693451,25.416178496854393,66.81962606906977,80.14934708743048,-13.329721018360715,23.505609123242095,49.110619043415596,-25.6050099201735,-0.012388800133633828,0.0,-0.012388800133633828
0.22200000000000017,move_to_zero,-0.03954464333408458,-3.9162811212739994,3.876736477939915,-56.65092117703604,-82.099122464329,25.44820128729296,66.67430945815813,80.05939271359497,-13.38508325543684,23.273072706178542,49.055500503523994,-25.782427797345452,-0.012654163351269768,0.0,-0.012654163351269768
0.22400000000000017,move_to_zero,-0.039156239264306066,-3.9118808054073995,3.8727245661430936,-56.529847846258534,-82.00687625931289,25.477028413054356,66.530842766,79.96943833975948,-13.438595573759471,23.042903213179248,49.00038196363239,-25.957478750453145,-0.012915577305166317,0.0,-0.012915577305166317
0.22600000000000017,move_to_zero,-0.0387518665904149,-3.9074804895407995,3.8687286229503846,-56.411861895518264,-81.9146300542968,25.50276815877853,66.38918252142437,79.87948396592398,-13.490301444499607,22.815053201148743,48.9452634237408,-26.130210222592055,-0.013197296163843446,0.0,-0.013197296163843446
0.22800000000000017,move_to_zero,-0.038358661231012996,-3.9030801736741996,3.8647215124431864,-56.296866661526536,-81.82238384928068,25.525517187754147,66.24929655139061,79.78952959208848,-13.54023304069787,22.589509423797832,48.890144883849196,-26.300635460051364,-0.013497890146377102,0.0,-0.013497890146377102
0.23000000000000018,move_to_zero,-0.03799886294212101,-3.898679857807599,3.8606809948654783,-56.18476758598433,-81.73013764426459,25.545370058280255,66.11113667552515,79.69957521825299,-13.588438542727843,22.366266703210403,48.8350263439576,-26.468759640747198,-0.013808744213452925,0.0,-0.013808744213452925
0.23200000000000018,move_to_zero,-0.03767914735940566,-3.8942795419409992,3.8566003945815934,-56.075470237420696,-81.63789143924849,25.562421201827796,65.97467852134935,79.60962084441748,-13.634942323068131,22.14527543296728,48.77990780406599,-26.63463237109871,-0.014137386106160993,0.0,-0.014137386106160993
0.23400000000000018,move_to_zero,-0.037361349964290955,-3.8898792260743993,3.852517876110108,-55.96886460244818,-81.5456452342324,25.576780631784217,65.83988294033709,79.51966647058198,-13.67978353024489,21.926522100426293,48.72478926417439,-26.798267163748097,-0.014444343556857182,0.0,-0.014444343556857182
0.23600000000000018,move_to_zero,-0.037054060688247736,-3.8854789102077993,3.8484248495195517,-55.8648395497378,-81.45339902921629,25.588559479478484,65.70671772782612,79.42971209674648,-13.722994368920368,21.709990934297934,48.669670724282796,-26.95967978998486,-0.014734262375230445,0.0,-0.014734262375230445
0.23800000000000018,move_to_zero,-0.036735163961629944,-3.881078594341199,3.844343430379569,-55.763293761348834,-81.36115282420019,25.597859062851356,65.57515616991671,79.33975772291097,-13.764601552994264,21.49562456894391,48.614552184391194,-27.118927615447284,-0.015009269802621886,0.0,-0.015009269802621886
0.24000000000000019,move_to_zero,-0.036405769129577575,-3.876678278474599,3.8402725093450214,-55.66412439574599,-81.2689066191841,25.6047822234381,65.44515769038152,79.24980334907549,-13.804645658693971,21.28337289162573,48.5594336444996,-27.276060752873867,-0.01527168358915792,0.0,-0.01527168358915792
0.2420000000000002,move_to_zero,-0.03607844239749526,-3.872277962607999,3.8361995202105037,-55.567247617021444,-81.17666041416798,25.60941279714654,65.31668406616406,79.15984897523998,-13.843164909075924,21.073177821440932,48.504315104608,-27.431137283167065,-0.015522196079062852,0.0,-0.015522196079062852
0.2440000000000002,move_to_zero,-0.03574385391894873,-3.867877646741399,3.8321337928224506,-55.4725458999376,-81.08441420915189,25.611868309214287,65.18969713487911,79.06989460140447,-13.88019746652536,20.864988852507224,48.449196564716395,-27.58420771220917,-0.015764805876316693,0.0,-0.015764805876316693
0.2460000000000002,move_to_zero,-0.03541724135340906,-3.8634773308747987,3.8280600895213897,-55.37992818255448,-80.99216800413579,25.612239821581312,65.06413440402306,78.97994022756899,-13.915805823545924,20.658791712931084,48.39407802482479,-27.73528631189371,-0.0160039481961449,0.0,-0.0160039481961449
0.2480000000000002,move_to_zero,-0.03510471494956679,-3.8590770150081988,3.823972300058632,-55.28931274530214,-80.8999217991197,25.610609053817555,64.93995957827437,78.88998585373348,-13.95002627545911,20.454556281148946,48.33895948493319,-27.884403203784245,-0.016252770298838457,0.0,-0.016252770298838457
0.25000000000000017,move_to_zero,-0.03480852174147309,-3.8546766991415997,3.8198681774001266,-55.200593293719685,-80.80767559410359,25.6070823003839,64.81715664216867,78.80003147989798,-13.982874837729312,20.25227780524933,48.2838409450416,-28.031563139792265,-0.016499413424142406,0.0,-0.016499413424142406
0.25200000000000017,move_to_zero,-0.03450900144873242,-3.8502763832749993,3.8157673818262667,-55.113688136233485,-80.71542938908749,25.601741252854005,64.6956879324881,78.71007710606249,-14.014389173574386,20.051928765849183,48.228722405149995,-28.17679363930081,-0.01674450428115371,0.0,-0.01674450428115371
0.25400000000000017,move_to_zero,-0.03421145656110539,-3.8458760674083994,3.811664610847294,-55.028531571547326,-80.62318318407138,25.594651612524054,64.57551108140306,78.62012273222697,-14.04461165082391,19.853521255717293,48.1736038652584,-28.320082609541107,-0.01699121007331946,0.0,-0.01699121007331946
0.25600000000000017,move_to_zero,-0.03391185953173906,-3.8414757515417994,3.8075638920100605,-54.94503202358448,-80.53093697905528,25.585904955470802,64.45657468942882,78.53016835839148,-14.073593668962658,19.65702761365305,48.11848532536679,-28.46145771171374,-0.017232680790299226,0.0,-0.017232680790299226
0.2580000000000002,move_to_zero,-0.03361294021188627,-3.8370754356751995,3.803462495463313,-54.86308917790565,-80.43869077403919,25.575601596133538,64.33883192453496,78.44021398455598,-14.101382060021024,19.462423689935484,48.063366785475196,-28.600943095539712,-0.017473888381642034,0.0,-0.017473888381642034
0.2600000000000002,move_to_zero,-0.03334460617366481,-3.832675119808599,3.7993305136349345,-54.78263598066949,-80.34644456902309,25.563808588353602,64.22224111694737,78.35025961072049,-14.128018493773112,19.269694695382796,48.008248245583594,-28.7385535502008,-0.017711263407867706,0.0,-0.017711263407867706
0.2620000000000002,move_to_zero,-0.033103012830186754,-3.828274803941999,3.7951717911118124,-54.70358695527579,-80.254198364007,25.550611408731207,64.10676309987781,78.26030523688497,-14.153542137007165,19.078804186853834,47.95312970569199,-28.87432551883816,-0.017944995903118346,0.0,-0.017944995903118346
0.2640000000000002,move_to_zero,-0.03288467104603284,-3.823874488075399,3.7909898170293665,-54.62587213187747,-80.16195215899089,25.536080027113414,63.992345851787604,78.17035086304948,-14.178005011261874,18.889718004375965,47.8980111658004,-29.008293161424433,-0.018175543662156454,0.0,-0.018175543662156454
0.2660000000000002,move_to_zero,-0.03268277410177836,-3.8194741722087993,3.7867913981070207,-54.549420588139384,-80.06970595397479,25.520285365835406,63.87893763574655,78.08039648921398,-14.201458853467429,18.70240058193997,47.842892625908796,-29.140492043968827,-0.018409671770457128,0.0,-0.018409671770457128
0.2680000000000002,move_to_zero,-0.03249296255997159,-3.815073856342199,3.782580893782227,-54.47416901643496,-79.97745974895868,25.503290732523716,63.76648141919037,77.99044211537847,-14.2239606961881,18.516839344689135,47.787774086017194,-29.27093474132806,-0.018650848848522562,0.0,-0.018650848848522562
0.2700000000000002,move_to_zero,-0.032308470364969234,-3.810673540475599,3.7783650701106297,-54.40004134039144,-79.8852135439426,25.48517220355116,63.65494379142544,77.90048774154299,-14.24554395011755,18.333026631403413,47.73265554612559,-29.39962891472218,-0.018892311586983474,0.0,-0.018892311586983474
0.2720000000000002,move_to_zero,-0.03211374228252784,-3.806273224608999,3.7741594823264712,-54.32699082794408,-79.79296733892649,25.465976510982408,63.54429377834878,77.81053336770748,-14.266239589358698,18.150932294763905,47.677537006234,-29.526604711470092,-0.01913209648228854,0.0,-0.01913209648228854
0.2740000000000002,move_to_zero,-0.031881462726888306,-3.801872908742399,3.769991446015511,-54.254948051218754,-79.70072113391039,25.445773082691638,63.434486730762885,77.72057899387197,-14.286092263109083,17.970504692991383,47.622418466342396,-29.651913773351012,-0.01937640136174518,0.0,-0.01937640136174518
0.2760000000000002,move_to_zero,-0.03162575828107247,-3.7974725928757986,3.765846834594726,-54.183847381582495,-79.60847492889428,25.424627547311786,63.32548358955057,77.63062462003649,-14.305141030485913,17.791727075631744,47.567299926450794,-29.77557285081905,-0.01963621449977123,0.0,-0.01963621449977123
0.2780000000000002,move_to_zero,-0.031338325980535923,-3.7930722770091996,3.761733951028664,-54.11359031967473,-79.51622872387819,25.402638404203458,63.217238710793154,77.54067024620097,-14.32343153540782,17.61456611625088,47.5121813865592,-29.897615270308318,-0.01991943270597605,0.0,-0.01991943270597605
0.2800000000000002,move_to_zero,-0.031044734123250164,-3.7886719611425996,3.7576272270193494,-54.04412433497992,-79.42398251886209,25.37985818388217,63.109724617382646,77.45071587236548,-14.340991254982832,17.438981458173803,47.45706284666759,-30.018081388493787,-0.020230616877687006,0.0,-0.020230616877687006
0.2820000000000002,move_to_zero,-0.030778924009815814,-3.7842716452759992,3.7534927212661833,-53.975411124998956,-79.331736313846,25.356325188847038,63.002909642085115,77.36076149852998,-14.357851856444867,17.26495136343898,47.401944306775995,-30.136992943337017,-0.02055723472047903,0.0,-0.02055723472047903
0.2840000000000002,move_to_zero,-0.030538100275773118,-3.7798713294093993,3.7493332291336263,-53.9073841355857,-79.2394901088299,25.332105973244197,62.89677128325979,77.27080712469449,-14.374035841434697,17.092448588157794,47.34682576688439,-30.2543771787266,-0.020898186015586913,0.0,-0.020898186015586913
0.2860000000000002,move_to_zero,-0.03031769329384686,-3.7754710135427993,3.7451533202489524,-53.840004104075796,-79.14724390381379,25.307239799737992,62.79127193652229,77.18085275085897,-14.389580814336682,16.921471406518304,47.29170722699279,-30.370235820474488,-0.021233195808483128,0.0,-0.021233195808483128
0.2880000000000002,move_to_zero,-0.030113776732136367,-3.7710706976761994,3.740956920944063,-53.77320375085902,-79.05499769879769,25.281793947938674,62.686375557031084,77.09089837702348,-14.404522819992394,16.75199151297753,47.2365886871012,-30.484597174123667,-0.021542478278593232,0.0,-0.021542478278593232
0.2900000000000002,move_to_zero,-0.029923098769064738,-3.766670381809599,3.7367472830405344,-53.706933906207254,-78.96275149378158,25.255817587574327,62.58205850395885,77.00094400318798,-14.418885499229134,16.584001109869693,47.181470147209595,-30.597469037339902,-0.021831138756618337,0.0,-0.021831138756618337
0.2920000000000002,move_to_zero,-0.02974272281739947,-3.762270065942999,3.7325273431255996,-53.64114522006319,-78.87050528876549,25.2293600687023,62.47829447466555,76.91098962935247,-14.432695154686918,16.417493425840117,47.12635160731799,-30.708858181477876,-0.022102248842635803,0.0,-0.022102248842635803
0.2940000000000002,move_to_zero,-0.02957107549285839,-3.757869750076399,3.7282986745835407,-53.57578115421381,-78.77825908374939,25.202477929535583,62.37508126031452,76.82103525551699,-14.445953995202466,16.252450335212433,47.07123306742639,-30.818782732213958,-0.022358581578595573,0.0,-0.022358581578595573
0.2960000000000002,move_to_zero,-0.029391909064889372,-3.753469434209799,3.7240775251449096,-53.510807767933414,-78.6860128787333,25.17520511079988,62.272391967047646,76.73108088168148,-14.458688914633832,16.088851743798283,47.016114527534796,-30.927262783736513,-0.02260177043336594,0.0,-0.02260177043336594
0.2980000000000002,move_to_zero,-0.029194896729637564,-3.749069118343199,3.719874221613561,-53.4461834148324,-78.59376667371718,25.147583258884787,62.170202505218796,76.64112650784598,-14.470924002627186,15.926667896718694,46.960995987643194,-31.0343280909245,-0.02283622374630272,0.0,-0.02283622374630272
0.3000000000000002,move_to_zero,-0.028966477953062637,-3.744668802476599,3.7157023245235363,-53.381876928284804,-78.50152046870109,25.119643540416284,62.0684849174982,76.55117213401049,-14.482687216512282,15.765882119780132,46.90587744775159,-31.139995327971462,-0.02306542832145974,0.0,-0.02306542832145974
0.3020000000000002,move_to_zero,-0.02872537309638191,-3.740268486609999,3.711543113513617,-53.31783426549212,-78.40927426368499,25.091439998192875,61.96723859997287,76.46121776017497,-14.493979160202102,15.606494574500877,46.85075890786,-31.24426433335912,-0.023290884434624525,0.0,-0.023290884434624525
0.3040000000000002,move_to_zero,-0.028472582371655203,-3.735868170743399,3.7073955883717438,-53.25401456095688,-78.31702805866888,25.063013497712,61.86645787207276,76.37126338633948,-14.504805514266721,15.44845497578327,46.79564036796839,-31.347185392185118,-0.023511836085990917,0.0,-0.023511836085990917
0.3060000000000002,move_to_zero,-0.02819345557513753,-3.7314678548767994,3.703274399301662,-53.19037458926755,-78.22478185365279,25.034407264385237,61.766107586473524,76.28130901250398,-14.515201426030458,15.291740766872314,46.740521828076794,-31.44878106120448,-0.023728237215776313,0.0,-0.023728237215776313
0.3080000000000002,move_to_zero,-0.02789180731271763,-3.7270675390101995,3.699175731697482,-53.1268803696746,-78.13253564863669,25.005655278962088,61.666135925484156,76.19135463866847,-14.525218713184316,15.136340598500645,46.68540328818519,-31.549062689684547,-0.023940168206991935,0.0,-0.023940168206991935
0.3100000000000002,move_to_zero,-0.027579166019860164,-3.7226672231435995,3.6950880571237392,-53.06348019024747,-78.0402894436206,24.976809253373126,61.56651242777417,76.10140026483299,-14.534887837058818,14.982215866945928,46.6302847482936,-31.64806888134767,-0.024149130158577958,0.0,-0.024149130158577958
0.3120000000000002,move_to_zero,-0.027285540827722464,-3.718266907276999,3.6909813664492765,-53.000121956882005,-77.94804323860448,24.94792128172248,61.46720525570655,76.01144589099748,-14.544240635290926,14.829322937224862,46.575166208401996,-31.745843271177133,-0.024354090763052373,0.0,-0.024354090763052373
0.3140000000000002,move_to_zero,-0.027022834198818062,-3.713866591410399,3.686843757211581,-52.93678025002127,-77.85579703358839,24.919016783567116,61.368202935155274,75.92149151716198,-14.553288582006708,14.677653259426476,46.520047668510394,-31.842394409083916,-0.02455690595244329,0.0,-0.02455690595244329
0.3160000000000002,move_to_zero,-0.026784330207297674,-3.7094662755437993,3.6826819453365016,-52.873433105937025,-77.76355082857228,24.890117722635253,61.26948855617691,75.83153714332649,-14.562048587149576,14.52717990483486,46.46492912861879,-31.937749223783932,-0.024759228336028505,0.0,-0.024759228336028505
0.3180000000000002,move_to_zero,-0.026565141103102402,-3.7050659596771993,3.678500818574097,-52.81004884225049,-77.67130462355618,24.861255781305694,61.17103339088926,75.74158276949098,-14.570549378601719,14.377870904471697,46.40981058872719,-32.03193968425549,-0.024959793077127874,0.0,-0.024959793077127874
0.32000000000000023,move_to_zero,-0.02635298201265085,-3.700665643810599,3.674312661797948,-52.746584601842,-77.57905841854009,24.832473816698084,61.07281920338912,75.65162839565548,-14.578809192266355,14.229734114595248,46.354692048835595,-32.12495793424035,-0.02516063072732459,0.0,-0.02516063072732459
0.32200000000000023,move_to_zero,-0.026149147050811845,-3.696265327943999,3.6701161808931873,-52.6829904730383,-77.48681221352399,24.803821740485688,60.974844971682856,75.56167402181998,-14.586829050137126,14.082710673094144,46.29957350894399,-32.21686283584985,-0.025363552561472442,0.0,-0.025363552561472442
0.32400000000000023,move_to_zero,-0.025939200918555193,-3.691865012077399,3.6659258111588438,-52.619232288102154,-77.3945660085079,24.77533372040574,60.877086920783995,75.47171964798449,-14.59463272720049,13.936782510715176,46.2444549690524,-32.30767245833722,-0.02556741936392422,0.0,-0.02556741936392422
0.32600000000000023,move_to_zero,-0.02570930518055668,-3.687464696210799,3.6617553910302423,-52.55531820339649,-77.30231980349178,24.747001600095295,60.77953672726441,75.38176527414898,-14.602228546884568,13.791909712869415,46.1893364291608,-32.39742671629138,-0.025770829442379233,0.0,-0.025770829442379233
0.32800000000000024,move_to_zero,-0.025476286488851342,-3.6830643803441987,3.6575880938553476,-52.49121848954429,-77.21007359847569,24.7188551089314,60.68216255312275,75.29181090031348,-14.609648347190728,13.648055524125315,46.13421788926919,-32.48616236514387,-0.025976602621138423,0.0,-0.025976602621138423
0.33000000000000024,move_to_zero,-0.025235880714676123,-3.6786640644775987,3.6534281837629226,-52.42689852396665,-77.11782739345958,24.69092886949293,60.58494005135795,75.20185652647798,-14.616916475120036,13.505212806269594,46.07909934937759,-32.573886543108,-0.026184446689116455,0.0,-0.026184446689116455
0.33200000000000024,move_to_zero,-0.02498475194523437,-3.674263748610999,3.6492789966657644,-52.36232413219958,-77.02558118844348,24.6632570562439,60.487844356010974,75.11190215264247,-14.624057796631497,13.363354565435626,46.02398080948599,-32.66062624405036,-0.026394363559171567,0.0,-0.026394363559171567
0.33400000000000024,move_to_zero,-0.024741132075573703,-3.669863432744399,3.645122300668825,-52.29746365728353,-76.93333498342739,24.635871326143857,60.39084996372722,75.02194777880699,-14.63109781507977,13.222465095178654,45.968862269594396,-32.74639717441574,-0.026608779677086632,0.0,-0.026608779677086632
0.33600000000000024,move_to_zero,-0.024501840798788796,-3.6654631168777994,3.6409612760790107,-52.23231047621815,-76.84108877841129,24.608778302193137,60.29396440993952,74.93199340497148,-14.63802899503196,13.082525636952937,45.913743729702794,-32.83121809274986,-0.026822618546260044,0.0,-0.026822618546260044
0.33800000000000024,move_to_zero,-0.024277933659706468,-3.6610628010111994,3.636784867351493,-52.166855389265535,-76.74884257339518,24.581987184129645,60.19717532599795,74.84203903113597,-14.644863705138022,12.943514452274092,45.85862518981119,-32.9151107375371,-0.027035978542059948,0.0,-0.027035978542059948
0.34000000000000025,move_to_zero,-0.02407171136883603,-3.6566624851445995,3.6325907737757634,-52.10108386702128,-76.65659636837908,24.555512501357804,60.10043731053544,74.75208465730049,-14.651647346765046,12.805417334101492,45.80350664991959,-32.9980893158181,-0.0272501337194688,0.0,-0.0272501337194688
0.34200000000000025,move_to_zero,-0.02387977485121756,-3.652262169277999,3.6283823944267817,-52.03497615888319,-76.56435016336299,24.5293740044798,60.00371753236704,74.66213028346498,-14.658412751097934,12.668186807574669,45.74838811002799,-33.08020130245332,-0.027468852003468096,0.0,-0.027468852003468096
0.34400000000000025,move_to_zero,-0.023700071001974337,-3.647861853411399,3.6241617824094248,-51.96849810705938,-76.47210395834688,24.503605851287496,59.90698443361896,74.57217590962948,-14.66519147601052,12.531812336760412,45.693269570136394,-33.161457233375984,-0.02771160588594871,0.0,-0.02771160588594871
0.34600000000000025,move_to_zero,-0.023530179854065306,-3.643461537544799,3.6199313576907337,-51.901642818674574,-76.3798577533308,24.478214934656222,59.81022925250776,74.48222153579398,-14.671992283286222,12.396299169463855,45.63815103024479,-33.24185186078094,-0.027965447294925935,0.0,-0.027965447294925935
0.34800000000000025,move_to_zero,-0.023368772548758368,-3.6390612216781992,3.615692449129441,-51.8343938830925,-76.28761154831469,24.453217665222184,59.71343331023362,74.39226716195847,-14.678833851724853,12.261638100625326,45.5830324903532,-33.32139438972787,-0.028222429498178228,0.0,-0.028222429498178228
0.35000000000000026,move_to_zero,-0.02321576522531455,-3.634660905811599,3.611445140586284,-51.766749167842974,-76.19536534329859,24.428616175455616,59.61659504475141,74.30231278812298,-14.685717743371562,12.12780108239722,45.52791395046159,-33.40011286806437,-0.028487457868340598,0.0,-0.028487457868340598
0.35200000000000026,move_to_zero,-0.023070385809886733,-3.630260589944999,3.607190204135112,-51.69870487649356,-76.10311913828248,24.404414261788922,59.519729861746356,74.21235841428748,-14.692628552541123,11.994781741240727,45.472795410569994,-33.478013669329265,-0.02876788068174093,0.0,-0.02876788068174093
0.35400000000000026,move_to_zero,-0.022930940074196837,-3.625860274078399,3.602929334004202,-51.630239927899,-76.01087293326638,24.380633005367386,59.42281259732357,74.12240404045198,-14.699591443128412,11.862548338672562,45.41767687067839,-33.55512853200583,-0.02903687244690838,0.0,-0.02903687244690838
0.35600000000000026,move_to_zero,-0.022796003683254365,-3.621459958211799,3.598663954528545,-51.56136194049025,-75.91862672825027,24.357264787760023,59.32581345102232,74.03244966661647,-14.706636215594152,11.731071625382109,45.36255833078679,-33.63148670540468,-0.029321833391297368,0.0,-0.029321833391297368
0.35800000000000026,move_to_zero,-0.02266467518481352,-3.6170596423451986,3.594394967160385,-51.492064025579346,-75.82638052323418,24.334316497654832,59.22874135361764,73.94249529278098,-14.713753939163333,11.600347372890878,45.307439790895195,-33.707092418004315,-0.02962542673264798,0.0,-0.02962542673264798
0.36000000000000026,move_to_zero,-0.022534357788169215,-3.6126593264785987,3.5901249686904295,-51.422351301660235,-75.7341343182181,24.31178301655786,59.13157328738646,73.85254091894548,-14.72096763155902,11.47035491041376,45.25232125100359,-33.78196634058983,-0.02995384564124558,0.0,-0.02995384564124558
0.36200000000000027,move_to_zero,-0.02240669107109832,-3.6082590106119987,3.5858523195409004,-51.35223517217852,-75.64188811320199,24.28965294102347,59.03429615154255,73.76258654510997,-14.72829039356742,11.34107166590397,45.19720271111199,-33.85613104520802,-0.030280627517662095,0.0,-0.030280627517662095
0.36400000000000027,move_to_zero,-0.022280683550091638,-3.603858694745399,3.5815780111953077,-51.28169442638095,-75.54964190818589,24.26794748180494,58.93687034777755,73.67263217127449,-14.735761823496937,11.212479713800672,45.14208417122039,-33.929604457419714,-0.030599107247438098,0.0,-0.030599107247438098
0.36600000000000027,move_to_zero,-0.022155089399908064,-3.5994583788787993,3.577303289478891,-51.210739600464386,-75.45739570316978,24.246656102705394,58.83927891915313,73.58267779743898,-14.743398878285845,11.084572962358651,45.086965631328795,-34.002392668970145,-0.03089756569489154,0.0,-0.03089756569489154
0.36800000000000027,move_to_zero,-0.022027045111637274,-3.5950580630121993,3.573031017900562,-51.13933706523896,-75.36514949815368,24.225812432914722,58.74149068496018,73.49272342360348,-14.751232738643296,10.957336794525608,45.03184709143719,-34.07451029691158,-0.031174729465846897,0.0,-0.031174729465846897
0.3700000000000003,move_to_zero,-0.021897667676023934,-3.5906577471455994,3.5687600794695755,-51.06748479211656,-75.27290329313757,24.205418501021015,58.643495534761755,73.40276904976798,-14.759273515006228,10.830743771626457,44.97672855154559,-34.14598477991913,-0.03143412396648386,0.0,-0.03143412396648386
0.3720000000000003,move_to_zero,-0.021765862224986648,-3.586257431278999,3.564491569054012,-50.995189076769414,-75.18065708812149,24.18546801135208,58.54528255941597,73.31281467593247,-14.767532116516499,10.704757764512777,44.921610011653996,-34.21685224714122,-0.031678523400799116,0.0,-0.031678523400799116
0.3740000000000003,move_to_zero,-0.021631761057358274,-3.581857115412399,3.560225354355041,-50.922439733191055,-75.08841088310538,24.165971149914327,58.44684719316377,73.22286030209698,-14.776013108933206,10.579368257674336,44.86649147176239,-34.287123214088055,-0.0319096912798726,0.0,-0.0319096912798726
0.3760000000000003,move_to_zero,-0.02149544874379171,-3.577456799545799,3.5559613508020074,-50.84924547386348,-74.99616467808929,24.146919204225803,58.34819375301128,73.13290592826148,-14.784712175250199,10.454540985737806,44.81137293187079,-34.356831946132985,-0.032127667277155394,0.0,-0.032127667277155394
0.3780000000000003,move_to_zero,-0.021357673184206363,-3.573056483679199,3.551698810494993,-50.77561599236995,-74.90391847307319,24.12830248070324,58.24930774709723,73.04295155442597,-14.793643807328742,10.330263260578468,44.75625439197919,-34.42599113140072,-0.032335863844646526,0.0,-0.032335863844646526
0.3800000000000003,move_to_zero,-0.021219087148010265,-3.5686561678125988,3.5474370806645883,-50.7015837337894,-74.81167226805708,24.110088534267682,58.150179668800845,72.95299718059049,-14.802817511789641,10.20649060263551,44.70113585208759,-34.49464524945208,-0.03253604837026246,0.0,-0.03253604837026246
0.3820000000000003,move_to_zero,-0.021074477601061296,-3.564255851945999,3.5431813743449374,-50.62716990625631,-74.71942606304098,24.09225615678467,58.05079467548652,72.86304280675498,-14.812248131268454,10.08323722042667,44.646017312195994,-34.562780091769326,-0.03272916000934553,0.0,-0.03272916000934553
0.3840000000000003,move_to_zero,-0.02092715173385995,-3.559855536079399,3.538928384345539,-50.55236877880621,-74.62717985802489,24.074811079218676,57.951174741134615,72.77308843291948,-14.821913691784864,9.960504553520899,44.59089877230439,-34.63039421878349,-0.03291630825537749,0.0,-0.03291630825537749
0.3860000000000003,move_to_zero,-0.020765520990787184,-3.5554552202127994,3.534689699222012,-50.47719110151726,-74.53493365300879,24.05774255149153,57.85130178922172,72.68313405908398,-14.83183226986226,9.838279044742977,44.53578023241279,-34.697501187669815,-0.033100128704710276,0.0,-0.033100128704710276
0.3880000000000003,move_to_zero,-0.020589024974879425,-3.551054904346199,3.5304658793713197,-50.401609012471695,-74.44268744799268,24.041078435520987,57.75115636835284,72.59317968524847,-14.842023316895634,9.716543003385468,44.48066169252119,-34.76411868913572,-0.03328151745459628,0.0,-0.03328151745459628
0.3900000000000003,move_to_zero,-0.020386688977090554,-3.546654588479599,3.5262678995025083,-50.32563333973409,-74.35044124297659,24.024807903242497,57.65072654688267,72.50322531141298,-14.852498764530303,9.595257583148229,44.425543152629594,-34.83028556948136,-0.033462383743252624,0.0,-0.033462383743252624
0.3920000000000003,move_to_zero,-0.02016601318709587,-3.542254272612999,3.522088259425903,-50.24928366368005,-74.25819503796048,24.008911374280423,57.55000565700503,72.41327093757748,-14.863265280572449,9.474410608142136,44.37042461273799,-34.896014004595855,-0.03364200238554321,0.0,-0.03364200238554321
0.3940000000000003,move_to_zero,-0.019939255480511068,-3.537853956746399,3.5179147012658882,-50.17258948450721,-74.16594883294438,23.993359348437167,57.44897755707946,72.32331656374198,-14.874339006662524,9.354015352207998,44.31530607284639,-34.96129072063839,-0.03382398803128522,0.0,-0.03382398803128522
0.3960000000000003,move_to_zero,-0.019711106787812994,-3.5334536408797987,3.513742534091986,-50.09556030356121,-74.07370262792828,23.978142324367077,57.347630332294074,72.23336218990647,-14.885731857612399,9.234057519373382,44.260187532954795,-35.026130013581415,-0.03400774203470012,0.0,-0.03400774203470012
0.3980000000000003,move_to_zero,-0.019500835301462252,-3.529053325013199,3.5095524897117367,-50.018202503034985,-73.98145642291219,23.963253919877204,57.245952181573095,72.14340781607098,-14.89745563449788,9.114515677746116,44.205068993063186,-35.09055331531707,-0.03419238651663678,0.0,-0.03419238651663678
0.4000000000000003,move_to_zero,-0.019304266069302106,-3.524653009146599,3.5053487430772967,-49.94053132247658,-73.88921021789609,23.948678895419512,57.143952764037046,72.05345344223548,-14.909500678198434,8.995393649091385,44.14995045317159,-35.15455680408021,-0.03437577746128802,0.0,-0.03437577746128802
0.4020000000000003,move_to_zero,-0.019119048322155885,-3.520252693279999,3.501133644957843,-49.86255613579079,-73.79696401287998,23.934407877089193,57.041642215568864,71.96349906839997,-14.921856852831105,8.87665617631423,44.09483191327999,-35.21817573696576,-0.034557663855455674,0.0,-0.034557663855455674
0.4040000000000003,move_to_zero,-0.018943447318716056,-3.515852377413399,3.496908930094683,-49.78430494656633,-73.70471780786389,23.920412861297557,56.939010498877174,71.87354469456449,-14.934534195687313,8.758292317997125,44.039713373388395,-35.28142105539127,-0.034736794300843796,0.0,-0.034736794300843796
0.4060000000000003,move_to_zero,-0.018775705972558607,-3.511452061546799,3.4926763555742406,-49.70578497885013,-73.61247160284778,23.906686623997643,56.83604577983842,71.78359032072898,-14.947544540890554,8.640296884747277,43.98459483349679,-35.344297948749514,-0.034913969600261746,0.0,-0.034913969600261746
0.4080000000000003,move_to_zero,-0.01861202048941341,-3.507051745680199,3.4884397251907857,-49.62699987647745,-73.52022539783168,23.893225521354232,56.73272962314007,71.69363594689347,-14.960906323753399,8.522646042701721,43.92947629360519,-35.40683025090347,-0.03509171356918634,0.0,-0.03509171356918634
0.4100000000000003,move_to_zero,-0.01843515468389556,-3.5026514298135987,3.484216275129703,-49.547951102563914,-73.42797919281558,23.88002809025167,56.629042319883474,71.60368157305798,-14.974639253174509,8.40533966705965,43.87435775371359,-35.46901808665394,-0.0352677594458348,0.0,-0.0352677594458348
0.4120000000000003,move_to_zero,-0.01825880305640976,-3.4982511139469987,3.479992310890589,-49.46865104973654,-73.33573298779949,23.867081938062945,56.52498839398061,71.51372719922247,-14.988738805241866,8.288375671706575,43.81923921382199,-35.53086354211541,-0.03544044901877997,0.0,-0.03544044901877997
0.4140000000000003,move_to_zero,-0.018069942951348016,-3.493850798080399,3.4757808551290506,-49.38908927220769,-73.24348678278338,23.854397510575687,56.42057630260416,71.42377282538698,-15.003196522782815,8.171717654779743,43.76412067393039,-35.59240301915065,-0.0356105429535251,0.0,-0.0356105429535251
0.4160000000000003,move_to_zero,-0.017880216667433366,-3.4894504822137993,3.471570265546366,-49.30926079711051,-73.15124057776728,23.84197978065677,56.31580192328349,71.33381845155148,-15.018016528267992,8.055341177600999,43.70900213403879,-35.65366095643779,-0.03577621395423538,0.0,-0.03577621395423538
0.4180000000000003,move_to_zero,-0.017691463303636107,-3.485050166347199,3.467358703043563,-49.2291643320666,-73.05899437275119,23.829830040684584,56.21067780410986,71.24386407771597,-15.033186273606113,7.939240610546709,43.653883594147196,-35.714642983600484,-0.03594213381386095,0.0,-0.03594213381386095
0.4200000000000003,move_to_zero,-0.017511722221687717,-3.480649850480599,3.4631381282589113,-49.14882321318079,-72.96674816773508,23.817924954554286,56.10520797692342,71.15390970388047,-15.048701726957056,7.823425205316992,43.598765054255594,-35.7753398489386,-0.036108898100887535,0.0,-0.036108898100887535
0.4220000000000003,move_to_zero,-0.017318956143787156,-3.476249534613999,3.458930578470212,-49.06825038234905,-72.87450196271898,23.80625158036993,55.99937888342958,71.06395533004498,-15.064576446615398,7.70789021207955,43.543646514363985,-35.83575630228444,-0.036275523208938995,0.0,-0.036275523208938995
0.4240000000000003,move_to_zero,-0.017111037436424333,-3.471849218747399,3.4547381813109745,-48.987459708347366,-72.78225575770288,23.79479604935552,55.89318163444965,70.97400095620948,-15.080819321759833,7.592629693898205,43.48852797447239,-35.89589828057419,-0.036440679764608123,0.0,-0.036440679764608123
0.4260000000000003,move_to_zero,-0.01689423734110034,-3.4674489028807987,3.4505546655396984,-48.90646570082228,-72.69000955268679,23.783543851864508,55.78665428809934,70.88404658237397,-15.097392294274627,7.477620479685806,43.43340943458079,-35.955788954894984,-0.03660236699271086,0.0,-0.03660236699271086
0.4280000000000003,move_to_zero,-0.016680863681415418,-3.4630485870141987,3.4463677233327834,-48.82526966692763,-72.59776334767068,23.772493680743047,55.6798063782467,70.79409220853847,-15.11428583029177,7.362871837863041,43.378290894689194,-36.015419056826154,-0.036760679813744174,0.0,-0.036760679813744174
0.4300000000000003,move_to_zero,-0.01648168674959706,-3.458648271147599,3.4421665843980023,-48.74387560118569,-72.50551714265458,23.76164154146889,55.57264366914102,70.70413783470298,-15.131494165561953,7.24839486581884,43.32317235479759,-36.074777488978754,-0.036915583720805986,0.0,-0.036915583720805986
0.43200000000000033,move_to_zero,-0.01628591649631817,-3.454247955280999,3.4379620387846805,-48.66228741194548,-72.41327093763847,23.750983525692995,55.465149543435544,70.61418346086747,-15.149033917431922,7.134163072879838,43.268053814906,-36.13389074202616,-0.03706996642954714,0.0,-0.03706996642954714
0.43400000000000033,move_to_zero,-0.016101248073255376,-3.449847639414399,3.4337463913411437,-48.58050048701178,-72.32102473262238,23.740524245610594,55.35732910644361,70.52422908703198,-15.166899980588376,7.020192365972007,43.21293527501439,-36.19274290904238,-0.03722230034272975,0.0,-0.03722230034272975
0.43600000000000033,move_to_zero,-0.01592612794978688,-3.445447323547799,3.429521195598012,-48.498523965156025,-72.22877852760628,23.730254562450256,55.249186634482854,70.43427471319647,-15.185088078713619,6.906464699871073,43.157816735122786,-36.25135203525171,-0.037372999497708816,0.0,-0.037372999497708816
0.43800000000000033,move_to_zero,-0.01576080145030771,-3.441047007681199,3.4252862062308913,-48.41636331893624,-72.13653232259018,23.720169003653943,55.140712042099544,70.34432033936098,-15.203608297261432,6.79297459406251,43.10269819523119,-36.309723601168685,-0.03752103780132724,0.0,-0.03752103780132724
0.44000000000000034,move_to_zero,-0.015602806696335864,-3.4366466918145986,3.4210438851182627,-48.33405147524174,-72.04428611757409,23.710234642332345,55.03192463531092,70.25436596552548,-15.222441330214558,6.679703719748011,43.04757965533959,-36.36787593559158,-0.03766596270818875,0.0,-0.03766596270818875
0.44200000000000034,move_to_zero,-0.015453618940980494,-3.4322463759479986,3.416792757007018,-48.25160903780385,-71.95203991255798,23.700430874754126,54.92282853185823,70.16441159168997,-15.24158305983174,6.56666764680692,42.992461115447995,-36.425793468641075,-0.03780796513789149,0.0,-0.03780796513789149
0.44400000000000034,move_to_zero,-0.01531311443151445,-3.427846060081399,3.4125329456498847,-48.16902943644791,-71.85979370754188,23.690764271093975,54.81344514250607,70.07445721785447,-15.261012075348404,6.453855198777689,42.937342575556386,-36.4834873767787,-0.03794800764968858,0.0,-0.03794800764968858
0.44600000000000034,move_to_zero,-0.015178739458739276,-3.423445744214799,3.40826700475606,-48.08628893627838,-71.76754750252577,23.681258566247394,54.70377838033245,69.98450284401898,-15.280724463686525,6.341274782346541,42.88222403566479,-36.54094925331825,-0.03808567369690952,0.0,-0.03808567369690952
0.44800000000000034,move_to_zero,-0.01504795047233981,-3.419045428348199,3.403997477875859,-48.00341445442796,-71.67530129750969,23.67188684308173,54.59382862015633,69.89454847018347,-15.300719850027136,6.22892241478856,42.82710549577319,-36.598183080984626,-0.03822011968157232,0.0,-0.03822011968157232
0.45000000000000034,move_to_zero,-0.014919699117314972,-3.414645112481599,3.399725413364284,-47.920423988978854,-71.58305509249358,23.662631103514727,54.483582388827514,69.80459409634798,-15.32101170752047,6.1167916409377305,42.77198695588159,-36.65519531494385,-0.038353185648380216,0.0,-0.038353185648380216
0.45200000000000035,move_to_zero,-0.014794860188543438,-3.410244796614999,3.3954499364264557,-47.837329913343765,-71.49080888747748,23.65347897413372,54.373020823918516,69.71463972251247,-15.341618898593957,6.004855163680964,42.71686841598999,-36.71201325230903,-0.03848776247667248,0.0,-0.03848776247667248
0.45400000000000035,move_to_zero,-0.014672372410542171,-3.405844480748399,3.391172108337857,-47.75411300229834,-71.39856268246137,23.644449680163035,54.26212533716613,69.62468534867698,-15.362560011510844,5.893095256730578,42.66174987609839,-36.768654619367815,-0.038622125054872294,0.0,-0.038622125054872294
0.45600000000000035,move_to_zero,-0.014552149278484267,-3.4014441648817986,3.386892015603314,-47.67076099058113,-71.30631647744528,23.63555548686415,54.15089365136757,69.53473097484148,-15.383837323473912,5.781486750875512,42.60663133620679,-36.82514458533127,-0.0387583610134697,0.0,-0.0387583610134697
0.45800000000000035,move_to_zero,-0.0144334557733893,-3.397043849015199,3.38261039324181,-47.587302487131815,-71.21407027242918,23.626767785297368,54.039319567892925,69.44477660100597,-15.405457033113045,5.67003360715281,42.55151279631519,-36.88147918916238,-0.038895121570205665,0.0,-0.038895121570205665
0.46000000000000035,move_to_zero,-0.01431538449659946,-3.392643533148599,3.378328148652,-47.503738137933375,-71.12182406741309,23.61808592947971,53.92738489217724,69.35482222717047,-15.427437334993236,5.558726348983533,42.49639425642359,-36.93766790744006,-0.03903156410096263,0.0,-0.03903156410096263
0.46200000000000035,move_to_zero,-0.014200089138127264,-3.3882432172819987,3.3740431281438714,-47.420085604521695,-71.02957786239699,23.609492257875296,53.81510336515041,69.26486785333498,-15.44976448818457,5.447582589857858,42.44127571653199,-36.99369312667413,-0.039171058896523496,0.0,-0.039171058896523496
0.46400000000000036,move_to_zero,-0.014088213141815674,-3.383842901415399,3.369754688273583,-47.3363464894451,-70.93733165738088,23.600985167935782,53.70249278673859,69.17491347949948,-15.472420692760892,5.336608843403548,42.38615717664039,-37.04954833323684,-0.03931255648062589,0.0,-0.03931255648062589
0.46600000000000036,move_to_zero,-0.01397842649835477,-3.379442585548799,3.365464159050444,-47.252538778319106,-70.84508545236478,23.59254667404568,53.589525292513684,69.08495910566397,-15.495433813150285,5.225843858006857,42.331038636748794,-37.10519477874194,-0.03945430574198091,0.0,-0.03945430574198091
0.46800000000000036,move_to_zero,-0.013871267302331297,-3.375042269682199,3.3611710023798675,-47.16865826335905,-70.75283924734867,23.584180983989626,53.47622261554344,68.99500473182847,-15.518782116285031,5.115299820186159,42.275920096857185,-37.160620276671025,-0.03959603153652952,0.0,-0.03959603153652952
0.47000000000000036,move_to_zero,-0.013766385994089008,-3.3706419538155985,3.3568755678215094,-47.08474218659107,-70.66059304233258,23.575850855741507,53.3625731663106,68.90505035799298,-15.54247719168238,5.004971319559807,42.22080155696559,-37.21583023740578,-0.03973900156989875,0.0,-0.03973900156989875
0.47200000000000036,move_to_zero,-0.013663430726281407,-3.3662416379489986,3.352578207222717,-47.000778145480346,-70.56834683731647,23.567568691836122,53.24859582890759,68.81509598415747,-15.566500155249877,4.894845743405837,42.16568301707399,-37.27083727366815,-0.039880751284270655,0.0,-0.039880751284270655
0.47400000000000037,move_to_zero,-0.013562355379202834,-3.361841322082399,3.3482789667031962,-46.91676316072178,-70.47610063230039,23.55933747157861,53.13427969183524,68.72514161032198,-15.590861918486745,4.784910523152516,42.11056447718239,-37.325653954029875,-0.04002326370966742,0.0,-0.04002326370966742
0.47600000000000037,move_to_zero,-0.013461075929539485,-3.357441006215799,3.3439799302862596,-46.832718539866235,-70.38385442728428,23.55113588741804,53.01963618854284,68.63518723648647,-15.615551047943633,4.675143717668673,42.05544593729079,-37.380302219622116,-0.0401678007446062,0.0,-0.0401678007446062
0.47800000000000037,move_to_zero,-0.013358149634637518,-3.3530406903491987,3.3396825407145614,-46.748625192289744,-70.29160822226818,23.542983029978437,52.90467391634677,68.54523286265096,-15.64055894630419,4.565525125862762,42.00032739739919,-37.43480227153643,-0.04031241835042189,0.0,-0.04031241835042189
0.48000000000000037,move_to_zero,-0.013253144851866848,-3.3486403744825988,3.335387229630732,-46.66449235439415,-70.19936201725208,23.534869662857936,52.789401290556604,68.45527848881548,-15.665877198258876,4.456056961696585,41.94520885750759,-37.489151895811005,-0.04045755295708699,0.0,-0.04045755295708699
0.4820000000000004,move_to_zero,-0.01314837516999904,-3.344240058615999,3.3310916834459996,-46.58033517459878,-70.10711581223597,23.526780637637195,52.67380762157974,68.36532411497997,-15.69151649340023,4.346731951704758,41.890090317615986,-37.54335836591123,-0.04060410358575223,0.0,-0.04060410358575223
0.4840000000000004,move_to_zero,-0.013043431099866304,-3.339839742749399,3.3267963116495327,-46.49618176889464,-70.01486960721988,23.518687838325242,52.55789286531397,68.27536974114447,-15.717476875830506,4.237530939547018,41.83497177772439,-37.59744083817737,-0.040750081437989805,0.0,-0.040750081437989805
0.4860000000000004,move_to_zero,-0.012937595924110324,-3.3354394268827985,3.322501830958688,-46.41204921776199,-69.92262340220378,23.510574184441793,52.44168386080159,68.18541536730898,-15.743731506507388,4.1284241679843054,41.77985323783279,-37.65142906984848,-0.040892728390657676,0.0,-0.040892728390657676
0.4880000000000004,move_to_zero,-0.012834098599986906,-3.331039111016199,3.318205012416212,-46.32791576967933,-69.83037719718769,23.502461427508358,52.32520204445493,68.09546099347347,-15.770258949018533,4.019388866016268,41.72473469794119,-37.705345831924916,-0.04103196142153283,0.0,-0.04103196142153283
0.4900000000000004,move_to_zero,-0.012732495063856158,-3.326638795149599,3.3139063000857427,-46.24381100147424,-69.73813099217158,23.494319990697335,52.20844626045969,68.00550661963797,-15.797060359178282,3.9104307602286186,41.66961615804959,-37.75918539782097,-0.04116765669810281,0.0,-0.04116765669810281
0.4920000000000004,move_to_zero,-0.012632459239433848,-3.3222384792829986,3.3096060200435646,-46.15971383238073,-69.64588478715548,23.48617095477475,52.09140844397835,67.91555224580247,-15.824143801824121,3.801549984304662,41.61449761815798,-37.81294763385332,-0.04130307072437015,0.0,-0.04130307072437015
0.4940000000000004,move_to_zero,-0.012532435506075808,-3.3178381634163987,3.305305727910323,-46.07564886773127,-69.55363858213937,23.477989714408103,51.974102760270455,67.82559787196698,-15.851495111696522,3.6927425173842146,41.55937907826639,-37.86663656088217,-0.04143939566593779,0.0,-0.04143939566593779
0.4960000000000004,move_to_zero,-0.01243312131234274,-3.3134378475497988,3.301004726237456,-45.9916347618251,-69.46139237712327,23.469757615298178,51.85654415690254,67.73564349813147,-15.87909934122893,3.5840149393871217,41.50426053837479,-37.92024559898766,-0.04157680575655264,0.0,-0.04157680575655264
0.4980000000000004,move_to_zero,-0.01233425352668899,-3.309037531683199,3.2967032781565098,-45.90768615546247,-69.36914617210718,23.461460016644708,51.73874788770527,67.64568912429597,-15.906941236590697,3.475403478146595,41.44914199848319,-37.973738520336596,-0.04171318608325827,0.0,-0.04171318608325827
0.5000000000000003,move_to_zero,-0.012236108763440475,-3.3046372158165984,3.292401107053158,-45.82382129563097,-69.27689996709108,23.453078671460112,51.62070978921585,67.55573475046047,-15.935024961244622,3.366889443745585,41.39402345859159,-38.027134014846006,-0.04184878176187019,0.0,-0.04184878176187019
0.5020000000000003,move_to_zero,-0.012137967440486404,-3.300236899949999,3.2880989325095125,-45.74005310297414,-69.18465376207499,23.44460065910085,51.50243407352427,67.46578037662498,-15.963346303100707,3.2584508224670463,41.33890491869999,-38.08045409623294,-0.04198059847521541,0.0,-0.04198059847521541
0.5040000000000003,move_to_zero,-0.012038196093483288,-3.2958365840833994,3.283798387989916,-45.65638231962943,-69.09240755705889,23.43602523742946,51.383942608275305,67.37582600278948,-15.991883394514176,3.15007909378871,41.283786378808394,-38.13370728501968,-0.042107745677029185,0.0,-0.042107745677029185
0.5060000000000003,move_to_zero,-0.011938661125940761,-3.291436268216799,3.279497607090858,-45.57280560413506,-69.00016135204278,23.42735574790772,51.26525775711476,67.28587162895397,-16.02061387183921,3.0417759975445544,41.228667838916785,-38.18689184137223,-0.04222949046703784,0.0,-0.04222949046703784
0.5080000000000003,move_to_zero,-0.011840282776994117,-3.287035952350199,3.275195669573205,-45.48932423988645,-68.90791514702669,23.418590907140235,51.14637162994334,67.19591725511847,-16.049545625175135,2.9335293604479005,41.1735492990252,-38.2400199385773,-0.04234748213824377,0.0,-0.04234748213824377
0.5100000000000003,move_to_zero,-0.011742945526659287,-3.2826356364835987,3.2708926909569396,-45.405939616458774,-68.81566894201057,23.4097293255518,51.02726711182397,67.10596288128298,-16.07869576945901,2.8253694022379787,41.11843075913359,-38.293061356895606,-0.042460230284391436,0.0,-0.042460230284391436
0.5120000000000003,move_to_zero,-0.011647100211965107,-3.278235320616999,3.2665882204050343,-45.32266306104964,-68.7234227369945,23.400759675944855,50.90795542685097,67.01600850744748,-16.108053080596513,2.7172989303406756,41.06331221924199,-38.34601328890132,-0.04257112959122368,0.0,-0.04257112959122368
0.5140000000000003,move_to_zero,-0.011549627084607139,-3.273835004750399,3.262285377665792,-45.23952940877589,-68.63117653197838,23.391647123202496,50.78845644759064,66.92605413361197,-16.13759768602133,2.6093206379975693,41.00819367935039,-38.39887304135282,-0.04268036229656241,0.0,-0.04268036229656241
0.5160000000000003,move_to_zero,-0.011452451240279542,-3.2694346888837993,3.2579822376435197,-45.156546113266046,-68.53893032696229,23.38238421369624,50.66879201049914,66.83609975977649,-16.16730774927735,2.5014266592691614,40.95307513945879,-38.451648480189625,-0.042788561800001665,0.0,-0.042788561800001665
0.5180000000000003,move_to_zero,-0.011356330348322178,-3.265034373017199,3.2536780426688767,-45.07369829479572,-68.44668412194618,23.37298582715046,50.548949404215854,66.74614538594096,-16.19719598172511,2.393627786291349,40.89795659956719,-38.50432881327584,-0.042897550767691854,0.0,-0.042897550767691854
0.5200000000000004,move_to_zero,-0.011261505443737371,-3.2606340571505994,3.249372551706862,-44.99102668906642,-68.35443791693008,23.363411227863658,50.42893774517895,66.65619101210548,-16.22725326692653,2.285905678090366,40.84283805967559,-38.55693238158523,-0.04300743846129862,0.0,-0.04300743846129862
0.5220000000000004,move_to_zero,-0.011169252655530556,-3.2562337412839986,3.245064488628468,-44.908553697812565,-68.26219171191397,23.353638014101406,50.30878003315706,66.56623663826997,-16.257456605112907,2.178259005382871,40.78771951978399,-38.60946051440112,-0.043115095978894805,0.0,-0.043115095978894805
0.5240000000000004,move_to_zero,-0.011080324805018084,-3.251833425417399,3.240753100612381,-44.826287708443786,-68.16994550689789,23.343657798454103,50.18849296789034,66.47628226443447,-16.287789296544133,2.070699077533697,40.732600979892396,-38.6619019023587,-0.04322052409095856,0.0,-0.04322052409095856
0.5260000000000004,move_to_zero,-0.010994480498413957,-3.2474331095507987,3.2364386290523846,-44.744244142123065,-68.07769930188178,23.333455159758714,50.06810344854067,66.38632789059898,-16.31822444205831,1.9632218036602842,40.677482440000794,-38.71426063634051,-0.04332554030272552,0.0,-0.04332554030272552
0.5280000000000004,move_to_zero,-0.010910622680478356,-3.2430327936841996,3.2321221710037213,-44.6624172823332,-67.9854530968657,23.323035814532496,49.947609322035994,66.29637351676348,-16.348764194727487,1.8558141560229728,40.62236390010919,-38.76654974408622,-0.04342971143997297,0.0,-0.04342971143997297
0.5300000000000004,move_to_zero,-0.010830041860354064,-3.2386324778175983,3.227802435957244,-44.58079957134014,-67.89320689184957,23.312407320509436,49.82700287550319,66.20641914292797,-16.37941626742478,1.7484803301978247,40.56724536021758,-38.81876503001976,-0.043530771947522195,0.0,-0.043530771947522195
0.5320000000000004,move_to_zero,-0.010752335612781796,-3.2342321619509993,3.2234798263382176,-44.499368073369105,-67.80096068683349,23.301592613464386,49.70628958486856,66.11646476909249,-16.41017518422393,1.6412110645707885,40.512126820325996,-38.870915755755206,-0.04362773137641782,0.0,-0.04362773137641782
0.5340000000000004,move_to_zero,-0.010678105217688702,-3.229831846084399,3.21915374086671,-44.41812521333276,-67.70871448181737,23.29058926848461,49.585469725049784,66.02651039525698,-16.441040670207194,1.5339746027033643,40.45700828043439,-38.92303367773102,-0.04372128991749993,0.0,-0.04372128991749993
0.5360000000000004,move_to_zero,-0.010607360710088345,-3.2254315302177994,3.214824169507711,-44.33709668564571,-67.61646827680129,23.279371591155574,49.46454247198736,65.93655602142148,-16.472013549434124,1.4267721229976325,40.4018897405428,-38.975117617545166,-0.043811586543861296,0.0,-0.043811586543861296
0.5380000000000004,move_to_zero,-0.01053895078031989,-3.2210312143511985,3.210492263570879,-44.25630250708327,-67.52422207178519,23.26791956470192,49.34350650301201,65.84660164758597,-16.50309514457396,1.319625419653413,40.34677120065119,-39.02714578099778,-0.043900023750502164,0.0,-0.043900023750502164
0.5400000000000004,move_to_zero,-0.01047148902189252,-3.216630898484599,3.2061594094627064,-44.175750064380885,-67.4319758667691,23.256225802388208,49.22235912031234,65.75664727375049,-16.534288153438148,1.2125379651801282,40.29165266075959,-39.07911469557946,-0.043984926138548236,0.0,-0.043984926138548236
0.5420000000000004,move_to_zero,-0.010405911624670134,-3.2122305826179987,3.2018246709933287,-44.0954523428589,-67.33972966175298,23.244277318894085,49.10108999830129,65.66669289991496,-16.565602901613673,1.1054975333580483,40.23653412086799,-39.13103658750994,-0.0440680160136113,0.0,-0.0440680160136113
0.5440000000000004,move_to_zero,-0.010343022026608242,-3.207830266751399,3.197487244724791,-44.01540989764866,-67.24748345673689,23.232073559088228,48.979705796653406,65.57673852607948,-16.597032729426076,0.9984923565275309,40.18141558097639,-39.182923224448864,-0.04414910578923499,0.0,-0.04414910578923499
0.5460000000000004,move_to_zero,-0.01028215777323179,-3.2034299508847988,3.193147793111567,-43.93563205845168,-67.15523725172078,23.219605193269096,48.858208647471535,65.48678415224397,-16.628575504772435,0.8915094120308776,40.12629704108479,-39.23478762905391,-0.044227828437293656,0.0,-0.044227828437293656
0.5480000000000004,move_to_zero,-0.010224001743581446,-3.1990296350181993,3.188805633274618,-43.856124587904354,-67.06299104670468,23.206866458800327,48.73661424050407,65.39682977840847,-16.660215537904406,0.7845415284510501,40.071178501193195,-39.286636972742144,-0.04430403634242036,0.0,-0.04430403634242036
0.5500000000000004,move_to_zero,-0.010169082018448667,-3.194629319151599,3.18446023713315,-43.77689877085954,-66.97074484168859,23.193846070829046,48.61495096566719,65.30687540457298,-16.691924438905787,0.6775827582623981,40.01605996130159,-39.3384772030392,-0.04437874781619063,0.0,-0.04437874781619063
0.5520000000000004,move_to_zero,-0.010117106190128677,-3.190229003284999,3.18011189709487,-43.69794799455719,-66.87849863667249,23.1805506421153,48.493216863095704,65.21692103073748,-16.723704167641777,0.570666272500004,39.96094142140999,-39.390275148909986,-0.044451606128451844,0.0,-0.044451606128451844
0.5540000000000004,move_to_zero,-0.01006737150369328,-3.1858286874183985,3.175761315914705,-43.61926202801735,-66.78625243165638,23.166990403639026,48.37139214273894,65.12696665690197,-16.75557451416303,0.46379221929810643,39.90582288151839,-39.44203066222028,-0.04452277112113209,0.0,-0.04452277112113209
0.5560000000000004,move_to_zero,-0.010021833216053303,-3.1814283715517995,3.1714065383357464,-43.54082935020532,-66.69400622664028,23.153176876434962,48.249470741889205,65.03701228306649,-16.787541541177283,0.35695493322650584,39.850704341626795,-39.49374940840029,-0.04459265818358472,0.0,-0.04459265818358472
0.5580000000000004,move_to_zero,-0.009979356653580126,-3.1770280556851986,3.1670486990316187,-43.46266556259927,-66.60176002162417,23.139094459024903,48.1274435346836,64.94705790923096,-16.819614374547363,0.25016205011688053,39.795585801735186,-39.54542375161831,-0.044660964418702466,0.0,-0.044660964418702466
0.5600000000000004,move_to_zero,-0.009939981774823624,-3.172627739818599,3.1626877580437753,-43.385256981037365,-66.50951381660808,23.124256835570712,48.0045722533524,64.85710353539548,-16.85253128204308,0.1551896820713761,39.7404672618436,-39.585277579772224,-0.04472932446295522,0.0,-0.04472932446295522
0.5620000000000004,move_to_zero,-0.009902275250335407,-3.1682274239519987,3.1583251487016635,-43.30897293612353,-66.41726761159198,23.10829467546845,47.880312758354265,64.76714916155997,-16.886836403205706,0.08124249633353589,39.68534872195198,-39.604106225618445,-0.044800047289527065,0.0,-0.044800047289527065
0.5640000000000004,move_to_zero,-0.009866426507614432,-3.1638271080853992,3.153960681577785,-43.234006411114486,-66.3250214065759,23.091014995461414,47.754375809094576,64.67719478772447,-16.9228189786299,0.03348223702559812,39.630230182060394,-39.5967479450348,-0.04487551839512057,0.0,-0.04487551839512057
0.5660000000000004,move_to_zero,-0.009833653640553759,-3.159426792218799,3.149593138578245,-43.160359565202604,-66.23277520155978,23.07241563635717,47.626777291119375,64.58724041388896,-16.96046312276959,0.012396736194484578,39.575111642168785,-39.5627149059743,-0.04495633030480088,0.0,-0.04495633030480088
0.5680000000000004,move_to_zero,-0.0098034660278528,-3.155026476352199,3.145223010324346,-43.08786920235932,-66.1405289965437,23.052659794184372,47.497774108856646,64.49728604005348,-16.999511931196835,0.014794791742387528,39.51999310227719,-39.5051983105348,-0.04504193797857497,0.0,-0.04504193797857497
0.5700000000000004,move_to_zero,-0.009774993492381256,-3.1506261604855985,3.140851166993217,-43.016310152729545,-66.04828279152757,23.031972638798024,47.36778176916991,64.40733166621797,-17.03954989704806,0.03506038385600658,39.46487456238559,-39.42981417852958,-0.045131795234652834,0.0,-0.045131795234652834
0.5720000000000004,move_to_zero,-0.009746949266398967,-3.1462258446189995,3.1364788953526004,-42.945384285975585,-65.95603658651149,23.010652300535902,47.237267823932754,64.31737729238247,-17.08010946844972,0.06644369181201085,39.409756022493994,-39.34331233068198,-0.045222244889796204,0.0,-0.045222244889796204
0.5740000000000004,move_to_zero,-0.009719501099234414,-3.141825528752399,3.1321060276531645,-42.87478506644697,-65.86379038149538,22.98900531504841,47.10667213952147,64.22742291854698,-17.120750779025506,0.10220854616956207,39.354637482602385,-39.25242893643282,-0.04531370651327004,0.0,-0.04531370651327004
0.5760000000000004,move_to_zero,-0.009691875305887842,-3.137425212885799,3.1277333375799112,-42.804286591256485,-65.7715441764793,22.96725758522281,46.97637535333108,64.13746854471148,-17.161093191380402,0.1365370693539688,39.29951894271079,-39.16298187335682,-0.04540460047894009,0.0,-0.04540460047894009
0.5780000000000004,move_to_zero,-0.009664386638408906,-3.1330248970191987,3.12336051038079,-42.73370120850557,-65.67929797146319,22.945596762957614,46.84663213282833,64.04751417087597,-17.200882038047638,0.16509514133682962,39.24440040281919,-39.07930526148236,-0.045497788257773626,0.0,-0.045497788257773626
0.5800000000000004,move_to_zero,-0.009637858648044098,-3.1286245811525992,3.1189867225045553,-42.66300952432387,-65.58705176644709,22.92404224212322,46.71741700959856,63.95755979704048,-17.24014278744192,0.18767501404840997,39.189281862927594,-39.001606848879184,-0.04559213353990156,0.0,-0.04559213353990156
0.5820000000000004,move_to_zero,-0.009613218869054722,-3.1242242652859984,3.1146110464169436,-42.59223453522388,-65.49480556143098,22.9025710262071,46.588735847231355,63.867605423204964,-17.27886957597361,0.20443040421952144,39.134163323035985,-38.92973291881646,-0.045687419852996236,0.0,-0.045687419852996236
0.5840000000000004,move_to_zero,-0.009591301766575381,-3.119823949419399,3.1102326476528237,-42.52137463543172,-65.40255935641488,22.881184720983164,46.46058374813422,63.777651049369474,-17.317067301235255,0.2155139599671243,39.0790447831444,-38.86353082317727,-0.04578501618665008,0.0,-0.04578501618665008
0.5860000000000004,move_to_zero,-0.009570548174337182,-3.1154236335527985,3.1058530853784614,-42.450431851165746,-65.31031315139877,22.859881300233027,46.33294940895943,63.68769667553397,-17.35474726657454,0.2210742191902525,39.02392624325278,-38.80285202406253,-0.04588351278211258,0.0,-0.04588351278211258
0.5880000000000004,move_to_zero,-0.009552346517175072,-3.1110233176861994,3.1014709711690243,-42.379404699898735,-65.21806694638268,22.838662246483942,46.20579559732737,63.597742301698474,-17.3919467043711,0.22130679720877822,38.96880770336119,-38.74750090615242,-0.045981373432872015,0.0,-0.045981373432872015
0.5900000000000004,move_to_zero,-0.009535491424015443,-3.1066230018195986,3.0970875103955833,-42.30828169341468,-65.12582074136658,22.817539047951904,46.079102431003804,63.50778792786297,-17.428685496859167,0.2163478306558151,38.913689163469584,-38.69734133281377,-0.046076900531859595,0.0,-0.046076900531859595
0.5920000000000004,move_to_zero,-0.009520365864670963,-3.102222685952999,3.0927023200883283,-42.23708626231997,-65.03357453635049,22.796488274030516,45.952860730396495,63.41783355402748,-17.464972823630987,0.20635315880563987,38.858570623578,-38.652217464772356,-0.04617104859750393,0.0,-0.04617104859750393
0.5940000000000004,move_to_zero,-0.009507545060906616,-3.0978223700863987,3.088314825025492,-42.16582640499784,-64.94132833133438,22.77550192633654,45.827047010459594,63.32787918019197,-17.500832169732377,0.19149107857464365,38.80345208368639,-38.611961005111745,-0.04626174070381575,0.0,-0.04626174070381575
0.5960000000000004,move_to_zero,-0.0094962597158301,-3.093422054219799,3.083925794503969,-42.094618473261875,-64.84908212631828,22.754463653056405,45.701465631724226,63.23792480635648,-17.536459174632256,0.17473899605297313,38.74833354379479,-38.57359454774182,-0.046349316609510666,0.0,-0.046349316609510666
0.5980000000000004,move_to_zero,-0.00948536029790698,-3.0890217383531984,3.0795363780552916,-42.023581393253984,-64.75683592130217,22.733254528048185,45.575920342050644,63.147970432520964,-17.57205009047032,0.15872133582315953,38.693215003903184,-38.534493668080025,-0.04643433047842482,0.0,-0.04643433047842482
0.6000000000000004,move_to_zero,-0.00947636509669903,-3.0846214224865993,3.0751450573899004,-41.95280760817803,-64.66458971628607,22.711782108108046,45.45027788963683,63.05801605868548,-17.607738169048652,0.1453580806384796,38.63809646401159,-38.49273838337311,-0.046515524514324676,0.0,-0.046515524514324676
0.6020000000000004,move_to_zero,-0.009468254110462872,-3.0802211066199985,3.0707528525095356,-41.882321250778716,-64.57234351126998,22.69002226049126,45.32450763013118,62.968061684849964,-17.643554054718784,0.1350064429960129,38.58297792411999,-38.44797148112397,-0.04659262237443334,0.0,-0.04659262237443334
0.6040000000000004,move_to_zero,-0.009459095089846272,-3.075820790753399,3.0663616956635527,-41.81215668216337,-64.4800973062539,22.667940624090527,45.19857656632828,62.878107311014475,-17.679530744686197,0.12832789046025048,38.52785938422839,-38.399531493768144,-0.046663125267394606,0.0,-0.046663125267394606
0.6060000000000004,move_to_zero,-0.00944825735332425,-3.0714204748867986,3.0619722175334743,-41.742320357648836,-64.38785110123777,22.645530743588935,45.07250414206615,62.78815293717897,-17.71564879511282,0.12532944929780135,38.47274084433679,-38.34741139503899,-0.04672788782446189,0.0,-0.04672788782446189
0.6080000000000004,move_to_zero,-0.009435996753330221,-3.067020159020199,3.0575841622668687,-41.6727899631092,-64.29560489622169,22.622814933112487,44.946351130685386,62.698198563343475,-17.75184743265809,0.12553959577129348,38.417622304445196,-38.2920827086739,-0.046788346492423964,0.0,-0.046788346492423964
0.6100000000000004,move_to_zero,-0.009424104517697566,-3.0626198431535987,3.053195738635901,-41.603514629213315,-64.20335869120557,22.59984406199225,44.82018256850044,62.60824418950797,-17.78806162100753,0.12814853321866007,38.36250376455359,-38.23435523133492,-0.046845376742465986,0.0,-0.046845376742465986
0.6120000000000004,move_to_zero,-0.00941277222123473,-3.0582195272869988,3.048806755065764,-41.53446310105005,-64.11111248618948,22.576649385139433,44.69406786006062,62.51828981567248,-17.82422195561186,0.13218549026273452,38.30738522466199,-38.17519973439926,-0.04689938725677945,0.0,-0.04689938725677945
0.6140000000000004,move_to_zero,-0.009402462903598878,-3.0538192114203984,3.0444167485167997,-41.46558760440451,-64.01886628117337,22.553278676768862,44.56804531973013,62.42833544183697,-17.86029012210684,0.1367458534961012,38.25226668477038,-38.11552083127428,-0.04695032288284769,0.0,-0.04695032288284769
0.6160000000000004,move_to_zero,-0.009394680061753171,-3.0494188955537993,3.0400242154920463,-41.396867807060175,-63.926620076157285,22.52975226909711,44.442168168656764,62.33838106800148,-17.896212899344718,0.14103224965797828,38.197148144878796,-38.05611589522082,-0.046997776519576824,0.0,-0.046997776519576824
0.6180000000000004,move_to_zero,-0.009388122123134146,-3.045018579687199,3.0356304575640647,-41.32825817622685,-63.83437387114118,22.506115694914328,44.31645892712593,62.248426694165964,-17.931967767040035,0.14449313863754779,38.14202960498719,-37.997536466349636,-0.04703996206106628,0.0,-0.04703996206106628
0.6200000000000004,move_to_zero,-0.009381663656714794,-3.040618263820599,3.031236600163884,-41.259764676801545,-63.742127666125086,22.48236298932354,44.19091932502531,62.15847232033048,-17.96755299530517,0.14724623028301467,38.08691106509559,-37.939664834812575,-0.0470759932729606,0.0,-0.0470759932729606
0.6220000000000004,move_to_zero,-0.009375183858370283,-3.0362179479539986,3.0268427640956284,-41.19138630025013,-63.649881461108976,22.458495160858845,44.065541421493556,62.068517946494964,-18.002976525001408,0.14936030842065956,38.03179252520398,-37.88243221678332,-0.047107145284660035,0.0,-0.047107145284660035
0.6240000000000004,move_to_zero,-0.009369129558731301,-3.031817632087399,3.022448502528668,-41.12310094421214,-63.55763525609289,22.434534311880746,43.940328778624426,61.978563572659475,-18.03823479403505,0.1506351064944514,37.97667398531239,-37.82603887881794,-0.04713051288631145,0.0,-0.04713051288631145
0.6260000000000004,move_to_zero,-0.009365078030479977,-3.0274173162207987,3.0180522381903185,-41.05491607409706,-63.46538905107678,22.41047297697972,43.815273326554404,61.888609198823964,-18.07333587226956,0.15106530214150118,37.921555445420786,-37.77049014327928,-0.04714673225235568,0.0,-0.04714673225235568
0.6280000000000004,move_to_zero,-0.009363990107572715,-3.0230170003541987,3.013653010246626,-40.98683202259078,-63.37314284606068,22.3863108234699,43.69037055134738,61.798654824988475,-18.108284273641097,0.15075277599502238,37.86643690552919,-37.71568412953417,-0.04715779061629915,0.0,-0.04715779061629915
0.6300000000000004,move_to_zero,-0.009365260265438187,-3.0186166844875983,3.00925142422216,-40.91886680398058,-63.28089664104458,22.362029837064,43.56560724548636,61.70870045115297,-18.14309320566661,0.14984635190998008,37.81131836563759,-37.66147201372761,-0.047167840560355945,0.0,-0.047167840560355945
0.6320000000000005,move_to_zero,-0.009368156073857036,-3.0142163686209993,3.004848212547142,-40.85103095599693,-63.18865043602848,22.33761948003155,43.44094839580998,61.618746077317475,-18.177797681507492,0.14856879026691117,37.756199825745995,-37.60763103547908,-0.047176117141844366,0.0,-0.047176117141844366
0.6340000000000005,move_to_zero,-0.009371196953223223,-3.009816052754399,3.0004448558011756,-40.78333897060905,-63.09640423101237,22.31306526040332,43.31638863889431,61.52879170348197,-18.21240306458766,0.1471148021600022,37.701081285854386,-37.55396648369438,-0.04718252692923866,0.0,-0.04718252692923866
0.6360000000000005,move_to_zero,-0.009374691619717,-3.005415736887799,2.996041045268082,-40.71578233558141,-63.00415802599628,22.288375690414874,43.19191194781541,61.43883732964648,-18.24692538183107,0.1456605564000327,37.64596274596279,-37.50030218956276,-0.04718733000244163,0.0,-0.04718733000244163
0.6380000000000005,move_to_zero,-0.009379821090172389,-3.0010154210211986,2.9916355999310262,-40.648370859946944,-62.91191182098017,22.26354096103323,43.06750665981864,61.348882955810964,-18.281376295992324,0.14433820671554842,37.59084420607118,-37.44650599935564,-0.04719048274020563,0.0,-0.04719048274020563
0.6400000000000005,move_to_zero,-0.009384521369003421,-2.996615105154599,2.9872305837855957,-40.58109058518555,-62.81966561596408,22.238575030778527,42.9431664923335,61.25892858197548,-18.31576208964198,0.14323877477656324,37.535725666179594,-37.39248689140303,-0.047188356688273876,0.0,-0.047188356688273876
0.6420000000000005,move_to_zero,-0.009389345772436416,-2.9922147892879987,2.982825443515562,-40.51393534769067,-62.727419410947974,22.213484063257305,42.81889346797961,61.168974208139964,-18.35008074016035,0.1423282118748462,37.480607126287985,-37.33827891441314,-0.047181578029312415,0.0,-0.047181578029312415
0.6440000000000005,move_to_zero,-0.009395573392681156,-2.987814473421399,2.978418900028718,-40.44689188791328,-62.63517320593189,22.18828131801861,42.6946722663394,61.079019834304475,-18.384347567965072,0.1415775787356599,37.42548858639639,-37.283911007660734,-0.04717116949938252,0.0,-0.04717116949938252
0.6460000000000005,move_to_zero,-0.009402350416103907,-2.9834141575547983,2.9740118071386945,-40.37994037301551,-62.54292700091577,22.16298662790026,42.570485717036796,60.989065460468964,-18.41857974343217,0.1409583834570665,37.37037004650478,-37.22941166304771,-0.047159621776494305,0.0,-0.047159621776494305
0.6480000000000005,move_to_zero,-0.009410072850009612,-2.9790138416881993,2.9696037688381898,-40.313082742521054,-62.450680795899686,22.137598053378632,42.4463257364919,60.899111086633475,-18.452785350141575,0.1404461983928798,37.31525150661319,-37.17480530822031,-0.04714788273015623,0.0,-0.04714788273015623
