GerardoFJ/TE3001B_TEAM_3/src/xarm_perturbations/results/trial_ctc_pert/trial_ctc_pert_2026-03-09_13-38-57.csv
time_abs,time_rel,q1,q2,q3,q4,q5,q6,qd1,qd2,qd3,qd4,qd5,qd6,q_des1,q_des2,q_des3,q_des4,q_des5,q_des6,qd_des1,qd_des2,qd_des3,qd_des4,qd_des5,qd_des6,qdd_des1,qdd_des2,qdd_des3,qdd_des4,qdd_des5,qdd_des6,tau1,tau2,tau3,tau4,tau5,tau6,p_x,p_y,p_z,p_des_x,p_des_y,p_des_z,v_cart_x,v_cart_y,v_cart_z,perturb_active
1773085131.1850617,0.020179178,-0.0827505961060524,0.5944923162460327,1.439378261566162,0.0011504855938255787,0.9657687544822693,-0.06519418209791183,5.664119906201347e-15,3.63201544442129e-15,1.0785023819043118e-15,2.223419770169886e-15,-2.1094237467877974e-15,1.9528029079175042e-15,-0.0827505961060524,0.5944923162460327,1.439378261566162,0.0011504855938255787,0.9657687544822693,-0.06519418209791183,0.0,0.0,0.0,0.0,0.0,0.0,0.0,0.0,0.0,0.0,0.0,0.0,2.888701152162687e-13,9.662917094314555,-4.856939831093733,-0.28166362400651346,-0.017714202941862357,0.00029757434145588006,0.33144012683780155,-0.02742635370572683,0.261281967621349,0.3314303996976024,-0.027429485764927,0.26128520424252627,0.0,0.0,0.0,0
1773085131.204926,0.040043373,-0.0827505961060524,0.5944923162460327,1.439378261566162,0.0011504855938255787,0.9657687544822693,-0.06519418209791183,5.664119906201347e-15,3.63201544442129e-15,1.0785023819043118e-15,2.223419770169886e-15,-2.1094237467877974e-15,1.9528029079175042e-15,-0.0827505961060524,0.5944923162460327,1.439378261566162,0.0011504855938255787,0.9657687544822693,-0.06519418209791183,0.0,0.0,0.0,0.0,0.0,0.0,0.0,0.0,0.0,0.0,0.0,0.0,2.888701152162687e-13,9.662917094314555,-4.856939831093733,-0.28166362400651346,-0.017714202941862357,0.00029757434145588006,0.33144012683780155,-0.02742635370572683,0.261281967621349,0.3314303996976024,-0.027429485764927,0.26128520424252627,0.0,0.0,0.0,0
1773085131.2249029,0.060020531,-0.0827505961060524,0.5944923162460327,1.439378261566162,0.0011504855938255787,0.9657687544822693,-0.06519418209791183,5.664119906201347e-15,3.63201544442129e-15,1.0785023819043118e-15,2.223419770169886e-15,-2.1094237467877974e-15,1.9528029079175042e-15,-0.0827505961060524,0.5944923162460327,1.439378261566162,0.0011504855938255787,0.9657687544822693,-0.06519418209791183,0.0,0.0,0.0,0.0,0.0,0.0,0.0,0.0,0.0,0.0,0.0,0.0,2.888701152162687e-13,9.662917094314555,-4.856939831093733,-0.28166362400651346,-0.017714202941862357,0.00029757434145588006,0.33144012683780155,-0.02742635370572683,0.261281967621349,0.3314303996976024,-0.027429485764927,0.26128520424252627,0.0,0.0,0.0,0
1773085131.2449365,0.08005392,-0.0827505961060524,0.5944923162460327,1.439378261566162,0.0011504855938255787,0.9657687544822693,-0.06519418209791183,5.664119906201347e-15,3.63201544442129e-15,1.0785023819043118e-15,2.223419770169886e-15,-2.1094237467877974e-15,1.9528029079175042e-15,-0.0827505961060524,0.5944923162460327,1.439378261566162,0.0011504855938255787,0.9657687544822693,-0.06519418209791183,0.0,0.0,0.0,0.0,0.0,0.0,0.0,0.0,0.0,0.0,0.0,0.0,2.888701152162687e-13,9.662917094314555,-4.856939831093733,-0.28166362400651346,-0.017714202941862357,0.00029757434145588006,0.33144012683780155,-0.02742635370572683,0.261281967621349,0.3314303996976024,-0.027429485764927,0.26128520424252627,0.0,0.0,0.0,0
1773085131.26489,0.10000732,-0.0827505961060524,0.5944923162460327,1.439378261566162,0.0011504855938255787,0.9656888246536255,-0.06519418209791183,5.664119906201347e-15,3.63201544442129e-15,1.0785023819043118e-15,2.223419770169886e-15,-2.1094237467877974e-15,1.9528029079175042e-15,-0.0827505961060524,0.5944923162460327,1.439378261566162,0.0011504855938255787,0.9657687544822693,-0.06519418209791183,0.0,0.0,0.0,0.0,0.0,0.0,0.0,0.0,0.0,0.0,0.0,0.0,2.888701152162687e-13,9.66292864333817,-4.85695138011735,-0.28166361832084325,-0.0164409590472651,0.0002973784477625439,0.3314450687838705,-0.027426766769237335,0.2612813653674894,0.3314303996976024,-0.027429485764927,0.26128520424252627,-3.113093124370088e-05,2.602665015533573e-06,3.7923005179770726e-06,0
1773085131.2849164,0.120033965,-0.0827505961060524,0.5944923162460327,1.439378261566162,0.0011504855938255787,0.9656888246536255,-0.06519418209791183,5.664119906201347e-15,3.63201544442129e-15,1.0785023819043118e-15,2.223419770169886e-15,-2.1094237467877974e-15,1.9528029079175042e-15,-0.0827505961060524,0.5944923162460327,1.439378261566162,0.0011504855938255787,0.9656888246536255,-0.06519418209791183,0.0,0.0,0.0,0.0,0.0,0.0,0.0,0.0,0.0,0.0,0.0,0.0,2.888701152162687e-13,9.66292864333817,-4.85695138011735,-0.28166361832084325,-0.018900006177195488,0.0002973784477625439,0.3314450687838705,-0.027426766769237335,0.2612813653674894,0.3314303996976024,-0.027429485764927,0.26128520424252627,2.965179588373461e-05,-2.4790036375784298e-06,-3.6121155518465365e-06,0
1773085131.305114,0.140231691,-0.0827505961060524,0.5944923162460327,1.439378261566162,0.0011504855938255787,0.9656888246536255,-0.06519418209791183,5.664119906201347e-15,3.63201544442129e-15,1.0785023819043118e-15,2.223419770169886e-15,-2.1094237467877974e-15,1.9528029079175042e-15,-0.0827505961060524,0.5944923162460327,1.439378261566162,0.0011504855938255787,0.9656888246536255,-0.06519418209791183,0.0,0.0,0.0,0.0,0.0,0.0,0.0,0.0,0.0,0.0,0.0,0.0,2.888701152162687e-13,9.66292864333817,-4.85695138011735,-0.28166361832084325,-0.017702653920083043,0.0002973784477625439,0.3314450687838705,-0.027426766769237335,0.2612813653674894,0.3314303996976024,-0.027429485764927,0.26128520424252627,0.0,0.0,0.0,0
1773085131.3249156,0.160033333,-0.0827505961060524,0.5944923162460327,1.439378261566162,0.0011504855938255787,0.9656888246536255,-0.06519418209791183,5.664119906201347e-15,3.63201544442129e-15,1.0785023819043118e-15,2.223419770169886e-15,-2.1094237467877974e-15,1.9528029079175042e-15,-0.0827505961060524,0.5944923162460327,1.439378261566162,0.0011504855938255787,0.9656888246536255,-0.06519418209791183,0.0,0.0,0.0,0.0,0.0,0.0,0.0,0.0,0.0,0.0,0.0,0.0,2.888701152162687e-13,9.66292864333817,-4.85695138011735,-0.28166361832084325,-0.017702653920083043,0.0002973784477625439,0.3314450687838705,-0.027426766769237335,0.2612813653674894,0.3314303996976024,-0.027429485764927,0.26128520424252627,0.0,0.0,0.0,0
1773085131.3449216,0.180039058,-0.0827505961060524,0.5944923162460327,1.439378261566162,0.0011504855938255787,0.9656888246536255,-0.06519418209791183,5.664119906201347e-15,3.63201544442129e-15,1.0785023819043118e-15,2.223419770169886e-15,-2.1094237467877974e-15,1.9528029079175042e-15,-0.0827505961060524,0.5944923162460327,1.439378261566162,0.0011504855938255787,0.9656888246536255,-0.06519418209791183,0.0,0.0,0.0,0.0,0.0,0.0,0.0,0.0,0.0,0.0,0.0,0.0,2.888701152162687e-13,9.66292864333817,-4.85695138011735,-0.28166361832084325,-0.017702653920083043,0.0002973784477625439,0.3314450687838705,-0.027426766769237335,0.2612813653674894,0.3314303996976024,-0.027429485764927,0.26128520424252627,0.0,0.0,0.0,0
1773085131.3648915,0.200009273,-0.0827505961060524,0.5944923162460327,1.439378261566162,0.0011504855938255787,0.9656888246536255,-0.06519418209791183,5.664119906201347e-15,3.63201544442129e-15,1.0785023819043118e-15,2.223419770169886e-15,-2.1094237467877974e-15,1.9528029079175042e-15,-0.0827505961060524,0.5944923162460327,1.439378261566162,0.0011504855938255787,0.9656888246536255,-0.06519418209791183,0.0,0.0,0.0,0.0,0.0,0.0,0.0,0.0,0.0,0.0,0.0,0.0,2.888701152162687e-13,9.66292864333817,-4.85695138011735,-0.28166361832084325,-0.017702653920083043,0.0002973784477625439,0.3314450687838705,-0.027426766769237335,0.2612813653674894,0.3314303996976024,-0.027429485764927,0.26128520424252627,0.0,0.0,0.0,0
1773085131.384909,0.220026259,-0.0827505961060524,0.5944923162460327,1.439378261566162,0.0011504855938255787,0.9656888246536255,-0.06519418209791183,5.664119906201347e-15,3.63201544442129e-15,1.0785023819043118e-15,2.223419770169886e-15,-2.1094237467877974e-15,1.9528029079175042e-15,-0.0827505961060524,0.5944923162460327,1.439378261566162,0.0011504855938255787,0.9656888246536255,-0.06519418209791183,0.0,0.0,0.0,0.0,0.0,0.0,0.0,0.0,0.0,0.0,0.0,0.0,2.888701152162687e-13,9.66292864333817,-4.85695138011735,-0.28166361832084325,-0.017702653920083043,0.0002973784477625439,0.3314450687838705,-0.027426766769237335,0.2612813653674894,0.3314303996976024,-0.027429485764927,0.26128520424252627,0.0,0.0,0.0,0
1773085131.4050398,0.240157372,-0.0827505961060524,0.5944923162460327,1.439378261566162,0.0011504855938255787,0.9656888246536255,-0.06519418209791183,5.664119906201347e-15,3.63201544442129e-15,1.0785023819043118e-15,2.223419770169886e-15,-2.1094237467877974e-15,1.9528029079175042e-15,-0.0827505961060524,0.5944923162460327,1.439378261566162,0.0011504855938255787,0.9656888246536255,-0.06519418209791183,0.0,0.0,0.0,0.0,0.0,0.0,0.0,0.0,0.0,0.0,0.0,0.0,2.888701152162687e-13,9.66292864333817,-4.85695138011735,-0.28166361832084325,-0.017702653920083043,0.0002973784477625439,0.3314450687838705,-0.027426766769237335,0.2612813653674894,0.3314303996976024,-0.027429485764927,0.26128520424252627,0.0,0.0,0.0,0
1773085131.4249272,0.260044831,-0.0827505961060524,0.5944923162460327,1.439378261566162,0.0011504855938255787,0.9656888246536255,-0.06519418209791183,5.664119906201347e-15,3.63201544442129e-15,1.0785023819043118e-15,2.223419770169886e-15,-2.1094237467877974e-15,1.9528029079175042e-15,-0.0827505961060524,0.5944923162460327,1.439378261566162,0.0011504855938255787,0.9656888246536255,-0.06519418209791183,0.0,0.0,0.0,0.0,0.0,0.0,0.0,0.0,0.0,0.0,0.0,0.0,2.888701152162687e-13,9.66292864333817,-4.85695138011735,-0.28166361832084325,-0.017702653920083043,0.0002973784477625439,0.3314450687838705,-0.027426766769237335,0.2612813653674894,0.3314303996976024,-0.027429485764927,0.26128520424252627,0.0,0.0,0.0,0
1773085131.4450243,0.280141711,-0.0827505961060524,0.5944923162460327,1.439378261566162,0.0011504855938255787,0.9656888246536255,-0.06519418209791183,5.664119906201347e-15,3.63201544442129e-15,1.0785023819043118e-15,2.223419770169886e-15,-2.1094237467877974e-15,1.9528029079175042e-15,-0.0827505961060524,0.5944923162460327,1.439378261566162,0.0011504855938255787,0.9656888246536255,-0.06519418209791183,0.0,0.0,0.0,0.0,0.0,0.0,0.0,0.0,0.0,0.0,0.0,0.0,2.888701152162687e-13,9.66292864333817,-4.85695138011735,-0.28166361832084325,-0.017702653920083043,0.0002973784477625439,0.3314450687838705,-0.027426766769237335,0.2612813653674894,0.3314303996976024,-0.027429485764927,0.26128520424252627,0.0,0.0,0.0,0
1773085131.4649189,0.300036221,-0.0827505961060524,0.5944923162460327,1.439378261566162,0.0011504855938255787,0.9656888246536255,-0.06519418209791183,5.664119906201347e-15,3.63201544442129e-15,1.0785023819043118e-15,2.223419770169886e-15,-2.1094237467877974e-15,1.9528029079175042e-15,-0.0827505961060524,0.5944923162460327,1.439378261566162,0.0011504855938255787,0.9656888246536255,-0.06519418209791183,0.0,0.0,0.0,0.0,0.0,0.0,0.0,0.0,0.0,0.0,0.0,0.0,2.888701152162687e-13,9.66292864333817,-4.85695138011735,-0.28166361832084325,-0.017702653920083043,0.0002973784477625439,0.3314450687838705,-0.027426766769237335,0.2612813653674894,0.3314303996976024,-0.027429485764927,0.26128520424252627,0.0,0.0,0.0,0
1773085131.4849153,0.320032735,-0.0827505961060524,0.5944923162460327,1.439378261566162,0.0011504855938255787,0.9656888246536255,-0.06519418209791183,5.664119906201347e-15,3.63201544442129e-15,1.0785023819043118e-15,2.223419770169886e-15,-2.1094237467877974e-15,1.9528029079175042e-15,-0.0827505961060524,0.5944923162460327,1.439378261566162,0.0011504855938255787,0.9656888246536255,-0.06519418209791183,0.0,0.0,0.0,0.0,0.0,0.0,0.0,0.0,0.0,0.0,0.0,0.0,2.888701152162687e-13,9.66292864333817,-4.85695138011735,-0.28166361832084325,-0.017702653920083043,0.0002973784477625439,0.3314450687838705,-0.027426766769237335,0.2612813653674894,0.3314303996976024,-0.027429485764927,0.26128520424252627,0.0,0.0,0.0,0
1773085131.5049295,0.340047012,-0.0827505961060524,0.5944923162460327,1.439378261566162,0.0011504855938255787,0.9656888246536255,-0.06519418209791183,5.664119906201347e-15,3.63201544442129e-15,1.0785023819043118e-15,2.223419770169886e-15,-2.1094237467877974e-15,1.9528029079175042e-15,-0.0827505961060524,0.5944923162460327,1.439378261566162,0.0011504855938255787,0.9656888246536255,-0.06519418209791183,0.0,0.0,0.0,0.0,0.0,0.0,0.0,0.0,0.0,0.0,0.0,0.0,2.888701152162687e-13,9.66292864333817,-4.85695138011735,-0.28166361832084325,-0.017702653920083043,0.0002973784477625439,0.3314450687838705,-0.027426766769237335,0.2612813653674894,0.3314303996976024,-0.027429485764927,0.26128520424252627,0.0,0.0,0.0,0
1773085131.5249267,0.360044293,-0.0827505961060524,0.5944923162460327,1.439378261566162,0.0011504855938255787,0.9656888246536255,-0.06519418209791183,5.664119906201347e-15,3.63201544442129e-15,1.0785023819043118e-15,2.223419770169886e-15,-2.1094237467877974e-15,1.9528029079175042e-15,-0.0827505961060524,0.5944923162460327,1.439378261566162,0.0011504855938255787,0.9656888246536255,-0.06519418209791183,0.0,0.0,0.0,0.0,0.0,0.0,0.0,0.0,0.0,0.0,0.0,0.0,2.888701152162687e-13,9.66292864333817,-4.85695138011735,-0.28166361832084325,-0.017702653920083043,0.0002973784477625439,0.3314450687838705,-0.027426766769237335,0.2612813653674894,0.3314303996976024,-0.027429485764927,0.26128520424252627,0.0,0.0,0.0,0
1773085131.5449095,0.380027151,-0.0827505961060524,0.5944923162460327,1.439378261566162,0.0011504855938255787,0.9656888246536255,-0.06519418209791183,5.664119906201347e-15,3.63201544442129e-15,1.0785023819043118e-15,2.223419770169886e-15,-2.1094237467877974e-15,1.9528029079175042e-15,-0.0827505961060524,0.5944923162460327,1.439378261566162,0.0011504855938255787,0.9656888246536255,-0.06519418209791183,0.0,0.0,0.0,0.0,0.0,0.0,0.0,0.0,0.0,0.0,0.0,0.0,2.888701152162687e-13,9.66292864333817,-4.85695138011735,-0.28166361832084325,-0.017702653920083043,0.0002973784477625439,0.3314450687838705,-0.027426766769237335,0.2612813653674894,0.3314303996976024,-0.027429485764927,0.26128520424252627,0.0,0.0,0.0,0
1773085131.5648797,0.399997082,-0.0827505961060524,0.5944923162460327,1.439378261566162,0.0013422331539914012,0.9656888246536255,-0.06519418209791183,5.664119906201347e-15,3.63201544442129e-15,1.0785023819043118e-15,0.0034240642562508583,-2.1094237467877974e-15,1.9528029079175042e-15,-0.0827505961060524,0.5944923162460327,1.439378261566162,0.0011504855938255787,0.9656888246536255,-0.06519418209791183,0.0,0.0,0.0,0.0,0.0,0.0,0.0,0.0,0.0,0.0,0.0,0.0,2.888701152162687e-13,9.662976581769298,-4.856999318548477,-0.19215529713992152,-0.017702668697205527,0.0002973555842199988,0.3314458914364407,-0.027416944849338192,0.2612813745377325,0.3314303996976024,-0.027429485764927,0.26128520424252627,-6.916372255469702e-06,-8.249766283546396e-05,-8.310582771703692e-08,0
1773085131.584935,0.420052436,-0.0827505961060524,0.5944923162460327,1.439378261566162,0.0013422331539914012,0.9656888246536255,-0.06519418209791183,5.664119906201347e-15,3.63201544442129e-15,1.0785023819043118e-15,0.0034240642562508583,-2.1094237467877974e-15,1.9528029079175042e-15,-0.0827505961060524,0.5944923162460327,1.439378261566162,0.0013422331539914012,0.9656888246536255,-0.06519418209791183,0.0,0.0,0.0,0.0,0.0,0.0,0.0,0.0,0.0,0.0,0.0,0.0,2.888701152162687e-13,9.662976581769298,-4.856999318548477,-0.16858477832059693,-0.017702668697205527,0.0002973555842199988,0.3314458914364407,-0.027416944849338192,0.2612813745377325,0.3314303996976024,-0.027429485764927,0.26128520424252627,6.58749281311733e-06,7.857482809688484e-05,7.915407421588658e-08,0
1773085131.6055074,0.440624738,-0.0827505961060524,0.5944923162460327,1.439378261566162,0.0013422331539914012,0.9656888246536255,-0.06519418209791183,5.664119906201347e-15,3.63201544442129e-15,1.0785023819043118e-15,0.0034240642562508583,-2.1094237467877974e-15,1.9528029079175042e-15,-0.0827505961060524,0.5944923162460327,1.439378261566162,0.0013422331539914012,0.9656888246536255,-0.06519418209791183,0.0,0.0,0.0,0.0,0.0,0.0,0.0,0.0,0.0,0.0,0.0,0.0,2.888701152162687e-13,9.662976581769298,-4.856999318548477,-0.18005787783302574,-0.017702668697205527,0.0002973555842199988,0.3314458914364407,-0.027416944849338192,0.2612813745377325,0.3314303996976024,-0.027429485764927,0.26128520424252627,0.0,0.0,0.0,0
1773085131.6248937,0.460011145,-0.0827505961060524,0.5944923162460327,1.439378261566162,0.0013422331539914012,0.9656888246536255,-0.06519418209791183,5.664119906201347e-15,3.63201544442129e-15,1.0785023819043118e-15,0.0034240642562508583,-2.1094237467877974e-15,1.9528029079175042e-15,-0.0827505961060524,0.5944923162460327,1.439378261566162,0.0013422331539914012,0.9656888246536255,-0.06519418209791183,0.0,0.0,0.0,0.0,0.0,0.0,0.0,0.0,0.0,0.0,0.0,0.0,2.888701152162687e-13,9.662976581769298,-4.856999318548477,-0.18005787783302574,-0.017702668697205527,0.0002973555842199988,0.3314458914364407,-0.027416944849338192,0.2612813745377325,0.3314303996976024,-0.027429485764927,0.26128520424252627,0.0,0.0,0.0,0
1773085131.644958,0.480075476,-0.0827505961060524,0.5944923162460327,1.439378261566162,0.0013422331539914012,0.9656888246536255,-0.06519418209791183,5.664119906201347e-15,3.63201544442129e-15,1.0785023819043118e-15,0.0034240642562508583,-2.1094237467877974e-15,1.9528029079175042e-15,-0.0827505961060524,0.5944923162460327,1.439378261566162,0.0013422331539914012,0.9656888246536255,-0.06519418209791183,0.0,0.0,0.0,0.0,0.0,0.0,0.0,0.0,0.0,0.0,0.0,0.0,2.888701152162687e-13,9.662976581769298,-4.856999318548477,-0.18005787783302574,-0.017702668697205527,0.0002973555842199988,0.3314458914364407,-0.027416944849338192,0.2612813745377325,0.3314303996976024,-0.027429485764927,0.26128520424252627,0.0,0.0,0.0,0
1773085131.6648881,0.500005514,-0.0827505961060524,0.5944923162460327,1.439378261566162,0.0013422331539914012,0.9656888246536255,-0.06519418209791183,5.664119906201347e-15,3.63201544442129e-15,1.0785023819043118e-15,2.223419770169886e-15,-2.1094237467877974e-15,1.9528029079175042e-15,-0.0827505961060524,0.5944923162460327,1.439378261566162,0.0013422331539914012,0.9656888246536255,-0.06519418209791183,0.0,0.0,0.0,0.0,0.0,0.0,0.0,0.0,0.0,0.0,0.0,0.0,2.888701152162687e-13,9.662976581769298,-4.856999318548477,-0.2816843460543204,-0.017702668697205527,0.0002973555842199988,0.3314458914364407,-0.027416944849338192,0.2612813745377325,0.3314303996976024,-0.027429485764927,0.26128520424252627,0.0,0.0,0.0,0
1773085131.684937,0.520054357,-0.0827505961060524,0.5944923162460327,1.439378261566162,0.0013422331539914012,0.9656888246536255,-0.06519418209791183,5.664119906201347e-15,3.63201544442129e-15,1.0785023819043118e-15,2.223419770169886e-15,-2.1094237467877974e-15,1.9528029079175042e-15,-0.0827505961060524,0.5944923162460327,1.439378261566162,0.0013422331539914012,0.9656888246536255,-0.06519418209791183,0.0,0.0,0.0,0.0,0.0,0.0,0.0,0.0,0.0,0.0,0.0,0.0,2.888701152162687e-13,9.662976581769298,-4.856999318548477,-0.2816843460543204,-0.017702668697205527,0.0002973555842199988,0.3314458914364407,-0.027416944849338192,0.2612813745377325,0.3314303996976024,-0.027429485764927,0.26128520424252627,0.0,0.0,0.0,0
1773085131.7052345,0.540351957,-0.0827505961060524,0.5944923162460327,1.439378261566162,0.0013422331539914012,0.9656888246536255,-0.06519418209791183,5.664119906201347e-15,3.63201544442129e-15,1.0785023819043118e-15,2.223419770169886e-15,-2.1094237467877974e-15,1.9528029079175042e-15,-0.0827505961060524,0.5944923162460327,1.439378261566162,0.0013422331539914012,0.9656888246536255,-0.06519418209791183,0.0,0.0,0.0,0.0,0.0,0.0,0.0,0.0,0.0,0.0,0.0,0.0,2.888701152162687e-13,9.662976581769298,-4.856999318548477,-0.2816843460543204,-0.017702668697205527,0.0002973555842199988,0.3314458914364407,-0.027416944849338192,0.2612813745377325,0.3314303996976024,-0.027429485764927,0.26128520424252627,0.0,0.0,0.0,0
1773085131.7248862,0.56000382,-0.0827505961060524,0.5944923162460327,1.439378261566162,0.0013422331539914012,0.9656888246536255,-0.06519418209791183,5.664119906201347e-15,3.63201544442129e-15,1.0785023819043118e-15,2.223419770169886e-15,-2.1094237467877974e-15,1.9528029079175042e-15,-0.0827505961060524,0.5944923162460327,1.439378261566162,0.0013422331539914012,0.9656888246536255,-0.06519418209791183,0.0,0.0,0.0,0.0,0.0,0.0,0.0,0.0,0.0,0.0,0.0,0.0,2.888701152162687e-13,9.662976581769298,-4.856999318548477,-0.2816843460543204,-0.017702668697205527,0.0002973555842199988,0.3314458914364407,-0.027416944849338192,0.2612813745377325,0.3314303996976024,-0.027429485764927,0.26128520424252627,0.0,0.0,0.0,0
1773085131.7448921,0.580009792,-0.0827505961060524,0.5944923162460327,1.439378261566162,0.0013422331539914012,0.9656888246536255,-0.06519418209791183,5.664119906201347e-15,3.63201544442129e-15,1.0785023819043118e-15,2.223419770169886e-15,-2.1094237467877974e-15,1.9528029079175042e-15,-0.0827505961060524,0.5944923162460327,1.439378261566162,0.0013422331539914012,0.9656888246536255,-0.06519418209791183,0.0,0.0,0.0,0.0,0.0,0.0,0.0,0.0,0.0,0.0,0.0,0.0,2.888701152162687e-13,9.662976581769298,-4.856999318548477,-0.2816843460543204,-0.017702668697205527,0.0002973555842199988,0.3314458914364407,-0.027416944849338192,0.2612813745377325,0.3314303996976024,-0.027429485764927,0.26128520424252627,0.0,0.0,0.0,0
1773085131.7648404,0.599957953,-0.0827505961060524,0.5944923162460327,1.439378261566162,0.0013422331539914012,0.9656888246536255,-0.06519418209791183,5.664119906201347e-15,3.63201544442129e-15,1.0785023819043118e-15,2.223419770169886e-15,-2.1094237467877974e-15,1.9528029079175042e-15,-0.0827505961060524,0.5944923162460327,1.439378261566162,0.0013422331539914012,0.9656888246536255,-0.06519418209791183,0.0,0.0,0.0,0.0,0.0,0.0,0.0,0.0,0.0,0.0,0.0,0.0,2.888701152162687e-13,9.662976581769298,-4.856999318548477,-0.2816843460543204,-0.017702668697205527,0.0002973555842199988,0.3314458914364407,-0.027416944849338192,0.2612813745377325,0.3314303996976024,-0.027429485764927,0.26128520424252627,0.0,0.0,0.0,0
1773085131.7849355,0.62005299,-0.0827505961060524,0.5944923162460327,1.439378261566162,0.0013422331539914012,0.9656888246536255,-0.06519418209791183,5.664119906201347e-15,3.63201544442129e-15,1.0785023819043118e-15,2.223419770169886e-15,-2.1094237467877974e-15,1.9528029079175042e-15,-0.0827505961060524,0.5944923162460327,1.439378261566162,0.0013422331539914012,0.9656888246536255,-0.06519418209791183,0.0,0.0,0.0,0.0,0.0,0.0,0.0,0.0,0.0,0.0,0.0,0.0,2.888701152162687e-13,9.662976581769298,-4.856999318548477,-0.2816843460543204,-0.017702668697205527,0.0002973555842199988,0.3314458914364407,-0.027416944849338192,0.2612813745377325,0.3314303996976024,-0.027429485764927,0.26128520424252627,0.0,0.0,0.0,0
1773085131.8049037,0.640021185,-0.0827505961060524,0.5944923162460327,1.439378261566162,0.0013422331539914012,0.9656888246536255,-0.06519418209791183,5.664119906201347e-15,3.63201544442129e-15,1.0785023819043118e-15,2.223419770169886e-15,-2.1094237467877974e-15,1.9528029079175042e-15,-0.0827505961060524,0.5944923162460327,1.439378261566162,0.0013422331539914012,0.9656888246536255,-0.06519418209791183,0.0,0.0,0.0,0.0,0.0,0.0,0.0,0.0,0.0,0.0,0.0,0.0,2.888701152162687e-13,9.662976581769298,-4.856999318548477,-0.2816843460543204,-0.017702668697205527,0.0002973555842199988,0.3314458914364407,-0.027416944849338192,0.2612813745377325,0.3314303996976024,-0.027429485764927,0.26128520424252627,0.0,0.0,0.0,0
1773085131.8249218,0.660039487,-0.0827505961060524,0.5944923162460327,1.439378261566162,0.0013422331539914012,0.9656888246536255,-0.06519418209791183,5.664119906201347e-15,3.63201544442129e-15,1.0785023819043118e-15,2.223419770169886e-15,-2.1094237467877974e-15,1.9528029079175042e-15,-0.0827505961060524,0.5944923162460327,1.439378261566162,0.0013422331539914012,0.9656888246536255,-0.06519418209791183,0.0,0.0,0.0,0.0,0.0,0.0,0.0,0.0,0.0,0.0,0.0,0.0,2.888701152162687e-13,9.662976581769298,-4.856999318548477,-0.2816843460543204,-0.017702668697205527,0.0002973555842199988,0.3314458914364407,-0.027416944849338192,0.2612813745377325,0.3314303996976024,-0.027429485764927,0.26128520424252627,0.0,0.0,0.0,0
1773085131.8449275,0.680044922,-0.0827505961060524,0.5944923162460327,1.439378261566162,0.0013422331539914012,0.9656888246536255,-0.06519418209791183,5.664119906201347e-15,3.63201544442129e-15,1.0785023819043118e-15,2.223419770169886e-15,-2.1094237467877974e-15,1.9528029079175042e-15,-0.0827505961060524,0.5944923162460327,1.439378261566162,0.0013422331539914012,0.9656888246536255,-0.06519418209791183,0.0,0.0,0.0,0.0,0.0,0.0,0.0,0.0,0.0,0.0,0.0,0.0,2.888701152162687e-13,9.662976581769298,-4.856999318548477,-0.2816843460543204,-0.017702668697205527,0.0002973555842199988,0.3314458914364407,-0.027416944849338192,0.2612813745377325,0.3314303996976024,-0.027429485764927,0.26128520424252627,0.0,0.0,0.0,0
1773085131.8648953,0.700012857,-0.0827505961060524,0.5944923162460327,1.439378261566162,0.0013422331539914012,0.9656888246536255,-0.06538593024015427,5.664119906201347e-15,3.63201544442129e-15,1.0785023819043118e-15,2.223419770169886e-15,-2.1094237467877974e-15,1.9528029079175042e-15,-0.0827505961060524,0.5944923162460327,1.439378261566162,0.0013422331539914012,0.9656888246536255,-0.06519418209791183,0.0,0.0,0.0,0.0,0.0,0.0,0.0,0.0,0.0,0.0,0.0,0.0,2.888701152162687e-13,9.662976111802001,-4.8569988485811795,-0.2816843231760747,-0.017703138636823566,0.0011039252319419719,0.3314458914364407,-0.027416944849338192,0.2612813745377325,0.3314303996976024,-0.027429485764927,0.26128520424252627,0.0,0.0,0.0,0
1773085131.884917,0.720034421,-0.0827505961060524,0.5944923162460327,1.439378261566162,0.0013422331539914012,0.9656888246536255,-0.06538593024015427,5.664119906201347e-15,3.63201544442129e-15,1.0785023819043118e-15,2.223419770169886e-15,-2.1094237467877974e-15,1.9528029079175042e-15,-0.0827505961060524,0.5944923162460327,1.439378261566162,0.0013422331539914012,0.9656888246536255,-0.06538593024015427,0.0,0.0,0.0,0.0,0.0,0.0,0.0,0.0,0.0,0.0,0.0,0.0,2.888701152162687e-13,9.662976111802001,-4.8569988485811795,-0.2816843231760747,-0.017703138636823566,-0.0004688151092261853,0.3314458914364407,-0.027416944849338192,0.2612813745377325,0.3314303996976024,-0.027429485764927,0.26128520424252627,0.0,0.0,0.0,0
1773085131.9050288,0.740146374,-0.0827505961060524,0.5944923162460327,1.439378261566162,0.0013422331539914012,0.9656888246536255,-0.06538593024015427,5.664119906201347e-15,3.63201544442129e-15,1.0785023819043118e-15,2.223419770169886e-15,-2.1094237467877974e-15,1.9528029079175042e-15,-0.0827505961060524,0.5944923162460327,1.439378261566162,0.0013422331539914012,0.9656888246536255,-0.06538593024015427,0.0,0.0,0.0,0.0,0.0,0.0,0.0,0.0,0.0,0.0,0.0,0.0,2.888701152162687e-13,9.662976111802001,-4.8569988485811795,-0.2816843231760747,-0.017703138636823566,0.00029735137903589724,0.3314458914364407,-0.027416944849338192,0.2612813745377325,0.3314303996976024,-0.027429485764927,0.26128520424252627,0.0,0.0,0.0,0
1773085131.925105,0.760222631,-0.0827505961060524,0.5944923162460327,1.439378261566162,0.0013422331539914012,0.9656888246536255,-0.06538593024015427,5.664119906201347e-15,3.63201544442129e-15,1.0785023819043118e-15,2.223419770169886e-15,-2.1094237467877974e-15,1.9528029079175042e-15,-0.0827505961060524,0.5944923162460327,1.439378261566162,0.0013422331539914012,0.9656888246536255,-0.06538593024015427,0.0,0.0,0.0,0.0,0.0,0.0,0.0,0.0,0.0,0.0,0.0,0.0,2.888701152162687e-13,9.662976111802001,-4.8569988485811795,-0.2816843231760747,-0.017703138636823566,0.00029735137903589724,0.3314458914364407,-0.027416944849338192,0.2612813745377325,0.3314303996976024,-0.027429485764927,0.26128520424252627,0.0,0.0,0.0,0
1773085131.9449368,0.780054215,-0.0827505961060524,0.5944923162460327,1.439378261566162,0.0013422331539914012,0.9656888246536255,-0.06538593024015427,5.664119906201347e-15,3.63201544442129e-15,1.0785023819043118e-15,2.223419770169886e-15,-2.1094237467877974e-15,1.9528029079175042e-15,-0.0827505961060524,0.5944923162460327,1.439378261566162,0.0013422331539914012,0.9656888246536255,-0.06538593024015427,0.0,0.0,0.0,0.0,0.0,0.0,0.0,0.0,0.0,0.0,0.0,0.0,2.888701152162687e-13,9.662976111802001,-4.8569988485811795,-0.2816843231760747,-0.017703138636823566,0.00029735137903589724,0.3314458914364407,-0.027416944849338192,0.2612813745377325,0.3314303996976024,-0.027429485764927,0.26128520424252627,0.0,0.0,0.0,0
1773085131.9649222,0.800039645,-0.0827505961060524,0.5944923162460327,1.439378261566162,0.0013422331539914012,0.9656888246536255,-0.06538593024015427,5.664119906201347e-15,3.63201544442129e-15,1.0785023819043118e-15,2.223419770169886e-15,-2.1094237467877974e-15,1.9528029079175042e-15,-0.0827505961060524,0.5944923162460327,1.439378261566162,0.0013422331539914012,0.9656888246536255,-0.06538593024015427,0.0,0.0,0.0,0.0,0.0,0.0,0.0,0.0,0.0,0.0,0.0,0.0,2.888701152162687e-13,9.662976111802001,-4.8569988485811795,-0.2816843231760747,-0.017703138636823566,0.00029735137903589724,0.3314458914364407,-0.027416944849338192,0.2612813745377325,0.3314303996976024,-0.027429485764927,0.26128520424252627,0.0,0.0,0.0,0
1773085131.9849336,0.820051063,-0.0827505961060524,0.5944923162460327,1.439378261566162,0.0013422331539914012,0.9656888246536255,-0.06538593024015427,5.664119906201347e-15,3.63201544442129e-15,1.0785023819043118e-15,2.223419770169886e-15,-2.1094237467877974e-15,1.9528029079175042e-15,-0.0827505961060524,0.5944923162460327,1.439378261566162,0.0013422331539914012,0.9656888246536255,-0.06538593024015427,0.0,0.0,0.0,0.0,0.0,0.0,0.0,0.0,0.0,0.0,0.0,0.0,2.888701152162687e-13,9.662976111802001,-4.8569988485811795,-0.2816843231760747,-0.017703138636823566,0.00029735137903589724,0.3314458914364407,-0.027416944849338192,0.2612813745377325,0.3314303996976024,-0.027429485764927,0.26128520424252627,0.0,0.0,0.0,0
1773085132.005047,0.840164679,-0.0827505961060524,0.5944923162460327,1.439378261566162,0.0013422331539914012,0.9656888246536255,-0.06538593024015427,5.664119906201347e-15,3.63201544442129e-15,1.0785023819043118e-15,2.223419770169886e-15,-2.1094237467877974e-15,1.9528029079175042e-15,-0.0827505961060524,0.5944923162460327,1.439378261566162,0.0013422331539914012,0.9656888246536255,-0.06538593024015427,0.0,0.0,0.0,0.0,0.0,0.0,0.0,0.0,0.0,0.0,0.0,0.0,2.888701152162687e-13,9.662976111802001,-4.8569988485811795,-0.2816843231760747,-0.017703138636823566,0.00029735137903589724,0.3314458914364407,-0.027416944849338192,0.2612813745377325,0.3314303996976024,-0.027429485764927,0.26128520424252627,0.0,0.0,0.0,0
1773085132.0249324,0.860049887,-0.0827505961060524,0.5944923162460327,1.439378261566162,0.0013422331539914012,0.9656888246536255,-0.06538593024015427,5.664119906201347e-15,3.63201544442129e-15,1.0785023819043118e-15,2.223419770169886e-15,-2.1094237467877974e-15,1.9528029079175042e-15,-0.0827505961060524,0.5944923162460327,1.439378261566162,0.0013422331539914012,0.9656888246536255,-0.06538593024015427,0.0,0.0,0.0,0.0,0.0,0.0,0.0,0.0,0.0,0.0,0.0,0.0,2.888701152162687e-13,9.662976111802001,-4.8569988485811795,-0.2816843231760747,-0.017703138636823566,0.00029735137903589724,0.3314458914364407,-0.027416944849338192,0.2612813745377325,0.3314303996976024,-0.027429485764927,0.26128520424252627,0.0,0.0,0.0,0
1773085132.0450456,0.880162975,-0.0827505961060524,0.5944923162460327,1.439378261566162,0.0013422331539914012,0.9656888246536255,-0.06538593024015427,5.664119906201347e-15,3.63201544442129e-15,1.0785023819043118e-15,2.223419770169886e-15,-2.1094237467877974e-15,1.9528029079175042e-15,-0.0827505961060524,0.5944923162460327,1.439378261566162,0.0013422331539914012,0.9656888246536255,-0.06538593024015427,0.0,0.0,0.0,0.0,0.0,0.0,0.0,0.0,0.0,0.0,0.0,0.0,2.888701152162687e-13,9.662976111802001,-4.8569988485811795,-0.2816843231760747,-0.017703138636823566,0.00029735137903589724,0.3314458914364407,-0.027416944849338192,0.2612813745377325,0.3314303996976024,-0.027429485764927,0.26128520424252627,0.0,0.0,0.0,0
1773085132.0648818,0.89999946,-0.0827505961060524,0.5944923162460327,1.439378261566162,0.0013422331539914012,0.9656888246536255,-0.06538593024015427,5.664119906201347e-15,3.63201544442129e-15,1.0785023819043118e-15,2.223419770169886e-15,-2.1094237467877974e-15,1.9528029079175042e-15,-0.0827505961060524,0.5944923162460327,1.439378261566162,0.0013422331539914012,0.9656888246536255,-0.06538593024015427,0.0,0.0,0.0,0.0,0.0,0.0,0.0,0.0,0.0,0.0,0.0,0.0,2.888701152162687e-13,9.662976111802001,-4.8569988485811795,-0.2816843231760747,-0.017703138636823566,0.00029735137903589724,0.3314458914364407,-0.027416944849338192,0.2612813745377325,0.3314303996976024,-0.027429485764927,0.26128520424252627,0.0,0.0,0.0,0
1773085132.084977,0.920094509,-0.0827505961060524,0.5944923162460327,1.439378261566162,0.0013422331539914012,0.9656888246536255,-0.06538593024015427,5.664119906201347e-15,3.63201544442129e-15,1.0785023819043118e-15,2.223419770169886e-15,-2.1094237467877974e-15,1.9528029079175042e-15,-0.0827505961060524,0.5944923162460327,1.439378261566162,0.0013422331539914012,0.9656888246536255,-0.06538593024015427,0.0,0.0,0.0,0.0,0.0,0.0,0.0,0.0,0.0,0.0,0.0,0.0,2.888701152162687e-13,9.662976111802001,-4.8569988485811795,-0.2816843231760747,-0.017703138636823566,0.00029735137903589724,0.3314458914364407,-0.027416944849338192,0.2612813745377325,0.3314303996976024,-0.027429485764927,0.26128520424252627,0.0,0.0,0.0,0
1773085132.1049464,0.940064025,-0.0827505961060524,0.5944923162460327,1.439378261566162,0.0013422331539914012,0.9656888246536255,-0.06538593024015427,5.664119906201347e-15,3.63201544442129e-15,1.0785023819043118e-15,2.223419770169886e-15,-2.1094237467877974e-15,1.9528029079175042e-15,-0.0827505961060524,0.5944923162460327,1.439378261566162,0.0013422331539914012,0.9656888246536255,-0.06538593024015427,0.0,0.0,0.0,0.0,0.0,0.0,0.0,0.0,0.0,0.0,0.0,0.0,2.888701152162687e-13,9.662976111802001,-4.8569988485811795,-0.2816843231760747,-0.017703138636823566,0.00029735137903589724,0.3314458914364407,-0.027416944849338192,0.2612813745377325,0.3314303996976024,-0.027429485764927,0.26128520424252627,0.0,0.0,0.0,0
1773085132.1249046,0.96002215,-0.0827505961060524,0.5944923162460327,1.439378261566162,0.0013422331539914012,0.9656888246536255,-0.06538593024015427,5.664119906201347e-15,3.63201544442129e-15,1.0785023819043118e-15,2.223419770169886e-15,-2.1094237467877974e-15,1.9528029079175042e-15,-0.0827505961060524,0.5944923162460327,1.439378261566162,0.0013422331539914012,0.9656888246536255,-0.06538593024015427,0.0,0.0,0.0,0.0,0.0,0.0,0.0,0.0,0.0,0.0,0.0,0.0,2.888701152162687e-13,9.662976111802001,-4.8569988485811795,-0.2816843231760747,-0.017703138636823566,0.00029735137903589724,0.3314458914364407,-0.027416944849338192,0.2612813745377325,0.3314303996976024,-0.027429485764927,0.26128520424252627,0.0,0.0,0.0,0
1773085132.144953,0.98007067,-0.0827505961060524,0.5944923162460327,1.439378261566162,0.0013422331539914012,0.9656888246536255,-0.06538593024015427,5.664119906201347e-15,3.63201544442129e-15,1.0785023819043118e-15,2.223419770169886e-15,-2.1094237467877974e-15,1.9528029079175042e-15,-0.0827505961060524,0.5944923162460327,1.439378261566162,0.0013422331539914012,0.9656888246536255,-0.06538593024015427,0.0,0.0,0.0,0.0,0.0,0.0,0.0,0.0,0.0,0.0,0.0,0.0,2.888701152162687e-13,9.662976111802001,-4.8569988485811795,-0.2816843231760747,-0.017703138636823566,0.00029735137903589724,0.3314458914364407,-0.027416944849338192,0.2612813745377325,0.3314303996976024,-0.027429485764927,0.26128520424252627,0.0,0.0,0.0,0
1773085132.1648855,1.000003082,-0.0827505961060524,0.5944923162460327,1.439378261566162,0.0013422331539914012,0.9656888246536255,-0.06538593024015427,5.664119906201347e-15,3.63201544442129e-15,1.0785023819043118e-15,2.223419770169886e-15,-2.1094237467877974e-15,1.9528029079175042e-15,-0.0827505961060524,0.5944923162460327,1.439378261566162,0.0013422331539914012,0.9656888246536255,-0.06538593024015427,0.0,0.0,0.0,0.0,0.0,0.0,0.0,0.0,0.0,0.0,0.0,0.0,2.888701152162687e-13,9.662976111802001,-4.8569988485811795,-0.2816843231760747,-0.017703138636823566,0.00029735137903589724,0.3314458914364407,-0.027416944849338192,0.2612813745377325,0.3314303996976024,-0.027429485764927,0.26128520424252627,0.0,0.0,0.0,0
1773085132.1849084,1.020025933,-0.0827505961060524,0.5944923162460327,1.439378261566162,0.0013422331539914012,0.9656888246536255,-0.06538593024015427,5.664119906201347e-15,3.63201544442129e-15,1.0785023819043118e-15,2.223419770169886e-15,-2.1094237467877974e-15,1.9528029079175042e-15,-0.0827505961060524,0.5944923162460327,1.439378261566162,0.0013422331539914012,0.9656888246536255,-0.06538593024015427,0.0,0.0,0.0,0.0,0.0,0.0,0.0,0.0,0.0,0.0,0.0,0.0,2.888701152162687e-13,9.662976111802001,-4.8569988485811795,-0.2816843231760747,-0.017703138636823566,0.00029735137903589724,0.3314458914364407,-0.027416944849338192,0.2612813745377325,0.3314303996976024,-0.027429485764927,0.26128520424252627,0.0,0.0,0.0,0
1773085132.204937,1.040054587,-0.0827505961060524,0.5944923162460327,1.439378261566162,0.0013422331539914012,0.9656888246536255,-0.06538593024015427,5.664119906201347e-15,3.63201544442129e-15,1.0785023819043118e-15,2.223419770169886e-15,-2.1094237467877974e-15,1.9528029079175042e-15,-0.0827505961060524,0.5944923162460327,1.439378261566162,0.0013422331539914012,0.9656888246536255,-0.06538593024015427,0.0,0.0,0.0,0.0,0.0,0.0,0.0,0.0,0.0,0.0,0.0,0.0,2.888701152162687e-13,9.662976111802001,-4.8569988485811795,-0.2816843231760747,-0.017703138636823566,0.00029735137903589724,0.3314458914364407,-0.027416944849338192,0.2612813745377325,0.3314303996976024,-0.027429485764927,0.26128520424252627,0.0,0.0,0.0,0
1773085132.2248986,1.060016207,-0.0827505961060524,0.5944923162460327,1.439378261566162,0.0013422331539914012,0.9656888246536255,-0.06538593024015427,5.664119906201347e-15,3.63201544442129e-15,1.0785023819043118e-15,2.223419770169886e-15,-2.1094237467877974e-15,1.9528029079175042e-15,-0.0827505961060524,0.5944923162460327,1.439378261566162,0.0013422331539914012,0.9656888246536255,-0.06538593024015427,0.0,0.0,0.0,0.0,0.0,0.0,0.0,0.0,0.0,0.0,0.0,0.0,2.888701152162687e-13,9.662976111802001,-4.8569988485811795,-0.2816843231760747,-0.017703138636823566,0.00029735137903589724,0.3314458914364407,-0.027416944849338192,0.2612813745377325,0.3314303996976024,-0.027429485764927,0.26128520424252627,0.0,0.0,0.0,0
1773085132.2450445,1.080162084,-0.0827505961060524,0.5944923162460327,1.439378261566162,0.0013422331539914012,0.9656888246536255,-0.06538593024015427,5.664119906201347e-15,3.63201544442129e-15,1.0785023819043118e-15,2.223419770169886e-15,-2.1094237467877974e-15,1.9528029079175042e-15,-0.0827505961060524,0.5944923162460327,1.439378261566162,0.0013422331539914012,0.9656888246536255,-0.06538593024015427,0.0,0.0,0.0,0.0,0.0,0.0,0.0,0.0,0.0,0.0,0.0,0.0,2.888701152162687e-13,9.662976111802001,-4.8569988485811795,-0.2816843231760747,-0.017703138636823566,0.00029735137903589724,0.3314458914364407,-0.027416944849338192,0.2612813745377325,0.3314303996976024,-0.027429485764927,0.26128520424252627,0.0,0.0,0.0,0
1773085132.2648396,1.099957183,-0.0827505961060524,0.5944923162460327,1.439378261566162,0.0013422331539914012,0.9656888246536255,-0.06538593024015427,5.664119906201347e-15,3.63201544442129e-15,1.0785023819043118e-15,2.223419770169886e-15,-2.1094237467877974e-15,1.9528029079175042e-15,-0.0827505961060524,0.5944923162460327,1.439378261566162,0.0013422331539914012,0.9656888246536255,-0.06538593024015427,0.0,0.0,0.0,0.0,0.0,0.0,0.0,0.0,0.0,0.0,0.0,0.0,2.888701152162687e-13,9.662976111802001,-4.8569988485811795,-0.2816843231760747,-0.017703138636823566,0.00029735137903589724,0.3314458914364407,-0.027416944849338192,0.2612813745377325,0.3314303996976024,-0.027429485764927,0.26128520424252627,0.0,0.0,0.0,0
1773085132.2849116,1.120029196,-0.0827505961060524,0.5944923162460327,1.439378261566162,0.0013422331539914012,0.9656888246536255,-0.06538593024015427,5.664119906201347e-15,3.63201544442129e-15,1.0785023819043118e-15,2.223419770169886e-15,-2.1094237467877974e-15,1.9528029079175042e-15,-0.0827505961060524,0.5944923162460327,1.439378261566162,0.0013422331539914012,0.9656888246536255,-0.06538593024015427,0.0,0.0,0.0,0.0,0.0,0.0,0.0,0.0,0.0,0.0,0.0,0.0,2.888701152162687e-13,9.662976111802001,-4.8569988485811795,-0.2816843231760747,-0.017703138636823566,0.00029735137903589724,0.3314458914364407,-0.027416944849338192,0.2612813745377325,0.3314303996976024,-0.027429485764927,0.26128520424252627,0.0,0.0,0.0,0
1773085132.3048866,1.140004091,-0.0827505961060524,0.5944923162460327,1.439378261566162,0.0013422331539914012,0.9656888246536255,-0.06538593024015427,5.664119906201347e-15,3.63201544442129e-15,1.0785023819043118e-15,2.223419770169886e-15,-2.1094237467877974e-15,1.9528029079175042e-15,-0.0827505961060524,0.5944923162460327,1.439378261566162,0.0013422331539914012,0.9656888246536255,-0.06538593024015427,0.0,0.0,0.0,0.0,0.0,0.0,0.0,0.0,0.0,0.0,0.0,0.0,2.888701152162687e-13,9.662976111802001,-4.8569988485811795,-0.2816843231760747,-0.017703138636823566,0.00029735137903589724,0.3314458914364407,-0.027416944849338192,0.2612813745377325,0.3314303996976024,-0.027429485764927,0.26128520424252627,0.0,0.0,0.0,0
1773085132.3249457,1.160063079,-0.0827505961060524,0.5944923162460327,1.439378261566162,0.0013422331539914012,0.9656888246536255,-0.06538593024015427,5.664119906201347e-15,3.63201544442129e-15,1.0785023819043118e-15,2.223419770169886e-15,-2.1094237467877974e-15,1.9528029079175042e-15,-0.0827505961060524,0.5944923162460327,1.439378261566162,0.0013422331539914012,0.9656888246536255,-0.06538593024015427,0.0,0.0,0.0,0.0,0.0,0.0,0.0,0.0,0.0,0.0,0.0,0.0,2.888701152162687e-13,9.662976111802001,-4.8569988485811795,-0.2816843231760747,-0.017703138636823566,0.00029735137903589724,0.3314458914364407,-0.027416944849338192,0.2612813745377325,0.3314303996976024,-0.027429485764927,0.26128520424252627,0.0,0.0,0.0,0
1773085132.345211,1.180328748,-0.0827505961060524,0.5944923162460327,1.439378261566162,0.0013422331539914012,0.9656888246536255,-0.06538593024015427,5.664119906201347e-15,3.63201544442129e-15,1.0785023819043118e-15,2.223419770169886e-15,-2.1094237467877974e-15,1.9528029079175042e-15,-0.0827505961060524,0.5944923162460327,1.439378261566162,0.0013422331539914012,0.9656888246536255,-0.06538593024015427,0.0,0.0,0.0,0.0,0.0,0.0,0.0,0.0,0.0,0.0,0.0,0.0,2.888701152162687e-13,9.662976111802001,-4.8569988485811795,-0.2816843231760747,-0.017703138636823566,0.00029735137903589724,0.3314458914364407,-0.027416944849338192,0.2612813745377325,0.3314303996976024,-0.027429485764927,0.26128520424252627,0.0,0.0,0.0,0
1773085132.365641,1.20075879,-0.0827505961060524,0.5944923162460327,1.439378261566162,0.0013422331539914012,0.9656888246536255,-0.06538593024015427,5.664119906201347e-15,3.63201544442129e-15,1.0785023819043118e-15,2.223419770169886e-15,-2.1094237467877974e-15,1.9528029079175042e-15,-0.0827505961060524,0.5944923162460327,1.439378261566162,0.0013422331539914012,0.9656888246536255,-0.06538593024015427,0.0,0.0,0.0,0.0,0.0,0.0,0.0,0.0,0.0,0.0,0.0,0.0,2.888701152162687e-13,9.662976111802001,-4.8569988485811795,-0.2816843231760747,-0.017703138636823566,0.00029735137903589724,0.3314458914364407,-0.027416944849338192,0.2612813745377325,0.3314303996976024,-0.027429485764927,0.26128520424252627,0.0,0.0,0.0,0
1773085132.3849206,1.220037998,-0.0827505961060524,0.5944923162460327,1.439378261566162,0.0013422331539914012,0.9656888246536255,-0.06538593024015427,5.664119906201347e-15,3.63201544442129e-15,1.0785023819043118e-15,2.223419770169886e-15,-2.1094237467877974e-15,1.9528029079175042e-15,-0.0827505961060524,0.5944923162460327,1.439378261566162,0.0013422331539914012,0.9656888246536255,-0.06538593024015427,0.0,0.0,0.0,0.0,0.0,0.0,0.0,0.0,0.0,0.0,0.0,0.0,2.888701152162687e-13,9.662976111802001,-4.8569988485811795,-0.2816843231760747,-0.017703138636823566,0.00029735137903589724,0.3314458914364407,-0.027416944849338192,0.2612813745377325,0.3314303996976024,-0.027429485764927,0.26128520424252627,0.0,0.0,0.0,0
1773085132.4054925,1.2406099,-0.0827505961060524,0.5944923162460327,1.439378261566162,0.0013422331539914012,0.9656888246536255,-0.06538593024015427,5.664119906201347e-15,3.63201544442129e-15,1.0785023819043118e-15,2.223419770169886e-15,-2.1094237467877974e-15,1.9528029079175042e-15,-0.0827505961060524,0.5944923162460327,1.439378261566162,0.0013422331539914012,0.9656888246536255,-0.06538593024015427,0.0,0.0,0.0,0.0,0.0,0.0,0.0,0.0,0.0,0.0,0.0,0.0,2.888701152162687e-13,9.662976111802001,-4.8569988485811795,-0.2816843231760747,-0.017703138636823566,0.00029735137903589724,0.3314458914364407,-0.027416944849338192,0.2612813745377325,0.3314303996976024,-0.027429485764927,0.26128520424252627,0.0,0.0,0.0,0
1773085132.4248893,1.260006845,-0.0827505961060524,0.5944923162460327,1.439378261566162,0.0013422331539914012,0.9656888246536255,-0.06538593024015427,5.664119906201347e-15,3.63201544442129e-15,1.0785023819043118e-15,2.223419770169886e-15,-2.1094237467877974e-15,1.9528029079175042e-15,-0.0827505961060524,0.5944923162460327,1.439378261566162,0.0013422331539914012,0.9656888246536255,-0.06538593024015427,0.0,0.0,0.0,0.0,0.0,0.0,0.0,0.0,0.0,0.0,0.0,0.0,2.888701152162687e-13,9.662976111802001,-4.8569988485811795,-0.2816843231760747,-0.017703138636823566,0.00029735137903589724,0.3314458914364407,-0.027416944849338192,0.2612813745377325,0.3314303996976024,-0.027429485764927,0.26128520424252627,0.0,0.0,0.0,0
1773085132.4449346,1.280052139,-0.0827505961060524,0.5944923162460327,1.439378261566162,0.0013422331539914012,0.9656888246536255,-0.06538593024015427,5.664119906201347e-15,3.63201544442129e-15,1.0785023819043118e-15,2.223419770169886e-15,-2.1094237467877974e-15,1.9528029079175042e-15,-0.0827505961060524,0.5944923162460327,1.439378261566162,0.0013422331539914012,0.9656888246536255,-0.06538593024015427,0.0,0.0,0.0,0.0,0.0,0.0,0.0,0.0,0.0,0.0,0.0,0.0,2.888701152162687e-13,9.662976111802001,-4.8569988485811795,-0.2816843231760747,-0.017703138636823566,0.00029735137903589724,0.3314458914364407,-0.027416944849338192,0.2612813745377325,0.3314303996976024,-0.027429485764927,0.26128520424252627,0.0,0.0,0.0,0
1773085132.4648871,1.300004584,-0.0827505961060524,0.5944923162460327,1.439378261566162,0.0013422331539914012,0.9656888246536255,-0.06538593024015427,5.664119906201347e-15,3.63201544442129e-15,1.0785023819043118e-15,2.223419770169886e-15,-2.1094237467877974e-15,1.9528029079175042e-15,-0.0827505961060524,0.5944923162460327,1.439378261566162,0.0013422331539914012,0.9656888246536255,-0.06538593024015427,0.0,0.0,0.0,0.0,0.0,0.0,0.0,0.0,0.0,0.0,0.0,0.0,2.888701152162687e-13,9.662976111802001,-4.8569988485811795,-0.2816843231760747,-0.017703138636823566,0.00029735137903589724,0.3314458914364407,-0.027416944849338192,0.2612813745377325,0.3314303996976024,-0.027429485764927,0.26128520424252627,0.0,0.0,0.0,0
1773085132.4849112,1.320028614,-0.0827505961060524,0.5944923162460327,1.439378261566162,0.0013422331539914012,0.9656888246536255,-0.06538593024015427,5.664119906201347e-15,3.63201544442129e-15,1.0785023819043118e-15,2.223419770169886e-15,-2.1094237467877974e-15,1.9528029079175042e-15,-0.0827505961060524,0.5944923162460327,1.439378261566162,0.0013422331539914012,0.9656888246536255,-0.06538593024015427,0.0,0.0,0.0,0.0,0.0,0.0,0.0,0.0,0.0,0.0,0.0,0.0,2.888701152162687e-13,9.662976111802001,-4.8569988485811795,-0.2816843231760747,-0.017703138636823566,0.00029735137903589724,0.3314458914364407,-0.027416944849338192,0.2612813745377325,0.3314303996976024,-0.027429485764927,0.26128520424252627,0.0,0.0,0.0,0
1773085132.5049033,1.340020936,-0.0827505961060524,0.5944923162460327,1.439378261566162,0.0013422331539914012,0.9656888246536255,-0.06538593024015427,5.664119906201347e-15,3.63201544442129e-15,1.0785023819043118e-15,2.223419770169886e-15,-2.1094237467877974e-15,1.9528029079175042e-15,-0.0827505961060524,0.5944923162460327,1.439378261566162,0.0013422331539914012,0.9656888246536255,-0.06538593024015427,0.0,0.0,0.0,0.0,0.0,0.0,0.0,0.0,0.0,0.0,0.0,0.0,2.888701152162687e-13,9.662976111802001,-4.8569988485811795,-0.2816843231760747,-0.017703138636823566,0.00029735137903589724,0.3314458914364407,-0.027416944849338192,0.2612813745377325,0.3314303996976024,-0.027429485764927,0.26128520424252627,0.0,0.0,0.0,0
1773085132.52495,1.360067487,-0.0827505961060524,0.5944923162460327,1.439378261566162,0.0013422331539914012,0.9656888246536255,-0.06538593024015427,5.664119906201347e-15,3.63201544442129e-15,1.0785023819043118e-15,2.223419770169886e-15,-2.1094237467877974e-15,1.9528029079175042e-15,-0.0827505961060524,0.5944923162460327,1.439378261566162,0.0013422331539914012,0.9656888246536255,-0.06538593024015427,0.0,0.0,0.0,0.0,0.0,0.0,0.0,0.0,0.0,0.0,0.0,0.0,2.888701152162687e-13,9.662976111802001,-4.8569988485811795,-0.2816843231760747,-0.017703138636823566,0.00029735137903589724,0.3314458914364407,-0.027416944849338192,0.2612813745377325,0.3314303996976024,-0.027429485764927,0.26128520424252627,0.0,0.0,0.0,0
1773085132.5449376,1.380055255,-0.0827505961060524,0.5944923162460327,1.439378261566162,0.0013422331539914012,0.9656888246536255,-0.06538593024015427,5.664119906201347e-15,3.63201544442129e-15,1.0785023819043118e-15,2.223419770169886e-15,-2.1094237467877974e-15,1.9528029079175042e-15,-0.0827505961060524,0.5944923162460327,1.439378261566162,0.0013422331539914012,0.9656888246536255,-0.06538593024015427,0.0,0.0,0.0,0.0,0.0,0.0,0.0,0.0,0.0,0.0,0.0,0.0,2.888701152162687e-13,9.662976111802001,-4.8569988485811795,-0.2816843231760747,-0.017703138636823566,0.00029735137903589724,0.3314458914364407,-0.027416944849338192,0.2612813745377325,0.3314303996976024,-0.027429485764927,0.26128520424252627,0.0,0.0,0.0,0
1773085132.564896,1.400013581,-0.0827505961060524,0.5944923162460327,1.439378261566162,0.0013422331539914012,0.9656888246536255,-0.06538593024015427,5.664119906201347e-15,3.63201544442129e-15,1.0785023819043118e-15,2.223419770169886e-15,-2.1094237467877974e-15,1.9528029079175042e-15,-0.0827505961060524,0.5944923162460327,1.439378261566162,0.0013422331539914012,0.9656888246536255,-0.06538593024015427,0.0,0.0,0.0,0.0,0.0,0.0,0.0,0.0,0.0,0.0,0.0,0.0,2.888701152162687e-13,9.662976111802001,-4.8569988485811795,-0.2816843231760747,-0.017703138636823566,0.00029735137903589724,0.3314458914364407,-0.027416944849338192,0.2612813745377325,0.3314303996976024,-0.027429485764927,0.26128520424252627,0.0,0.0,0.0,0
1773085132.5849326,1.420050197,-0.0827505961060524,0.5944923162460327,1.439378261566162,0.0013422331539914012,0.9656888246536255,-0.06538593024015427,5.664119906201347e-15,3.63201544442129e-15,1.0785023819043118e-15,2.223419770169886e-15,-2.1094237467877974e-15,1.9528029079175042e-15,-0.0827505961060524,0.5944923162460327,1.439378261566162,0.0013422331539914012,0.9656888246536255,-0.06538593024015427,0.0,0.0,0.0,0.0,0.0,0.0,0.0,0.0,0.0,0.0,0.0,0.0,2.888701152162687e-13,9.662976111802001,-4.8569988485811795,-0.2816843231760747,-0.017703138636823566,0.00029735137903589724,0.3314458914364407,-0.027416944849338192,0.2612813745377325,0.3314303996976024,-0.027429485764927,0.26128520424252627,0.0,0.0,0.0,0
1773085132.6049159,1.440033518,-0.0827505961060524,0.5944923162460327,1.439378261566162,0.0013422331539914012,0.9656888246536255,-0.06538593024015427,5.664119906201347e-15,3.63201544442129e-15,1.0785023819043118e-15,2.223419770169886e-15,-2.1094237467877974e-15,1.9528029079175042e-15,-0.0827505961060524,0.5944923162460327,1.439378261566162,0.0013422331539914012,0.9656888246536255,-0.06538593024015427,0.0,0.0,0.0,0.0,0.0,0.0,0.0,0.0,0.0,0.0,0.0,0.0,2.888701152162687e-13,9.662976111802001,-4.8569988485811795,-0.2816843231760747,-0.017703138636823566,0.00029735137903589724,0.3314458914364407,-0.027416944849338192,0.2612813745377325,0.3314303996976024,-0.027429485764927,0.26128520424252627,0.0,0.0,0.0,0
1773085132.6249607,1.460078276,-0.0827505961060524,0.5944923162460327,1.439378261566162,0.0013422331539914012,0.9656888246536255,-0.06538593024015427,5.664119906201347e-15,3.63201544442129e-15,1.0785023819043118e-15,2.223419770169886e-15,-2.1094237467877974e-15,1.9528029079175042e-15,-0.0827505961060524,0.5944923162460327,1.439378261566162,0.0013422331539914012,0.9656888246536255,-0.06538593024015427,0.0,0.0,0.0,0.0,0.0,0.0,0.0,0.0,0.0,0.0,0.0,0.0,2.888701152162687e-13,9.662976111802001,-4.8569988485811795,-0.2816843231760747,-0.017703138636823566,0.00029735137903589724,0.3314458914364407,-0.027416944849338192,0.2612813745377325,0.3314303996976024,-0.027429485764927,0.26128520424252627,0.0,0.0,0.0,0
1773085132.6449296,1.480047074,-0.0827505961060524,0.5944923162460327,1.439378261566162,0.0013422331539914012,0.9656888246536255,-0.06538593024015427,5.664119906201347e-15,3.63201544442129e-15,1.0785023819043118e-15,2.223419770169886e-15,-2.1094237467877974e-15,1.9528029079175042e-15,-0.0827505961060524,0.5944923162460327,1.439378261566162,0.0013422331539914012,0.9656888246536255,-0.06538593024015427,0.0,0.0,0.0,0.0,0.0,0.0,0.0,0.0,0.0,0.0,0.0,0.0,2.888701152162687e-13,9.662976111802001,-4.8569988485811795,-0.2816843231760747,-0.017703138636823566,0.00029735137903589724,0.3314458914364407,-0.027416944849338192,0.2612813745377325,0.3314303996976024,-0.027429485764927,0.26128520424252627,0.0,0.0,0.0,0
1773085132.665874,1.500991511,-0.0827505961060524,0.5944923162460327,1.439378261566162,0.0013422331539914012,0.9656888246536255,-0.06538593024015427,5.664119906201347e-15,3.63201544442129e-15,1.0785023819043118e-15,2.223419770169886e-15,-2.1094237467877974e-15,1.9528029079175042e-15,-0.0827505961060524,0.5944923162460327,1.439378261566162,0.0013422331539914012,0.9656888246536255,-0.06538593024015427,0.0,0.0,0.0,0.0,0.0,0.0,0.0,0.0,0.0,0.0,0.0,0.0,2.888701152162687e-13,9.662976111802001,-4.8569988485811795,-0.2816843231760747,-0.017703138636823566,0.00029735137903589724,0.3314458914364407,-0.027416944849338192,0.2612813745377325,0.3314303996976024,-0.027429485764927,0.26128520424252627,0.0,0.0,0.0,0
1773085132.6848981,1.520015559,-0.0827505961060524,0.5944923162460327,1.439378261566162,0.0013422331539914012,0.9656888246536255,-0.06538593024015427,5.664119906201347e-15,3.63201544442129e-15,1.0785023819043118e-15,2.223419770169886e-15,-2.1094237467877974e-15,1.9528029079175042e-15,-0.0827505961060524,0.5944923162460327,1.439378261566162,0.0013422331539914012,0.9656888246536255,-0.06538593024015427,0.0,0.0,0.0,0.0,0.0,0.0,0.0,0.0,0.0,0.0,0.0,0.0,2.888701152162687e-13,9.662976111802001,-4.8569988485811795,-0.2816843231760747,-0.017703138636823566,0.00029735137903589724,0.3314458914364407,-0.027416944849338192,0.2612813745377325,0.3314303996976024,-0.027429485764927,0.26128520424252627,0.0,0.0,0.0,0
1773085132.7049367,1.540054346,-0.0827505961060524,0.5944923162460327,1.439378261566162,0.0013422331539914012,0.9656888246536255,-0.06538593024015427,5.664119906201347e-15,3.63201544442129e-15,1.0785023819043118e-15,2.223419770169886e-15,-2.1094237467877974e-15,1.9528029079175042e-15,-0.0827505961060524,0.5944923162460327,1.439378261566162,0.0013422331539914012,0.9656888246536255,-0.06538593024015427,0.0,0.0,0.0,0.0,0.0,0.0,0.0,0.0,0.0,0.0,0.0,0.0,2.888701152162687e-13,9.662976111802001,-4.8569988485811795,-0.2816843231760747,-0.017703138636823566,0.00029735137903589724,0.3314458914364407,-0.027416944849338192,0.2612813745377325,0.3314303996976024,-0.027429485764927,0.26128520424252627,0.0,0.0,0.0,0
1773085132.7249193,1.560036791,-0.0827505961060524,0.5944923162460327,1.439378261566162,0.0013422331539914012,0.9656888246536255,-0.06538593024015427,5.664119906201347e-15,3.63201544442129e-15,1.0785023819043118e-15,2.223419770169886e-15,-2.1094237467877974e-15,1.9528029079175042e-15,-0.0827505961060524,0.5944923162460327,1.439378261566162,0.0013422331539914012,0.9656888246536255,-0.06538593024015427,0.0,0.0,0.0,0.0,0.0,0.0,0.0,0.0,0.0,0.0,0.0,0.0,2.888701152162687e-13,9.662976111802001,-4.8569988485811795,-0.2816843231760747,-0.017703138636823566,0.00029735137903589724,0.3314458914364407,-0.027416944849338192,0.2612813745377325,0.3314303996976024,-0.027429485764927,0.26128520424252627,0.0,0.0,0.0,0
1773085132.744889,1.580006693,-0.0827505961060524,0.5944923162460327,1.439378261566162,0.0013422331539914012,0.9656888246536255,-0.06538593024015427,5.664119906201347e-15,3.63201544442129e-15,1.0785023819043118e-15,2.223419770169886e-15,-2.1094237467877974e-15,1.9528029079175042e-15,-0.0827505961060524,0.5944923162460327,1.439378261566162,0.0013422331539914012,0.9656888246536255,-0.06538593024015427,0.0,0.0,0.0,0.0,0.0,0.0,0.0,0.0,0.0,0.0,0.0,0.0,2.888701152162687e-13,9.662976111802001,-4.8569988485811795,-0.2816843231760747,-0.017703138636823566,0.00029735137903589724,0.3314458914364407,-0.027416944849338192,0.2612813745377325,0.3314303996976024,-0.027429485764927,0.26128520424252627,0.0,0.0,0.0,0
1773085132.764886,1.600003454,-0.0827505961060524,0.5944923162460327,1.439378261566162,0.0013422331539914012,0.9656888246536255,-0.06538593024015427,5.664119906201347e-15,3.63201544442129e-15,1.0785023819043118e-15,2.223419770169886e-15,-2.1094237467877974e-15,1.9528029079175042e-15,-0.0827505961060524,0.5944923162460327,1.439378261566162,0.0013422331539914012,0.9656888246536255,-0.06538593024015427,0.0,0.0,0.0,0.0,0.0,0.0,0.0,0.0,0.0,0.0,0.0,0.0,2.888701152162687e-13,9.662976111802001,-4.8569988485811795,-0.2816843231760747,-0.017703138636823566,0.00029735137903589724,0.3314458914364407,-0.027416944849338192,0.2612813745377325,0.3314303996976024,-0.027429485764927,0.26128520424252627,0.0,0.0,0.0,0
1773085132.7849417,1.620059071,-0.0827505961060524,0.5944923162460327,1.439378261566162,0.0013422331539914012,0.9656888246536255,-0.06538593024015427,5.664119906201347e-15,3.63201544442129e-15,1.0785023819043118e-15,2.223419770169886e-15,-2.1094237467877974e-15,1.9528029079175042e-15,-0.0827505961060524,0.5944923162460327,1.439378261566162,0.0013422331539914012,0.9656888246536255,-0.06538593024015427,0.0,0.0,0.0,0.0,0.0,0.0,0.0,0.0,0.0,0.0,0.0,0.0,2.888701152162687e-13,9.662976111802001,-4.8569988485811795,-0.2816843231760747,-0.017703138636823566,0.00029735137903589724,0.3314458914364407,-0.027416944849338192,0.2612813745377325,0.3314303996976024,-0.027429485764927,0.26128520424252627,0.0,0.0,0.0,0
1773085132.8048863,1.640003827,-0.0827505961060524,0.5944923162460327,1.439378261566162,0.0013422331539914012,0.9656888246536255,-0.06538593024015427,5.664119906201347e-15,3.63201544442129e-15,1.0785023819043118e-15,2.223419770169886e-15,-2.1094237467877974e-15,1.9528029079175042e-15,-0.0827505961060524,0.5944923162460327,1.439378261566162,0.0013422331539914012,0.9656888246536255,-0.06538593024015427,0.0,0.0,0.0,0.0,0.0,0.0,0.0,0.0,0.0,0.0,0.0,0.0,2.888701152162687e-13,9.662976111802001,-4.8569988485811795,-0.2816843231760747,-0.017703138636823566,0.00029735137903589724,0.3314458914364407,-0.027416944849338192,0.2612813745377325,0.3314303996976024,-0.027429485764927,0.26128520424252627,0.0,0.0,0.0,0
1773085132.8249433,1.660060869,-0.0827505961060524,0.5944923162460327,1.439378261566162,0.0013422331539914012,0.9656888246536255,-0.06538593024015427,5.664119906201347e-15,3.63201544442129e-15,1.0785023819043118e-15,2.223419770169886e-15,-2.1094237467877974e-15,1.9528029079175042e-15,-0.0827505961060524,0.5944923162460327,1.439378261566162,0.0013422331539914012,0.9656888246536255,-0.06538593024015427,0.0,0.0,0.0,0.0,0.0,0.0,0.0,0.0,0.0,0.0,0.0,0.0,2.888701152162687e-13,9.662976111802001,-4.8569988485811795,-0.2816843231760747,-0.017703138636823566,0.00029735137903589724,0.3314458914364407,-0.027416944849338192,0.2612813745377325,0.3314303996976024,-0.027429485764927,0.26128520424252627,0.0,0.0,0.0,0
1773085132.8448932,1.680010759,-0.0827505961060524,0.5944923162460327,1.439378261566162,0.0013422331539914012,0.9656888246536255,-0.06538593024015427,5.664119906201347e-15,3.63201544442129e-15,1.0785023819043118e-15,2.223419770169886e-15,-2.1094237467877974e-15,1.9528029079175042e-15,-0.0827505961060524,0.5944923162460327,1.439378261566162,0.0013422331539914012,0.9656888246536255,-0.06538593024015427,0.0,0.0,0.0,0.0,0.0,0.0,0.0,0.0,0.0,0.0,0.0,0.0,2.888701152162687e-13,9.662976111802001,-4.8569988485811795,-0.2816843231760747,-0.017703138636823566,0.00029735137903589724,0.3314458914364407,-0.027416944849338192,0.2612813745377325,0.3314303996976024,-0.027429485764927,0.26128520424252627,0.0,0.0,0.0,0
1773085132.8649127,1.700030067,-0.0827505961060524,0.5944923162460327,1.439378261566162,0.0013422331539914012,0.9656888246536255,-0.06538593024015427,5.664119906201347e-15,3.63201544442129e-15,1.0785023819043118e-15,2.223419770169886e-15,-2.1094237467877974e-15,1.9528029079175042e-15,-0.0827505961060524,0.5944923162460327,1.439378261566162,0.0013422331539914012,0.9656888246536255,-0.06538593024015427,0.0,0.0,0.0,0.0,0.0,0.0,0.0,0.0,0.0,0.0,0.0,0.0,2.888701152162687e-13,9.662976111802001,-4.8569988485811795,-0.2816843231760747,-0.017703138636823566,0.00029735137903589724,0.3314458914364407,-0.027416944849338192,0.2612813745377325,0.3314303996976024,-0.027429485764927,0.26128520424252627,0.0,0.0,0.0,0
1773085132.8855212,1.720638608,-0.0827505961060524,0.5944923162460327,1.439378261566162,0.0013422331539914012,0.9656888246536255,-0.06538593024015427,5.664119906201347e-15,3.63201544442129e-15,1.0785023819043118e-15,2.223419770169886e-15,-2.1094237467877974e-15,1.9528029079175042e-15,-0.0827505961060524,0.5944923162460327,1.439378261566162,0.0013422331539914012,0.9656888246536255,-0.06538593024015427,0.0,0.0,0.0,0.0,0.0,0.0,0.0,0.0,0.0,0.0,0.0,0.0,2.888701152162687e-13,9.662976111802001,-4.8569988485811795,-0.2816843231760747,-0.017703138636823566,0.00029735137903589724,0.3314458914364407,-0.027416944849338192,0.2612813745377325,0.3314303996976024,-0.027429485764927,0.26128520424252627,0.0,0.0,0.0,0
1773085132.9049206,1.740038027,-0.0827505961060524,0.5944923162460327,1.439378261566162,0.0013422331539914012,0.9656888246536255,-0.06538593024015427,5.664119906201347e-15,3.63201544442129e-15,1.0785023819043118e-15,2.223419770169886e-15,-2.1094237467877974e-15,1.9528029079175042e-15,-0.0827505961060524,0.5944923162460327,1.439378261566162,0.0013422331539914012,0.9656888246536255,-0.06538593024015427,0.0,0.0,0.0,0.0,0.0,0.0,0.0,0.0,0.0,0.0,0.0,0.0,2.888701152162687e-13,9.662976111802001,-4.8569988485811795,-0.2816843231760747,-0.017703138636823566,0.00029735137903589724,0.3314458914364407,-0.027416944849338192,0.2612813745377325,0.3314303996976024,-0.027429485764927,0.26128520424252627,0.0,0.0,0.0,0
1773085132.9249225,1.760040002,-0.0827505961060524,0.5944923162460327,1.439378261566162,0.0013422331539914012,0.9656888246536255,-0.06538593024015427,5.664119906201347e-15,3.63201544442129e-15,1.0785023819043118e-15,2.223419770169886e-15,-2.1094237467877974e-15,1.9528029079175042e-15,-0.0827505961060524,0.5944923162460327,1.439378261566162,0.0013422331539914012,0.9656888246536255,-0.06538593024015427,0.0,0.0,0.0,0.0,0.0,0.0,0.0,0.0,0.0,0.0,0.0,0.0,2.888701152162687e-13,9.662976111802001,-4.8569988485811795,-0.2816843231760747,-0.017703138636823566,0.00029735137903589724,0.3314458914364407,-0.027416944849338192,0.2612813745377325,0.3314303996976024,-0.027429485764927,0.26128520424252627,0.0,0.0,0.0,0
1773085132.944909,1.780026648,-0.0827505961060524,0.5944923162460327,1.439378261566162,0.0013422331539914012,0.9656888246536255,-0.06538593024015427,5.664119906201347e-15,3.63201544442129e-15,1.0785023819043118e-15,2.223419770169886e-15,-2.1094237467877974e-15,1.9528029079175042e-15,-0.0827505961060524,0.5944923162460327,1.439378261566162,0.0013422331539914012,0.9656888246536255,-0.06538593024015427,0.0,0.0,0.0,0.0,0.0,0.0,0.0,0.0,0.0,0.0,0.0,0.0,2.888701152162687e-13,9.662976111802001,-4.8569988485811795,-0.2816843231760747,-0.017703138636823566,0.00029735137903589724,0.3314458914364407,-0.027416944849338192,0.2612813745377325,0.3314303996976024,-0.027429485764927,0.26128520424252627,0.0,0.0,0.0,0
1773085132.9648407,1.799958203,-0.0827505961060524,0.5944923162460327,1.439378261566162,0.0013422331539914012,0.9656888246536255,-0.06538593024015427,5.664119906201347e-15,3.63201544442129e-15,1.0785023819043118e-15,2.223419770169886e-15,-2.1094237467877974e-15,1.9528029079175042e-15,-0.0827505961060524,0.5944923162460327,1.439378261566162,0.0013422331539914012,0.9656888246536255,-0.06538593024015427,0.0,0.0,0.0,0.0,0.0,0.0,0.0,0.0,0.0,0.0,0.0,0.0,2.888701152162687e-13,9.662976111802001,-4.8569988485811795,-0.2816843231760747,-0.017703138636823566,0.00029735137903589724,0.3314458914364407,-0.027416944849338192,0.2612813745377325,0.3314303996976024,-0.027429485764927,0.26128520424252627,0.0,0.0,0.0,0
1773085132.9849288,1.820046173,-0.0827505961060524,0.5944923162460327,1.439378261566162,0.0013422331539914012,0.9656888246536255,-0.06538593024015427,5.664119906201347e-15,3.63201544442129e-15,1.0785023819043118e-15,2.223419770169886e-15,-2.1094237467877974e-15,1.9528029079175042e-15,-0.0827505961060524,0.5944923162460327,1.439378261566162,0.0013422331539914012,0.9656888246536255,-0.06538593024015427,0.0,0.0,0.0,0.0,0.0,0.0,0.0,0.0,0.0,0.0,0.0,0.0,2.888701152162687e-13,9.662976111802001,-4.8569988485811795,-0.2816843231760747,-0.017703138636823566,0.00029735137903589724,0.3314458914364407,-0.027416944849338192,0.2612813745377325,0.3314303996976024,-0.027429485764927,0.26128520424252627,0.0,0.0,0.0,0
1773085133.0050004,1.840118006,-0.0827505961060524,0.5944923162460327,1.439378261566162,0.0013422331539914012,0.9656888246536255,-0.06538593024015427,5.664119906201347e-15,3.63201544442129e-15,1.0785023819043118e-15,2.223419770169886e-15,-2.1094237467877974e-15,1.9528029079175042e-15,-0.0827505961060524,0.5944923162460327,1.439378261566162,0.0013422331539914012,0.9656888246536255,-0.06538593024015427,0.0,0.0,0.0,0.0,0.0,0.0,0.0,0.0,0.0,0.0,0.0,0.0,2.888701152162687e-13,9.662976111802001,-4.8569988485811795,-0.2816843231760747,-0.017703138636823566,0.00029735137903589724,0.3314458914364407,-0.027416944849338192,0.2612813745377325,0.3314303996976024,-0.027429485764927,0.26128520424252627,0.0,0.0,0.0,0
1773085133.025076,1.860193532,-0.0827505961060524,0.5944923162460327,1.439378261566162,0.0013422331539914012,0.9656888246536255,-0.06538593024015427,5.664119906201347e-15,3.63201544442129e-15,1.0785023819043118e-15,2.223419770169886e-15,-2.1094237467877974e-15,1.9528029079175042e-15,-0.0827505961060524,0.5944923162460327,1.439378261566162,0.0013422331539914012,0.9656888246536255,-0.06538593024015427,0.0,0.0,0.0,0.0,0.0,0.0,0.0,0.0,0.0,0.0,0.0,0.0,2.888701152162687e-13,9.662976111802001,-4.8569988485811795,-0.2816843231760747,-0.017703138636823566,0.00029735137903589724,0.3314458914364407,-0.027416944849338192,0.2612813745377325,0.3314303996976024,-0.027429485764927,0.26128520424252627,0.0,0.0,0.0,0
1773085133.045473,1.880590448,-0.0827505961060524,0.5944923162460327,1.439378261566162,0.0013422331539914012,0.9656888246536255,-0.06538593024015427,5.664119906201347e-15,3.63201544442129e-15,1.0785023819043118e-15,2.223419770169886e-15,-2.1094237467877974e-15,1.9528029079175042e-15,-0.0827505961060524,0.5944923162460327,1.439378261566162,0.0013422331539914012,0.9656888246536255,-0.06538593024015427,0.0,0.0,0.0,0.0,0.0,0.0,0.0,0.0,0.0,0.0,0.0,0.0,2.888701152162687e-13,9.662976111802001,-4.8569988485811795,-0.2816843231760747,-0.017703138636823566,0.00029735137903589724,0.3314458914364407,-0.027416944849338192,0.2612813745377325,0.3314303996976024,-0.027429485764927,0.26128520424252627,0.0,0.0,0.0,0
1773085133.065006,1.900123494,-0.0827505961060524,0.5944923162460327,1.439378261566162,0.0013422331539914012,0.9656888246536255,-0.06538593024015427,5.664119906201347e-15,3.63201544442129e-15,1.0785023819043118e-15,2.223419770169886e-15,-2.1094237467877974e-15,1.9528029079175042e-15,-0.0827505961060524,0.5944923162460327,1.439378261566162,0.0013422331539914012,0.9656888246536255,-0.06538593024015427,0.0,0.0,0.0,0.0,0.0,0.0,0.0,0.0,0.0,0.0,0.0,0.0,2.888701152162687e-13,9.662976111802001,-4.8569988485811795,-0.2816843231760747,-0.017703138636823566,0.00029735137903589724,0.3314458914364407,-0.027416944849338192,0.2612813745377325,0.3314303996976024,-0.027429485764927,0.26128520424252627,0.0,0.0,0.0,0
1773085133.0848975,1.920015076,-0.0827505961060524,0.5944923162460327,1.439378261566162,0.0013422331539914012,0.9656888246536255,-0.06538593024015427,5.664119906201347e-15,3.63201544442129e-15,1.0785023819043118e-15,2.223419770169886e-15,-2.1094237467877974e-15,1.9528029079175042e-15,-0.0827505961060524,0.5944923162460327,1.439378261566162,0.0013422331539914012,0.9656888246536255,-0.06538593024015427,0.0,0.0,0.0,0.0,0.0,0.0,0.0,0.0,0.0,0.0,0.0,0.0,2.888701152162687e-13,9.662976111802001,-4.8569988485811795,-0.2816843231760747,-0.017703138636823566,0.00029735137903589724,0.3314458914364407,-0.027416944849338192,0.2612813745377325,0.3314303996976024,-0.027429485764927,0.26128520424252627,0.0,0.0,0.0,0
1773085133.1049027,1.940020285,-0.0827505961060524,0.5944923162460327,1.439378261566162,0.0013422331539914012,0.9656888246536255,-0.06538593024015427,5.664119906201347e-15,3.63201544442129e-15,1.0785023819043118e-15,2.223419770169886e-15,-2.1094237467877974e-15,1.9528029079175042e-15,-0.0827505961060524,0.5944923162460327,1.439378261566162,0.0013422331539914012,0.9656888246536255,-0.06538593024015427,0.0,0.0,0.0,0.0,0.0,0.0,0.0,0.0,0.0,0.0,0.0,0.0,2.888701152162687e-13,9.662976111802001,-4.8569988485811795,-0.2816843231760747,-0.017703138636823566,0.00029735137903589724,0.3314458914364407,-0.027416944849338192,0.2612813745377325,0.3314303996976024,-0.027429485764927,0.26128520424252627,0.0,0.0,0.0,0
1773085133.1249382,1.96005582,-0.0827505961060524,0.5944923162460327,1.439378261566162,0.0013422331539914012,0.9656888246536255,-0.06538593024015427,5.664119906201347e-15,3.63201544442129e-15,1.0785023819043118e-15,2.223419770169886e-15,-2.1094237467877974e-15,1.9528029079175042e-15,-0.0827505961060524,0.5944923162460327,1.439378261566162,0.0013422331539914012,0.9656888246536255,-0.06538593024015427,0.0,0.0,0.0,0.0,0.0,0.0,0.0,0.0,0.0,0.0,0.0,0.0,2.888701152162687e-13,9.662976111802001,-4.8569988485811795,-0.2816843231760747,-0.017703138636823566,0.00029735137903589724,0.3314458914364407,-0.027416944849338192,0.2612813745377325,0.3314303996976024,-0.027429485764927,0.26128520424252627,0.0,0.0,0.0,0
1773085133.1450007,1.980118299,-0.0827505961060524,0.5944923162460327,1.439378261566162,0.0013422331539914012,0.9656888246536255,-0.06538593024015427,5.664119906201347e-15,3.63201544442129e-15,1.0785023819043118e-15,2.223419770169886e-15,-2.1094237467877974e-15,1.9528029079175042e-15,-0.0827505961060524,0.5944923162460327,1.439378261566162,0.0013422331539914012,0.9656888246536255,-0.06538593024015427,0.0,0.0,0.0,0.0,0.0,0.0,0.0,0.0,0.0,0.0,0.0,0.0,2.888701152162687e-13,9.662976111802001,-4.8569988485811795,-0.2816843231760747,-0.017703138636823566,0.00029735137903589724,0.3314458914364407,-0.027416944849338192,0.2612813745377325,0.3314303996976024,-0.027429485764927,0.26128520424252627,0.0,0.0,0.0,0
1773085133.165042,2.000159451,-0.0827505961060524,0.5944923162460327,1.439378261566162,0.0013422331539914012,0.9656888246536255,-0.06538593024015427,5.664119906201347e-15,3.63201544442129e-15,1.0785023819043118e-15,2.223419770169886e-15,-2.1094237467877974e-15,1.9528029079175042e-15,-0.0827505961060524,0.5944923162460327,1.439378261566162,0.0013422331539914012,0.9656888246536255,-0.06538593024015427,0.0,0.0,0.0,0.0,0.0,0.0,0.0,0.0,0.0,0.0,0.0,0.0,2.888701152162687e-13,9.662976111802001,-4.8569988485811795,-0.2816843231760747,-0.017703138636823566,0.00029735137903589724,0.3314458914364407,-0.027416944849338192,0.2612813745377325,0.3314303996976024,-0.027429485764927,0.26128520424252627,0.0,0.0,0.0,0
1773085133.1850576,2.020175006,-0.0827505961060524,0.5944923162460327,1.439378261566162,0.0013422331539914012,0.9656888246536255,-0.06538593024015427,5.664119906201347e-15,3.63201544442129e-15,1.0785023819043118e-15,2.223419770169886e-15,-2.1094237467877974e-15,1.9528029079175042e-15,-0.0827505961060524,0.5944923162460327,1.439378261566162,0.0013422331539914012,0.9656888246536255,-0.06538593024015427,0.0,0.0,0.0,0.0,0.0,0.0,0.0,0.0,0.0,0.0,0.0,0.0,2.888701152162687e-13,9.662976111802001,-4.8569988485811795,-0.2816843231760747,-0.017703138636823566,0.00029735137903589724,0.3314458914364407,-0.027416944849338192,0.2612813745377325,0.3314303996976024,-0.027429485764927,0.26128520424252627,0.0,0.0,0.0,0
1773085133.2049258,2.040043139,-0.0827505961060524,0.5944923162460327,1.439378261566162,0.0013422331539914012,0.9656888246536255,-0.06538593024015427,5.664119906201347e-15,3.63201544442129e-15,1.0785023819043118e-15,2.223419770169886e-15,-2.1094237467877974e-15,1.9528029079175042e-15,-0.0827505961060524,0.5944923162460327,1.439378261566162,0.0013422331539914012,0.9656888246536255,-0.06538593024015427,0.0,0.0,0.0,0.0,0.0,0.0,0.0,0.0,0.0,0.0,0.0,0.0,2.888701152162687e-13,9.662976111802001,-4.8569988485811795,-0.2816843231760747,-0.017703138636823566,0.00029735137903589724,0.3314458914364407,-0.027416944849338192,0.2612813745377325,0.3314303996976024,-0.027429485764927,0.26128520424252627,0.0,0.0,0.0,0
1773085133.2251465,2.060264106,-0.0827505961060524,0.5944923162460327,1.439378261566162,0.0013422331539914012,0.9656888246536255,-0.06538593024015427,5.664119906201347e-15,3.63201544442129e-15,1.0785023819043118e-15,2.223419770169886e-15,-2.1094237467877974e-15,1.9528029079175042e-15,-0.0827505961060524,0.5944923162460327,1.439378261566162,0.0013422331539914012,0.9656888246536255,-0.06538593024015427,0.0,0.0,0.0,0.0,0.0,0.0,0.0,0.0,0.0,0.0,0.0,0.0,2.888701152162687e-13,9.662976111802001,-4.8569988485811795,-0.2816843231760747,-0.017703138636823566,0.00029735137903589724,0.3314458914364407,-0.027416944849338192,0.2612813745377325,0.3314303996976024,-0.027429485764927,0.26128520424252627,0.0,0.0,0.0,0
1773085133.2449086,2.080026148,-0.0827505961060524,0.5944923162460327,1.439378261566162,0.0013422331539914012,0.9656888246536255,-0.06538593024015427,5.664119906201347e-15,3.63201544442129e-15,1.0785023819043118e-15,2.223419770169886e-15,-2.1094237467877974e-15,1.9528029079175042e-15,-0.0827505961060524,0.5944923162460327,1.439378261566162,0.0013422331539914012,0.9656888246536255,-0.06538593024015427,0.0,0.0,0.0,0.0,0.0,0.0,0.0,0.0,0.0,0.0,0.0,0.0,2.888701152162687e-13,9.662976111802001,-4.8569988485811795,-0.2816843231760747,-0.017703138636823566,0.00029735137903589724,0.3314458914364407,-0.027416944849338192,0.2612813745377325,0.3314303996976024,-0.027429485764927,0.26128520424252627,0.0,0.0,0.0,0
1773085133.2651246,2.100242096,-0.0827505961060524,0.5944923162460327,1.439378261566162,0.0013422331539914012,0.9656888246536255,-0.06538593024015427,5.664119906201347e-15,3.63201544442129e-15,1.0785023819043118e-15,2.223419770169886e-15,-2.1094237467877974e-15,1.9528029079175042e-15,-0.0827505961060524,0.5944923162460327,1.439378261566162,0.0013422331539914012,0.9656888246536255,-0.06538593024015427,0.0,0.0,0.0,0.0,0.0,0.0,0.0,0.0,0.0,0.0,0.0,0.0,2.888701152162687e-13,9.662976111802001,-4.8569988485811795,-0.2816843231760747,-0.017703138636823566,0.00029735137903589724,0.3314458914364407,-0.027416944849338192,0.2612813745377325,0.3314303996976024,-0.027429485764927,0.26128520424252627,0.0,0.0,0.0,0
1773085133.2849457,2.120063208,-0.0827505961060524,0.5944923162460327,1.439378261566162,0.0013422331539914012,0.9656888246536255,-0.06538593024015427,5.664119906201347e-15,3.63201544442129e-15,1.0785023819043118e-15,2.223419770169886e-15,-2.1094237467877974e-15,1.9528029079175042e-15,-0.0827505961060524,0.5944923162460327,1.439378261566162,0.0013422331539914012,0.9656888246536255,-0.06538593024015427,0.0,0.0,0.0,0.0,0.0,0.0,0.0,0.0,0.0,0.0,0.0,0.0,2.888701152162687e-13,9.662976111802001,-4.8569988485811795,-0.2816843231760747,-0.017703138636823566,0.00029735137903589724,0.3314458914364407,-0.027416944849338192,0.2612813745377325,0.3314303996976024,-0.027429485764927,0.26128520424252627,0.0,0.0,0.0,0
1773085133.3049572,2.140074656,-0.0827505961060524,0.5944923162460327,1.439378261566162,0.0013422331539914012,0.9656888246536255,-0.06538593024015427,5.664119906201347e-15,3.63201544442129e-15,1.0785023819043118e-15,2.223419770169886e-15,-2.1094237467877974e-15,1.9528029079175042e-15,-0.0827505961060524,0.5944923162460327,1.439378261566162,0.0013422331539914012,0.9656888246536255,-0.06538593024015427,0.0,0.0,0.0,0.0,0.0,0.0,0.0,0.0,0.0,0.0,0.0,0.0,2.888701152162687e-13,9.662976111802001,-4.8569988485811795,-0.2816843231760747,-0.017703138636823566,0.00029735137903589724,0.3314458914364407,-0.027416944849338192,0.2612813745377325,0.3314303996976024,-0.027429485764927,0.26128520424252627,0.0,0.0,0.0,0
1773085133.3249457,2.16006313,-0.0827505961060524,0.5944923162460327,1.439378261566162,0.0013422331539914012,0.9656888246536255,-0.06538593024015427,5.664119906201347e-15,3.63201544442129e-15,1.0785023819043118e-15,2.223419770169886e-15,-2.1094237467877974e-15,1.9528029079175042e-15,-0.0827505961060524,0.5944923162460327,1.439378261566162,0.0013422331539914012,0.9656888246536255,-0.06538593024015427,0.0,0.0,0.0,0.0,0.0,0.0,0.0,0.0,0.0,0.0,0.0,0.0,2.888701152162687e-13,9.662976111802001,-4.8569988485811795,-0.2816843231760747,-0.017703138636823566,0.00029735137903589724,0.3314458914364407,-0.027416944849338192,0.2612813745377325,0.3314303996976024,-0.027429485764927,0.26128520424252627,0.0,0.0,0.0,0
1773085133.3448896,2.180007191,-0.0827505961060524,0.5944923162460327,1.439378261566162,0.0013422331539914012,0.9656888246536255,-0.06538593024015427,5.664119906201347e-15,3.63201544442129e-15,1.0785023819043118e-15,2.223419770169886e-15,-2.1094237467877974e-15,1.9528029079175042e-15,-0.0827505961060524,0.5944923162460327,1.439378261566162,0.0013422331539914012,0.9656888246536255,-0.06538593024015427,0.0,0.0,0.0,0.0,0.0,0.0,0.0,0.0,0.0,0.0,0.0,0.0,2.888701152162687e-13,9.662976111802001,-4.8569988485811795,-0.2816843231760747,-0.017703138636823566,0.00029735137903589724,0.3314458914364407,-0.027416944849338192,0.2612813745377325,0.3314303996976024,-0.027429485764927,0.26128520424252627,0.0,0.0,0.0,0
1773085133.3648806,2.199998138,-0.0827505961060524,0.5944923162460327,1.439378261566162,0.0013422331539914012,0.9656888246536255,-0.06538593024015427,5.664119906201347e-15,3.63201544442129e-15,1.0785023819043118e-15,2.223419770169886e-15,-2.1094237467877974e-15,1.9528029079175042e-15,-0.0827505961060524,0.5944923162460327,1.439378261566162,0.0013422331539914012,0.9656888246536255,-0.06538593024015427,0.0,0.0,0.0,0.0,0.0,0.0,0.0,0.0,0.0,0.0,0.0,0.0,2.888701152162687e-13,9.662976111802001,-4.8569988485811795,-0.2816843231760747,-0.017703138636823566,0.00029735137903589724,0.3314458914364407,-0.027416944849338192,0.2612813745377325,0.3314303996976024,-0.027429485764927,0.26128520424252627,0.0,0.0,0.0,0
1773085133.385047,2.22016455,-0.0827505961060524,0.5944923162460327,1.439378261566162,0.0013422331539914012,0.9656888246536255,-0.06538593024015427,5.664119906201347e-15,3.63201544442129e-15,1.0785023819043118e-15,2.223419770169886e-15,-2.1094237467877974e-15,1.9528029079175042e-15,-0.0827505961060524,0.5944923162460327,1.439378261566162,0.0013422331539914012,0.9656888246536255,-0.06538593024015427,0.0,0.0,0.0,0.0,0.0,0.0,0.0,0.0,0.0,0.0,0.0,0.0,2.888701152162687e-13,9.662976111802001,-4.8569988485811795,-0.2816843231760747,-0.017703138636823566,0.00029735137903589724,0.3314458914364407,-0.027416944849338192,0.2612813745377325,0.3314303996976024,-0.027429485764927,0.26128520424252627,0.0,0.0,0.0,0
1773085133.4049041,2.240021626,-0.0827505961060524,0.5944923162460327,1.439378261566162,0.0013422331539914012,0.9656888246536255,-0.06538593024015427,5.664119906201347e-15,3.63201544442129e-15,1.0785023819043118e-15,2.223419770169886e-15,-2.1094237467877974e-15,1.9528029079175042e-15,-0.0827505961060524,0.5944923162460327,1.439378261566162,0.0013422331539914012,0.9656888246536255,-0.06538593024015427,0.0,0.0,0.0,0.0,0.0,0.0,0.0,0.0,0.0,0.0,0.0,0.0,2.888701152162687e-13,9.662976111802001,-4.8569988485811795,-0.2816843231760747,-0.017703138636823566,0.00029735137903589724,0.3314458914364407,-0.027416944849338192,0.2612813745377325,0.3314303996976024,-0.027429485764927,0.26128520424252627,0.0,0.0,0.0,0
1773085133.4249296,2.260047123,-0.0827505961060524,0.5944923162460327,1.439378261566162,0.0013422331539914012,0.9656888246536255,-0.06538593024015427,5.664119906201347e-15,3.63201544442129e-15,1.0785023819043118e-15,2.223419770169886e-15,-2.1094237467877974e-15,1.9528029079175042e-15,-0.0827505961060524,0.5944923162460327,1.439378261566162,0.0013422331539914012,0.9656888246536255,-0.06538593024015427,0.0,0.0,0.0,0.0,0.0,0.0,0.0,0.0,0.0,0.0,0.0,0.0,2.888701152162687e-13,9.662976111802001,-4.8569988485811795,-0.2816843231760747,-0.017703138636823566,0.00029735137903589724,0.3314458914364407,-0.027416944849338192,0.2612813745377325,0.3314303996976024,-0.027429485764927,0.26128520424252627,0.0,0.0,0.0,0
1773085133.4449332,2.280050713,-0.0827505961060524,0.5944923162460327,1.439378261566162,0.0013422331539914012,0.9656888246536255,-0.06538593024015427,5.664119906201347e-15,3.63201544442129e-15,1.0785023819043118e-15,2.223419770169886e-15,-2.1094237467877974e-15,1.9528029079175042e-15,-0.0827505961060524,0.5944923162460327,1.439378261566162,0.0013422331539914012,0.9656888246536255,-0.06538593024015427,0.0,0.0,0.0,0.0,0.0,0.0,0.0,0.0,0.0,0.0,0.0,0.0,2.888701152162687e-13,9.662976111802001,-4.8569988485811795,-0.2816843231760747,-0.017703138636823566,0.00029735137903589724,0.3314458914364407,-0.027416944849338192,0.2612813745377325,0.3314303996976024,-0.027429485764927,0.26128520424252627,0.0,0.0,0.0,0
1773085133.464906,2.300023453,-0.0827505961060524,0.5944923162460327,1.439378261566162,0.0013422331539914012,0.9656888246536255,-0.06538593024015427,5.664119906201347e-15,3.63201544442129e-15,1.0785023819043118e-15,2.223419770169886e-15,-2.1094237467877974e-15,1.9528029079175042e-15,-0.0827505961060524,0.5944923162460327,1.439378261566162,0.0013422331539914012,0.9656888246536255,-0.06538593024015427,0.0,0.0,0.0,0.0,0.0,0.0,0.0,0.0,0.0,0.0,0.0,0.0,2.888701152162687e-13,9.662976111802001,-4.8569988485811795,-0.2816843231760747,-0.017703138636823566,0.00029735137903589724,0.3314458914364407,-0.027416944849338192,0.2612813745377325,0.3314303996976024,-0.027429485764927,0.26128520424252627,0.0,0.0,0.0,0
1773085133.48491,2.320027717,-0.0827505961060524,0.5944923162460327,1.439378261566162,0.0013422331539914012,0.9656888246536255,-0.06538593024015427,5.664119906201347e-15,3.63201544442129e-15,1.0785023819043118e-15,2.223419770169886e-15,-2.1094237467877974e-15,1.9528029079175042e-15,-0.0827505961060524,0.5944923162460327,1.439378261566162,0.0013422331539914012,0.9656888246536255,-0.06538593024015427,0.0,0.0,0.0,0.0,0.0,0.0,0.0,0.0,0.0,0.0,0.0,0.0,2.888701152162687e-13,9.662976111802001,-4.8569988485811795,-0.2816843231760747,-0.017703138636823566,0.00029735137903589724,0.3314458914364407,-0.027416944849338192,0.2612813745377325,0.3314303996976024,-0.027429485764927,0.26128520424252627,0.0,0.0,0.0,0
1773085133.504849,2.339966387,-0.0827505961060524,0.5944923162460327,1.439378261566162,0.0013422331539914012,0.9656888246536255,-0.06538593024015427,5.664119906201347e-15,3.63201544442129e-15,1.0785023819043118e-15,2.223419770169886e-15,-2.1094237467877974e-15,1.9528029079175042e-15,-0.0827505961060524,0.5944923162460327,1.439378261566162,0.0013422331539914012,0.9656888246536255,-0.06538593024015427,0.0,0.0,0.0,0.0,0.0,0.0,0.0,0.0,0.0,0.0,0.0,0.0,2.888701152162687e-13,9.662976111802001,-4.8569988485811795,-0.2816843231760747,-0.017703138636823566,0.00029735137903589724,0.3314458914364407,-0.027416944849338192,0.2612813745377325,0.3314303996976024,-0.027429485764927,0.26128520424252627,0.0,0.0,0.0,0
1773085133.5252583,2.360375886,-0.0827505961060524,0.5944923162460327,1.439378261566162,0.0013422331539914012,0.9656888246536255,-0.06538593024015427,5.664119906201347e-15,3.63201544442129e-15,1.0785023819043118e-15,2.223419770169886e-15,-2.1094237467877974e-15,1.9528029079175042e-15,-0.0827505961060524,0.5944923162460327,1.439378261566162,0.0013422331539914012,0.9656888246536255,-0.06538593024015427,0.0,0.0,0.0,0.0,0.0,0.0,0.0,0.0,0.0,0.0,0.0,0.0,2.888701152162687e-13,9.662976111802001,-4.8569988485811795,-0.2816843231760747,-0.017703138636823566,0.00029735137903589724,0.3314458914364407,-0.027416944849338192,0.2612813745377325,0.3314303996976024,-0.027429485764927,0.26128520424252627,0.0,0.0,0.0,0
1773085133.5448937,2.380011121,-0.0827505961060524,0.5944923162460327,1.439378261566162,0.0013422331539914012,0.9656888246536255,-0.06538593024015427,5.664119906201347e-15,3.63201544442129e-15,1.0785023819043118e-15,2.223419770169886e-15,-2.1094237467877974e-15,1.9528029079175042e-15,-0.0827505961060524,0.5944923162460327,1.439378261566162,0.0013422331539914012,0.9656888246536255,-0.06538593024015427,0.0,0.0,0.0,0.0,0.0,0.0,0.0,0.0,0.0,0.0,0.0,0.0,2.888701152162687e-13,9.662976111802001,-4.8569988485811795,-0.2816843231760747,-0.017703138636823566,0.00029735137903589724,0.3314458914364407,-0.027416944849338192,0.2612813745377325,0.3314303996976024,-0.027429485764927,0.26128520424252627,0.0,0.0,0.0,0
1773085133.5650864,2.400203975,-0.0827505961060524,0.5944923162460327,1.439378261566162,0.0013422331539914012,0.9656888246536255,-0.06538593024015427,5.664119906201347e-15,3.63201544442129e-15,1.0785023819043118e-15,2.223419770169886e-15,-2.1094237467877974e-15,1.9528029079175042e-15,-0.0827505961060524,0.5944923162460327,1.439378261566162,0.0013422331539914012,0.9656888246536255,-0.06538593024015427,0.0,0.0,0.0,0.0,0.0,0.0,0.0,0.0,0.0,0.0,0.0,0.0,2.888701152162687e-13,9.662976111802001,-4.8569988485811795,-0.2816843231760747,-0.017703138636823566,0.00029735137903589724,0.3314458914364407,-0.027416944849338192,0.2612813745377325,0.3314303996976024,-0.027429485764927,0.26128520424252627,0.0,0.0,0.0,0
1773085133.5849314,2.420048778,-0.0827505961060524,0.5944923162460327,1.439378261566162,0.0013422331539914012,0.9656888246536255,-0.06538593024015427,5.664119906201347e-15,3.63201544442129e-15,1.0785023819043118e-15,2.223419770169886e-15,-2.1094237467877974e-15,1.9528029079175042e-15,-0.0827505961060524,0.5944923162460327,1.439378261566162,0.0013422331539914012,0.9656888246536255,-0.06538593024015427,0.0,0.0,0.0,0.0,0.0,0.0,0.0,0.0,0.0,0.0,0.0,0.0,2.888701152162687e-13,9.662976111802001,-4.8569988485811795,-0.2816843231760747,-0.017703138636823566,0.00029735137903589724,0.3314458914364407,-0.027416944849338192,0.2612813745377325,0.3314303996976024,-0.027429485764927,0.26128520424252627,0.0,0.0,0.0,0
1773085133.604892,2.440009388,-0.0827505961060524,0.5944923162460327,1.439378261566162,0.0013422331539914012,0.9656888246536255,-0.06538593024015427,5.664119906201347e-15,3.63201544442129e-15,1.0785023819043118e-15,2.223419770169886e-15,-2.1094237467877974e-15,1.9528029079175042e-15,-0.0827505961060524,0.5944923162460327,1.439378261566162,0.0013422331539914012,0.9656888246536255,-0.06538593024015427,0.0,0.0,0.0,0.0,0.0,0.0,0.0,0.0,0.0,0.0,0.0,0.0,2.888701152162687e-13,9.662976111802001,-4.8569988485811795,-0.2816843231760747,-0.017703138636823566,0.00029735137903589724,0.3314458914364407,-0.027416944849338192,0.2612813745377325,0.3314303996976024,-0.027429485764927,0.26128520424252627,0.0,0.0,0.0,0
1773085133.6250012,2.460118718,-0.0827505961060524,0.5944923162460327,1.439378261566162,0.0013422331539914012,0.9656888246536255,-0.06538593024015427,5.664119906201347e-15,3.63201544442129e-15,1.0785023819043118e-15,2.223419770169886e-15,-2.1094237467877974e-15,1.9528029079175042e-15,-0.0827505961060524,0.5944923162460327,1.439378261566162,0.0013422331539914012,0.9656888246536255,-0.06538593024015427,0.0,0.0,0.0,0.0,0.0,0.0,0.0,0.0,0.0,0.0,0.0,0.0,2.888701152162687e-13,9.662976111802001,-4.8569988485811795,-0.2816843231760747,-0.017703138636823566,0.00029735137903589724,0.3314458914364407,-0.027416944849338192,0.2612813745377325,0.3314303996976024,-0.027429485764927,0.26128520424252627,0.0,0.0,0.0,0
1773085133.6450596,2.480177092,-0.0827505961060524,0.5944923162460327,1.439378261566162,0.0013422331539914012,0.9656888246536255,-0.06538593024015427,5.664119906201347e-15,3.63201544442129e-15,1.0785023819043118e-15,2.223419770169886e-15,-2.1094237467877974e-15,1.9528029079175042e-15,-0.0827505961060524,0.5944923162460327,1.439378261566162,0.0013422331539914012,0.9656888246536255,-0.06538593024015427,0.0,0.0,0.0,0.0,0.0,0.0,0.0,0.0,0.0,0.0,0.0,0.0,2.888701152162687e-13,9.662976111802001,-4.8569988485811795,-0.2816843231760747,-0.017703138636823566,0.00029735137903589724,0.3314458914364407,-0.027416944849338192,0.2612813745377325,0.3314303996976024,-0.027429485764927,0.26128520424252627,0.0,0.0,0.0,0
1773085133.664885,2.500002522,-0.0827505961060524,0.5944923162460327,1.439378261566162,0.0013422331539914012,0.9656888246536255,-0.06538593024015427,5.664119906201347e-15,3.63201544442129e-15,1.0785023819043118e-15,2.223419770169886e-15,-2.1094237467877974e-15,1.9528029079175042e-15,-0.0827505961060524,0.5944923162460327,1.439378261566162,0.0013422331539914012,0.9656888246536255,-0.06538593024015427,0.0,0.0,0.0,0.0,0.0,0.0,0.0,0.0,0.0,0.0,0.0,0.0,2.888701152162687e-13,9.662976111802001,-4.8569988485811795,-0.2816843231760747,-0.017703138636823566,0.00029735137903589724,0.3314458914364407,-0.027416944849338192,0.2612813745377325,0.3314303996976024,-0.027429485764927,0.26128520424252627,0.0,0.0,0.0,0
1773085133.6849327,2.520050038,-0.0827505961060524,0.5944923162460327,1.439378261566162,0.0013422331539914012,0.9656888246536255,-0.06538593024015427,5.664119906201347e-15,3.63201544442129e-15,1.0785023819043118e-15,2.223419770169886e-15,-2.1094237467877974e-15,1.9528029079175042e-15,-0.0827505961060524,0.5944923162460327,1.439378261566162,0.0013422331539914012,0.9656888246536255,-0.06538593024015427,0.0,0.0,0.0,0.0,0.0,0.0,0.0,0.0,0.0,0.0,0.0,0.0,2.888701152162687e-13,9.662976111802001,-4.8569988485811795,-0.2816843231760747,-0.017703138636823566,0.00029735137903589724,0.3314458914364407,-0.027416944849338192,0.2612813745377325,0.3314303996976024,-0.027429485764927,0.26128520424252627,0.0,0.0,0.0,0
1773085133.7049272,2.540044845,-0.0827505961060524,0.5944923162460327,1.439378261566162,0.0013422331539914012,0.9656888246536255,-0.06538593024015427,5.664119906201347e-15,3.63201544442129e-15,1.0785023819043118e-15,2.223419770169886e-15,-2.1094237467877974e-15,1.9528029079175042e-15,-0.0827505961060524,0.5944923162460327,1.439378261566162,0.0013422331539914012,0.9656888246536255,-0.06538593024015427,0.0,0.0,0.0,0.0,0.0,0.0,0.0,0.0,0.0,0.0,0.0,0.0,2.888701152162687e-13,9.662976111802001,-4.8569988485811795,-0.2816843231760747,-0.017703138636823566,0.00029735137903589724,0.3314458914364407,-0.027416944849338192,0.2612813745377325,0.3314303996976024,-0.027429485764927,0.26128520424252627,0.0,0.0,0.0,0
1773085133.7249296,2.560046943,-0.0827505961060524,0.5944923162460327,1.439378261566162,0.0013422331539914012,0.9656888246536255,-0.06538593024015427,5.664119906201347e-15,3.63201544442129e-15,1.0785023819043118e-15,2.223419770169886e-15,-2.1094237467877974e-15,1.9528029079175042e-15,-0.0827505961060524,0.5944923162460327,1.439378261566162,0.0013422331539914012,0.9656888246536255,-0.06538593024015427,0.0,0.0,0.0,0.0,0.0,0.0,0.0,0.0,0.0,0.0,0.0,0.0,2.888701152162687e-13,9.662976111802001,-4.8569988485811795,-0.2816843231760747,-0.017703138636823566,0.00029735137903589724,0.3314458914364407,-0.027416944849338192,0.2612813745377325,0.3314303996976024,-0.027429485764927,0.26128520424252627,0.0,0.0,0.0,0
1773085133.7449243,2.580041809,-0.0827505961060524,0.5944923162460327,1.439378261566162,0.0013422331539914012,0.9656888246536255,-0.06538593024015427,5.664119906201347e-15,3.63201544442129e-15,1.0785023819043118e-15,2.223419770169886e-15,-2.1094237467877974e-15,1.9528029079175042e-15,-0.0827505961060524,0.5944923162460327,1.439378261566162,0.0013422331539914012,0.9656888246536255,-0.06538593024015427,0.0,0.0,0.0,0.0,0.0,0.0,0.0,0.0,0.0,0.0,0.0,0.0,2.888701152162687e-13,9.662976111802001,-4.8569988485811795,-0.2816843231760747,-0.017703138636823566,0.00029735137903589724,0.3314458914364407,-0.027416944849338192,0.2612813745377325,0.3314303996976024,-0.027429485764927,0.26128520424252627,0.0,0.0,0.0,0
1773085133.7649014,2.600018997,-0.0827505961060524,0.5944923162460327,1.439378261566162,0.0013422331539914012,0.9656888246536255,-0.06538593024015427,5.664119906201347e-15,3.63201544442129e-15,1.0785023819043118e-15,2.223419770169886e-15,-2.1094237467877974e-15,1.9528029079175042e-15,-0.0827505961060524,0.5944923162460327,1.439378261566162,0.0013422331539914012,0.9656888246536255,-0.06538593024015427,0.0,0.0,0.0,0.0,0.0,0.0,0.0,0.0,0.0,0.0,0.0,0.0,2.888701152162687e-13,9.662976111802001,-4.8569988485811795,-0.2816843231760747,-0.017703138636823566,0.00029735137903589724,0.3314458914364407,-0.027416944849338192,0.2612813745377325,0.3314303996976024,-0.027429485764927,0.26128520424252627,0.0,0.0,0.0,0
1773085133.784909,2.620026481,-0.0827505961060524,0.5944923162460327,1.439378261566162,0.0013422331539914012,0.9656888246536255,-0.06538593024015427,5.664119906201347e-15,3.63201544442129e-15,1.0785023819043118e-15,2.223419770169886e-15,-2.1094237467877974e-15,1.9528029079175042e-15,-0.0827505961060524,0.5944923162460327,1.439378261566162,0.0013422331539914012,0.9656888246536255,-0.06538593024015427,0.0,0.0,0.0,0.0,0.0,0.0,0.0,0.0,0.0,0.0,0.0,0.0,2.888701152162687e-13,9.662976111802001,-4.8569988485811795,-0.2816843231760747,-0.017703138636823566,0.00029735137903589724,0.3314458914364407,-0.027416944849338192,0.2612813745377325,0.3314303996976024,-0.027429485764927,0.26128520424252627,0.0,0.0,0.0,0
1773085133.804918,2.640035461,-0.0827505961060524,0.5944923162460327,1.439378261566162,0.0013422331539914012,0.9656888246536255,-0.06538593024015427,5.664119906201347e-15,3.63201544442129e-15,1.0785023819043118e-15,2.223419770169886e-15,-2.1094237467877974e-15,1.9528029079175042e-15,-0.0827505961060524,0.5944923162460327,1.439378261566162,0.0013422331539914012,0.9656888246536255,-0.06538593024015427,0.0,0.0,0.0,0.0,0.0,0.0,0.0,0.0,0.0,0.0,0.0,0.0,2.888701152162687e-13,9.662976111802001,-4.8569988485811795,-0.2816843231760747,-0.017703138636823566,0.00029735137903589724,0.3314458914364407,-0.027416944849338192,0.2612813745377325,0.3314303996976024,-0.027429485764927,0.26128520424252627,0.0,0.0,0.0,0
1773085133.8249302,2.660047709,-0.0827505961060524,0.5944923162460327,1.439378261566162,0.0013422331539914012,0.9656888246536255,-0.06538593024015427,5.664119906201347e-15,3.63201544442129e-15,1.0785023819043118e-15,2.223419770169886e-15,-2.1094237467877974e-15,1.9528029079175042e-15,-0.0827505961060524,0.5944923162460327,1.439378261566162,0.0013422331539914012,0.9656888246536255,-0.06538593024015427,0.0,0.0,0.0,0.0,0.0,0.0,0.0,0.0,0.0,0.0,0.0,0.0,2.888701152162687e-13,9.662976111802001,-4.8569988485811795,-0.2816843231760747,-0.017703138636823566,0.00029735137903589724,0.3314458914364407,-0.027416944849338192,0.2612813745377325,0.3314303996976024,-0.027429485764927,0.26128520424252627,0.0,0.0,0.0,0
1773085133.845169,2.680286724,-0.0827505961060524,0.5944923162460327,1.439378261566162,0.0013422331539914012,0.9656888246536255,-0.06538593024015427,5.664119906201347e-15,3.63201544442129e-15,1.0785023819043118e-15,2.223419770169886e-15,-2.1094237467877974e-15,1.9528029079175042e-15,-0.0827505961060524,0.5944923162460327,1.439378261566162,0.0013422331539914012,0.9656888246536255,-0.06538593024015427,0.0,0.0,0.0,0.0,0.0,0.0,0.0,0.0,0.0,0.0,0.0,0.0,2.888701152162687e-13,9.662976111802001,-4.8569988485811795,-0.2816843231760747,-0.017703138636823566,0.00029735137903589724,0.3314458914364407,-0.027416944849338192,0.2612813745377325,0.3314303996976024,-0.027429485764927,0.26128520424252627,0.0,0.0,0.0,0
1773085133.8649228,2.700040408,-0.0827505961060524,0.5944923162460327,1.439378261566162,0.0013422331539914012,0.9656888246536255,-0.06538593024015427,5.664119906201347e-15,3.63201544442129e-15,1.0785023819043118e-15,2.223419770169886e-15,-2.1094237467877974e-15,1.9528029079175042e-15,-0.0827505961060524,0.5944923162460327,1.439378261566162,0.0013422331539914012,0.9656888246536255,-0.06538593024015427,0.0,0.0,0.0,0.0,0.0,0.0,0.0,0.0,0.0,0.0,0.0,0.0,2.888701152162687e-13,9.662976111802001,-4.8569988485811795,-0.2816843231760747,-0.017703138636823566,0.00029735137903589724,0.3314458914364407,-0.027416944849338192,0.2612813745377325,0.3314303996976024,-0.027429485764927,0.26128520424252627,0.0,0.0,0.0,0
1773085133.8849492,2.720066793,-0.0827505961060524,0.5944923162460327,1.439378261566162,0.0013422331539914012,0.9656888246536255,-0.06538593024015427,5.664119906201347e-15,3.63201544442129e-15,1.0785023819043118e-15,2.223419770169886e-15,-2.1094237467877974e-15,1.9528029079175042e-15,-0.0827505961060524,0.5944923162460327,1.439378261566162,0.0013422331539914012,0.9656888246536255,-0.06538593024015427,0.0,0.0,0.0,0.0,0.0,0.0,0.0,0.0,0.0,0.0,0.0,0.0,2.888701152162687e-13,9.662976111802001,-4.8569988485811795,-0.2816843231760747,-0.017703138636823566,0.00029735137903589724,0.3314458914364407,-0.027416944849338192,0.2612813745377325,0.3314303996976024,-0.027429485764927,0.26128520424252627,0.0,0.0,0.0,0
1773085133.904922,2.740039658,-0.0827505961060524,0.5944923162460327,1.439378261566162,0.0013422331539914012,0.9656888246536255,-0.06538593024015427,5.664119906201347e-15,3.63201544442129e-15,1.0785023819043118e-15,2.223419770169886e-15,-2.1094237467877974e-15,1.9528029079175042e-15,-0.0827505961060524,0.5944923162460327,1.439378261566162,0.0013422331539914012,0.9656888246536255,-0.06538593024015427,0.0,0.0,0.0,0.0,0.0,0.0,0.0,0.0,0.0,0.0,0.0,0.0,2.888701152162687e-13,9.662976111802001,-4.8569988485811795,-0.2816843231760747,-0.017703138636823566,0.00029735137903589724,0.3314458914364407,-0.027416944849338192,0.2612813745377325,0.3314303996976024,-0.027429485764927,0.26128520424252627,0.0,0.0,0.0,0
1773085133.9249215,2.760039196,-0.0827505961060524,0.5944923162460327,1.439378261566162,0.0013422331539914012,0.9656888246536255,-0.06538593024015427,5.664119906201347e-15,3.63201544442129e-15,1.0785023819043118e-15,2.223419770169886e-15,-2.1094237467877974e-15,1.9528029079175042e-15,-0.0827505961060524,0.5944923162460327,1.439378261566162,0.0013422331539914012,0.9656888246536255,-0.06538593024015427,0.0,0.0,0.0,0.0,0.0,0.0,0.0,0.0,0.0,0.0,0.0,0.0,2.888701152162687e-13,9.662976111802001,-4.8569988485811795,-0.2816843231760747,-0.017703138636823566,0.00029735137903589724,0.3314458914364407,-0.027416944849338192,0.2612813745377325,0.3314303996976024,-0.027429485764927,0.26128520424252627,0.0,0.0,0.0,0
1773085133.9450104,2.780128014,-0.0827505961060524,0.5944923162460327,1.439378261566162,0.0013422331539914012,0.9656888246536255,-0.06538593024015427,5.664119906201347e-15,3.63201544442129e-15,1.0785023819043118e-15,2.223419770169886e-15,-2.1094237467877974e-15,1.9528029079175042e-15,-0.0827505961060524,0.5944923162460327,1.439378261566162,0.0013422331539914012,0.9656888246536255,-0.06538593024015427,0.0,0.0,0.0,0.0,0.0,0.0,0.0,0.0,0.0,0.0,0.0,0.0,2.888701152162687e-13,9.662976111802001,-4.8569988485811795,-0.2816843231760747,-0.017703138636823566,0.00029735137903589724,0.3314458914364407,-0.027416944849338192,0.2612813745377325,0.3314303996976024,-0.027429485764927,0.26128520424252627,0.0,0.0,0.0,0
1773085133.965058,2.800175529,-0.0827505961060524,0.5944923162460327,1.439378261566162,0.0013422331539914012,0.9656888246536255,-0.06538593024015427,5.664119906201347e-15,3.63201544442129e-15,1.0785023819043118e-15,2.223419770169886e-15,-2.1094237467877974e-15,1.9528029079175042e-15,-0.0827505961060524,0.5944923162460327,1.439378261566162,0.0013422331539914012,0.9656888246536255,-0.06538593024015427,0.0,0.0,0.0,0.0,0.0,0.0,0.0,0.0,0.0,0.0,0.0,0.0,2.888701152162687e-13,9.662976111802001,-4.8569988485811795,-0.2816843231760747,-0.017703138636823566,0.00029735137903589724,0.3314458914364407,-0.027416944849338192,0.2612813745377325,0.3314303996976024,-0.027429485764927,0.26128520424252627,0.0,0.0,0.0,0
